P3
400 225
255
220 235 255
220 235 255
220 235 255
220 235 255
220 235 255
220 235 255
220 235 255
220 235 255
220 235 255
220 235 255
220 235 255
220 235 255
220 235 255
220 235 255
220 235 255
220 235 255
220 235 255
220 235 255
220 235 255
220 235 255
220 235 255
220 235 255
220 235 255
220 235 255
220 235 255
220 235 255
220 235 255
220 235 255
220 235 255
220 235 255
220 235 255
220 235 255
220 235 255
220 235 255
220 235 255
220 235 255
220 235 255
220 235 255
220 235 255
220 235 255
220 235 255
220 235 255
220 235 255
220 235 255
220 235 255
220 235 255
220 235 255
220 235 255
220 235 255
220 235 255
220 235 255
220 235 255
220 235 255
220 235 255
220 235 255
220 235 255
220 235 255
220 235 255
220 235 255
220 235 255
220 235 255
220 235 255
220 235 255
220 235 255
220 235 255
220 235 255
220 235 255
220 235 255
220 235 255
220 235 255
220 235 255
220 235 255
220 235 255
220 235 255
220 235 255
220 235 255
220 235 255
220 235 255
220 235 255
220 235 255
220 235 255
220 235 255
220 235 255
220 235 255
220 235 255
220 235 255
220 235 255
220 235 255
220 235 255
220 235 255
220 235 255
220 235 255
220 235 255
220 235 255
220 235 255
220 235 255
220 235 255
220 235 255
220 235 255
220 235 255
220 235 255
220 235 255
220 235 255
148 162 182
153 172 197
172 191 216
160 178 202
144 160 182
163 182 207
152 169 192
124 137 155
75 84 95
77 85 97
60 66 75
86 95 108
114 127 145
122 136 153
132 146 165
134 149 169
140 155 176
126 141 161
112 125 142
89 99 112
103 115 130
120 133 152
122 135 153
134 150 170
156 174 198
164 183 207
172 191 217
186 206 232
173 193 219
159 176 199
122 137 156
143 159 181
146 162 184
153 170 193
148 165 187
144 161 182
148 165 187
162 180 204
172 190 215
178 198 226
164 183 207
166 185 210
159 177 201
149 166 189
147 163 185
146 163 186
140 157 178
120 133 150
87 97 110
53 59 67
25 27 31
28 31 35
48 54 61
61 68 77
64 71 81
64 71 80
75 83 94
96 106 121
104 116 131
99 109 124
88 98 112
103 115 130
112 124 141
121 134 151
124 137 155
128 143 162
127 141 161
126 140 159
116 129 146
113 126 144
101 112 127
79 88 100
63 70 80
31 34 39
7 8 10
35 39 45
71 79 90
97 108 122
120 134 151
135 151 173
130 144 164
134 150 170
142 158 180
145 161 182
145 162 185
133 148 167
150 166 189
154 170 192
156 173 196
148 165 187
150 167 190
146 163 186
147 164 186
165 183 208
174 192 217
176 196 223
176 196 222
170 189 215
172 192 218
162 181 206
158 175 199
143 160 183
133 148 168
114 127 144
87 96 109
67 74 84
53 58 66
40 44 49
46 51 58
53 59 67
57 64 73
67 74 84
72 80 91
69 77 88
59 66 74
76 84 96
86 95 109
87 97 109
73 81 91
57 64 72
57 63 72
69 77 87
88 97 110
118 131 148
148 165 188
167 186 212
176 195 220
174 192 217
173 193 219
183 204 231
175 195 221
178 198 224
181 201 228
177 196 222
154 172 196
132 147 167
112 125 142
91 102 117
66 73 83
34 38 43
43 47 53
59 66 75
71 78 88
76 85 96
82 91 103
90 100 114
102 113 128
118 131 149
125 139 157
130 145 164
137 152 172
149 165 186
154 171 194
145 161 182
121 134 151
101 111 126
92 102 115
86 96 108
58 64 73
53 59 67
43 48 54
34 38 43
10 12 13
15 16 19
26 29 33
19 22 25
8 9 10
28 31 35
53 59 67
94 105 120
133 147 165
137 153 175
140 156 177
124 138 157
113 124 140
105 116 132
96 106 121
91 101 115
88 98 111
63 70 79
68 76 87
79 87 99
51 56 63
28 31 36
32 36 40
53 59 67
101 113 128
141 156 177
133 148 168
158 176 199
176 196 222
181 201 227
174 195 222
161 177 199
220 235 255
220 235 255
220 235 255
220 235 255
220 235 255
220 235 255
220 235 255
220 235 255
220 235 255
220 235 255
220 235 255
220 235 255
220 235 255
220 235 255
220 235 255
220 235 255
220 235 255
220 235 255
220 235 255
220 235 255
220 235 255
220 235 255
220 235 255
220 235 255
220 235 255
220 235 255
220 235 255
220 235 255
220 235 255
220 235 255
220 235 255
220 235 255
220 235 255
220 235 255
220 235 255
220 235 255
220 235 255
220 235 255
220 235 255
220 235 255
220 235 255
220 235 255
220 235 255
220 235 255
220 235 255
220 235 255
220 235 255
220 235 255
220 235 255
220 235 255
220 235 255
220 235 255
220 235 255
220 235 255
220 235 255
220 235 255
220 235 255
220 235 255
220 235 255
220 235 255
220 235 255
220 235 255
220 235 255
220 235 255
220 235 255
220 235 255
220 235 255
220 235 255
220 235 255
220 235 255
220 235 255
220 235 255
220 235 255
220 235 255
220 235 255
220 235 255
220 235 255
220 235 255
220 235 255
220 235 255
220 235 255
220 235 255
220 235 255
220 235 255
220 235 255
220 235 255
220 235 255
220 235 255
220 235 255
220 235 255
220 235 255
220 235 255
220 235 255
220 235 255
220 235 255
220 235 255
220 235 255
220 235 255
220 235 255
220 235 255
220 235 255
220 235 255
220 235 255
220 235 255
220 235 255
220 235 255
220 235 255
220 235 255
220 235 255
220 235 255
220 235 255
220 235 255
220 235 255
220 235 255
220 235 255
220 235 255
220 235 255
220 235 255
220 235 255
220 235 255
220 235 255
220 235 255
220 235 255
220 235 255
220 235 255
220 235 255
220 235 255
220 235 255
220 235 255
220 235 255
220 235 255
220 235 255
220 235 255
220 235 255
220 235 255
220 235 255
220 235 255
220 235 255
220 235 255
220 235 255
220 235 255
220 235 255
220 235 255
220 235 255
220 235 255
220 235 255
220 235 255
220 235 255
220 235 255
220 235 255
220 235 255
220 235 255
220 235 255
220 235 255
220 235 255
220 235 255
220 235 255
220 235 255
220 235 255
220 235 255
220 235 255
220 235 255
220 235 255
220 235 255
220 235 255
220 235 255
220 235 255
220 235 255
220 235 255
220 235 255
220 235 255
220 235 255
220 235 255
220 235 255
220 235 255
220 235 255
220 235 255
220 235 255
220 235 255
220 235 255
220 235 255
220 235 255
220 235 255
220 235 255
220 235 255
220 235 255
220 235 255
220 235 255
220 235 255
220 235 255
220 235 255
220 235 255
220 235 255
220 235 255
220 235 255
220 235 255
220 235 255
220 235 255
220 235 255
220 235 255
220 235 255
220 235 255
220 235 255
220 235 255
220 235 255
220 235 255
123 136 153
152 169 191
176 197 225
158 174 197
148 164 186
162 181 206
154 171 193
113 125 141
78 87 98
61 68 77
65 72 82
93 104 118
121 134 152
136 152 172
145 162 185
147 164 186
148 165 187
129 143 163
112 124 140
101 112 127
118 131 149
126 141 160
118 131 149
139 154 175
156 174 199
163 181 205
183 203 231
182 201 226
177 196 221
157 175 198
131 146 165
138 154 176
154 172 195
163 181 205
163 181 206
158 176 199
163 181 206
170 188 213
177 197 223
180 200 227
179 199 224
175 195 223
176 194 219
160 179 204
153 170 193
145 161 182
140 155 176
123 138 157
98 109 124
58 65 74
32 35 40
24 26 30
50 56 63
62 69 78
64 71 80
69 77 87
70 79 90
84 94 106
85 94 107
75 84 96
86 95 108
98 109 124
113 125 142
118 131 148
113 125 141
122 136 155
117 129 146
111 125 143
110 123 139
111 122 137
93 103 116
77 86 97
49 55 63
24 27 31
17 19 22
55 61 69
87 96 109
111 123 140
124 138 156
129 143 162
121 134 151
123 135 153
129 144 163
144 159 181
143 159 181
141 157 179
129 144 163
135 151 171
150 167 190
150 168 191
154 171 193
159 177 200
163 180 202
160 178 201
169 188 212
179 200 228
173 193 220
182 202 228
175 195 222
163 181 206
157 175 198
135 151 172
120 133 150
102 113 128
85 94 107
69 77 87
62 69 78
60 67 76
67 75 85
68 75 85
65 73 83
67 75 86
71 79 90
77 86 97
78 86 97
80 89 101
87 97 110
90 99 112
70 78 89
65 72 81
67 75 84
71 79 90
89 99 113
130 144 163
156 175 199
172 192 218
180 200 227
179 199 226
178 197 223
177 197 224
174 194 221
182 203 229
176 196 223
166 185 210
148 165 188
132 146 166
101 112 128
73 82 94
44 49 56
41 46 52
46 52 59
65 72 82
80 89 101
93 103 117
86 95 108
98 109 124
115 128 145
125 139 158
132 146 166
135 150 170
136 150 170
140 156 176
141 158 180
129 143 162
115 127 144
92 102 115
81 91 103
74 83 93
59 66 75
41 45 52
28 32 36
16 17 20
19 21 24
39 44 50
46 51 57
41 46 52
27 30 34
8 9 10
35 39 45
68 76 86
109 122 138
127 143 163
135 150 170
126 139 158
116 129 146
108 119 135
98 109 124
95 106 121
95 106 120
64 71 80
62 69 78
78 87 99
61 68 77
54 60 68
52 58 66
29 32 36
82 91 103
117 130 148
115 128 145
137 152 172
172 191 215
171 191 217
180 201 229
156 172 194
217 232 252
220 235 255
220 235 255
220 235 255
220 235 255
220 235 255
220 235 255
220 235 255
220 235 255
220 235 255
220 235 255
220 235 255
220 235 255
220 235 255
220 235 255
220 235 255
220 235 255
220 235 255
220 235 255
220 235 255
220 235 255
220 235 255
220 235 255
220 235 255
220 235 255
220 235 255
220 235 255
220 235 255
220 235 255
220 235 255
220 235 255
220 235 255
220 235 255
220 235 255
220 235 255
220 235 255
220 235 255
220 235 255
220 235 255
220 235 255
220 235 255
220 235 255
220 235 255
220 235 255
220 235 255
220 235 255
220 235 255
220 235 255
220 235 255
220 235 255
220 235 255
220 235 255
220 235 255
220 235 255
220 235 255
220 235 255
220 235 255
220 235 255
220 235 255
220 235 255
220 235 255
220 235 255
220 235 255
220 235 255
220 235 255
220 235 255
220 235 255
220 235 255
220 235 255
220 235 255
220 235 255
220 235 255
220 235 255
220 235 255
220 235 255
220 235 255
220 235 255
220 235 255
220 235 255
220 235 255
220 235 255
220 235 255
220 235 255
220 235 255
220 235 255
220 235 255
220 235 255
220 235 255
220 235 255
220 235 255
220 235 255
220 235 255
220 235 255
220 235 255
220 235 255
220 235 255
220 235 255
220 235 255
220 235 255
220 235 255
220 235 255
220 235 255
220 235 255
220 235 255
220 235 255
220 235 255
220 235 255
220 235 255
220 235 255
220 235 255
220 235 255
220 235 255
220 235 255
220 235 255
220 235 255
220 235 255
220 235 255
220 235 255
220 235 255
220 235 255
220 235 255
220 235 255
220 235 255
220 235 255
220 235 255
220 235 255
220 235 255
220 235 255
220 235 255
220 235 255
220 235 255
220 235 255
220 235 255
220 235 255
220 235 255
220 235 255
220 235 255
220 235 255
220 235 255
220 235 255
220 235 255
220 235 255
220 235 255
220 235 255
220 235 255
220 235 255
220 235 255
220 235 255
220 235 255
220 235 255
220 235 255
220 235 255
220 235 255
220 235 255
220 235 255
220 235 255
220 235 255
220 235 255
220 235 255
220 235 255
220 235 255
220 235 255
220 235 255
220 235 255
220 235 255
220 235 255
220 235 255
220 235 255
220 235 255
220 235 255
220 235 255
220 235 255
220 235 255
220 235 255
220 235 255
220 235 255
220 235 255
220 235 255
220 235 255
220 235 255
220 235 255
220 235 255
220 235 255
220 235 255
220 235 255
220 235 255
220 235 255
220 235 255
220 235 255
220 235 255
220 235 255
220 235 255
220 235 255
220 235 255
220 235 255
220 235 255
220 235 255
220 235 255
220 235 255
220 235 255
220 235 255
220 235 255
220 235 255
220 235 255
220 235 255
209 223 243
129 143 162
156 173 196
179 199 226
158 176 199
134 148 168
148 164 186
145 162 183
112 125 141
86 96 109
65 72 82
81 90 103
104 115 130
130 144 164
155 172 195
152 168 190
153 171 194
153 170 193
129 143 163
108 120 136
108 120 137
134 148 167
133 149 170
128 144 164
145 161 183
159 177 201
173 192 217
180 201 228
184 204 232
177 197 223
162 180 204
130 145 165
146 162 183
155 173 198
171 190 214
175 194 220
173 192 217
173 192 218
179 199 227
179 198 224
188 207 233
182 203 230
181 202 229
175 196 223
176 196 222
154 172 195
143 159 180
133 148 169
118 131 149
95 105 120
69 77 88
38 42 48
19 22 25
52 58 66
69 76 86
65 72 82
65 72 82
57 63 72
70 78 88
71 79 90
68 76 86
82 92 104
91 101 114
106 118 133
114 126 142
114 127 145
106 118 134
107 118 134
114 126 142
101 113 128
91 101 114
76 85 96
54 60 69
31 35 40
16 18 20
29 33 37
68 75 85
99 110 125
120 133 150
131 145 165
125 139 158
107 119 135
113 126 144
116 129 145
131 145 165
142 158 180
146 163 185
132 147 166
124 138 157
141 156 177
149 165 187
155 172 196
156 173 196
159 177 200
156 175 200
175 194 220
173 191 215
176 195 220
178 199 226
173 192 217
164 183 208
146 162 184
126 139 157
107 118 134
102 113 128
91 102 115
83 92 104
74 82 92
72 81 92
81 91 103
83 92 104
77 85 96
69 77 87
68 76 87
84 94 106
93 104 118
96 106 120
94 105 120
81 89 101
76 84 95
69 77 88
77 86 97
82 90 102
107 119 135
141 156 176
157 175 199
173 192 218
181 201 229
177 199 228
182 204 233
173 193 220
182 202 229
179 198 224
174 194 221
160 179 204
139 155 176
111 123 138
81 90 102
57 63 71
43 47 53
49 55 62
59 66 75
67 75 85
85 95 107
96 107 121
98 110 125
105 117 133
115 128 146
128 142 161
135 149 168
131 146 166
133 147 166
130 144 164
126 140 159
118 131 148
111 123 139
78 87 99
62 69 79
58 65 74
52 57 65
29 33 37
9 10 11
16 17 20
43 48 54
72 80 90
66 73 83
60 67 77
49 55 62
30 33 38
16 17 20
48 54 61
80 89 101
111 123 140
131 146 167
131 145 163
125 138 156
102 113 128
102 113 129
92 103 117
76 84 95
58 65 74
53 59 68
72 80 91
69 77 87
76 84 95
60 66 75
21 23 26
54 60 68
86 95 108
97 108 122
120 134 153
146 162 184
173 193 219
173 192 218
166 185 210
211 225 245
220 235 255
220 235 255
220 235 255
220 235 255
220 235 255
220 235 255
220 235 255
220 235 255
220 235 255
220 235 255
220 235 255
220 235 255
220 235 255
220 235 255
220 235 255
220 235 255
220 235 255
220 235 255
220 235 255
220 235 255
220 235 255
220 235 255
220 235 255
220 235 255
220 235 255
220 235 255
220 235 255
220 235 255
220 235 255
220 235 255
220 235 255
220 235 255
220 235 255
220 235 255
220 235 255
220 235 255
220 235 255
220 235 255
220 235 255
220 235 255
220 235 255
220 235 255
220 235 255
220 235 255
220 235 255
220 235 255
220 235 255
220 235 255
220 235 255
220 235 255
220 235 255
220 235 255
220 235 255
220 235 255
220 235 255
220 235 255
220 235 255
220 235 255
220 235 255
220 235 255
220 235 255
220 235 255
220 235 255
220 235 255
220 235 255
220 235 255
220 235 255
220 235 255
220 235 255
220 235 255
220 235 255
220 235 255
220 235 255
220 235 255
220 235 255
220 235 255
220 235 255
220 235 255
220 235 255
220 235 255
220 235 255
220 235 255
220 235 255
220 235 255
220 235 255
220 235 255
220 235 255
220 235 255
220 235 255
220 235 255
220 235 255
220 235 255
220 235 255
220 235 255
220 235 255
220 235 255
220 235 255
220 235 255
220 235 255
220 235 255
220 235 255
220 235 255
220 235 255
220 235 255
220 235 255
220 235 255
220 235 255
220 235 255
220 235 255
220 235 255
220 235 255
220 235 255
220 235 255
220 235 255
220 235 255
220 235 255
220 235 255
220 235 255
220 235 255
220 235 255
220 235 255
220 235 255
220 235 255
220 235 255
220 235 255
220 235 255
220 235 255
220 235 255
220 235 255
220 235 255
220 235 255
220 235 255
220 235 255
220 235 255
220 235 255
220 235 255
220 235 255
220 235 255
220 235 255
220 235 255
220 235 255
220 235 255
220 235 255
220 235 255
220 235 255
220 235 255
220 235 255
220 235 255
220 235 255
220 235 255
220 235 255
220 235 255
220 235 255
220 235 255
220 235 255
220 235 255
220 235 255
220 235 255
220 235 255
220 235 255
220 235 255
220 235 255
220 235 255
220 235 255
220 235 255
220 235 255
220 235 255
220 235 255
220 235 255
220 235 255
220 235 255
220 235 255
220 235 255
220 235 255
220 235 255
220 235 255
220 235 255
220 235 255
220 235 255
220 235 255
220 235 255
220 235 255
220 235 255
220 235 255
220 235 255
220 235 255
220 235 255
220 235 255
220 235 255
220 235 255
220 235 255
220 235 255
220 235 255
220 235 255
220 235 255
220 235 255
220 235 255
220 235 255
220 235 255
220 235 255
220 235 255
220 235 255
220 235 255
220 235 255
204 218 237
131 146 166
162 180 204
174 193 218
147 164 186
134 150 171
144 160 182
153 170 192
109 122 139
97 108 122
73 81 92
103 114 129
110 122 139
144 161 183
164 182 207
170 189 214
164 182 206
159 177 201
129 144 163
111 122 138
120 133 151
137 153 175
143 159 180
138 154 174
139 155 177
158 176 199
175 193 219
182 202 228
177 197 224
179 199 226
161 180 204
126 141 161
148 164 186
172 191 217
170 188 212
186 207 234
174 194 221
181 200 227
180 201 228
175 194 221
182 202 229
183 203 230
179 199 225
181 200 226
180 200 226
175 194 220
156 174 197
139 155 176
123 138 158
118 130 148
90 100 113
54 60 68
21 23 26
37 41 46
51 57 64
54 60 68
55 61 69
50 56 64
66 73 82
63 70 79
70 78 88
74 83 94
81 90 102
89 99 112
94 105 120
103 115 131
102 113 128
91 101 114
99 110 124
88 98 112
76 85 97
56 62 70
29 33 37
13 14 16
21 24 27
50 55 63
80 89 100
112 125 142
129 144 164
125 139 157
120 133 151
106 118 134
109 121 137
117 130 148
127 141 161
133 147 167
134 149 169
118 132 150
124 137 155
133 147 167
141 156 177
143 159 180
154 170 191
152 169 192
166 185 209
177 195 220
172 191 218
173 193 220
169 187 211
162 181 207
153 170 193
141 157 178
114 126 142
103 115 129
107 119 135
105 118 134
99 111 126
86 96 110
84 94 106
92 102 116
96 107 122
89 100 114
81 89 101
81 90 102
81 90 102
91 101 114
107 120 136
107 119 134
86 95 108
73 81 92
75 83 95
88 98 111
110 122 139
134 149 169
153 170 192
161 181 206
171 189 215
180 199 225
184 203 229
184 205 233
180 200 227
179 199 225
183 203 229
181 201 227
154 171 193
127 141 160
89 99 112
56 62 71
56 62 70
71 79 90
69 77 87
67 75 85
75 83 94
88 98 111
106 119 135
105 116 131
108 120 136
119 133 151
122 136 154
132 147 167
126 140 159
118 131 149
119 132 149
103 114 129
96 107 121
84 93 105
64 72 81
54 60 68
50 55 63
44 49 55
27 30 34
11 12 13
31 35 39
60 67 75
84 93 106
74 83 94
65 72 82
60 66 75
61 68 76
29 32 36
22 24 28
49 55 62
101 112 127
111 123 140
120 133 151
109 121 137
76 84 96
92 102 115
80 89 101
62 69 78
51 57 64
42 46 53
63 70 79
71 79 89
86 96 108
76 84 95
22 24 27
29 31 35
46 51 58
63 69 79
107 118 134
127 141 160
161 178 201
170 189 214
176 196 223
204 219 239
220 235 255
220 235 255
220 235 255
220 235 255
220 235 255
220 235 255
220 235 255
220 235 255
220 235 255
220 235 255
220 235 255
220 235 255
220 235 255
220 235 255
220 235 255
220 235 255
220 235 255
220 235 255
220 235 255
220 235 255
220 235 255
220 235 255
220 235 255
220 235 255
220 235 255
220 235 255
220 235 255
220 235 255
220 235 255
220 235 255
220 235 255
220 235 255
220 235 255
220 235 255
220 235 255
220 235 255
220 235 255
220 235 255
220 235 255
220 235 255
220 235 255
220 235 255
220 235 255
220 235 255
220 235 255
220 235 255
220 235 255
220 235 255
220 235 255
220 235 255
220 235 255
220 235 255
220 235 255
220 235 255
220 235 255
220 235 255
220 235 255
220 235 255
220 235 255
220 235 255
220 235 255
220 235 255
220 235 255
220 235 255
220 235 255
220 235 255
220 235 255
220 235 255
220 235 255
220 235 255
220 235 255
220 235 255
220 235 255
220 235 255
220 235 255
220 235 255
220 235 255
220 235 255
220 235 255
220 235 255
220 235 255
220 235 255
220 235 255
220 235 255
220 235 255
220 235 255
220 235 255
220 235 255
220 235 255
220 235 255
220 235 255
220 235 255
220 235 255
220 235 255
220 235 255
220 235 255
220 235 255
220 235 255
220 235 255
220 235 255
220 235 255
220 235 255
221 235 255
221 235 255
221 235 255
221 235 255
221 235 255
221 235 255
221 235 255
221 235 255
221 235 255
221 235 255
221 235 255
221 235 255
221 235 255
221 235 255
221 235 255
221 235 255
221 235 255
221 235 255
221 235 255
221 235 255
221 235 255
221 235 255
221 235 255
221 235 255
221 235 255
221 235 255
221 235 255
221 235 255
221 235 255
221 235 255
221 235 255
221 235 255
221 235 255
221 235 255
221 235 255
221 235 255
221 235 255
221 235 255
221 235 255
221 235 255
221 235 255
221 235 255
221 235 255
221 235 255
221 235 255
221 235 255
221 235 255
221 235 255
221 235 255
221 235 255
221 235 255
221 235 255
221 235 255
221 235 255
221 235 255
221 235 255
221 235 255
221 235 255
221 235 255
221 235 255
221 235 255
221 235 255
221 235 255
221 235 255
221 235 255
221 235 255
221 235 255
221 235 255
221 235 255
221 235 255
221 235 255
221 235 255
221 235 255
221 235 255
221 235 255
221 235 255
221 235 255
221 235 255
221 235 255
221 235 255
221 235 255
221 235 255
221 235 255
221 235 255
221 235 255
221 235 255
221 235 255
221 235 255
221 235 255
221 235 255
221 235 255
221 235 255
221 235 255
221 235 255
221 235 255
221 235 255
221 235 255
221 235 255
221 235 255
221 235 255
221 235 255
221 235 255
194 207 226
144 161 183
175 194 219
173 193 219
157 174 197
142 158 179
148 164 186
144 160 182
123 136 154
109 122 138
94 105 118
109 122 140
139 154 174
157 175 199
177 196 222
178 197 222
169 187 213
168 187 213
147 164 186
132 146 166
138 154 177
152 169 192
151 168 191
141 157 177
157 174 196
167 186 211
176 195 220
179 199 226
180 200 226
162 180 204
140 156 177
126 140 159
160 178 202
185 206 234
181 200 225
183 203 230
181 202 230
178 199 227
178 199 227
184 206 234
185 206 233
179 200 228
172 191 216
183 202 228
181 200 226
172 191 216
162 179 203
150 168 191
144 159 181
133 149 169
115 128 145
82 91 103
46 51 58
16 18 20
22 25 28
44 49 56
43 47 54
43 48 55
54 61 69
53 59 67
62 68 77
66 73 82
56 63 72
58 64 73
60 67 77
73 81 91
75 84 95
74 82 93
72 80 91
67 75 85
52 58 66
37 41 47
23 25 29
21 24 27
49 54 61
67 75 85
86 96 108
123 136 153
121 135 153
111 123 140
102 114 129
104 116 131
103 114 129
104 115 130
100 112 127
101 112 127
98 110 125
105 117 133
106 118 134
114 127 145
119 132 151
136 151 172
146 163 185
148 164 186
165 184 209
168 187 212
174 193 218
171 190 215
156 173 196
165 183 206
145 161 182
127 142 162
112 124 139
104 116 132
114 127 144
114 127 145
115 128 146
104 115 131
102 114 131
107 119 135
102 113 129
108 120 136
97 107 122
89 100 114
88 97 110
93 103 117
108 120 136
104 115 130
83 93 105
74 82 93
79 88 100
107 119 135
120 134 152
141 156 176
155 174 198
172 191 216
169 188 214
172 191 216
175 194 219
181 200 226
184 205 231
179 199 225
175 195 222
163 181 205
142 158 180
101 112 128
73 81 92
72 80 90
77 85 97
86 96 108
82 91 104
70 78 89
84 93 104
102 113 128
109 121 137
115 128 145
111 123 139
108 121 138
107 119 135
118 131 149
119 131 148
113 126 142
101 112 127
78 87 98
74 82 94
63 70 80
48 54 61
39 44 49
39 43 48
35 39 45
30 33 38
20 22 25
45 51 58
61 68 77
83 93 105
80 88 100
62 69 79
65 72 82
69 77 87
57 63 72
32 35 40
26 29 33
62 69 78
92 102 116
90 101 115
94 105 119
69 77 87
75 84 95
72 80 91
55 61 69
36 40 46
36 39 45
52 57 65
79 88 100
96 106 120
91 101 115
48 53 60
15 17 19
14 15 18
26 28 31
62 69 79
104 115 131
154 172 195
175 194 219
171 191 218
202 217 238
221 235 255
221 235 255
221 235 255
221 235 255
221 235 255
221 235 255
221 235 255
221 235 255
221 235 255
221 235 255
221 235 255
221 235 255
221 235 255
221 235 255
221 235 255
221 235 255
221 235 255
221 235 255
221 235 255
221 235 255
221 235 255
221 235 255
221 235 255
221 235 255
221 235 255
221 235 255
221 235 255
221 235 255
221 235 255
221 235 255
221 235 255
221 235 255
221 235 255
221 235 255
221 235 255
221 235 255
221 235 255
221 235 255
221 235 255
221 235 255
221 235 255
221 235 255
221 235 255
221 235 255
221 235 255
221 235 255
221 235 255
221 235 255
221 235 255
221 235 255
221 235 255
221 235 255
221 235 255
221 235 255
221 235 255
221 235 255
221 235 255
221 235 255
221 235 255
221 235 255
221 235 255
221 235 255
221 235 255
221 235 255
221 235 255
221 235 255
221 235 255
221 235 255
221 235 255
221 235 255
221 235 255
221 235 255
221 235 255
221 235 255
221 235 255
221 235 255
221 235 255
221 235 255
221 235 255
221 235 255
221 235 255
221 235 255
221 235 255
221 235 255
221 235 255
221 235 255
221 235 255
221 235 255
221 235 255
221 235 255
221 235 255
221 235 255
221 235 255
221 235 255
221 235 255
221 235 255
221 235 255
221 235 255
221 235 255
221 235 255
221 235 255
221 235 255
221 235 255
221 235 255
221 235 255
221 235 255
221 235 255
221 235 255
221 235 255
221 235 255
221 235 255
221 235 255
221 235 255
221 235 255
221 235 255
221 235 255
221 235 255
221 235 255
221 235 255
221 235 255
221 235 255
221 235 255
221 235 255
221 235 255
221 235 255
221 235 255
221 235 255
221 235 255
221 235 255
221 235 255
221 235 255
221 235 255
221 235 255
221 235 255
221 235 255
221 235 255
221 235 255
221 235 255
221 235 255
221 235 255
221 235 255
221 235 255
221 235 255
221 235 255
221 235 255
221 235 255
221 235 255
221 235 255
221 235 255
221 235 255
221 235 255
221 235 255
221 235 255
221 235 255
221 235 255
221 235 255
221 235 255
221 235 255
221 235 255
221 235 255
221 235 255
221 235 255
221 235 255
221 235 255
221 235 255
221 235 255
221 235 255
221 235 255
221 235 255
221 235 255
221 235 255
221 235 255
221 235 255
221 235 255
221 235 255
221 235 255
221 235 255
221 235 255
221 235 255
221 235 255
221 235 255
221 235 255
221 235 255
221 235 255
221 235 255
221 235 255
221 235 255
221 235 255
221 235 255
221 235 255
221 235 255
221 235 255
221 235 255
221 235 255
221 235 255
221 235 255
221 235 255
221 235 255
221 235 255
221 235 255
221 235 255
221 235 255
221 235 255
221 235 255
182 195 212
153 170 193
172 192 219
167 186 212
153 172 196
142 157 179
151 167 190
153 171 195
145 161 183
142 157 178
122 137 156
128 142 161
161 178 200
177 196 222
175 194 220
180 200 226
172 192 219
174 193 218
168 187 212
152 170 194
164 182 205
163 181 204
163 181 205
160 178 201
152 170 194
163 181 204
175 195 221
176 195 221
160 178 202
139 155 176
134 148 168
141 157 178
175 195 221
180 199 226
176 197 224
183 203 230
177 197 224
179 200 226
175 194 220
183 203 230
167 188 216
181 201 227
170 188 213
178 197 222
177 196 223
175 195 221
168 186 211
161 180 205
160 177 200
156 173 196
137 152 172
103 114 129
71 79 90
37 41 46
13 14 16
43 48 54
50 56 64
51 56 64
48 53 60
41 45 52
41 46 52
40 45 51
34 37 42
30 33 38
30 33 38
25 28 31
36 40 46
48 53 61
45 50 57
29 32 36
15 17 19
16 18 21
18 20 23
53 59 67
72 81 92
90 100 113
99 110 125
116 129 146
101 113 129
91 101 115
92 102 115
101 112 127
106 118 134
94 104 117
78 87 99
78 87 98
78 86 97
87 97 110
92 103 116
97 108 122
114 127 144
119 133 151
129 144 164
149 166 189
159 177 201
157 174 196
160 177 200
165 185 210
169 188 213
154 172 195
146 162 183
126 139 157
107 119 135
116 129 146
125 139 157
124 137 155
120 133 150
114 126 143
99 110 125
106 118 133
112 124 141
114 128 146
114 126 143
104 116 131
101 112 127
95 106 121
93 104 118
100 110 125
90 100 114
88 98 111
94 105 119
113 127 144
132 147 166
146 162 183
165 182 205
177 196 222
178 198 225
174 193 218
174 193 218
170 190 216
179 199 226
177 197 223
168 186 210
153 170 192
120 134 152
78 86 98
67 75 84
101 112 127
106 118 133
103 114 130
90 101 114
79 88 100
82 91 103
93 103 117
104 115 130
102 113 129
105 117 133
98 109 124
100 111 126
101 113 129
108 120 135
103 114 130
92 103 116
83 93 106
65 73 82
43 48 55
39 43 49
30 33 38
14 16 19
28 31 35
25 28 32
20 22 25
51 56 64
66 74 83
86 96 109
95 106 120
70 78 88
66 73 83
74 83 94
64 71 80
51 57 65
21 23 27
45 50 57
60 67 76
88 98 112
104 114 129
81 90 102
85 94 107
82 90 101
51 57 64
50 56 63
35 39 44
45 50 57
76 85 97
94 106 120
96 106 121
58 65 73
37 41 47
40 45 51
40 45 51
16 18 21
56 62 70
129 144 164
166 185 210
183 203 230
195 210 232
221 235 255
221 235 255
221 235 255
221 235 255
221 235 255
221 235 255
221 235 255
221 235 255
221 235 255
221 235 255
221 235 255
221 235 255
221 235 255
221 235 255
221 235 255
221 235 255
221 235 255
221 235 255
221 235 255
221 235 255
221 235 255
221 235 255
221 235 255
221 235 255
221 235 255
221 235 255
221 235 255
221 235 255
221 235 255
221 235 255
221 235 255
221 235 255
221 235 255
221 235 255
221 235 255
221 235 255
221 235 255
221 235 255
221 235 255
221 235 255
221 235 255
221 235 255
221 235 255
221 235 255
221 235 255
221 235 255
221 235 255
221 235 255
221 235 255
221 235 255
221 235 255
221 235 255
221 235 255
221 235 255
221 235 255
221 235 255
221 235 255
221 235 255
221 235 255
221 235 255
221 235 255
221 235 255
221 235 255
221 235 255
221 235 255
221 235 255
221 235 255
221 235 255
221 235 255
221 235 255
221 235 255
221 235 255
221 235 255
221 235 255
221 235 255
221 235 255
221 235 255
221 235 255
221 235 255
221 235 255
221 235 255
221 235 255
221 235 255
221 235 255
221 235 255
221 235 255
221 235 255
221 235 255
221 235 255
221 235 255
221 235 255
221 235 255
221 235 255
221 235 255
221 235 255
221 235 255
221 235 255
221 235 255
221 235 255
221 235 255
221 235 255
221 235 255
221 235 255
221 235 255
221 235 255
221 235 255
221 235 255
221 235 255
221 235 255
221 235 255
221 235 255
221 235 255
221 235 255
221 235 255
221 235 255
221 235 255
221 235 255
221 235 255
221 235 255
221 235 255
221 235 255
221 235 255
221 235 255
221 235 255
221 235 255
221 235 255
221 235 255
221 235 255
221 235 255
221 235 255
221 235 255
221 235 255
221 235 255
221 235 255
221 235 255
221 235 255
221 235 255
221 235 255
221 235 255
221 235 255
221 235 255
221 235 255
221 235 255
221 235 255
221 235 255
221 235 255
221 235 255
221 235 255
221 235 255
221 235 255
221 235 255
221 235 255
221 235 255
221 235 255
221 235 255
221 235 255
221 235 255
221 235 255
221 235 255
221 235 255
221 235 255
221 235 255
221 235 255
221 235 255
221 235 255
221 235 255
221 235 255
221 235 255
221 235 255
221 235 255
221 235 255
221 235 255
221 235 255
221 235 255
221 235 255
221 235 255
221 235 255
221 235 255
221 235 255
221 235 255
221 235 255
221 235 255
221 235 255
221 235 255
221 235 255
221 235 255
221 235 255
221 235 255
221 235 255
221 235 255
221 235 255
221 235 255
221 235 255
221 235 255
221 235 255
221 235 255
221 235 255
221 235 255
221 235 255
221 235 255
221 235 255
221 235 255
221 235 255
221 235 255
161 173 189
161 178 202
183 204 232
169 187 212
154 171 194
135 149 169
153 170 192
151 167 189
157 175 199
155 172 194
144 160 182
147 163 185
174 193 218
178 198 225
179 200 227
179 198 225
173 192 217
175 195 222
173 193 219
179 198 224
170 189 214
171 190 215
169 189 216
162 180 204
159 177 201
167 186 210
163 183 208
176 196 223
161 178 201
132 147 166
143 159 182
161 179 203
184 203 229
178 197 224
175 195 221
171 191 217
181 202 229
179 199 225
169 189 215
175 194 220
182 202 228
169 188 212
162 179 203
167 186 212
170 190 216
180 200 227
169 188 213
174 193 219
171 189 214
161 179 203
137 152 173
113 125 142
80 90 102
50 56 64
15 16 18
33 37 42
55 61 70
47 53 60
31 34 38
17 19 21
11 12 14
12 13 15
13 15 17
14 15 17
14 16 18
23 25 29
18 20 23
20 23 25
19 21 24
8 9 10
8 9 10
10 11 13
35 39 45
75 83 94
96 107 121
110 122 139
115 128 145
108 120 136
99 109 124
88 97 110
77 86 97
88 97 110
92 101 115
84 93 106
74 82 93
63 71 81
70 78 89
72 80 91
87 97 111
101 112 126
103 113 128
106 117 133
122 136 154
142 158 180
148 164 186
152 168 190
154 170 191
151 169 192
151 168 190
150 166 187
140 156 177
129 143 162
112 125 142
117 130 147
122 135 153
126 141 161
122 136 155
123 136 153
107 118 133
112 124 141
121 135 153
129 143 161
123 136 155
114 127 144
109 121 137
96 106 120
83 92 105
92 102 116
96 107 120
102 114 129
114 126 143
121 134 152
138 152 172
164 182 206
168 186 211
171 193 221
183 203 229
182 203 232
175 194 219
169 189 215
176 195 220
161 181 206
161 178 201
126 139 157
94 104 118
76 84 95
99 110 124
117 129 146
110 123 140
119 132 149
112 124 141
84 93 106
78 86 98
89 99 112
99 110 125
91 102 116
89 99 112
85 95 108
92 103 116
96 107 121
102 114 130
108 121 137
94 104 118
76 85 96
52 58 66
30 34 38
25 28 32
22 24 27
6 6 7
15 17 19
10 12 13
24 27 30
60 67 75
70 78 89
93 103 117
99 110 125
89 99 112
80 88 100
73 81 92
69 76 87
56 62 70
28 31 35
17 19 22
33 37 42
74 82 93
93 104 118
86 96 109
85 95 107
88 98 111
64 71 80
64 71 81
42 47 54
46 52 59
69 78 89
95 105 118
97 108 123
69 77 87
63 70 80
70 78 89
69 77 88
40 45 51
23 25 29
98 108 122
153 170 193
173 193 219
194 210 231
221 235 255
221 235 255
221 235 255
221 235 255
221 235 255
221 235 255
221 235 255
221 235 255
221 235 255
221 235 255
221 235 255
221 235 255
221 235 255
221 235 255
221 235 255
221 235 255
221 235 255
221 235 255
221 235 255
221 235 255
221 235 255
221 235 255
221 235 255
221 235 255
221 235 255
221 235 255
221 235 255
221 235 255
221 235 255
221 235 255
221 235 255
221 235 255
221 235 255
221 235 255
221 235 255
221 235 255
221 235 255
221 235 255
221 235 255
221 235 255
221 235 255
221 235 255
221 235 255
221 235 255
221 235 255
221 235 255
221 235 255
221 235 255
221 235 255
221 235 255
221 235 255
221 235 255
221 235 255
221 235 255
221 235 255
221 235 255
221 235 255
221 235 255
221 235 255
221 235 255
221 235 255
221 235 255
221 235 255
221 235 255
221 235 255
221 235 255
221 235 255
221 235 255
221 235 255
221 235 255
221 235 255
221 235 255
221 235 255
221 235 255
221 235 255
221 235 255
221 235 255
221 235 255
221 235 255
221 235 255
221 235 255
221 235 255
221 235 255
221 235 255
221 235 255
221 235 255
221 235 255
221 235 255
221 235 255
221 235 255
221 235 255
221 235 255
221 235 255
221 235 255
221 235 255
221 235 255
221 235 255
221 235 255
221 235 255
221 235 255
221 235 255
221 235 255
221 235 255
221 235 255
221 235 255
221 235 255
221 235 255
221 235 255
221 235 255
221 235 255
221 235 255
221 235 255
221 235 255
221 235 255
221 235 255
221 235 255
221 235 255
221 235 255
221 235 255
221 235 255
221 235 255
221 235 255
221 235 255
221 235 255
221 235 255
221 235 255
221 235 255
221 235 255
221 235 255
221 235 255
221 235 255
221 235 255
221 235 255
221 235 255
221 235 255
221 235 255
221 235 255
221 235 255
221 235 255
221 235 255
221 235 255
221 235 255
221 235 255
221 235 255
221 235 255
221 235 255
221 235 255
221 235 255
221 235 255
221 235 255
221 235 255
221 235 255
221 235 255
221 235 255
221 235 255
221 235 255
221 235 255
221 235 255
221 235 255
221 235 255
221 235 255
221 235 255
221 235 255
221 235 255
221 235 255
221 235 255
221 235 255
221 235 255
221 235 255
221 235 255
221 235 255
221 235 255
221 235 255
221 235 255
221 235 255
221 235 255
221 235 255
221 235 255
221 235 255
221 235 255
221 235 255
221 235 255
221 235 255
221 235 255
221 235 255
221 235 255
221 235 255
221 235 255
221 235 255
221 235 255
221 235 255
221 235 255
221 235 255
221 235 255
221 235 255
221 235 255
221 235 255
221 235 255
221 235 255
221 235 255
221 235 255
221 235 255
221 235 255
221 235 255
148 159 174
167 185 209
176 196 222
169 187 211
151 169 192
135 150 171
149 164 185
158 175 198
162 180 205
164 183 207
164 182 206
168 186 211
175 194 220
182 202 229
173 192 217
167 187 213
188 209 236
176 196 222
184 204 231
177 196 222
173 192 219
175 194 221
178 198 225
174 193 219
155 173 196
173 191 216
189 209 237
177 197 223
147 164 185
131 145 165
145 162 185
165 183 208
180 200 226
180 200 228
176 196 222
179 199 226
182 202 228
179 199 226
164 182 206
173 191 216
161 179 203
165 184 209
163 181 205
171 189 214
178 197 222
182 202 229
181 202 230
177 196 222
174 192 217
158 176 200
147 163 185
130 144 163
103 115 131
63 70 79
16 18 20
15 17 19
33 37 42
27 30 34
15 16 19
8 9 10
24 26 30
36 39 45
40 44 50
43 48 55
50 56 63
52 58 65
49 54 62
31 35 39
23 26 29
31 35 39
31 34 39
25 28 32
50 55 63
81 90 102
105 117 132
104 116 131
84 94 108
84 93 106
79 88 99
74 83 94
77 85 97
76 85 97
73 82 93
63 69 79
53 59 67
61 68 77
77 85 96
79 88 99
94 104 118
103 114 130
105 116 132
108 120 135
118 131 148
122 136 156
132 146 166
132 147 168
132 146 166
141 156 176
138 152 172
136 150 170
125 139 157
124 137 156
123 136 155
113 126 143
117 130 147
127 140 158
129 142 161
125 139 158
117 130 147
125 138 156
126 141 161
136 150 169
132 146 165
129 143 162
109 122 139
99 110 124
89 99 113
97 108 122
101 113 128
113 126 143
128 142 161
129 143 163
136 152 173
159 176 198
166 184 209
173 192 217
185 205 232
171 190 216
178 198 224
170 188 213
160 178 203
148 164 186
130 145 164
86 95 107
78 86 98
88 98 111
101 112 127
124 138 156
126 141 159
132 146 164
112 124 140
93 103 117
93 103 117
90 100 113
98 109 123
89 100 114
79 87 99
82 90 102
96 106 120
102 113 128
101 113 129
97 108 122
83 92 104
57 64 72
53 58 66
39 43 49
28 31 35
12 13 15
4 5 6
13 15 17
16 18 21
40 45 51
64 71 80
85 94 107
97 108 123
107 119 135
94 105 119
94 104 117
83 92 105
75 84 95
63 71 81
51 57 65
31 35 39
17 19 21
55 61 70
85 94 106
76 86 98
79 87 99
86 96 109
68 76 87
74 82 92
44 48 55
32 36 41
56 62 70
84 94 107
93 103 118
75 83 94
88 98 111
92 103 116
97 108 122
70 78 88
44 48 55
71 78 89
135 148 167
171 191 217
194 211 234
221 235 255
221 235 255
221 235 255
221 235 255
221 235 255
221 235 255
221 235 255
221 235 255
221 235 255
221 235 255
221 235 255
221 235 255
221 235 255
221 235 255
221 235 255
221 235 255
221 235 255
221 235 255
221 235 255
221 235 255
221 235 255
221 235 255
221 235 255
221 235 255
221 235 255
221 235 255
221 235 255
221 235 255
221 235 255
221 235 255
221 235 255
221 235 255
221 235 255
221 235 255
221 235 255
221 235 255
221 235 255
221 235 255
221 235 255
221 235 255
221 235 255
221 235 255
221 235 255
221 235 255
221 235 255
221 235 255
221 235 255
221 235 255
221 235 255
221 235 255
221 235 255
221 235 255
221 235 255
221 235 255
221 235 255
221 235 255
221 235 255
221 235 255
221 235 255
221 235 255
221 235 255
221 235 255
221 235 255
221 235 255
221 235 255
221 235 255
221 235 255
221 235 255
221 235 255
221 235 255
221 235 255
221 235 255
221 235 255
221 235 255
221 235 255
221 235 255
221 235 255
221 235 255
221 235 255
221 235 255
221 235 255
221 235 255
221 235 255
221 235 255
221 235 255
221 235 255
221 235 255
221 235 255
221 235 255
221 235 255
221 235 255
221 235 255
221 235 255
221 235 255
221 235 255
221 235 255
221 235 255
221 235 255
221 235 255
221 235 255
221 235 255
221 235 255
221 235 255
221 235 255
221 235 255
221 235 255
221 235 255
221 235 255
221 235 255
221 235 255
221 235 255
221 235 255
221 235 255
221 235 255
221 235 255
221 235 255
221 235 255
221 235 255
221 235 255
221 235 255
221 235 255
221 235 255
221 235 255
221 235 255
221 235 255
221 235 255
221 235 255
221 235 255
221 235 255
221 235 255
221 235 255
221 235 255
221 235 255
221 235 255
221 235 255
221 235 255
221 235 255
221 235 255
221 235 255
221 235 255
221 235 255
221 235 255
221 235 255
221 235 255
221 235 255
221 235 255
221 235 255
221 235 255
221 235 255
221 235 255
221 235 255
221 235 255
221 235 255
221 235 255
221 235 255
221 235 255
221 235 255
221 235 255
221 235 255
221 235 255
221 235 255
221 235 255
221 235 255
221 235 255
221 235 255
221 235 255
221 235 255
221 235 255
221 235 255
221 235 255
221 235 255
221 235 255
221 235 255
221 235 255
221 235 255
221 235 255
221 235 255
221 235 255
221 235 255
221 235 255
221 235 255
221 235 255
221 235 255
221 235 255
221 235 255
221 235 255
221 235 255
221 235 255
221 235 255
221 235 255
221 235 255
221 235 255
221 235 255
221 235 255
221 235 255
221 235 255
221 235 255
221 235 255
221 235 255
221 235 255
221 235 255
221 235 255
221 235 255
221 235 255
157 170 188
164 183 208
176 194 219
165 183 208
155 174 198
151 168 190
144 161 184
157 174 197
159 176 199
171 189 213
170 188 213
175 195 222
176 197 224
173 192 216
172 191 217
169 188 213
175 194 220
177 197 225
169 187 212
177 197 223
180 199 224
178 198 225
176 195 220
171 191 217
168 187 213
175 194 219
178 199 226
172 190 216
146 162 184
131 146 167
145 161 182
163 181 205
175 195 221
184 204 231
173 193 219
178 198 225
172 193 220
172 193 219
167 185 210
169 188 214
159 177 202
171 190 215
166 184 209
167 186 211
174 193 218
180 199 225
183 204 231
168 188 213
165 184 208
160 176 198
150 167 190
131 145 165
110 122 138
81 91 103
36 40 46
6 7 8
7 8 9
8 9 10
10 11 13
25 28 32
27 30 34
11 13 14
13 15 16
20 22 25
32 35 40
51 57 65
68 75 84
62 68 77
54 60 68
48 53 60
57 63 71
62 69 78
79 87 99
92 102 116
106 118 134
96 107 121
69 76 87
61 68 77
66 73 83
63 70 80
59 65 73
47 53 60
46 51 58
36 41 46
46 51 58
70 78 88
79 88 99
81 90 102
91 102 116
98 109 124
102 113 128
97 107 121
96 107 122
100 112 127
98 108 123
104 116 132
113 125 142
113 126 143
121 135 153
115 128 145
129 144 163
124 138 156
137 151 171
126 141 161
123 136 154
127 141 159
130 144 162
128 143 162
129 143 163
136 151 170
139 154 175
137 152 172
138 152 172
133 147 165
111 124 140
99 110 125
89 99 112
107 119 135
119 132 149
117 129 146
130 144 164
136 152 173
137 152 172
155 172 195
169 187 213
176 196 223
180 198 224
178 198 225
176 196 222
163 181 205
142 158 179
119 132 149
90 101 114
81 90 102
97 107 121
96 107 121
113 125 141
136 151 171
139 154 175
134 150 170
123 138 157
118 130 146
97 108 122
84 94 107
85 95 107
82 91 103
89 99 112
87 96 108
98 109 124
106 117 131
96 107 122
90 100 113
64 71 80
51 57 64
54 60 68
41 46 52
32 35 40
17 19 22
9 10 12
18 20 23
40 44 50
62 69 79
76 84 95
85 94 108
96 107 121
97 108 122
102 113 128
105 117 132
93 104 118
78 87 98
68 75 86
66 74 84
41 45 51
18 20 23
39 44 50
61 68 77
73 81 91
68 76 86
69 77 87
67 75 86
60 67 75
34 37 42
29 33 37
55 61 69
78 87 98
86 95 108
79 88 99
92 103 116
109 120 136
102 113 127
97 108 123
65 73 83
48 54 61
122 136 155
165 183 208
190 208 233
221 235 255
221 235 255
221 235 255
221 235 255
221 235 255
221 235 255
221 235 255
221 235 255
221 235 255
221 235 255
221 235 255
221 235 255
221 235 255
221 235 255
221 235 255
221 235 255
221 235 255
221 235 255
221 235 255
221 235 255
221 235 255
221 235 255
221 235 255
221 235 255
221 235 255
221 235 255
221 235 255
221 235 255
221 235 255
221 235 255
221 235 255
221 235 255
221 235 255
221 235 255
221 235 255
221 235 255
221 235 255
221 235 255
221 235 255
221 235 255
221 235 255
221 235 255
221 235 255
221 235 255
221 235 255
221 235 255
221 235 255
221 235 255
221 235 255
221 235 255
221 235 255
221 235 255
221 235 255
221 235 255
221 235 255
221 235 255
221 235 255
221 235 255
221 235 255
221 235 255
221 235 255
221 235 255
221 235 255
221 235 255
221 235 255
221 235 255
221 235 255
221 235 255
221 235 255
221 235 255
221 235 255
221 235 255
221 235 255
221 235 255
221 235 255
221 235 255
221 235 255
221 235 255
221 235 255
221 235 255
221 235 255
221 235 255
221 235 255
221 235 255
221 235 255
221 235 255
221 235 255
221 235 255
221 235 255
221 235 255
221 235 255
221 235 255
221 235 255
221 235 255
221 235 255
221 235 255
221 235 255
221 235 255
221 235 255
221 235 255
221 235 255
221 235 255
221 235 255
221 235 255
221 235 255
221 235 255
221 235 255
221 235 255
221 235 255
221 235 255
221 235 255
221 235 255
221 235 255
221 235 255
221 235 255
221 235 255
221 235 255
221 235 255
221 235 255
221 235 255
221 235 255
221 235 255
221 235 255
221 235 255
221 235 255
221 235 255
221 235 255
221 235 255
221 235 255
221 235 255
221 235 255
221 235 255
221 235 255
221 235 255
221 235 255
221 235 255
221 235 255
221 235 255
221 235 255
221 235 255
221 235 255
221 235 255
221 235 255
221 235 255
221 235 255
221 235 255
221 235 255
221 235 255
221 235 255
221 235 255
221 235 255
221 235 255
221 235 255
221 235 255
221 235 255
221 235 255
221 235 255
221 235 255
221 235 255
221 235 255
221 235 255
221 235 255
221 235 255
221 235 255
221 235 255
221 235 255
221 235 255
221 235 255
221 235 255
221 235 255
221 235 255
221 235 255
221 235 255
221 235 255
221 235 255
221 235 255
221 235 255
221 235 255
221 235 255
221 235 255
221 235 255
221 235 255
221 235 255
221 235 255
221 235 255
221 235 255
221 235 255
221 235 255
221 235 255
221 235 255
221 235 255
221 235 255
221 235 255
221 235 255
221 235 255
221 235 255
221 235 255
221 235 255
221 235 255
221 235 255
221 235 255
221 235 255
221 235 255
221 235 255
141 153 170
164 184 209
176 196 223
168 186 210
149 166 188
167 186 210
151 167 188
159 177 200
162 181 207
178 198 225
177 197 223
181 202 229
172 192 218
173 192 218
168 188 214
166 184 209
165 183 208
173 192 217
170 189 215
167 187 213
174 193 218
169 188 213
171 191 218
170 189 214
180 200 227
184 205 232
174 194 220
167 185 210
158 175 197
135 150 170
143 160 182
168 187 213
177 195 219
180 200 227
177 196 222
178 197 223
172 192 218
168 187 212
162 180 205
171 189 213
160 179 204
171 190 214
162 181 206
161 179 203
173 193 220
185 205 233
188 209 237
174 193 219
167 184 207
161 179 202
144 161 183
122 135 153
93 103 117
76 84 95
54 60 68
14 15 17
10 11 13
13 15 17
19 21 24
16 18 20
10 11 12
6 7 8
7 8 9
4 5 6
16 18 20
32 36 41
52 58 66
72 80 90
68 75 85
61 68 77
75 83 94
89 99 113
98 108 123
103 115 130
101 112 128
75 84 95
56 63 72
45 50 56
50 56 64
54 61 69
50 56 64
36 40 45
29 32 36
37 41 47
55 61 69
65 73 83
77 85 96
80 89 101
90 100 113
95 105 119
103 115 131
87 97 109
84 94 107
84 94 106
85 94 107
94 103 117
95 105 119
104 116 132
102 114 129
98 108 122
118 131 148
127 141 159
133 148 167
134 148 166
115 128 145
121 134 153
115 128 145
134 148 168
144 160 182
146 163 185
145 161 183
155 171 193
137 152 173
129 142 160
119 132 149
109 121 137
108 120 137
126 139 157
124 138 157
131 145 163
134 149 169
147 162 183
148 165 187
161 179 203
179 199 225
168 187 213
177 196 222
175 195 222
175 193 218
148 166 189
123 136 154
90 100 114
88 97 110
97 108 122
106 118 134
107 119 135
119 133 151
145 161 182
142 158 178
128 142 161
131 145 164
127 140 158
96 106 119
80 89 101
70 78 89
76 84 96
89 99 112
92 103 117
80 89 101
80 90 102
73 82 93
70 78 89
55 62 70
50 56 63
46 51 58
44 48 55
26 29 33
10 11 13
18 19 22
36 39 44
58 64 73
73 81 91
84 93 105
80 89 102
81 91 103
93 104 117
107 119 135
112 124 141
113 125 141
89 99 113
64 71 80
65 72 82
51 56 64
21 23 26
22 25 28
33 37 42
49 54 61
39 44 50
45 50 56
73 81 91
51 56 64
32 35 40
31 35 39
56 63 72
63 69 78
82 91 103
91 101 114
87 96 109
100 112 127
115 128 146
118 132 150
86 95 108
39 44 49
113 125 142
167 186 211
186 204 229
221 235 255
221 235 255
221 235 255
221 235 255
221 235 255
221 235 255
221 235 255
221 235 255
221 235 255
221 235 255
221 235 255
221 235 255
221 235 255
221 235 255
221 235 255
221 235 255
221 235 255
221 235 255
221 235 255
221 235 255
221 235 255
221 235 255
221 235 255
221 235 255
221 235 255
221 235 255
221 235 255
221 235 255
221 235 255
221 235 255
221 235 255
221 235 255
221 235 255
221 235 255
221 235 255
221 235 255
221 235 255
221 235 255
221 235 255
221 235 255
221 235 255
221 235 255
221 235 255
221 235 255
221 235 255
221 235 255
221 235 255
221 235 255
221 235 255
221 235 255
221 235 255
221 235 255
221 235 255
221 235 255
221 235 255
221 235 255
221 235 255
221 235 255
221 235 255
221 235 255
221 235 255
221 235 255
221 235 255
221 235 255
221 235 255
221 235 255
221 235 255
221 235 255
221 235 255
221 235 255
221 235 255
221 235 255
221 235 255
221 235 255
221 235 255
221 235 255
221 235 255
221 235 255
221 235 255
221 235 255
221 235 255
221 235 255
221 235 255
221 235 255
221 235 255
221 235 255
221 235 255
221 235 255
221 235 255
221 235 255
221 235 255
221 235 255
221 235 255
221 235 255
221 235 255
221 235 255
221 235 255
221 235 255
221 235 255
221 235 255
221 235 255
221 235 255
221 235 255
221 235 255
221 235 255
221 235 255
221 235 255
221 235 255
221 235 255
221 235 255
221 235 255
221 235 255
221 235 255
221 235 255
221 235 255
221 235 255
221 235 255
221 235 255
221 235 255
221 235 255
221 235 255
221 235 255
221 235 255
221 235 255
221 235 255
221 235 255
221 235 255
221 235 255
221 235 255
221 235 255
221 235 255
221 235 255
221 235 255
221 235 255
221 235 255
221 235 255
221 235 255
221 235 255
221 235 255
221 235 255
221 235 255
221 235 255
221 235 255
221 235 255
221 235 255
221 235 255
221 235 255
221 235 255
221 235 255
221 235 255
221 235 255
221 235 255
221 235 255
221 235 255
221 235 255
221 235 255
221 235 255
221 235 255
221 235 255
221 235 255
221 235 255
221 235 255
221 235 255
221 235 255
221 235 255
221 235 255
221 235 255
221 235 255
221 235 255
221 235 255
221 235 255
221 235 255
221 235 255
221 235 255
221 235 255
221 235 255
221 235 255
221 235 255
221 235 255
221 235 255
221 235 255
221 235 255
221 235 255
221 235 255
221 235 255
221 235 255
221 235 255
221 235 255
221 235 255
221 235 255
221 235 255
221 235 255
221 235 255
221 235 255
221 235 255
221 235 255
221 235 255
221 235 255
221 235 255
221 235 255
221 235 255
221 235 255
221 235 255
221 235 255
145 157 173
168 186 211
172 192 218
161 180 205
157 173 195
165 183 207
148 165 189
169 187 212
165 184 209
185 204 230
176 195 220
173 192 218
173 193 219
175 195 221
171 190 216
167 187 212
164 183 208
173 190 214
163 181 205
165 184 210
169 189 214
176 194 220
164 183 208
186 205 232
176 197 224
176 197 225
175 194 218
170 188 212
145 162 184
132 147 166
146 163 186
157 175 198
170 188 213
174 193 219
182 202 229
167 186 211
174 193 219
174 194 220
170 190 217
170 189 215
161 179 202
168 187 212
167 186 211
166 184 209
174 194 220
179 199 226
171 191 217
169 188 214
165 183 208
155 172 196
144 160 182
118 131 148
97 109 124
81 90 103
62 69 78
29 32 37
8 9 11
8 9 10
5 6 7
10 12 13
7 8 9
16 18 20
20 22 25
12 13 15
16 17 20
34 38 43
50 55 62
54 60 68
72 80 90
75 84 95
84 94 107
83 92 105
90 100 114
98 108 122
86 95 108
74 82 93
53 59 67
42 47 53
45 49 56
44 48 54
41 46 51
32 36 41
27 30 34
45 51 58
57 63 71
61 68 77
67 75 85
75 84 95
74 82 93
75 84 95
76 84 95
61 68 78
66 73 82
61 68 77
66 73 83
75 84 95
86 95 107
97 107 121
90 100 114
94 104 117
107 118 133
117 131 149
132 147 166
131 146 166
119 133 151
119 133 151
121 135 154
130 145 165
140 156 178
153 169 192
153 170 192
150 167 189
141 155 175
135 150 170
127 141 160
124 138 156
136 152 173
138 154 174
134 150 170
146 162 183
148 165 188
144 160 182
149 165 186
172 191 217
181 202 229
176 195 221
171 190 215
177 196 222
154 171 194
123 137 155
102 113 128
99 110 125
105 116 132
107 119 135
122 135 153
121 134 152
125 139 158
146 162 183
138 154 174
127 142 161
124 139 158
116 129 146
99 110 125
79 88 99
62 69 78
68 77 87
80 89 101
77 86 98
61 68 77
56 63 71
58 65 74
62 69 78
52 58 65
50 56 63
51 56 64
46 51 58
24 26 30
6 7 8
25 27 31
53 59 66
78 86 98
88 98 111
93 103 118
92 103 118
96 106 120
98 109 124
126 140 159
127 140 158
113 126 142
78 87 100
49 54 62
52 58 66
47 52 59
18 21 23
14 16 18
23 26 29
38 42 48
34 37 42
33 37 43
58 64 73
46 51 58
31 35 40
24 27 31
40 44 51
46 51 57
68 75 85
89 99 112
72 80 92
101 112 126
115 127 144
122 134 151
79 88 99
36 40 45
110 123 140
154 170 192
185 202 226
221 235 255
221 235 255
221 235 255
221 235 255
221 235 255
221 235 255
221 235 255
221 235 255
221 235 255
221 235 255
221 235 255
221 235 255
221 235 255
221 235 255
221 235 255
221 235 255
221 235 255
221 235 255
221 235 255
221 235 255
221 235 255
221 235 255
221 235 255
221 235 255
221 235 255
221 235 255
221 235 255
221 235 255
221 235 255
221 235 255
221 235 255
221 235 255
221 235 255
221 235 255
221 235 255
221 235 255
221 235 255
221 235 255
221 235 255
221 235 255
221 235 255
221 235 255
221 235 255
221 235 255
221 235 255
221 235 255
221 235 255
221 235 255
221 235 255
221 235 255
221 235 255
221 235 255
221 235 255
221 235 255
221 235 255
221 235 255
221 235 255
221 235 255
221 235 255
221 235 255
221 235 255
221 235 255
221 235 255
221 235 255
221 235 255
221 235 255
221 235 255
221 235 255
221 235 255
221 235 255
221 235 255
221 235 255
221 235 255
221 235 255
221 235 255
221 235 255
221 235 255
221 235 255
221 235 255
221 235 255
221 235 255
221 235 255
221 235 255
221 235 255
221 235 255
221 235 255
221 235 255
221 235 255
221 235 255
221 235 255
221 235 255
221 235 255
221 235 255
221 235 255
221 235 255
221 235 255
221 235 255
221 235 255
221 235 255
221 235 255
221 235 255
221 235 255
221 235 255
221 235 255
221 235 255
221 235 255
221 235 255
221 235 255
221 235 255
221 235 255
221 235 255
221 235 255
221 235 255
221 235 255
221 235 255
221 235 255
221 235 255
221 235 255
221 235 255
221 235 255
221 235 255
221 235 255
221 235 255
221 235 255
221 235 255
221 235 255
221 235 255
221 235 255
221 235 255
221 235 255
221 235 255
221 235 255
221 235 255
221 235 255
221 235 255
221 235 255
221 235 255
221 235 255
221 235 255
221 235 255
221 235 255
221 235 255
221 235 255
221 235 255
221 235 255
221 235 255
221 235 255
221 235 255
221 235 255
221 235 255
221 235 255
221 235 255
221 235 255
221 235 255
221 235 255
221 235 255
221 235 255
221 235 255
221 235 255
221 235 255
221 235 255
221 235 255
221 235 255
221 235 255
221 235 255
221 235 255
221 235 255
221 235 255
221 235 255
221 235 255
221 235 255
221 235 255
221 235 255
221 235 255
221 235 255
221 235 255
221 235 255
221 235 255
221 235 255
221 235 255
221 235 255
221 235 255
221 235 255
221 235 255
221 235 255
221 235 255
221 235 255
221 235 255
221 235 255
221 235 255
221 235 255
221 235 255
221 235 255
221 235 255
221 235 255
221 235 255
221 235 255
221 235 255
221 235 255
221 235 255
221 235 255
221 235 255
221 235 255
221 235 255
142 155 172
158 176 200
166 184 207
162 182 208
156 173 196
166 185 210
167 185 209
163 182 207
173 191 216
184 204 231
176 194 218
177 196 221
175 194 220
179 199 225
179 200 228
179 198 224
179 199 227
171 191 217
170 187 211
172 191 217
170 190 217
171 189 214
181 202 229
176 197 224
179 199 225
175 194 220
176 196 223
160 177 201
144 160 181
131 147 167
146 162 184
153 170 193
163 182 206
177 198 225
178 198 224
182 203 230
178 198 224
171 192 220
175 194 220
175 194 220
170 188 213
175 194 220
167 186 211
172 191 217
178 197 223
180 200 226
176 197 224
169 188 214
150 168 191
143 159 181
130 145 165
113 126 143
100 111 126
86 97 110
84 94 106
59 65 74
32 36 41
29 33 37
28 31 35
23 26 29
27 30 34
33 37 41
31 34 39
15 17 19
18 20 23
38 42 47
42 46 53
45 50 56
40 44 51
50 55 63
65 72 81
72 80 91
81 90 102
79 87 99
69 77 87
65 73 83
57 63 71
44 49 56
42 48 54
44 49 56
28 31 35
30 33 38
39 43 49
49 55 62
48 53 60
47 52 59
55 61 69
58 64 72
54 60 68
52 58 65
45 50 57
39 44 50
30 34 38
34 38 43
44 49 56
46 52 58
54 61 69
75 83 94
88 98 111
91 101 115
106 117 133
116 128 145
115 128 145
125 139 157
127 140 157
121 135 153
117 130 147
127 140 159
136 152 172
143 159 180
151 167 188
143 159 179
138 153 174
135 149 169
131 147 167
145 160 181
141 157 178
146 163 186
142 158 180
147 163 185
151 168 191
160 178 201
171 189 214
176 195 221
182 203 231
182 202 228
161 180 204
162 180 203
129 144 163
110 121 137
117 130 148
123 136 154
113 126 143
110 122 138
118 131 149
124 138 157
128 143 162
141 157 180
136 151 170
133 147 167
130 145 164
118 131 148
98 108 123
81 90 103
69 77 87
74 81 92
72 80 90
63 70 79
45 50 57
47 52 59
55 61 70
70 78 88
64 71 81
49 54 62
55 62 70
42 47 53
25 27 31
11 12 14
35 39 44
69 76 86
92 102 115
102 114 129
108 120 136
105 116 132
104 116 131
110 123 140
135 149 168
130 144 162
114 126 143
83 92 104
37 41 47
23 26 29
31 34 38
28 31 35
11 13 14
29 32 37
41 46 52
37 42 48
36 40 45
51 56 64
58 65 74
45 51 58
35 39 44
37 41 46
38 42 48
62 69 78
81 90 102
77 85 97
102 112 127
118 131 149
124 138 157
86 95 107
29 33 37
91 101 114
149 165 187
181 198 223
221 235 255
221 235 255
221 235 255
221 235 255
221 235 255
221 235 255
221 235 255
221 235 255
221 235 255
221 235 255
221 235 255
221 235 255
221 235 255
221 235 255
221 235 255
221 235 255
221 235 255
221 235 255
221 235 255
221 235 255
221 235 255
221 235 255
221 235 255
221 235 255
221 235 255
221 235 255
221 235 255
221 235 255
221 235 255
221 235 255
221 235 255
221 235 255
221 235 255
221 235 255
221 235 255
221 235 255
221 235 255
221 235 255
221 235 255
221 235 255
221 235 255
221 235 255
221 235 255
221 235 255
221 235 255
221 235 255
221 235 255
221 235 255
221 235 255
221 235 255
221 235 255
221 235 255
221 235 255
221 235 255
221 235 255
221 235 255
221 235 255
221 235 255
221 235 255
221 235 255
221 235 255
221 235 255
221 235 255
221 235 255
221 235 255
221 235 255
221 235 255
221 235 255
221 235 255
221 235 255
221 235 255
221 235 255
221 235 255
221 235 255
221 235 255
221 235 255
221 235 255
221 235 255
221 235 255
221 235 255
221 235 255
221 235 255
221 235 255
221 235 255
221 235 255
221 235 255
221 235 255
221 235 255
221 235 255
221 235 255
221 235 255
221 235 255
221 235 255
221 235 255
221 235 255
221 235 255
221 235 255
221 235 255
221 235 255
221 235 255
221 235 255
221 235 255
221 235 255
221 235 255
221 235 255
221 235 255
221 235 255
221 235 255
221 235 255
221 235 255
221 235 255
221 235 255
221 235 255
221 235 255
221 235 255
221 235 255
221 235 255
221 235 255
221 235 255
221 235 255
221 235 255
221 235 255
221 235 255
221 235 255
221 235 255
221 235 255
221 235 255
221 235 255
221 235 255
221 235 255
221 235 255
221 235 255
221 235 255
221 235 255
221 235 255
221 235 255
221 235 255
221 235 255
221 235 255
221 235 255
221 235 255
221 235 255
221 235 255
221 235 255
221 235 255
221 235 255
221 235 255
221 235 255
221 235 255
221 235 255
221 235 255
221 235 255
221 235 255
221 235 255
221 235 255
221 235 255
221 235 255
221 235 255
221 235 255
221 235 255
221 235 255
221 235 255
221 235 255
221 235 255
221 235 255
221 235 255
221 235 255
221 235 255
221 235 255
221 235 255
221 235 255
221 235 255
221 235 255
221 235 255
221 235 255
221 235 255
221 235 255
221 235 255
221 235 255
221 235 255
221 235 255
221 235 255
221 235 255
221 235 255
221 235 255
221 235 255
221 235 255
221 235 255
221 235 255
221 235 255
221 235 255
221 235 255
221 235 255
221 235 255
221 235 255
221 235 255
221 235 255
221 235 255
221 235 255
221 235 255
221 235 255
221 235 255
221 235 255
221 235 255
141 155 174
175 194 220
167 186 211
170 189 215
171 191 217
181 201 228
165 185 211
168 187 213
172 192 218
178 198 224
179 199 225
182 203 231
179 199 225
182 203 231
180 201 230
168 188 213
176 197 224
172 190 215
162 180 204
169 187 211
167 185 210
171 190 216
172 192 218
173 192 217
170 189 215
167 186 212
166 185 209
154 169 191
136 153 175
135 150 170
148 163 185
147 163 185
155 171 194
174 193 218
173 192 218
179 199 225
180 201 228
181 201 227
178 199 226
173 191 216
163 181 204
169 188 214
174 194 220
172 192 218
180 200 227
178 196 221
176 195 220
162 179 202
142 159 180
127 142 161
127 142 162
117 129 146
104 115 129
95 105 119
98 108 122
81 90 102
65 72 81
60 67 76
47 52 59
39 44 50
47 52 59
46 51 58
35 39 44
20 23 26
13 14 16
24 27 31
31 34 39
29 32 36
18 20 22
15 17 19
38 42 48
61 69 78
68 76 86
68 76 86
57 64 72
58 65 73
65 72 81
68 75 85
47 52 59
33 37 42
24 27 31
36 40 45
47 53 60
43 47 54
38 43 49
37 41 47
41 45 51
44 49 55
30 34 38
16 18 20
16 18 20
15 17 19
11 12 14
15 17 19
13 14 16
13 14 16
26 29 33
45 49 55
69 77 87
82 91 103
89 99 111
98 108 121
103 115 130
121 134 151
123 137 156
117 129 146
114 127 143
113 126 143
123 136 154
133 147 167
147 163 186
137 153 174
138 154 176
138 153 173
138 153 174
143 158 179
153 169 191
160 177 200
171 189 213
153 170 192
158 176 201
165 184 208
174 193 218
174 192 217
173 192 218
172 192 218
159 177 200
131 145 164
106 118 134
115 128 144
132 146 164
137 152 172
133 147 165
126 140 159
122 135 152
125 139 157
120 135 154
130 145 164
131 144 163
130 145 165
117 129 146
106 118 134
94 104 119
87 97 109
76 85 97
68 76 85
59 65 73
39 43 49
28 31 36
40 44 50
60 67 75
71 79 90
64 71 80
41 46 53
40 44 50
37 42 47
19 22 24
7 8 9
43 48 55
92 102 115
103 114 129
108 120 136
117 130 147
120 133 151
110 122 138
123 135 152
137 151 171
125 139 158
104 116 132
70 78 89
32 36 41
9 10 12
22 24 28
27 30 34
13 15 17
33 36 41
29 32 36
35 39 44
56 62 71
58 65 73
76 85 97
70 77 87
51 57 64
42 47 53
33 36 41
52 58 66
61 67 76
88 97 109
100 110 125
128 143 162
127 141 161
86 95 107
41 46 52
79 87 98
137 153 173
184 201 226
221 235 255
221 235 255
221 235 255
221 235 255
221 235 255
221 235 255
221 235 255
221 235 255
221 235 255
221 235 255
221 235 255
221 235 255
221 235 255
221 235 255
221 235 255
221 235 255
221 235 255
221 235 255
221 235 255
221 235 255
221 235 255
221 235 255
221 235 255
221 235 255
221 235 255
221 235 255
221 235 255
221 235 255
221 235 255
221 235 255
221 235 255
221 235 255
221 235 255
221 235 255
221 235 255
221 235 255
221 235 255
221 235 255
221 235 255
221 235 255
221 235 255
221 235 255
221 235 255
221 235 255
221 235 255
221 235 255
221 235 255
221 235 255
221 235 255
221 235 255
221 235 255
221 235 255
221 235 255
221 235 255
221 235 255
221 235 255
221 235 255
221 235 255
221 235 255
221 235 255
221 235 255
221 235 255
221 235 255
221 235 255
221 235 255
221 235 255
221 235 255
221 235 255
221 235 255
221 235 255
221 235 255
221 235 255
221 235 255
221 235 255
221 235 255
221 235 255
221 235 255
221 235 255
221 235 255
221 235 255
221 235 255
221 235 255
221 235 255
221 235 255
221 235 255
221 235 255
221 235 255
221 235 255
221 235 255
221 235 255
221 235 255
221 235 255
221 235 255
221 235 255
221 235 255
221 235 255
221 235 255
221 235 255
221 235 255
221 235 255
221 235 255
221 235 255
221 235 255
221 235 255
221 235 255
221 235 255
221 235 255
221 235 255
221 235 255
221 235 255
221 235 255
221 235 255
221 235 255
221 235 255
221 235 255
221 235 255
221 235 255
221 235 255
221 235 255
221 235 255
221 235 255
221 235 255
221 235 255
221 235 255
221 235 255
221 235 255
221 235 255
221 235 255
221 235 255
221 235 255
221 235 255
221 235 255
221 235 255
221 235 255
221 235 255
221 235 255
221 235 255
221 235 255
221 235 255
221 235 255
221 235 255
221 235 255
221 235 255
221 235 255
221 235 255
221 235 255
221 235 255
221 235 255
221 235 255
221 235 255
221 235 255
221 235 255
221 235 255
221 235 255
221 235 255
221 235 255
221 235 255
221 235 255
221 235 255
221 235 255
221 235 255
221 235 255
221 235 255
221 235 255
221 235 255
221 235 255
221 235 255
221 235 255
221 235 255
221 235 255
221 235 255
221 235 255
221 235 255
221 235 255
221 235 255
221 235 255
221 235 255
221 235 255
221 235 255
221 235 255
221 235 255
221 235 255
221 235 255
221 235 255
221 235 255
221 235 255
221 235 255
221 235 255
221 235 255
221 235 255
221 235 255
221 235 255
221 235 255
221 235 255
221 235 255
221 235 255
221 235 255
221 235 255
221 235 255
221 235 255
221 235 255
221 235 255
221 235 255
221 235 255
152 167 188
170 188 213
170 189 216
166 185 209
181 202 229
183 204 232
165 183 207
173 191 216
179 198 222
177 196 221
169 187 211
166 184 209
160 179 203
180 201 229
175 195 220
167 184 208
172 192 217
174 194 220
172 192 218
166 184 209
174 194 220
176 194 219
173 192 217
172 191 217
172 190 215
166 185 209
167 186 212
153 171 194
147 163 185
137 152 172
143 160 182
145 160 182
157 174 197
151 167 189
172 190 216
176 196 223
173 192 217
178 198 225
186 207 234
169 188 213
171 190 216
170 190 216
177 197 225
174 194 220
179 198 224
181 202 230
179 198 224
164 182 206
140 156 176
120 134 152
123 138 157
104 116 132
94 104 118
93 104 118
87 97 111
90 101 114
83 92 104
76 84 96
61 67 76
50 56 64
57 64 72
49 54 61
45 50 57
32 36 41
13 15 17
11 13 15
17 19 21
12 14 15
6 7 8
3 3 3
19 21 24
48 53 60
64 72 81
58 65 74
42 47 53
54 60 68
73 82 92
78 86 97
57 63 71
29 32 36
29 32 37
38 42 48
50 56 63
50 55 62
42 46 53
33 37 42
39 44 50
29 32 36
11 13 14
3 3 4
10 11 13
17 19 22
18 19 22
16 18 21
18 20 22
6 7 8
9 10 12
18 20 23
46 51 58
62 69 79
72 80 90
82 91 103
95 106 120
112 125 142
122 136 153
113 126 143
110 122 139
94 104 118
107 118 134
118 131 148
127 142 161
129 144 162
148 164 185
144 160 182
154 171 192
158 175 197
160 177 201
161 178 202
156 173 196
161 178 201
168 187 212
177 196 222
180 200 227
176 195 221
172 190 215
160 178 201
134 148 168
116 129 146
126 139 157
128 143 162
144 160 180
140 156 177
134 150 171
125 139 157
119 132 150
118 130 147
121 135 153
119 132 150
121 134 152
127 141 160
117 130 147
99 110 125
85 95 107
83 93 105
76 85 96
52 58 66
31 34 39
19 21 24
18 20 23
33 37 42
55 61 69
61 69 78
44 49 55
35 39 44
33 37 42
20 23 26
8 9 10
10 11 13
55 61 69
100 111 125
109 120 136
105 117 133
112 124 141
120 132 149
107 119 135
119 132 148
137 153 174
123 137 156
112 124 141
71 78 89
31 35 39
15 16 19
27 30 35
45 50 57
35 39 44
13 14 16
12 14 15
31 35 39
65 72 82
77 86 98
92 102 116
95 105 119
66 73 83
49 55 63
29 32 37
43 48 55
55 61 69
91 101 115
98 110 125
128 142 161
131 146 165
91 101 115
38 42 47
68 75 84
135 149 167
187 206 232
221 235 255
221 235 255
221 235 255
221 235 255
221 235 255
221 235 255
221 235 255
221 235 255
221 235 255
221 235 255
221 235 255
221 235 255
221 235 255
221 235 255
221 235 255
221 235 255
221 235 255
221 235 255
221 235 255
221 235 255
221 235 255
221 235 255
221 235 255
221 235 255
221 235 255
221 235 255
221 235 255
221 235 255
221 235 255
221 235 255
221 235 255
221 235 255
221 235 255
221 235 255
221 235 255
221 235 255
221 235 255
221 235 255
221 235 255
221 235 255
221 235 255
221 235 255
221 235 255
221 235 255
221 235 255
221 235 255
221 235 255
221 235 255
221 235 255
221 235 255
221 235 255
221 235 255
221 235 255
221 235 255
221 235 255
221 235 255
221 235 255
221 235 255
221 235 255
221 235 255
221 235 255
221 235 255
221 235 255
221 235 255
221 235 255
221 235 255
221 235 255
221 235 255
221 235 255
221 235 255
221 235 255
221 235 255
221 235 255
221 235 255
221 235 255
221 235 255
221 235 255
221 235 255
221 235 255
221 235 255
221 235 255
221 235 255
221 235 255
221 235 255
221 235 255
221 235 255
221 235 255
221 235 255
221 235 255
221 235 255
221 235 255
221 235 255
221 235 255
221 235 255
221 235 255
221 235 255
221 235 255
221 235 255
221 235 255
221 235 255
221 235 255
221 235 255
221 235 255
221 235 255
221 235 255
221 235 255
221 235 255
221 235 255
221 235 255
221 235 255
221 235 255
221 235 255
221 235 255
221 235 255
221 235 255
221 235 255
221 235 255
221 235 255
221 235 255
221 235 255
221 235 255
221 235 255
221 235 255
221 235 255
221 235 255
221 235 255
221 235 255
221 235 255
221 235 255
221 235 255
221 235 255
221 235 255
221 235 255
221 235 255
221 235 255
221 235 255
221 235 255
221 235 255
221 235 255
221 235 255
221 235 255
221 235 255
221 235 255
221 235 255
221 235 255
221 235 255
221 235 255
221 235 255
221 235 255
221 235 255
221 235 255
221 235 255
221 235 255
221 235 255
221 235 255
221 235 255
221 235 255
221 235 255
221 235 255
221 235 255
221 235 255
221 235 255
221 235 255
221 235 255
221 235 255
221 235 255
221 235 255
221 235 255
221 235 255
221 235 255
221 235 255
221 235 255
221 235 255
221 235 255
221 235 255
221 235 255
221 235 255
221 235 255
221 235 255
221 235 255
221 235 255
221 235 255
221 235 255
221 235 255
221 235 255
221 235 255
221 235 255
221 235 255
221 235 255
221 235 255
221 235 255
221 235 255
221 235 255
221 235 255
221 235 255
221 235 255
221 235 255
221 235 255
221 235 255
221 235 255
221 235 255
221 235 255
221 235 255
221 235 255
171 188 210
166 184 209
179 199 226
166 185 211
167 185 210
177 197 224
179 199 226
173 192 218
178 199 226
167 186 212
180 200 227
174 193 219
179 198 223
175 195 221
179 198 223
165 184 210
171 190 216
177 197 224
170 189 214
163 182 206
177 195 221
175 195 221
181 201 228
177 197 224
172 191 217
171 189 213
162 180 204
162 180 203
142 158 179
129 144 163
137 151 171
143 158 179
137 153 174
144 160 182
162 179 202
176 195 220
176 195 221
184 205 232
185 205 231
176 196 222
181 201 228
181 201 227
174 194 220
175 194 220
181 201 228
173 192 218
165 183 209
156 174 198
134 148 168
108 120 137
100 111 125
91 101 114
76 84 95
77 86 98
92 102 115
92 103 118
87 97 110
75 84 95
68 76 86
68 75 85
64 70 79
59 65 74
51 57 64
36 40 45
27 30 34
13 15 17
9 10 11
14 16 18
14 16 19
14 16 18
19 21 24
31 34 39
48 53 61
65 73 82
50 55 63
52 58 66
69 77 88
71 79 90
62 69 78
49 54 62
44 49 56
51 57 64
67 74 84
62 69 79
47 52 60
42 47 54
35 39 45
12 14 16
14 16 18
22 24 27
37 42 48
40 44 50
44 48 55
43 48 54
42 47 53
25 28 32
14 15 17
6 7 8
22 25 29
44 49 55
65 72 81
78 87 100
101 112 127
110 123 139
110 122 138
110 123 139
96 106 120
89 100 113
93 103 116
104 115 129
116 129 145
133 147 167
141 157 178
160 177 198
149 166 188
153 169 192
159 177 201
166 184 208
172 191 216
166 185 211
182 202 228
175 195 223
181 202 229
177 197 223
153 169 191
137 152 171
121 135 153
140 155 175
135 150 169
145 161 182
143 158 179
152 168 190
144 160 181
131 146 166
122 136 153
112 124 141
109 121 136
111 123 139
120 132 149
126 141 160
126 140 160
100 111 125
82 91 103
76 84 95
54 60 68
31 34 39
21 23 26
10 12 13
11 13 14
29 32 36
42 47 53
43 48 54
31 35 39
26 29 33
22 24 28
7 8 9
16 18 20
32 36 41
72 80 91
101 112 126
104 115 131
103 115 130
97 109 125
120 133 150
127 141 159
125 139 158
131 144 162
116 129 147
103 115 130
72 81 92
30 33 38
31 34 39
50 56 63
60 67 76
59 65 74
18 20 22
6 6 7
23 25 29
60 67 76
76 84 95
96 108 123
106 118 133
84 94 107
51 57 64
22 25 28
36 40 45
59 66 75
87 97 111
99 110 124
132 147 166
126 140 159
68 76 86
26 28 32
68 75 85
129 143 162
176 196 221
221 235 255
221 235 255
221 235 255
221 235 255
221 235 255
221 235 255
221 235 255
221 235 255
221 235 255
221 235 255
221 235 255
221 235 255
221 235 255
221 235 255
221 235 255
221 235 255
221 235 255
221 235 255
221 235 255
221 235 255
221 235 255
221 235 255
221 235 255
221 235 255
221 235 255
221 235 255
221 235 255
221 235 255
221 235 255
221 235 255
221 235 255
221 235 255
221 235 255
221 235 255
221 235 255
221 235 255
221 235 255
221 235 255
221 235 255
221 235 255
221 235 255
221 235 255
221 235 255
221 235 255
221 235 255
221 235 255
221 235 255
221 235 255
221 235 255
221 235 255
221 235 255
221 235 255
221 235 255
221 235 255
221 235 255
221 235 255
221 235 255
221 235 255
221 235 255
221 235 255
221 235 255
221 235 255
221 235 255
221 235 255
221 235 255
221 235 255
221 235 255
221 235 255
221 235 255
221 235 255
221 235 255
221 235 255
221 235 255
221 235 255
221 235 255
221 235 255
221 235 255
221 235 255
221 235 255
221 235 255
221 235 255
221 235 255
221 235 255
221 235 255
221 235 255
221 235 255
221 235 255
221 235 255
221 235 255
221 235 255
221 235 255
221 235 255
221 235 255
221 235 255
221 235 255
221 235 255
221 235 255
221 235 255
221 235 255
221 235 255
221 235 255
221 235 255
221 235 255
221 235 255
221 235 255
221 235 255
221 235 255
221 235 255
221 235 255
221 235 255
221 235 255
221 235 255
221 235 255
221 235 255
221 235 255
221 235 255
221 235 255
221 235 255
221 235 255
221 235 255
221 235 255
221 235 255
221 235 255
221 235 255
221 235 255
221 235 255
221 235 255
221 235 255
221 235 255
221 235 255
221 235 255
221 235 255
221 235 255
221 235 255
221 235 255
221 235 255
221 235 255
221 235 255
221 235 255
221 235 255
221 235 255
221 235 255
221 235 255
221 235 255
221 235 255
221 235 255
221 235 255
221 235 255
221 235 255
221 235 255
221 235 255
221 235 255
221 235 255
221 235 255
221 235 255
221 235 255
221 235 255
221 235 255
221 235 255
221 235 255
221 235 255
221 235 255
221 235 255
221 235 255
221 235 255
221 235 255
221 235 255
221 235 255
221 235 255
221 235 255
221 235 255
221 235 255
221 235 255
221 235 255
221 235 255
221 235 255
221 235 255
221 235 255
221 235 255
221 235 255
221 235 255
221 235 255
221 235 255
221 235 255
221 235 255
221 235 255
221 235 255
221 235 255
221 235 255
221 235 255
221 235 255
221 235 255
221 235 255
221 235 255
221 235 255
221 235 255
221 235 255
221 235 255
221 235 255
221 235 255
221 235 255
221 235 255
221 235 255
221 235 255
177 195 219
178 196 221
178 197 222
175 195 221
178 197 222
172 191 216
174 194 219
181 201 228
178 197 223
177 196 221
172 192 218
170 189 215
175 194 218
170 189 214
170 189 214
168 187 213
170 188 212
180 200 226
158 176 200
169 187 211
181 200 225
175 193 218
180 201 228
172 193 219
178 196 220
167 185 208
163 181 205
152 170 194
144 161 183
138 154 174
130 144 163
125 138 156
117 130 147
125 139 159
151 167 189
158 175 198
174 194 220
174 193 219
169 187 211
180 200 226
182 201 227
182 201 227
179 198 224
178 198 225
174 193 219
168 186 211
153 169 191
138 153 173
111 124 141
94 105 120
81 90 102
77 86 97
61 68 78
67 74 84
78 87 99
94 105 118
81 91 103
78 86 98
75 84 95
73 81 92
71 79 89
69 78 89
60 67 76
45 50 56
22 25 28
11 12 14
11 12 14
11 13 14
21 23 26
30 34 38
29 32 37
19 22 25
34 38 42
59 65 74
62 69 79
55 61 69
58 64 73
59 66 75
62 69 77
72 80 90
80 89 102
70 78 88
78 87 98
71 79 89
60 67 76
53 59 67
35 38 43
9 10 11
32 36 41
53 59 66
63 69 78
70 78 88
79 87 99
69 77 87
61 67 77
44 49 55
20 23 26
6 7 8
20 22 25
40 45 51
67 74 85
89 98 111
101 112 127
114 126 143
108 121 138
97 108 123
87 97 110
85 94 107
83 93 106
88 99 112
110 122 138
133 147 165
147 163 185
152 169 192
154 171 194
150 166 189
164 182 205
165 184 208
158 177 202
174 193 220
176 196 223
174 193 218
168 188 214
165 182 205
131 146 167
136 151 171
146 162 183
150 167 189
151 167 189
146 162 184
146 162 183
148 164 185
155 171 193
124 139 158
124 138 156
111 123 139
107 119 136
113 127 144
123 137 155
129 143 162
121 134 153
124 138 156
86 96 109
65 72 83
38 42 48
14 16 18
12 13 15
12 13 15
20 22 25
36 40 45
40 44 50
33 37 41
23 25 28
12 14 15
15 16 18
11 12 14
27 30 35
54 59 67
79 87 98
98 109 123
95 106 120
101 112 127
97 108 122
112 123 139
132 147 167
122 136 154
125 139 157
112 124 140
97 108 122
70 77 87
50 56 63
52 58 66
71 79 89
67 75 85
69 76 86
45 50 57
13 14 16
14 16 18
36 40 45
70 78 88
102 113 128
115 127 144
107 118 133
55 61 69
14 16 18
16 18 20
59 65 74
73 81 92
98 109 124
118 132 150
126 140 158
47 51 58
24 26 30
77 86 98
126 140 160
181 199 222
221 235 255
221 235 255
221 235 255
221 235 255
221 235 255
221 235 255
221 235 255
221 235 255
221 235 255
221 235 255
221 235 255
221 235 255
221 235 255
221 235 255
221 235 255
221 235 255
221 235 255
221 235 255
221 235 255
221 235 255
221 235 255
221 235 255
221 235 255
221 235 255
221 235 255
221 235 255
221 235 255
221 235 255
221 235 255
221 235 255
221 235 255
221 235 255
221 235 255
221 235 255
221 235 255
221 235 255
221 235 255
221 235 255
221 235 255
221 235 255
221 235 255
221 235 255
221 235 255
221 235 255
221 235 255
221 235 255
221 235 255
221 235 255
221 235 255
221 235 255
221 235 255
221 235 255
221 235 255
221 235 255
221 235 255
221 235 255
221 235 255
221 235 255
221 235 255
221 235 255
221 235 255
221 235 255
221 235 255
221 235 255
221 235 255
221 235 255
221 235 255
221 235 255
221 235 255
221 235 255
221 235 255
221 235 255
221 235 255
221 235 255
221 235 255
221 235 255
221 235 255
221 235 255
221 235 255
221 235 255
221 235 255
221 235 255
221 235 255
221 235 255
221 235 255
221 235 255
221 235 255
221 235 255
221 235 255
221 235 255
221 235 255
221 235 255
221 235 255
221 235 255
221 235 255
221 235 255
221 235 255
221 235 255
221 235 255
221 235 255
221 235 255
221 235 255
221 236 255
221 236 255
221 236 255
221 236 255
221 236 255
221 236 255
221 236 255
221 236 255
221 236 255
221 236 255
221 236 255
221 236 255
221 236 255
221 236 255
221 236 255
221 236 255
221 236 255
221 236 255
221 236 255
221 236 255
221 236 255
221 236 255
221 236 255
221 236 255
221 236 255
221 236 255
221 236 255
221 236 255
221 236 255
221 236 255
221 236 255
221 236 255
221 236 255
221 236 255
221 236 255
221 236 255
221 236 255
221 236 255
221 236 255
221 236 255
221 236 255
221 236 255
221 236 255
221 236 255
221 236 255
221 236 255
221 236 255
221 236 255
221 236 255
221 236 255
221 236 255
221 236 255
221 236 255
221 236 255
221 236 255
221 236 255
221 236 255
221 236 255
221 236 255
221 236 255
221 236 255
221 236 255
221 236 255
221 236 255
221 236 255
221 236 255
221 236 255
221 236 255
221 236 255
221 236 255
221 236 255
221 236 255
221 236 255
221 236 255
221 236 255
221 236 255
221 236 255
221 236 255
221 236 255
221 236 255
221 236 255
221 236 255
221 236 255
221 236 255
221 236 255
221 236 255
221 236 255
221 236 255
221 236 255
221 236 255
221 236 255
221 236 255
221 236 255
221 236 255
221 236 255
221 236 255
221 236 255
221 236 255
221 236 255
221 236 255
221 236 255
221 236 255
172 190 213
173 191 216
176 193 217
173 192 217
176 195 220
172 191 215
176 195 220
181 202 229
175 193 219
186 205 231
179 199 224
168 187 213
170 189 215
171 190 216
173 191 215
175 194 219
170 187 211
171 190 216
169 187 211
157 175 199
166 185 211
178 197 223
174 194 221
178 198 225
177 197 223
176 195 220
172 190 215
164 182 206
158 175 198
141 157 179
134 147 166
127 142 162
120 133 152
118 131 149
121 135 153
139 154 174
152 169 192
156 174 198
160 178 202
163 181 205
171 190 215
161 178 201
179 198 224
171 190 215
174 193 218
158 176 201
141 157 178
125 138 156
101 113 129
79 87 99
67 75 85
61 68 77
58 64 73
58 65 73
61 68 77
68 76 86
68 76 86
68 75 85
65 72 82
63 70 80
64 71 81
67 75 85
61 68 77
40 45 50
23 25 28
15 16 18
8 9 11
17 19 21
33 37 43
52 57 65
39 44 49
25 28 32
23 26 30
49 55 62
67 75 84
69 76 86
53 59 67
56 62 70
66 73 83
90 101 114
96 107 121
100 111 125
94 104 118
87 97 111
85 94 106
60 67 76
29 32 37
14 15 17
42 47 53
69 76 86
74 82 93
84 94 106
87 97 110
85 94 106
64 71 81
39 43 48
20 22 24
6 7 8
19 22 25
45 49 55
76 84 95
98 109 124
109 121 136
114 127 144
98 109 123
86 96 109
82 92 104
84 93 105
84 93 106
101 112 127
117 129 146
129 144 163
133 149 170
150 167 190
155 172 195
158 175 198
157 175 198
164 183 208
172 192 219
178 197 222
177 198 225
171 190 215
160 178 202
134 150 171
140 155 176
150 167 190
156 174 197
154 172 195
155 173 196
144 158 178
151 168 191
154 172 196
158 175 197
140 156 178
114 127 144
102 113 128
111 123 139
123 137 155
136 151 171
132 146 164
134 149 170
119 133 150
96 106 120
59 66 75
21 24 27
3 4 4
5 5 6
17 19 21
35 39 44
30 33 38
31 35 39
27 30 35
7 8 9
3 3 4
6 7 8
8 9 10
21 24 28
49 55 62
80 88 100
103 114 129
99 110 125
85 94 107
90 100 113
106 118 134
134 149 169
136 151 172
126 139 157
108 120 136
96 106 120
75 83 94
71 79 90
73 81 91
76 84 96
77 86 98
81 91 103
72 80 91
34 38 43
5 6 6
23 25 29
68 75 85
106 117 133
118 131 149
110 122 139
50 56 63
11 13 15
17 19 21
41 46 52
53 59 68
86 96 108
93 103 117
104 116 131
34 38 43
44 49 55
96 107 121
116 129 147
173 192 217
221 236 255
221 236 255
221 236 255
221 236 255
221 236 255
221 236 255
221 236 255
221 236 255
221 236 255
221 236 255
221 236 255
221 236 255
221 236 255
221 236 255
221 236 255
221 236 255
221 236 255
221 236 255
221 236 255
221 236 255
221 236 255
221 236 255
221 236 255
221 236 255
221 236 255
221 236 255
221 236 255
221 236 255
221 236 255
221 236 255
221 236 255
221 236 255
221 236 255
221 236 255
221 236 255
221 236 255
221 236 255
221 236 255
221 236 255
221 236 255
221 236 255
221 236 255
221 236 255
221 236 255
221 236 255
221 236 255
221 236 255
221 236 255
221 236 255
221 236 255
221 236 255
221 236 255
221 236 255
221 236 255
221 236 255
221 236 255
221 236 255
221 236 255
221 236 255
221 236 255
221 236 255
221 236 255
221 236 255
221 236 255
221 236 255
221 236 255
221 236 255
221 236 255
221 236 255
221 236 255
221 236 255
221 236 255
221 236 255
221 236 255
221 236 255
221 236 255
221 236 255
221 236 255
221 236 255
221 236 255
221 236 255
221 236 255
221 236 255
221 236 255
221 236 255
221 236 255
221 236 255
221 236 255
221 236 255
221 236 255
221 236 255
221 236 255
221 236 255
221 236 255
221 236 255
221 236 255
221 236 255
221 236 255
221 236 255
221 236 255
221 236 255
221 236 255
221 236 255
221 236 255
221 236 255
221 236 255
221 236 255
221 236 255
221 236 255
221 236 255
221 236 255
221 236 255
221 236 255
221 236 255
221 236 255
221 236 255
221 236 255
221 236 255
221 236 255
221 236 255
221 236 255
221 236 255
221 236 255
221 236 255
221 236 255
221 236 255
221 236 255
221 236 255
221 236 255
221 236 255
221 236 255
221 236 255
221 236 255
221 236 255
221 236 255
221 236 255
221 236 255
221 236 255
221 236 255
221 236 255
221 236 255
221 236 255
221 236 255
221 236 255
221 236 255
221 236 255
221 236 255
221 236 255
221 236 255
221 236 255
221 236 255
221 236 255
221 236 255
221 236 255
221 236 255
221 236 255
221 236 255
221 236 255
221 236 255
221 236 255
221 236 255
221 236 255
221 236 255
221 236 255
221 236 255
221 236 255
221 236 255
221 236 255
221 236 255
221 236 255
221 236 255
221 236 255
221 236 255
221 236 255
221 236 255
221 236 255
221 236 255
221 236 255
221 236 255
221 236 255
221 236 255
221 236 255
221 236 255
221 236 255
221 236 255
221 236 255
221 236 255
221 236 255
221 236 255
221 236 255
221 236 255
221 236 255
221 236 255
221 236 255
221 236 255
221 236 255
221 236 255
221 236 255
221 236 255
221 236 255
221 236 255
221 236 255
221 236 255
221 236 255
173 190 214
173 192 217
172 190 215
170 189 214
181 200 227
178 197 223
183 203 230
176 195 221
167 186 212
183 203 229
174 193 218
173 192 217
179 197 223
175 195 222
166 184 209
170 190 216
177 195 221
173 193 219
166 185 210
162 180 203
168 187 213
166 185 210
175 196 223
180 198 222
178 197 222
165 183 206
163 181 205
167 186 211
151 169 193
150 167 188
134 149 169
129 144 164
128 143 162
114 127 144
111 123 138
113 125 142
116 130 147
141 157 178
149 166 188
153 171 195
158 174 197
155 172 196
163 180 204
166 184 208
162 179 202
163 180 203
142 157 178
120 134 152
99 110 125
74 82 93
62 68 77
53 59 67
56 62 69
57 64 72
61 68 77
66 73 83
73 81 92
71 79 89
64 71 81
62 70 79
59 66 74
62 69 78
50 56 63
30 33 38
22 24 27
13 15 17
8 9 10
15 17 20
35 39 45
52 58 65
43 47 54
32 36 40
24 26 30
46 51 58
67 74 84
71 79 90
56 62 71
68 76 86
85 95 107
99 110 126
105 117 133
105 117 133
108 120 136
103 115 130
93 104 118
70 78 89
32 36 41
14 15 18
45 50 57
57 63 72
71 79 90
80 88 99
87 96 108
85 94 107
58 65 74
22 24 28
8 9 10
15 17 20
30 34 38
51 57 65
74 83 94
94 104 118
100 112 127
106 118 134
93 103 118
85 95 108
84 93 105
88 97 110
98 108 122
111 123 139
122 136 154
133 148 169
142 157 177
156 172 195
157 173 195
162 179 202
175 193 218
163 181 206
182 201 227
181 201 229
175 194 220
171 190 215
152 168 190
143 158 179
153 171 194
151 168 192
151 167 189
158 176 199
157 173 196
156 172 194
158 174 196
148 164 185
149 165 188
136 151 171
115 128 145
105 117 134
117 130 146
128 142 161
130 145 164
130 144 163
122 135 154
112 124 141
85 94 107
50 56 64
17 18 21
6 7 8
2 2 3
15 17 20
25 27 31
13 14 16
9 10 12
13 15 17
7 7 8
5 5 6
8 9 10
14 15 17
31 35 40
51 56 64
72 80 91
99 110 124
97 108 122
81 90 102
88 98 112
112 125 142
127 141 159
132 147 167
130 144 164
112 125 142
103 115 130
91 101 114
84 94 107
94 103 116
85 95 108
91 101 114
90 100 113
79 87 98
47 53 60
16 18 20
16 18 21
54 60 69
88 98 111
107 118 134
85 95 107
31 34 38
22 25 28
40 45 51
18 20 23
30 34 38
52 58 66
46 51 58
65 73 83
44 49 56
82 91 104
102 114 129
136 151 170
176 194 217
221 236 255
221 236 255
221 236 255
221 236 255
221 236 255
221 236 255
221 236 255
221 236 255
221 236 255
221 236 255
221 236 255
221 236 255
221 236 255
221 236 255
221 236 255
221 236 255
221 236 255
221 236 255
221 236 255
221 236 255
221 236 255
221 236 255
221 236 255
221 236 255
221 236 255
221 236 255
221 236 255
221 236 255
221 236 255
221 236 255
221 236 255
221 236 255
221 236 255
221 236 255
221 236 255
221 236 255
221 236 255
221 236 255
221 236 255
221 236 255
221 236 255
221 236 255
221 236 255
221 236 255
221 236 255
221 236 255
221 236 255
221 236 255
221 236 255
221 236 255
221 236 255
221 236 255
221 236 255
221 236 255
221 236 255
221 236 255
221 236 255
221 236 255
221 236 255
221 236 255
221 236 255
221 236 255
221 236 255
221 236 255
221 236 255
221 236 255
221 236 255
221 236 255
221 236 255
221 236 255
221 236 255
221 236 255
221 236 255
221 236 255
221 236 255
221 236 255
221 236 255
221 236 255
221 236 255
221 236 255
221 236 255
221 236 255
221 236 255
221 236 255
221 236 255
221 236 255
221 236 255
221 236 255
221 236 255
221 236 255
221 236 255
221 236 255
221 236 255
221 236 255
221 236 255
221 236 255
221 236 255
221 236 255
221 236 255
221 236 255
221 236 255
221 236 255
221 236 255
221 236 255
221 236 255
221 236 255
221 236 255
221 236 255
221 236 255
221 236 255
221 236 255
221 236 255
221 236 255
221 236 255
221 236 255
221 236 255
221 236 255
221 236 255
221 236 255
221 236 255
221 236 255
221 236 255
221 236 255
221 236 255
221 236 255
221 236 255
221 236 255
221 236 255
221 236 255
221 236 255
221 236 255
221 236 255
221 236 255
221 236 255
221 236 255
221 236 255
221 236 255
221 236 255
221 236 255
221 236 255
221 236 255
221 236 255
221 236 255
221 236 255
221 236 255
221 236 255
221 236 255
221 236 255
221 236 255
221 236 255
221 236 255
221 236 255
221 236 255
221 236 255
221 236 255
221 236 255
221 236 255
221 236 255
221 236 255
221 236 255
221 236 255
221 236 255
221 236 255
221 236 255
221 236 255
221 236 255
221 236 255
221 236 255
221 236 255
221 236 255
221 236 255
221 236 255
221 236 255
221 236 255
221 236 255
221 236 255
221 236 255
221 236 255
221 236 255
221 236 255
221 236 255
221 236 255
221 236 255
221 236 255
221 236 255
221 236 255
221 236 255
221 236 255
221 236 255
221 236 255
221 236 255
221 236 255
221 236 255
221 236 255
221 236 255
221 236 255
221 236 255
221 236 255
221 236 255
221 236 255
221 236 255
221 236 255
221 236 255
221 236 255
178 194 216
156 173 197
170 188 212
176 195 221
167 186 211
179 199 226
172 191 217
176 194 219
177 197 223
178 198 224
176 194 219
178 198 225
178 197 223
174 193 219
160 178 202
166 185 209
173 191 216
179 198 224
166 184 208
158 175 199
166 185 211
173 191 216
172 191 217
175 194 220
168 187 212
167 187 213
162 180 204
166 183 207
158 176 199
141 156 176
137 153 173
139 155 175
137 152 171
121 135 153
107 119 135
108 119 135
100 110 125
113 125 142
126 141 160
138 153 174
140 155 176
135 151 173
150 168 191
160 177 200
163 180 204
149 165 187
137 152 172
115 128 146
93 103 117
75 83 94
61 68 78
55 61 69
60 67 76
74 83 94
82 91 103
77 85 96
79 89 101
80 89 101
82 91 103
77 85 96
56 62 71
52 57 65
40 45 51
22 24 28
13 15 17
8 9 10
6 7 8
17 19 21
37 42 47
49 55 62
48 54 61
39 44 50
30 33 38
39 43 49
54 60 68
68 76 86
62 69 78
69 77 87
91 101 115
108 120 135
111 123 140
115 128 145
111 123 139
110 122 139
106 118 134
81 90 102
44 49 55
14 15 17
20 23 26
32 36 41
50 55 62
66 73 82
70 77 87
63 70 80
44 49 56
18 20 23
10 12 13
26 29 33
43 48 54
68 75 85
80 89 101
84 93 105
97 107 121
102 113 129
104 116 132
96 108 122
99 109 124
109 121 137
116 129 146
134 148 168
141 156 177
154 170 193
150 168 192
162 180 204
164 184 210
178 197 222
174 192 216
176 195 220
173 192 218
179 200 227
168 186 211
152 168 191
131 146 165
152 169 192
169 187 212
164 183 207
154 172 197
166 184 207
157 174 197
146 162 184
155 173 196
158 175 199
143 160 182
132 145 164
120 133 150
118 131 149
114 127 145
112 124 140
113 126 144
116 129 146
112 124 141
94 105 119
66 73 82
40 44 50
11 12 14
6 7 8
9 10 11
5 6 6
5 5 6
7 7 9
6 7 8
12 13 15
7 7 8
12 13 15
17 19 21
21 23 26
38 43 48
48 53 60
59 66 75
88 97 110
99 110 124
93 103 117
94 104 117
121 134 151
123 136 153
123 136 154
137 152 172
129 143 161
117 130 148
107 119 136
100 111 126
102 113 127
103 115 130
97 108 122
90 100 114
74 83 94
49 55 62
39 43 48
17 19 22
48 53 61
82 92 104
94 104 117
65 72 82
25 28 32
34 38 43
54 60 68
28 31 35
13 14 16
14 16 18
13 15 17
23 26 29
78 86 98
107 119 134
113 125 142
141 155 175
172 188 211
221 236 255
221 236 255
221 236 255
221 236 255
221 236 255
221 236 255
221 236 255
221 236 255
221 236 255
221 236 255
221 236 255
221 236 255
221 236 255
221 236 255
221 236 255
221 236 255
221 236 255
221 236 255
221 236 255
221 236 255
221 236 255
221 236 255
221 236 255
221 236 255
221 236 255
221 236 255
221 236 255
221 236 255
221 236 255
221 236 255
221 236 255
221 236 255
221 236 255
221 236 255
221 236 255
221 236 255
221 236 255
221 236 255
221 236 255
221 236 255
221 236 255
221 236 255
221 236 255
221 236 255
221 236 255
221 236 255
221 236 255
221 236 255
221 236 255
221 236 255
221 236 255
221 236 255
221 236 255
221 236 255
221 236 255
221 236 255
221 236 255
221 236 255
221 236 255
221 236 255
221 236 255
221 236 255
221 236 255
221 236 255
221 236 255
221 236 255
221 236 255
221 236 255
221 236 255
221 236 255
221 236 255
221 236 255
221 236 255
221 236 255
221 236 255
221 236 255
221 236 255
221 236 255
221 236 255
221 236 255
221 236 255
221 236 255
221 236 255
221 236 255
221 236 255
221 236 255
221 236 255
221 236 255
221 236 255
221 236 255
221 236 255
221 236 255
221 236 255
221 236 255
221 236 255
221 236 255
221 236 255
221 236 255
221 236 255
221 236 255
221 236 255
221 236 255
221 236 255
221 236 255
221 236 255
221 236 255
221 236 255
221 236 255
221 236 255
221 236 255
221 236 255
221 236 255
221 236 255
221 236 255
221 236 255
221 236 255
221 236 255
221 236 255
221 236 255
221 236 255
221 236 255
221 236 255
221 236 255
221 236 255
221 236 255
221 236 255
221 236 255
221 236 255
221 236 255
221 236 255
221 236 255
221 236 255
221 236 255
221 236 255
221 236 255
221 236 255
221 236 255
221 236 255
221 236 255
221 236 255
221 236 255
221 236 255
221 236 255
221 236 255
221 236 255
221 236 255
221 236 255
221 236 255
221 236 255
221 236 255
221 236 255
221 236 255
221 236 255
221 236 255
221 236 255
221 236 255
221 236 255
221 236 255
221 236 255
221 236 255
221 236 255
221 236 255
221 236 255
221 236 255
221 236 255
221 236 255
221 236 255
221 236 255
221 236 255
221 236 255
221 236 255
221 236 255
221 236 255
221 236 255
221 236 255
221 236 255
221 236 255
221 236 255
221 236 255
221 236 255
221 236 255
221 236 255
221 236 255
221 236 255
221 236 255
221 236 255
221 236 255
221 236 255
221 236 255
221 236 255
221 236 255
221 236 255
221 236 255
221 236 255
221 236 255
221 236 255
221 236 255
221 236 255
221 236 255
221 236 255
221 236 255
221 236 255
221 236 255
221 236 255
173 187 208
155 172 194
165 183 207
174 192 218
175 195 221
182 202 228
175 194 219
174 193 219
177 197 224
176 196 222
170 188 213
176 194 219
170 189 214
171 189 212
163 182 207
179 198 224
170 188 212
176 195 221
163 181 204
159 176 200
168 187 212
170 189 215
173 192 217
166 186 213
157 176 200
158 175 197
164 182 206
160 179 204
149 165 187
154 171 193
150 167 189
151 168 191
150 166 187
132 146 165
121 136 155
104 115 130
100 111 126
110 122 138
121 134 150
131 146 165
139 154 175
139 155 175
144 160 181
152 168 189
152 169 192
139 155 176
114 127 144
96 108 122
87 96 109
77 86 97
64 71 80
70 78 89
75 83 93
85 95 107
96 106 120
91 102 116
93 103 117
95 105 120
98 109 125
98 109 123
73 81 93
59 66 75
47 52 58
32 36 41
11 12 13
12 13 15
9 10 11
21 24 27
43 48 54
51 56 64
46 51 58
33 36 41
31 35 39
31 35 39
30 33 38
48 54 60
60 66 75
70 78 88
78 87 98
101 113 128
101 112 127
95 106 120
96 107 121
95 105 118
89 99 112
73 80 91
46 51 58
26 29 33
7 8 9
10 11 13
26 29 33
44 49 56
56 62 70
46 52 59
30 34 38
10 11 13
17 18 21
39 43 49
65 72 81
78 86 97
76 84 96
76 85 97
84 93 105
97 107 121
111 123 140
100 111 126
106 118 134
117 130 148
131 145 164
151 167 189
149 165 186
145 161 182
169 187 211
167 186 212
171 190 215
173 192 217
179 198 223
175 194 219
171 191 217
161 179 203
157 174 196
138 154 175
149 165 186
167 185 209
169 187 211
167 186 212
169 188 213
166 184 209
160 178 201
153 169 191
155 172 194
153 170 192
139 155 177
134 148 168
128 142 161
129 143 162
121 135 154
113 126 142
97 108 122
106 117 132
100 111 126
82 91 103
58 65 74
30 33 38
9 10 11
6 7 8
12 14 15
8 9 11
8 9 10
12 13 15
8 9 10
9 10 11
8 9 10
17 19 21
15 17 20
19 21 23
36 40 45
53 59 67
63 70 80
86 95 108
106 118 133
93 104 117
100 111 126
103 115 131
114 126 142
101 112 127
128 141 159
134 148 168
134 149 169
131 146 166
117 130 148
115 127 144
104 115 130
109 121 137
96 106 120
79 88 100
67 75 85
51 57 65
14 16 18
46 51 58
76 85 97
87 97 111
53 59 67
20 22 25
38 42 48
45 50 56
34 38 42
20 23 26
30 34 38
15 16 19
34 38 43
104 116 132
116 129 147
126 140 159
145 160 181
181 197 220
221 236 255
221 236 255
221 236 255
221 236 255
221 236 255
221 236 255
221 236 255
221 236 255
221 236 255
221 236 255
221 236 255
221 236 255
221 236 255
221 236 255
221 236 255
221 236 255
221 236 255
221 236 255
221 236 255
221 236 255
221 236 255
221 236 255
221 236 255
221 236 255
221 236 255
221 236 255
221 236 255
221 236 255
221 236 255
221 236 255
221 236 255
221 236 255
221 236 255
221 236 255
221 236 255
221 236 255
221 236 255
221 236 255
221 236 255
221 236 255
221 236 255
221 236 255
221 236 255
221 236 255
221 236 255
221 236 255
221 236 255
221 236 255
221 236 255
221 236 255
221 236 255
221 236 255
221 236 255
221 236 255
221 236 255
221 236 255
221 236 255
221 236 255
221 236 255
221 236 255
221 236 255
221 236 255
221 236 255
221 236 255
221 236 255
221 236 255
221 236 255
221 236 255
221 236 255
221 236 255
221 236 255
221 236 255
221 236 255
221 236 255
221 236 255
221 236 255
221 236 255
221 236 255
221 236 255
221 236 255
221 236 255
221 236 255
221 236 255
221 236 255
221 236 255
221 236 255
221 236 255
221 236 255
221 236 255
221 236 255
221 236 255
221 236 255
221 236 255
221 236 255
221 236 255
221 236 255
221 236 255
221 236 255
221 236 255
221 236 255
221 236 255
221 236 255
221 236 255
221 236 255
221 236 255
221 236 255
221 236 255
221 236 255
221 236 255
221 236 255
221 236 255
221 236 255
221 236 255
221 236 255
221 236 255
221 236 255
221 236 255
221 236 255
221 236 255
221 236 255
221 236 255
221 236 255
221 236 255
221 236 255
221 236 255
221 236 255
221 236 255
221 236 255
221 236 255
221 236 255
221 236 255
221 236 255
221 236 255
221 236 255
221 236 255
221 236 255
221 236 255
221 236 255
221 236 255
221 236 255
221 236 255
221 236 255
221 236 255
221 236 255
221 236 255
221 236 255
221 236 255
221 236 255
221 236 255
221 236 255
221 236 255
221 236 255
221 236 255
221 236 255
221 236 255
221 236 255
221 236 255
221 236 255
221 236 255
221 236 255
221 236 255
221 236 255
221 236 255
221 236 255
221 236 255
221 236 255
221 236 255
221 236 255
221 236 255
221 236 255
221 236 255
221 236 255
221 236 255
221 236 255
221 236 255
221 236 255
221 236 255
221 236 255
221 236 255
221 236 255
221 236 255
221 236 255
221 236 255
221 236 255
221 236 255
221 236 255
221 236 255
221 236 255
221 236 255
221 236 255
221 236 255
221 236 255
221 236 255
221 236 255
221 236 255
221 236 255
221 236 255
221 236 255
221 236 255
221 236 255
221 236 255
221 236 255
221 236 255
221 236 255
173 188 208
147 164 186
157 174 196
178 197 223
173 192 219
174 193 218
186 207 234
181 200 225
175 194 220
170 189 215
176 194 220
177 196 221
166 184 207
163 181 204
164 182 206
168 187 212
170 189 214
175 195 222
170 189 214
159 176 199
161 179 203
158 175 198
164 182 205
167 186 210
156 173 196
155 173 196
158 175 198
151 167 189
145 161 183
162 179 202
165 182 206
160 177 201
146 162 183
141 157 179
139 155 175
107 119 134
104 116 131
111 123 140
110 122 138
121 134 151
129 143 162
136 151 172
136 151 171
145 160 181
134 150 170
116 128 144
104 116 131
91 100 113
76 84 95
70 78 89
70 78 89
85 95 108
90 100 113
95 105 119
104 115 131
99 111 127
102 113 128
111 123 139
109 122 139
114 126 143
91 101 115
73 81 92
54 59 67
33 37 42
16 18 20
9 10 12
16 18 21
29 32 37
44 49 55
52 58 66
38 42 48
17 19 21
16 18 21
23 26 29
27 30 34
33 37 42
51 56 64
68 76 86
81 89 101
81 90 102
74 82 93
66 73 84
62 69 78
69 76 86
68 76 85
57 64 72
44 48 54
38 42 48
29 32 36
10 11 13
13 15 17
29 32 36
36 40 46
31 35 40
15 17 19
23 25 28
31 35 39
55 61 69
72 79 90
88 98 111
74 82 93
75 84 96
79 88 99
86 95 108
104 115 130
123 136 154
136 151 171
133 146 165
141 156 176
151 167 189
141 158 179
158 174 197
166 184 209
160 179 203
176 195 220
171 191 218
180 198 223
173 194 221
175 194 221
154 171 192
144 160 181
147 163 186
163 182 206
155 173 198
170 188 213
166 184 209
174 194 221
176 195 221
165 183 208
156 173 196
154 170 190
144 160 180
140 155 175
135 149 168
129 144 163
129 142 161
117 130 148
108 119 135
88 98 111
74 82 93
69 76 86
58 65 73
39 43 48
12 14 15
8 9 10
11 13 15
8 9 10
14 16 18
15 16 18
7 8 9
4 5 6
8 8 10
14 16 18
15 17 20
16 18 20
30 33 38
36 41 46
63 70 80
81 89 100
87 97 110
108 120 135
100 111 125
102 112 127
103 114 129
80 89 101
84 93 105
112 124 140
132 146 165
147 163 184
145 160 181
131 146 166
122 136 153
114 127 143
105 117 132
92 103 116
82 91 103
78 86 98
53 59 67
16 17 20
42 47 53
80 88 99
85 94 107
51 57 65
23 26 29
29 32 37
31 34 39
38 42 47
40 45 51
50 56 63
39 43 49
63 70 79
119 133 151
123 137 155
137 152 173
143 158 179
180 196 217
221 236 255
221 236 255
221 236 255
221 236 255
221 236 255
221 236 255
221 236 255
221 236 255
221 236 255
221 236 255
221 236 255
221 236 255
221 236 255
221 236 255
221 236 255
221 236 255
221 236 255
221 236 255
221 236 255
221 236 255
221 236 255
221 236 255
221 236 255
221 236 255
221 236 255
221 236 255
221 236 255
221 236 255
221 236 255
221 236 255
221 236 255
221 236 255
221 236 255
221 236 255
221 236 255
221 236 255
221 236 255
221 236 255
221 236 255
221 236 255
221 236 255
221 236 255
221 236 255
221 236 255
221 236 255
221 236 255
221 236 255
221 236 255
221 236 255
221 236 255
221 236 255
221 236 255
221 236 255
221 236 255
221 236 255
221 236 255
221 236 255
221 236 255
221 236 255
221 236 255
221 236 255
221 236 255
221 236 255
221 236 255
221 236 255
221 236 255
221 236 255
221 236 255
221 236 255
221 236 255
221 236 255
221 236 255
221 236 255
221 236 255
221 236 255
221 236 255
221 236 255
221 236 255
221 236 255
221 236 255
221 236 255
221 236 255
221 236 255
221 236 255
221 236 255
221 236 255
221 236 255
221 236 255
221 236 255
221 236 255
221 236 255
221 236 255
221 236 255
221 236 255
221 236 255
221 236 255
221 236 255
221 236 255
221 236 255
221 236 255
221 236 255
221 236 255
221 236 255
221 236 255
221 236 255
221 236 255
221 236 255
221 236 255
221 236 255
221 236 255
221 236 255
221 236 255
221 236 255
221 236 255
221 236 255
221 236 255
221 236 255
221 236 255
221 236 255
221 236 255
221 236 255
221 236 255
221 236 255
221 236 255
221 236 255
221 236 255
221 236 255
221 236 255
221 236 255
221 236 255
221 236 255
221 236 255
221 236 255
221 236 255
221 236 255
221 236 255
221 236 255
221 236 255
221 236 255
221 236 255
221 236 255
221 236 255
221 236 255
221 236 255
221 236 255
221 236 255
221 236 255
221 236 255
221 236 255
221 236 255
221 236 255
221 236 255
221 236 255
221 236 255
221 236 255
221 236 255
221 236 255
221 236 255
221 236 255
221 236 255
221 236 255
221 236 255
221 236 255
221 236 255
221 236 255
221 236 255
221 236 255
221 236 255
221 236 255
221 236 255
221 236 255
221 236 255
221 236 255
221 236 255
221 236 255
221 236 255
221 236 255
221 236 255
221 236 255
221 236 255
221 236 255
221 236 255
221 236 255
221 236 255
221 236 255
221 236 255
221 236 255
221 236 255
221 236 255
221 236 255
221 236 255
221 236 255
221 236 255
221 236 255
221 236 255
221 236 255
221 236 255
221 236 255
221 236 255
221 236 255
221 236 255
221 236 255
221 236 255
221 236 255
176 190 210
127 141 159
167 185 209
166 184 209
170 189 214
164 183 207
177 196 221
165 184 209
174 193 218
181 200 225
172 192 217
158 175 199
164 181 204
170 189 214
168 185 209
174 192 217
169 188 213
173 192 217
170 188 212
160 178 203
161 181 206
165 183 208
152 168 190
147 163 186
158 175 197
163 181 204
145 161 182
142 158 179
144 159 181
150 167 190
153 169 191
160 177 201
145 161 183
142 157 177
137 151 170
110 122 138
106 118 134
107 119 135
103 114 129
110 123 139
125 139 157
140 155 175
134 148 168
125 138 156
117 130 147
109 121 136
97 107 120
94 104 118
88 98 112
79 88 99
85 94 106
104 115 130
112 124 140
115 127 143
119 133 151
113 125 141
102 113 128
108 120 137
114 128 145
123 137 155
119 132 149
97 107 120
67 75 85
46 51 58
24 27 30
7 8 9
10 12 13
16 18 21
26 29 33
26 29 32
20 23 26
15 17 19
23 26 29
29 32 37
26 29 33
29 32 37
49 54 60
53 59 66
50 55 62
46 51 59
51 57 65
37 41 47
27 31 35
33 36 41
36 40 45
33 38 43
36 41 46
37 41 46
29 33 37
17 19 21
11 12 14
23 26 29
21 24 27
12 13 15
38 42 48
51 56 64
50 55 62
62 68 78
69 77 87
77 85 96
84 93 106
85 94 107
84 93 106
97 108 122
103 115 131
121 134 151
124 138 157
133 148 167
135 149 169
152 169 191
157 174 197
164 182 206
173 191 216
166 185 210
172 191 217
183 202 228
178 198 223
172 192 217
158 175 199
151 167 190
154 172 196
154 172 196
166 185 210
164 182 205
173 191 215
172 191 216
177 197 223
174 192 217
163 183 208
157 175 198
160 177 199
151 168 189
139 155 177
131 146 165
129 143 162
125 138 157
99 110 125
88 98 111
66 73 82
55 61 68
48 53 60
36 40 46
17 19 22
16 18 21
24 27 31
24 27 30
10 11 13
17 19 22
21 24 27
11 13 15
14 16 18
25 28 32
24 26 30
27 30 35
30 34 39
45 50 57
53 60 68
79 88 100
92 102 116
100 111 126
103 114 129
111 123 139
98 109 123
72 80 91
59 66 74
74 83 95
106 118 134
129 143 161
141 156 176
150 166 187
139 155 175
120 134 152
110 121 137
94 105 120
87 97 110
73 81 92
57 63 72
40 45 51
22 24 28
24 27 30
64 71 80
78 87 98
59 66 74
18 20 23
13 14 16
30 34 38
51 57 64
54 61 69
65 73 83
62 69 78
99 110 124
141 156 176
132 146 165
133 147 167
149 165 188
181 196 216
221 236 255
221 236 255
221 236 255
221 236 255
221 236 255
221 236 255
221 236 255
221 236 255
221 236 255
221 236 255
221 236 255
221 236 255
221 236 255
221 236 255
221 236 255
221 236 255
221 236 255
221 236 255
221 236 255
221 236 255
221 236 255
221 236 255
221 236 255
221 236 255
221 236 255
221 236 255
221 236 255
221 236 255
221 236 255
221 236 255
221 236 255
221 236 255
221 236 255
221 236 255
221 236 255
221 236 255
221 236 255
221 236 255
221 236 255
221 236 255
221 236 255
221 236 255
221 236 255
221 236 255
221 236 255
221 236 255
221 236 255
221 236 255
221 236 255
221 236 255
221 236 255
221 236 255
221 236 255
221 236 255
221 236 255
221 236 255
221 236 255
221 236 255
221 236 255
221 236 255
221 236 255
221 236 255
221 236 255
221 236 255
221 236 255
221 236 255
221 236 255
221 236 255
221 236 255
221 236 255
221 236 255
221 236 255
221 236 255
221 236 255
221 236 255
221 236 255
221 236 255
221 236 255
221 236 255
221 236 255
221 236 255
221 236 255
221 236 255
221 236 255
221 236 255
221 236 255
221 236 255
221 236 255
221 236 255
221 236 255
221 236 255
221 236 255
221 236 255
221 236 255
221 236 255
221 236 255
221 236 255
221 236 255
221 236 255
221 236 255
221 236 255
221 236 255
222 236 255
222 236 255
222 236 255
222 236 255
222 236 255
222 236 255
222 236 255
222 236 255
222 236 255
222 236 255
222 236 255
222 236 255
222 236 255
222 236 255
222 236 255
222 236 255
222 236 255
222 236 255
222 236 255
222 236 255
222 236 255
222 236 255
222 236 255
222 236 255
222 236 255
222 236 255
222 236 255
222 236 255
222 236 255
222 236 255
222 236 255
222 236 255
222 236 255
222 236 255
222 236 255
222 236 255
222 236 255
222 236 255
222 236 255
222 236 255
222 236 255
222 236 255
222 236 255
222 236 255
222 236 255
222 236 255
222 236 255
222 236 255
222 236 255
222 236 255
222 236 255
222 236 255
222 236 255
222 236 255
222 236 255
222 236 255
222 236 255
222 236 255
222 236 255
222 236 255
222 236 255
222 236 255
222 236 255
222 236 255
222 236 255
222 236 255
222 236 255
222 236 255
222 236 255
222 236 255
222 236 255
222 236 255
222 236 255
222 236 255
222 236 255
222 236 255
222 236 255
222 236 255
222 236 255
222 236 255
222 236 255
222 236 255
222 236 255
222 236 255
222 236 255
222 236 255
222 236 255
222 236 255
222 236 255
222 236 255
222 236 255
222 236 255
222 236 255
222 236 255
222 236 255
222 236 255
222 236 255
222 236 255
222 236 255
222 236 255
222 236 255
222 236 255
179 192 211
109 121 138
155 173 196
167 187 213
179 199 225
169 188 213
175 194 219
156 173 197
167 186 210
161 177 199
166 185 209
152 169 192
157 173 195
151 168 192
165 183 207
156 173 196
164 182 205
168 187 211
174 192 218
166 184 208
171 188 211
168 187 213
163 181 205
149 165 187
153 169 191
155 172 194
147 163 184
134 149 168
135 150 171
149 165 187
152 169 191
146 162 183
132 147 168
135 149 169
129 143 162
104 115 130
98 109 123
101 112 127
92 103 117
97 108 124
115 128 144
121 134 151
126 140 159
124 138 155
121 133 150
110 121 137
107 119 135
111 123 139
108 120 136
104 116 131
110 122 139
125 139 158
126 140 158
130 144 164
129 143 162
124 137 156
111 124 140
115 128 145
113 125 141
125 139 158
133 147 165
112 124 140
87 97 110
71 78 89
43 48 54
25 28 32
12 13 15
5 5 6
7 8 9
11 12 14
10 11 12
7 8 9
15 16 19
21 24 27
16 18 21
20 22 25
34 38 42
34 38 43
28 30 34
11 12 14
21 24 27
12 13 15
7 8 9
8 9 10
6 7 8
7 8 9
12 14 15
13 14 16
20 22 25
11 12 14
7 7 8
12 13 15
8 9 10
30 33 38
58 65 74
68 75 86
69 77 88
69 77 87
70 77 88
77 86 98
91 102 115
97 108 122
105 116 132
101 112 126
109 120 136
119 132 149
125 139 157
145 161 183
148 163 185
157 174 197
163 181 206
159 176 200
165 182 205
173 192 218
171 191 216
169 188 214
174 193 218
159 176 199
152 169 191
159 176 200
155 173 197
169 187 211
167 186 211
164 183 208
175 194 220
179 198 223
171 191 216
184 204 231
165 182 205
178 198 224
164 182 206
151 169 193
154 172 196
138 153 172
119 132 150
99 111 126
77 85 96
64 71 80
58 65 73
43 47 53
32 35 40
33 37 42
26 29 33
23 26 29
32 36 40
29 32 36
24 27 30
11 13 14
20 22 25
32 35 40
39 43 48
41 45 51
41 45 51
35 39 44
47 52 59
65 72 82
73 82 93
83 94 107
80 89 102
85 94 106
87 96 109
95 106 121
79 88 100
56 62 70
39 43 49
60 67 76
88 97 110
110 123 141
142 158 179
150 166 188
154 171 194
124 137 154
107 119 134
92 102 116
79 87 99
63 69 79
39 43 48
29 32 37
21 24 27
25 27 31
65 72 82
78 87 98
58 64 73
21 23 27
8 9 11
18 21 24
49 54 61
69 76 87
70 78 88
77 85 97
118 131 148
143 158 177
117 130 147
137 152 173
149 166 188
185 200 220
222 236 255
222 236 255
222 236 255
222 236 255
222 236 255
222 236 255
222 236 255
222 236 255
222 236 255
222 236 255
222 236 255
222 236 255
222 236 255
222 236 255
222 236 255
222 236 255
222 236 255
222 236 255
222 236 255
222 236 255
222 236 255
222 236 255
222 236 255
222 236 255
222 236 255
222 236 255
222 236 255
222 236 255
222 236 255
222 236 255
222 236 255
222 236 255
222 236 255
222 236 255
222 236 255
222 236 255
222 236 255
222 236 255
222 236 255
222 236 255
222 236 255
222 236 255
222 236 255
222 236 255
222 236 255
222 236 255
222 236 255
222 236 255
222 236 255
222 236 255
222 236 255
222 236 255
222 236 255
222 236 255
222 236 255
222 236 255
222 236 255
222 236 255
222 236 255
222 236 255
222 236 255
222 236 255
222 236 255
222 236 255
222 236 255
222 236 255
222 236 255
222 236 255
222 236 255
222 236 255
222 236 255
222 236 255
222 236 255
222 236 255
222 236 255
222 236 255
222 236 255
222 236 255
222 236 255
222 236 255
222 236 255
222 236 255
222 236 255
222 236 255
222 236 255
222 236 255
222 236 255
222 236 255
222 236 255
222 236 255
222 236 255
222 236 255
222 236 255
222 236 255
222 236 255
222 236 255
222 236 255
222 236 255
222 236 255
222 236 255
222 236 255
222 236 255
222 236 255
222 236 255
222 236 255
222 236 255
222 236 255
222 236 255
222 236 255
222 236 255
222 236 255
222 236 255
222 236 255
222 236 255
222 236 255
222 236 255
222 236 255
222 236 255
222 236 255
222 236 255
222 236 255
222 236 255
222 236 255
222 236 255
222 236 255
222 236 255
222 236 255
222 236 255
222 236 255
222 236 255
222 236 255
222 236 255
222 236 255
222 236 255
222 236 255
222 236 255
222 236 255
222 236 255
222 236 255
222 236 255
222 236 255
222 236 255
222 236 255
222 236 255
222 236 255
222 236 255
222 236 255
222 236 255
222 236 255
222 236 255
222 236 255
222 236 255
222 236 255
222 236 255
222 236 255
222 236 255
222 236 255
222 236 255
222 236 255
222 236 255
222 236 255
222 236 255
222 236 255
222 236 255
222 236 255
222 236 255
222 236 255
222 236 255
222 236 255
222 236 255
222 236 255
222 236 255
222 236 255
222 236 255
222 236 255
222 236 255
222 236 255
222 236 255
222 236 255
222 236 255
222 236 255
222 236 255
222 236 255
222 236 255
222 236 255
222 236 255
222 236 255
222 236 255
222 236 255
222 236 255
222 236 255
222 236 255
222 236 255
222 236 255
222 236 255
222 236 255
222 236 255
222 236 255
222 236 255
222 236 255
222 236 255
222 236 255
222 236 255
222 236 255
180 194 213
108 120 135
160 177 201
170 189 215
171 190 215
178 197 222
168 187 211
161 178 201
139 155 176
144 160 182
164 182 206
149 165 187
139 154 175
143 159 181
145 162 184
133 148 168
148 164 185
162 179 203
178 198 223
175 195 221
177 196 221
164 182 207
171 189 214
151 168 190
149 165 187
153 169 191
153 171 194
136 150 170
132 146 165
136 151 171
139 154 175
126 141 160
141 156 177
137 152 171
122 136 155
113 125 142
103 114 129
93 103 117
93 102 115
92 102 115
89 100 114
106 118 134
108 120 136
115 127 144
113 125 141
111 124 141
119 133 151
130 143 161
124 137 155
119 131 147
133 147 167
136 150 170
136 151 171
133 148 169
136 150 168
129 143 162
119 132 149
113 126 143
113 125 142
120 133 150
126 139 157
122 136 154
105 117 132
100 111 125
74 82 92
59 65 73
41 46 52
27 30 34
40 44 49
46 51 58
36 41 46
23 25 29
18 20 23
21 23 27
18 20 22
10 11 12
12 13 15
12 14 16
10 11 13
10 12 13
13 15 17
16 17 20
19 21 24
19 21 24
19 21 24
16 18 21
25 28 31
24 27 31
10 12 13
4 4 5
5 6 7
4 5 5
19 22 25
37 42 47
54 61 69
69 77 87
77 86 97
74 82 93
83 92 104
86 96 109
89 99 112
104 115 130
110 122 138
115 127 143
111 123 138
117 130 147
119 132 149
136 151 172
148 165 188
156 173 195
168 186 210
167 185 209
178 197 223
171 189 214
167 186 211
176 196 223
168 186 212
163 181 205
160 178 202
154 173 197
167 185 209
171 190 216
173 192 217
177 196 220
177 196 221
178 198 225
161 180 205
170 188 213
169 188 214
172 190 215
172 191 216
161 179 202
155 172 194
144 159 180
107 119 134
83 92 105
67 75 84
51 57 65
45 50 57
35 39 45
44 49 55
46 51 58
40 44 50
35 39 44
34 37 42
42 47 53
39 43 49
22 25 28
12 13 15
21 24 27
38 43 48
46 51 58
52 58 65
55 61 69
66 73 82
74 82 93
79 88 100
81 90 102
67 74 84
57 63 71
72 80 90
73 81 92
55 62 70
38 42 48
42 47 53
56 63 71
72 79 89
97 108 123
130 145 165
145 160 182
150 166 187
128 141 159
99 110 124
72 80 92
67 74 84
56 62 71
30 33 38
25 28 32
30 33 38
24 26 30
71 78 89
80 88 100
61 68 77
41 45 51
22 24 27
12 14 15
47 52 59
67 75 85
74 82 93
90 100 114
127 141 160
123 137 155
113 126 143
145 161 182
153 171 194
198 212 232
222 236 255
222 236 255
222 236 255
222 236 255
222 236 255
222 236 255
222 236 255
222 236 255
222 236 255
222 236 255
222 236 255
222 236 255
222 236 255
222 236 255
222 236 255
222 236 255
222 236 255
222 236 255
222 236 255
222 236 255
222 236 255
222 236 255
222 236 255
222 236 255
222 236 255
222 236 255
222 236 255
222 236 255
222 236 255
222 236 255
222 236 255
222 236 255
222 236 255
222 236 255
222 236 255
222 236 255
222 236 255
222 236 255
222 236 255
222 236 255
222 236 255
222 236 255
222 236 255
222 236 255
222 236 255
222 236 255
222 236 255
222 236 255
222 236 255
222 236 255
222 236 255
222 236 255
222 236 255
222 236 255
222 236 255
222 236 255
222 236 255
222 236 255
222 236 255
222 236 255
222 236 255
222 236 255
222 236 255
222 236 255
222 236 255
222 236 255
222 236 255
222 236 255
222 236 255
222 236 255
222 236 255
222 236 255
222 236 255
222 236 255
222 236 255
222 236 255
222 236 255
222 236 255
222 236 255
222 236 255
222 236 255
222 236 255
222 236 255
222 236 255
222 236 255
222 236 255
222 236 255
222 236 255
222 236 255
222 236 255
222 236 255
222 236 255
222 236 255
222 236 255
222 236 255
222 236 255
222 236 255
222 236 255
222 236 255
222 236 255
222 236 255
222 236 255
222 236 255
222 236 255
222 236 255
222 236 255
222 236 255
222 236 255
222 236 255
222 236 255
222 236 255
222 236 255
222 236 255
222 236 255
222 236 255
222 236 255
222 236 255
222 236 255
222 236 255
222 236 255
222 236 255
222 236 255
222 236 255
222 236 255
222 236 255
222 236 255
222 236 255
222 236 255
222 236 255
222 236 255
222 236 255
222 236 255
222 236 255
222 236 255
222 236 255
222 236 255
222 236 255
222 236 255
222 236 255
222 236 255
222 236 255
222 236 255
222 236 255
222 236 255
222 236 255
222 236 255
222 236 255
222 236 255
222 236 255
222 236 255
222 236 255
222 236 255
222 236 255
222 236 255
222 236 255
222 236 255
222 236 255
222 236 255
222 236 255
222 236 255
222 236 255
222 236 255
222 236 255
222 236 255
222 236 255
222 236 255
222 236 255
222 236 255
222 236 255
222 236 255
222 236 255
222 236 255
222 236 255
222 236 255
222 236 255
222 236 255
222 236 255
222 236 255
222 236 255
222 236 255
222 236 255
222 236 255
222 236 255
222 236 255
222 236 255
222 236 255
222 236 255
222 236 255
222 236 255
222 236 255
222 236 255
222 236 255
222 236 255
222 236 255
222 236 255
222 236 255
222 236 255
222 236 255
222 236 255
222 236 255
222 236 255
222 236 255
222 236 255
222 236 255
194 208 226
93 104 117
157 174 196
166 184 208
180 199 225
165 183 208
164 182 206
143 158 179
117 130 147
121 134 152
149 165 186
136 151 172
123 137 155
110 122 138
118 131 148
123 136 154
134 149 169
152 168 190
158 175 199
172 190 214
180 199 225
170 189 215
167 186 211
156 173 196
147 163 184
154 171 194
153 170 192
144 160 181
138 153 173
134 149 169
129 144 164
128 142 161
132 146 166
126 140 158
127 140 159
125 139 157
117 130 147
119 132 149
92 103 117
80 90 102
82 91 104
79 88 100
90 100 113
91 101 113
100 112 127
117 131 148
125 140 160
125 140 159
121 135 154
135 150 170
133 147 166
145 160 181
144 160 181
139 155 176
130 143 162
130 144 163
120 133 151
107 118 134
108 120 137
120 133 149
123 136 154
120 134 152
118 132 150
117 130 147
95 105 119
75 84 96
70 77 87
54 61 70
62 70 79
67 75 85
66 73 82
50 55 63
36 40 45
49 54 61
59 66 75
44 49 56
39 43 48
32 36 40
37 41 46
25 27 31
21 23 26
26 29 33
28 31 35
33 37 42
41 45 50
41 46 52
49 55 62
53 59 67
28 31 35
6 6 7
11 12 14
12 13 15
27 30 34
46 51 58
63 69 78
72 80 91
73 81 92
76 84 96
91 101 115
87 97 109
93 103 116
98 109 123
108 120 136
126 140 159
129 144 164
122 135 153
127 141 158
129 143 162
151 169 192
165 181 204
166 185 209
157 175 199
170 191 217
174 193 219
173 192 217
182 201 228
169 188 213
155 172 194
165 184 209
157 174 197
169 187 211
176 195 220
172 190 216
162 180 204
169 188 213
164 182 206
171 190 215
154 171 193
155 172 195
172 191 216
175 194 219
174 192 218
162 180 205
132 147 167
107 119 135
74 82 94
55 62 70
47 52 59
51 57 65
49 55 62
45 51 57
55 61 69
60 67 75
53 59 67
46 51 58
40 45 51
31 34 39
28 31 35
22 25 28
9 10 11
30 34 38
33 37 42
35 39 44
39 43 49
54 60 68
60 67 76
60 66 75
57 64 72
47 52 59
38 42 48
50 55 63
52 57 65
46 51 58
35 39 44
40 45 51
56 62 70
61 68 77
90 100 114
121 133 150
128 142 161
154 171 195
124 137 155
99 110 125
78 87 98
63 70 79
48 53 60
26 29 32
31 34 39
39 43 49
17 19 22
55 61 70
63 70 79
64 72 81
68 76 86
46 52 59
17 19 21
48 54 61
76 85 96
77 85 97
99 111 125
126 139 158
114 127 144
115 127 144
143 159 181
164 182 207
196 210 229
222 236 255
222 236 255
222 236 255
222 236 255
222 236 255
222 236 255
222 236 255
222 236 255
222 236 255
222 236 255
222 236 255
222 236 255
222 236 255
222 236 255
222 236 255
222 236 255
222 236 255
222 236 255
222 236 255
222 236 255
222 236 255
222 236 255
222 236 255
222 236 255
222 236 255
222 236 255
222 236 255
222 236 255
222 236 255
222 236 255
222 236 255
222 236 255
222 236 255
222 236 255
222 236 255
222 236 255
222 236 255
222 236 255
222 236 255
222 236 255
222 236 255
222 236 255
222 236 255
222 236 255
222 236 255
222 236 255
222 236 255
222 236 255
222 236 255
222 236 255
222 236 255
222 236 255
222 236 255
222 236 255
222 236 255
222 236 255
222 236 255
222 236 255
222 236 255
222 236 255
222 236 255
222 236 255
222 236 255
222 236 255
222 236 255
222 236 255
222 236 255
222 236 255
222 236 255
222 236 255
222 236 255
222 236 255
222 236 255
222 236 255
222 236 255
222 236 255
222 236 255
222 236 255
222 236 255
222 236 255
222 236 255
222 236 255
222 236 255
222 236 255
222 236 255
222 236 255
222 236 255
222 236 255
222 236 255
222 236 255
222 236 255
222 236 255
222 236 255
222 236 255
222 236 255
222 236 255
222 236 255
222 236 255
222 236 255
222 236 255
222 236 255
222 236 255
222 236 255
222 236 255
222 236 255
222 236 255
222 236 255
222 236 255
222 236 255
222 236 255
222 236 255
222 236 255
222 236 255
222 236 255
222 236 255
222 236 255
222 236 255
222 236 255
222 236 255
222 236 255
222 236 255
222 236 255
222 236 255
222 236 255
222 236 255
222 236 255
222 236 255
222 236 255
222 236 255
222 236 255
222 236 255
222 236 255
222 236 255
222 236 255
222 236 255
222 236 255
222 236 255
222 236 255
222 236 255
222 236 255
222 236 255
222 236 255
222 236 255
222 236 255
222 236 255
222 236 255
222 236 255
222 236 255
222 236 255
222 236 255
222 236 255
222 236 255
222 236 255
222 236 255
222 236 255
222 236 255
222 236 255
222 236 255
222 236 255
222 236 255
222 236 255
222 236 255
222 236 255
222 236 255
222 236 255
222 236 255
222 236 255
222 236 255
222 236 255
222 236 255
222 236 255
222 236 255
222 236 255
222 236 255
222 236 255
222 236 255
222 236 255
222 236 255
222 236 255
222 236 255
222 236 255
222 236 255
222 236 255
222 236 255
222 236 255
222 236 255
222 236 255
222 236 255
222 236 255
222 236 255
222 236 255
222 236 255
222 236 255
222 236 255
222 236 255
222 236 255
222 236 255
222 236 255
222 236 255
222 236 255
222 236 255
222 236 255
222 236 255
222 236 255
202 216 235
93 104 117
148 163 184
165 183 208
170 189 215
155 173 197
149 166 188
122 135 152
94 104 117
104 115 130
124 138 157
127 141 160
116 129 147
109 121 137
101 112 126
99 111 126
115 128 146
121 135 153
142 158 180
159 176 199
168 186 210
174 193 218
174 193 218
165 183 207
143 159 180
152 169 192
151 168 190
150 166 187
141 156 177
129 143 163
126 140 160
124 137 155
128 142 162
135 149 168
127 141 159
129 143 162
137 152 172
124 137 155
103 115 130
95 106 120
92 102 116
74 83 95
71 79 90
83 92 105
99 110 124
117 130 148
135 148 167
133 147 166
130 144 163
146 162 184
142 157 178
145 161 182
148 164 186
127 141 160
130 144 162
127 141 159
118 131 149
111 124 140
112 124 140
127 141 159
127 141 160
131 146 166
140 155 176
135 150 169
117 130 148
109 121 137
98 109 123
89 99 114
88 97 110
84 93 106
80 89 101
68 76 87
54 60 68
60 66 75
66 73 83
70 77 87
57 63 71
60 67 76
52 58 66
38 43 49
35 38 43
37 41 46
40 45 51
54 60 68
59 66 75
61 68 77
61 68 77
65 72 81
50 55 63
26 29 33
10 11 13
10 12 13
31 34 38
50 56 63
59 65 73
71 78 88
77 85 97
92 101 114
106 118 134
112 124 140
104 116 132
106 118 134
111 123 138
123 137 154
134 150 170
137 152 173
136 151 171
134 149 168
155 172 195
162 181 207
159 177 201
163 183 208
175 194 220
172 190 215
166 185 209
172 190 215
173 192 216
161 178 200
155 172 194
166 184 208
175 193 218
177 197 223
171 189 214
158 176 199
150 168 191
161 179 202
146 164 187
145 160 181
147 164 186
160 178 203
176 195 220
178 197 223
161 177 199
134 149 169
111 124 142
76 84 96
54 60 69
47 52 59
65 72 81
68 76 86
54 60 68
58 65 73
64 71 80
60 67 75
56 63 72
43 48 54
29 32 37
31 35 40
24 27 31
20 22 24
11 12 14
10 12 13
9 10 11
18 21 23
31 34 39
35 39 45
50 56 63
48 53 60
41 46 52
40 44 49
48 54 61
53 58 66
50 55 63
42 47 52
34 38 43
50 55 62
69 77 86
82 91 103
98 109 123
121 134 152
145 161 182
137 153 174
115 128 145
84 94 106
58 64 73
39 43 49
12 14 15
22 24 27
39 43 49
20 22 25
34 38 44
55 60 68
76 84 95
72 80 90
59 65 73
22 25 28
53 59 67
77 85 97
79 88 100
122 136 154
136 151 171
108 120 136
105 117 132
144 161 183
165 184 208
201 214 233
222 236 255
222 236 255
222 236 255
222 236 255
222 236 255
222 236 255
222 236 255
222 236 255
222 236 255
222 236 255
222 236 255
222 236 255
222 236 255
222 236 255
222 236 255
222 236 255
222 236 255
222 236 255
222 236 255
222 236 255
222 236 255
222 236 255
222 236 255
222 236 255
222 236 255
222 236 255
222 236 255
222 236 255
222 236 255
222 236 255
222 236 255
222 236 255
222 236 255
222 236 255
222 236 255
222 236 255
222 236 255
222 236 255
222 236 255
222 236 255
222 236 255
222 236 255
222 236 255
222 236 255
222 236 255
222 236 255
222 236 255
222 236 255
222 236 255
222 236 255
222 236 255
222 236 255
222 236 255
222 236 255
222 236 255
222 236 255
222 236 255
222 236 255
222 236 255
222 236 255
222 236 255
222 236 255
222 236 255
222 236 255
222 236 255
222 236 255
222 236 255
222 236 255
222 236 255
222 236 255
222 236 255
222 236 255
222 236 255
222 236 255
222 236 255
222 236 255
222 236 255
222 236 255
222 236 255
222 236 255
222 236 255
222 236 255
222 236 255
222 236 255
222 236 255
222 236 255
222 236 255
222 236 255
222 236 255
222 236 255
222 236 255
222 236 255
222 236 255
222 236 255
222 236 255
222 236 255
222 236 255
222 236 255
222 236 255
222 236 255
222 236 255
222 236 255
222 236 255
222 236 255
222 236 255
222 236 255
222 236 255
222 236 255
222 236 255
222 236 255
222 236 255
222 236 255
222 236 255
222 236 255
222 236 255
222 236 255
222 236 255
222 236 255
222 236 255
222 236 255
222 236 255
222 236 255
222 236 255
222 236 255
222 236 255
222 236 255
222 236 255
222 236 255
222 236 255
222 236 255
222 236 255
222 236 255
222 236 255
222 236 255
222 236 255
222 236 255
222 236 255
222 236 255
222 236 255
222 236 255
222 236 255
222 236 255
222 236 255
222 236 255
222 236 255
222 236 255
222 236 255
222 236 255
222 236 255
222 236 255
222 236 255
222 236 255
222 236 255
222 236 255
222 236 255
222 236 255
222 236 255
222 236 255
222 236 255
222 236 255
222 236 255
222 236 255
222 236 255
222 236 255
222 236 255
222 236 255
222 236 255
222 236 255
222 236 255
222 236 255
222 236 255
222 236 255
222 236 255
222 236 255
222 236 255
222 236 255
222 236 255
222 236 255
222 236 255
222 236 255
222 236 255
222 236 255
222 236 255
222 236 255
222 236 255
222 236 255
222 236 255
222 236 255
222 236 255
222 236 255
222 236 255
222 236 255
222 236 255
222 236 255
222 236 255
222 236 255
222 236 255
222 236 255
222 236 255
222 236 255
222 236 255
222 236 255
222 236 255
222 236 255
213 227 246
82 91 103
138 153 172
166 185 210
175 194 220
159 177 201
144 159 180
109 121 137
65 72 82
71 78 88
98 108 122
119 132 150
101 112 128
94 104 118
82 91 103
85 95 107
109 121 137
118 131 148
125 138 156
138 154 175
168 186 211
170 188 212
169 188 212
167 185 209
155 172 195
146 162 183
147 164 187
137 152 173
136 151 171
128 142 160
117 130 148
115 127 143
115 128 145
121 135 153
135 149 169
137 152 173
139 155 176
126 140 159
108 120 136
107 119 134
105 116 131
80 89 101
72 79 90
83 92 104
100 110 124
115 128 145
131 146 165
149 166 188
141 158 180
145 161 182
144 160 181
152 168 189
147 164 186
144 161 182
139 154 174
136 151 171
119 132 150
107 118 133
109 121 137
120 134 152
135 149 168
146 162 184
152 169 190
147 163 185
152 168 189
142 157 178
114 126 144
111 123 140
102 113 127
95 104 118
79 88 99
71 79 89
71 79 89
63 70 80
57 63 71
66 73 83
75 83 93
76 84 95
76 84 94
63 70 80
50 55 63
43 47 54
52 57 65
72 80 90
74 82 93
69 77 88
68 75 86
64 71 81
63 70 79
50 56 63
25 28 32
11 12 14
36 40 46
51 57 65
66 73 83
80 88 99
82 90 102
91 101 114
107 119 135
123 136 154
114 126 142
114 126 143
119 132 149
118 132 149
142 157 178
136 152 172
141 156 176
135 150 171
144 160 180
150 167 189
153 170 192
164 183 208
169 186 210
165 184 209
176 194 219
171 190 216
170 188 213
170 187 211
151 167 189
160 176 199
173 192 217
169 187 212
161 179 202
153 169 190
137 153 173
145 160 182
134 149 169
138 152 172
139 155 176
156 173 195
166 184 208
175 195 221
163 180 203
147 162 184
121 134 151
83 92 104
58 64 73
52 58 65
64 71 81
58 65 74
54 60 67
52 58 66
54 60 68
64 72 81
56 62 71
48 53 60
50 55 62
51 57 64
46 51 58
36 40 45
36 40 45
36 40 46
29 33 37
14 16 18
14 15 17
22 25 28
32 36 41
44 49 55
45 50 57
45 50 57
49 54 62
59 66 74
53 59 66
39 44 49
15 17 19
37 41 47
56 62 70
72 80 90
80 90 102
119 131 148
150 165 186
148 165 188
123 136 154
87 97 110
59 65 73
38 43 49
14 15 17
18 20 23
27 30 34
19 21 23
29 32 36
55 61 69
74 83 94
73 80 91
54 60 68
22 24 27
50 56 64
65 72 82
84 94 106
135 150 169
131 145 165
101 112 127
114 126 142
153 170 192
160 177 200
208 222 241
222 236 255
222 236 255
222 236 255
222 236 255
222 236 255
222 236 255
222 236 255
222 236 255
222 236 255
222 236 255
222 236 255
222 236 255
222 236 255
222 236 255
222 236 255
222 236 255
222 236 255
222 236 255
222 236 255
222 236 255
222 236 255
222 236 255
222 236 255
222 236 255
222 236 255
222 236 255
222 236 255
222 236 255
222 236 255
222 236 255
222 236 255
222 236 255
222 236 255
222 236 255
222 236 255
222 236 255
222 236 255
222 236 255
222 236 255
222 236 255
222 236 255
222 236 255
222 236 255
222 236 255
222 236 255
222 236 255
222 236 255
222 236 255
222 236 255
222 236 255
222 236 255
222 236 255
222 236 255
222 236 255
222 236 255
222 236 255
222 236 255
222 236 255
222 236 255
222 236 255
222 236 255
222 236 255
222 236 255
222 236 255
222 236 255
222 236 255
222 236 255
222 236 255
222 236 255
222 236 255
222 236 255
222 236 255
222 236 255
222 236 255
222 236 255
222 236 255
222 236 255
222 236 255
222 236 255
222 236 255
222 236 255
222 236 255
222 236 255
222 236 255
222 236 255
222 236 255
222 236 255
222 236 255
222 236 255
222 236 255
222 236 255
222 236 255
222 236 255
222 236 255
222 236 255
222 236 255
222 236 255
222 236 255
222 236 255
222 236 255
222 236 255
222 236 255
222 236 255
222 236 255
222 236 255
222 236 255
222 236 255
222 236 255
222 236 255
222 236 255
222 236 255
222 236 255
222 236 255
222 236 255
222 236 255
222 236 255
222 236 255
222 236 255
222 236 255
222 236 255
222 236 255
222 236 255
222 236 255
222 236 255
222 236 255
222 236 255
222 236 255
222 236 255
222 236 255
222 236 255
222 236 255
222 236 255
222 236 255
222 236 255
222 236 255
222 236 255
222 236 255
222 236 255
222 236 255
222 236 255
222 236 255
222 236 255
222 236 255
222 236 255
222 236 255
222 236 255
222 236 255
222 236 255
222 236 255
222 236 255
222 236 255
222 236 255
222 236 255
222 236 255
222 236 255
222 236 255
222 236 255
222 236 255
222 236 255
222 236 255
222 236 255
222 236 255
222 236 255
222 236 255
222 236 255
222 236 255
222 236 255
222 236 255
222 236 255
222 236 255
222 236 255
222 236 255
222 236 255
222 236 255
222 236 255
222 236 255
222 236 255
222 236 255
222 236 255
222 236 255
222 236 255
222 236 255
222 236 255
222 236 255
222 236 255
222 236 255
222 236 255
222 236 255
222 236 255
222 236 255
222 236 255
222 236 255
222 236 255
222 236 255
222 236 255
222 236 255
222 236 255
222 236 255
222 236 255
222 236 255
222 236 255
222 236 255
222 236 255
222 236 255
221 236 255
87 96 109
125 139 158
158 176 200
175 193 217
160 177 199
119 132 150
93 103 117
45 50 56
49 54 62
84 93 106
103 115 130
97 107 121
77 86 97
60 67 76
69 77 88
86 95 108
98 109 122
104 116 132
131 145 164
157 175 198
169 186 210
182 201 228
171 190 216
162 180 204
149 165 186
141 156 176
138 153 173
130 144 162
128 142 162
123 136 154
122 135 152
114 127 144
122 136 154
140 156 177
144 160 182
144 159 180
129 144 163
111 124 141
109 120 136
106 117 132
97 108 122
67 75 84
73 81 93
92 102 116
117 130 148
131 146 166
143 160 182
154 171 193
143 158 179
135 150 170
153 172 196
158 175 199
148 164 184
147 162 184
151 167 188
140 156 178
125 138 156
122 136 154
129 143 162
142 158 179
151 167 190
160 177 200
156 173 196
156 172 195
153 169 191
142 157 177
129 144 163
120 132 149
103 115 131
91 101 114
78 87 99
77 85 96
69 77 87
63 70 79
72 79 90
91 101 114
96 107 121
95 106 120
84 94 106
65 72 82
54 60 69
64 70 79
72 81 92
81 90 102
82 91 103
89 99 112
77 85 96
70 78 88
56 63 71
32 36 41
12 14 15
38 42 47
55 61 68
70 78 88
84 92 105
87 96 109
83 93 105
87 97 110
107 119 135
119 132 149
115 128 145
127 141 161
131 145 164
139 154 175
145 161 183
150 166 188
138 153 174
139 155 177
151 167 188
151 168 191
156 174 199
172 192 219
165 183 208
175 194 221
175 194 220
180 198 223
177 197 223
158 175 198
160 177 199
171 191 217
168 186 209
160 179 203
152 169 191
141 157 178
136 151 171
118 132 151
126 139 157
130 144 163
139 155 176
162 181 206
180 199 224
166 184 208
151 169 192
132 145 164
100 111 125
68 75 84
49 54 62
53 59 67
49 54 61
39 43 49
31 34 39
45 50 57
62 68 77
57 63 71
58 64 73
58 65 74
71 78 88
79 88 99
68 75 84
67 75 86
74 82 94
61 68 77
34 38 43
10 12 13
21 24 27
36 39 45
47 52 59
48 54 61
43 48 54
44 49 56
50 55 63
44 49 56
20 22 26
7 8 9
19 21 24
46 52 59
62 68 78
84 94 106
119 132 149
152 168 190
145 161 182
125 138 157
96 106 120
66 73 83
51 56 63
28 31 34
33 37 42
32 36 41
23 26 29
15 16 19
48 53 60
69 76 86
71 79 90
50 55 63
23 26 30
47 52 59
66 73 83
91 101 115
130 145 164
115 127 142
101 112 127
123 137 155
157 174 197
157 174 196
222 236 255
222 236 255
222 236 255
222 236 255
222 236 255
222 236 255
222 236 255
222 236 255
222 236 255
222 236 255
222 236 255
222 236 255
222 236 255
222 236 255
222 236 255
222 236 255
222 236 255
222 236 255
222 236 255
222 236 255
222 236 255
222 236 255
222 236 255
222 236 255
222 236 255
222 236 255
222 236 255
222 236 255
222 236 255
222 236 255
222 236 255
222 236 255
222 236 255
222 236 255
222 236 255
222 236 255
222 236 255
222 236 255
222 236 255
222 236 255
222 236 255
222 236 255
222 236 255
222 236 255
222 236 255
222 236 255
222 236 255
222 236 255
222 236 255
222 236 255
222 236 255
222 236 255
222 236 255
222 236 255
222 236 255
222 236 255
222 236 255
222 236 255
222 236 255
222 236 255
222 236 255
222 236 255
222 236 255
222 236 255
222 236 255
222 236 255
222 236 255
222 236 255
222 236 255
222 236 255
222 236 255
222 236 255
222 236 255
222 236 255
222 236 255
222 236 255
222 236 255
222 236 255
222 236 255
222 236 255
222 236 255
222 236 255
222 236 255
222 236 255
222 236 255
222 236 255
222 236 255
222 236 255
222 236 255
222 236 255
222 236 255
222 236 255
222 236 255
222 236 255
222 236 255
222 236 255
222 236 255
222 236 255
222 236 255
222 236 255
222 236 255
222 236 255
222 236 255
222 236 255
222 236 255
222 236 255
222 236 255
222 236 255
222 236 255
222 236 255
222 236 255
222 236 255
222 236 255
222 236 255
222 236 255
222 236 255
222 236 255
222 236 255
222 236 255
222 236 255
222 236 255
222 236 255
222 236 255
222 236 255
222 236 255
222 236 255
222 236 255
222 236 255
222 236 255
222 236 255
222 236 255
222 236 255
222 236 255
222 236 255
222 236 255
222 236 255
222 236 255
222 236 255
222 236 255
222 236 255
222 236 255
222 236 255
222 236 255
222 236 255
222 236 255
222 236 255
222 236 255
222 236 255
222 236 255
222 236 255
222 236 255
222 236 255
222 236 255
222 236 255
222 236 255
222 236 255
222 236 255
222 236 255
222 236 255
222 236 255
222 236 255
222 236 255
222 236 255
222 236 255
222 236 255
222 236 255
222 236 255
222 236 255
222 236 255
222 236 255
222 236 255
222 236 255
222 236 255
222 236 255
222 236 255
222 236 255
222 236 255
222 236 255
222 236 255
222 236 255
222 236 255
222 236 255
222 236 255
222 236 255
222 236 255
222 236 255
222 236 255
222 236 255
222 236 255
222 236 255
222 236 255
222 236 255
222 236 255
222 236 255
222 236 255
222 236 255
222 236 255
222 236 255
222 236 255
222 236 255
222 236 255
222 236 255
222 236 255
222 236 255
222 236 255
222 236 255
106 116 129
114 127 144
161 179 203
174 193 220
148 164 184
92 102 115
70 78 89
31 35 39
28 31 35
68 76 86
83 93 106
90 100 113
53 59 66
36 40 45
57 63 71
80 89 100
85 95 107
104 116 131
130 143 162
159 175 197
165 183 206
171 190 215
175 194 218
153 170 193
160 177 200
151 167 189
133 148 168
131 146 165
133 148 167
129 143 160
124 137 156
116 129 146
122 136 154
138 153 173
146 162 184
144 161 183
134 148 168
123 136 154
108 120 137
110 123 141
104 116 132
76 85 96
68 75 86
100 111 126
123 136 154
139 154 173
154 171 193
151 167 189
153 170 193
149 165 186
143 159 180
158 175 198
161 178 202
155 173 196
162 180 204
161 179 202
146 162 184
131 146 166
138 153 173
142 158 179
149 166 188
149 164 185
167 185 208
161 180 204
153 170 193
146 162 184
141 158 179
136 150 170
120 133 151
107 118 134
85 95 107
81 90 103
79 87 99
78 86 98
90 101 114
105 117 132
114 127 144
110 121 137
97 107 121
81 91 104
65 72 81
64 72 81
68 75 85
76 85 97
88 97 110
89 99 113
76 85 96
77 86 97
65 72 81
36 41 46
13 15 16
33 37 42
47 52 60
61 68 76
67 75 85
73 80 91
69 77 87
72 80 90
83 93 106
105 116 132
118 132 149
131 145 164
130 146 166
132 146 165
137 152 172
144 160 181
144 161 183
150 167 188
158 176 200
160 179 203
167 185 209
171 189 214
169 188 214
181 200 226
171 190 216
166 184 209
163 180 203
153 169 191
160 177 200
163 181 207
168 187 211
160 177 199
156 172 195
140 155 176
128 142 162
117 130 147
115 127 143
122 135 152
145 161 181
169 186 210
172 191 216
174 192 216
165 183 207
130 144 163
116 129 146
84 92 103
63 70 80
41 46 52
48 53 60
33 37 42
25 27 31
30 33 38
46 51 57
49 55 62
58 65 73
71 79 89
84 93 105
93 103 117
85 94 107
89 99 112
93 103 117
80 88 100
52 58 65
15 17 19
28 31 35
48 53 60
64 71 80
60 67 76
47 51 58
33 37 43
27 30 34
31 34 38
10 11 12
10 12 13
10 11 13
20 22 25
49 54 62
87 97 111
122 135 152
150 166 187
139 155 176
121 135 153
95 106 120
85 95 108
64 71 80
50 55 63
40 44 50
40 45 51
27 30 34
18 20 22
27 30 34
56 63 71
67 74 83
32 35 40
25 27 31
41 46 52
66 73 83
91 101 114
128 142 160
104 117 133
110 122 138
141 157 178
156 175 199
172 188 210
222 236 255
222 236 255
222 236 255
222 236 255
222 236 255
222 236 255
222 236 255
222 236 255
222 236 255
222 236 255
222 236 255
222 236 255
222 236 255
222 236 255
222 236 255
222 236 255
222 236 255
222 236 255
222 236 255
222 236 255
222 236 255
222 236 255
222 236 255
222 236 255
222 236 255
222 236 255
222 236 255
222 236 255
222 236 255
222 236 255
222 236 255
222 236 255
222 236 255
222 236 255
222 236 255
222 236 255
222 236 255
222 236 255
222 236 255
222 236 255
222 236 255
222 236 255
222 236 255
222 236 255
222 236 255
222 236 255
222 236 255
222 236 255
222 236 255
222 236 255
222 236 255
222 236 255
222 236 255
222 236 255
222 236 255
222 236 255
222 236 255
222 236 255
222 236 255
222 236 255
222 236 255
222 236 255
222 236 255
222 236 255
222 236 255
222 236 255
222 236 255
222 236 255
222 236 255
222 236 255
222 236 255
222 236 255
222 236 255
222 236 255
222 236 255
222 236 255
222 236 255
222 236 255
222 236 255
222 236 255
222 236 255
222 236 255
222 236 255
222 236 255
222 236 255
222 236 255
222 236 255
222 236 255
222 236 255
222 236 255
222 236 255
222 236 255
222 236 255
222 236 255
222 236 255
222 236 255
222 236 255
222 236 255
222 236 255
222 236 255
222 236 255
222 236 255
222 236 255
222 236 255
222 236 255
222 236 255
222 236 255
222 236 255
222 236 255
222 236 255
222 236 255
222 236 255
222 236 255
222 236 255
222 236 255
222 236 255
222 236 255
222 236 255
222 236 255
222 236 255
222 236 255
222 236 255
222 236 255
222 236 255
222 236 255
222 236 255
222 236 255
222 236 255
222 236 255
222 236 255
222 236 255
222 236 255
222 236 255
222 236 255
222 236 255
222 236 255
222 236 255
222 236 255
222 236 255
222 236 255
222 236 255
222 236 255
222 236 255
222 236 255
222 236 255
222 236 255
222 236 255
222 236 255
222 236 255
222 236 255
222 236 255
222 236 255
222 236 255
222 236 255
222 236 255
222 236 255
222 236 255
222 236 255
222 236 255
222 236 255
222 236 255
222 236 255
222 236 255
222 236 255
222 236 255
222 236 255
222 236 255
222 236 255
222 236 255
222 236 255
222 236 255
222 236 255
222 236 255
222 236 255
222 236 255
222 236 255
222 236 255
222 236 255
222 236 255
222 236 255
222 236 255
222 236 255
222 236 255
222 236 255
222 236 255
222 236 255
222 236 255
222 236 255
222 236 255
222 236 255
222 236 255
222 236 255
222 236 255
222 236 255
222 236 255
222 236 255
222 236 255
222 236 255
222 236 255
222 236 255
222 236 255
222 236 255
222 236 255
222 236 255
222 236 255
222 236 255
127 137 150
96 106 121
155 171 193
177 196 222
143 159 181
75 83 94
54 60 68
28 31 35
22 24 28
48 54 61
46 51 57
68 75 85
40 45 51
36 40 45
52 58 66
71 79 90
83 92 104
108 120 136
126 140 158
151 168 190
154 170 193
166 185 209
171 190 217
169 188 214
168 187 211
162 180 205
142 158 179
138 154 175
142 157 178
135 151 172
121 134 153
116 130 147
122 134 152
134 149 168
133 148 168
137 151 171
125 140 159
118 131 148
102 113 128
102 113 128
97 109 124
76 84 94
84 93 105
107 120 136
135 150 170
136 151 172
141 156 177
151 167 189
148 165 188
157 173 195
157 175 199
168 186 211
171 189 214
166 184 209
158 175 198
169 187 211
156 175 199
158 175 198
155 171 192
157 175 198
163 180 203
157 174 197
156 173 197
162 179 203
148 164 186
152 168 189
146 162 183
129 143 162
118 132 150
102 113 128
94 104 118
86 96 108
87 97 110
91 101 115
113 126 143
116 129 146
113 125 142
110 122 139
98 109 125
95 107 122
88 98 112
70 77 87
68 76 86
72 80 91
85 94 106
89 100 113
85 95 107
69 77 88
54 60 68
25 28 31
10 11 12
28 31 35
38 43 49
40 45 51
57 64 72
64 71 80
58 64 73
52 58 66
63 70 79
88 97 110
117 131 149
132 146 165
126 140 159
125 139 157
136 150 170
139 154 174
148 166 189
163 181 205
168 187 212
177 195 220
174 193 217
172 190 215
171 190 216
176 195 221
166 184 209
171 191 217
157 174 197
146 162 184
157 175 197
168 186 210
167 186 211
170 188 213
153 170 192
131 145 164
123 136 154
117 129 146
121 134 152
136 150 170
154 169 190
165 184 208
171 191 217
167 185 210
164 183 207
151 167 189
128 141 158
104 115 131
85 95 108
43 48 54
34 38 43
26 29 34
34 38 43
31 34 39
35 39 43
46 51 58
53 59 67
65 72 83
77 85 97
100 111 125
98 108 123
107 119 134
108 120 136
97 108 121
65 72 82
23 26 29
25 27 31
55 61 69
58 64 73
52 58 65
44 48 55
29 32 37
20 22 25
16 17 20
5 6 6
19 21 24
20 23 26
13 14 16
41 46 52
89 99 112
108 120 136
146 162 184
146 162 184
121 135 153
108 120 137
97 107 121
89 99 113
75 83 94
58 64 73
46 51 58
48 53 61
28 31 35
12 13 15
45 50 57
41 46 52
13 14 16
30 33 38
33 36 41
64 71 81
106 118 134
110 122 139
101 113 128
128 143 163
149 165 187
171 190 214
170 184 205
222 236 255
222 236 255
222 236 255
222 236 255
222 236 255
222 236 255
222 236 255
222 236 255
222 236 255
222 236 255
222 236 255
222 236 255
222 236 255
222 236 255
222 236 255
222 236 255
222 236 255
222 236 255
222 236 255
222 236 255
222 236 255
222 236 255
222 236 255
222 236 255
222 236 255
222 236 255
222 236 255
222 236 255
222 236 255
222 236 255
222 236 255
222 236 255
222 236 255
222 236 255
222 236 255
222 236 255
222 236 255
222 236 255
222 236 255
222 236 255
222 236 255
222 236 255
222 236 255
222 236 255
222 236 255
222 236 255
222 236 255
222 236 255
222 236 255
222 236 255
222 236 255
222 236 255
222 236 255
222 236 255
222 236 255
222 236 255
222 236 255
222 236 255
222 236 255
222 236 255
222 236 255
222 236 255
222 236 255
222 236 255
222 236 255
222 236 255
222 236 255
222 236 255
222 236 255
222 236 255
222 236 255
222 236 255
222 236 255
222 236 255
222 236 255
222 236 255
222 236 255
222 236 255
222 236 255
222 236 255
222 236 255
222 236 255
222 236 255
222 236 255
222 236 255
222 236 255
222 236 255
222 236 255
222 236 255
222 236 255
222 236 255
222 236 255
222 236 255
222 236 255
222 236 255
222 236 255
222 236 255
222 236 255
222 236 255
222 236 255
222 236 255
222 236 255
222 236 255
222 236 255
222 236 255
222 236 255
222 236 255
222 236 255
222 236 255
222 236 255
222 236 255
222 236 255
222 236 255
222 236 255
222 236 255
222 236 255
222 236 255
222 236 255
222 236 255
222 236 255
222 236 255
222 236 255
222 236 255
222 236 255
222 236 255
222 236 255
222 236 255
222 236 255
222 236 255
222 236 255
222 236 255
222 236 255
222 236 255
222 236 255
222 236 255
222 236 255
222 236 255
222 236 255
222 236 255
222 236 255
222 236 255
222 236 255
222 236 255
222 236 255
222 236 255
222 236 255
222 236 255
222 236 255
222 236 255
222 236 255
222 236 255
222 236 255
222 236 255
222 236 255
222 236 255
222 236 255
222 236 255
222 236 255
222 236 255
222 236 255
222 236 255
222 236 255
222 236 255
222 236 255
222 236 255
222 236 255
222 236 255
222 236 255
222 236 255
222 236 255
222 236 255
222 236 255
222 236 255
222 236 255
222 236 255
222 236 255
222 236 255
222 236 255
222 236 255
222 236 255
222 236 255
222 236 255
222 236 255
222 236 255
222 236 255
222 236 255
222 236 255
222 236 255
222 236 255
222 236 255
222 236 255
222 236 255
222 236 255
222 236 255
222 236 255
222 236 255
222 236 255
222 236 255
222 236 255
222 236 255
222 236 255
222 236 255
222 236 255
222 236 255
222 236 255
222 236 255
154 165 181
82 91 102
143 157 178
168 187 213
156 173 196
76 85 96
49 54 61
34 38 43
37 41 47
44 49 55
28 31 35
37 41 47
17 19 22
26 29 33
40 44 50
49 54 61
63 70 80
108 121 137
136 151 171
147 163 185
151 168 191
172 191 215
174 193 217
175 194 218
174 194 220
165 182 205
154 171 194
148 165 188
149 165 186
133 147 167
116 130 148
126 140 159
129 143 162
137 151 170
132 146 165
124 138 155
117 129 146
110 122 139
108 119 134
91 102 115
84 93 106
81 90 102
96 106 120
114 126 142
132 146 164
130 144 163
136 152 173
136 152 173
154 171 193
157 172 193
162 180 204
165 183 208
173 192 217
166 184 208
162 181 205
175 193 218
171 190 216
169 188 213
172 190 215
162 179 203
153 171 194
160 177 200
158 175 197
142 159 181
143 158 179
142 157 178
148 164 185
130 144 163
108 120 137
100 112 127
99 109 123
80 89 101
78 86 98
91 100 113
106 117 133
113 126 143
119 132 149
125 139 157
122 135 153
121 135 154
114 127 144
96 107 121
77 86 97
78 86 97
78 87 98
83 92 104
74 82 94
60 67 76
43 47 53
23 25 28
10 11 13
19 21 24
30 33 38
40 45 50
51 56 64
66 73 83
54 60 68
44 48 55
50 56 63
68 76 87
104 115 130
123 136 154
122 135 153
127 140 157
143 157 177
143 158 179
158 174 196
167 185 209
166 185 209
174 192 216
173 192 218
179 198 223
171 189 213
165 183 207
169 188 213
160 177 201
151 169 192
159 176 199
159 175 197
164 181 205
167 186 212
171 189 214
157 175 199
138 153 173
121 135 153
115 129 147
123 137 156
144 160 182
149 165 186
156 174 197
175 194 220
175 194 220
166 185 210
152 170 192
140 155 176
118 131 148
91 101 115
59 66 75
42 46 53
26 29 33
29 32 36
31 34 39
31 35 40
40 44 50
55 62 70
60 67 76
80 89 100
104 116 131
118 131 148
121 135 152
107 119 135
99 110 124
70 78 89
40 44 49
15 16 18
36 40 45
36 40 45
42 46 52
36 40 45
29 33 37
15 17 19
11 12 14
19 21 24
26 29 33
34 37 42
18 20 23
31 34 39
73 80 91
104 115 130
145 160 180
144 161 183
130 144 163
119 133 151
107 118 134
112 125 141
105 116 132
78 86 98
67 75 85
69 76 86
42 47 54
24 27 30
26 29 32
15 17 19
18 20 22
32 35 40
26 29 33
62 69 77
107 119 135
97 108 122
99 111 127
143 158 178
149 166 189
167 186 210
178 192 211
222 236 255
222 236 255
222 236 255
222 236 255
222 236 255
222 236 255
222 236 255
222 236 255
222 236 255
222 236 255
222 236 255
222 236 255
222 236 255
222 236 255
222 236 255
222 236 255
222 236 255
222 236 255
222 236 255
222 236 255
222 236 255
222 236 255
222 236 255
222 236 255
222 236 255
222 236 255
222 236 255
222 236 255
222 236 255
222 236 255
222 236 255
222 236 255
222 236 255
222 236 255
222 236 255
222 236 255
222 236 255
222 236 255
222 236 255
222 236 255
222 236 255
222 236 255
222 236 255
222 236 255
222 236 255
222 236 255
222 236 255
222 236 255
222 236 255
222 236 255
222 236 255
222 236 255
222 236 255
222 236 255
222 236 255
222 236 255
222 236 255
222 236 255
222 236 255
222 236 255
222 236 255
222 236 255
222 236 255
222 236 255
222 236 255
222 236 255
222 236 255
222 236 255
222 236 255
222 236 255
222 236 255
222 236 255
222 236 255
222 236 255
222 236 255
222 236 255
222 236 255
222 236 255
222 236 255
222 236 255
222 236 255
222 236 255
222 236 255
222 236 255
222 236 255
222 236 255
222 236 255
222 236 255
222 236 255
222 236 255
222 236 255
222 236 255
222 236 255
222 236 255
222 236 255
222 236 255
222 236 255
222 236 255
222 236 255
222 236 255
222 236 255
222 236 255
222 236 255
222 236 255
222 236 255
222 236 255
222 236 255
222 236 255
222 236 255
222 236 255
222 236 255
222 236 255
222 236 255
222 236 255
222 236 255
222 236 255
222 236 255
222 236 255
222 236 255
222 236 255
222 236 255
222 236 255
222 236 255
222 236 255
222 236 255
222 236 255
222 236 255
222 236 255
222 236 255
222 236 255
222 236 255
222 236 255
222 236 255
222 236 255
222 236 255
222 236 255
222 236 255
222 236 255
222 236 255
222 236 255
222 236 255
222 236 255
222 236 255
222 236 255
222 236 255
222 236 255
222 236 255
222 236 255
222 236 255
222 236 255
222 236 255
222 236 255
222 236 255
222 236 255
222 236 255
222 236 255
222 236 255
222 236 255
222 236 255
222 236 255
222 236 255
222 236 255
222 236 255
222 236 255
222 236 255
222 236 255
222 236 255
222 236 255
222 236 255
222 236 255
222 236 255
222 236 255
222 236 255
222 236 255
222 236 255
222 236 255
222 236 255
222 236 255
222 236 255
222 236 255
222 236 255
222 236 255
222 236 255
222 236 255
222 236 255
222 236 255
222 236 255
222 236 255
222 236 255
222 236 255
222 236 255
222 236 255
222 236 255
222 236 255
222 236 255
222 236 255
222 236 255
222 236 255
222 236 255
222 236 255
222 236 255
222 236 255
222 236 255
222 236 255
222 236 255
222 236 255
168 179 195
69 77 86
145 160 181
173 192 217
152 169 192
96 106 121
37 41 47
27 30 34
46 52 58
49 54 61
22 24 27
15 17 19
6 7 8
3 4 4
13 14 16
27 30 34
43 47 54
93 103 116
136 151 171
154 171 194
158 175 199
161 179 204
170 189 215
175 194 221
167 185 210
173 192 217
162 180 204
150 166 188
137 152 172
132 146 165
138 153 174
139 156 178
145 160 180
148 163 184
134 148 167
117 130 148
98 108 123
91 101 114
93 104 118
81 90 101
75 83 93
91 101 115
115 127 144
118 131 148
127 141 159
121 135 153
122 136 153
134 150 170
142 157 178
143 159 181
160 178 202
163 182 207
168 186 211
180 198 223
178 198 223
163 180 204
173 191 216
161 180 204
163 181 204
165 184 209
163 180 203
150 167 189
156 173 195
139 154 175
134 148 166
136 151 171
145 161 181
139 154 175
119 132 150
111 124 141
113 125 141
94 105 120
85 95 107
87 97 111
109 121 136
118 131 149
125 139 157
124 137 156
136 151 172
131 145 164
126 140 158
105 117 133
84 93 106
76 84 96
67 74 84
54 60 68
48 53 60
38 42 48
30 34 38
10 11 13
21 24 27
25 28 31
30 34 38
34 37 43
48 53 60
54 60 68
61 67 76
63 70 79
63 70 79
71 79 90
88 97 109
108 120 135
110 123 139
119 132 149
129 144 163
150 166 187
156 173 196
170 189 213
167 186 210
171 190 215
171 189 213
171 190 215
172 192 218
167 185 209
167 185 208
154 170 193
151 168 191
157 174 197
155 171 193
168 186 210
171 189 215
169 188 214
176 194 219
144 161 183
127 141 160
119 132 149
129 144 163
143 159 180
151 169 192
160 178 202
175 194 220
183 202 228
170 189 214
153 170 192
141 157 178
115 127 143
103 114 129
82 91 103
54 60 68
31 35 40
23 26 29
31 34 39
35 39 45
40 44 50
65 72 81
82 90 102
101 112 126
120 133 150
123 136 154
119 132 150
117 130 147
104 116 131
87 96 108
56 63 71
27 30 34
13 14 16
8 9 11
11 13 15
12 14 15
11 12 14
6 7 8
25 28 31
37 41 47
36 40 45
35 39 45
21 24 27
29 31 35
60 68 78
104 116 131
140 155 176
158 174 197
140 156 176
129 143 161
128 142 161
128 142 161
111 123 140
90 100 113
78 86 98
77 85 96
53 59 67
27 30 34
13 14 16
6 7 8
14 15 18
26 29 32
23 25 29
57 64 72
85 94 106
84 93 106
110 122 138
130 145 165
160 178 203
168 187 212
189 202 221
222 236 255
222 236 255
222 236 255
222 236 255
222 236 255
222 236 255
222 236 255
222 236 255
222 236 255
222 236 255
222 236 255
222 236 255
222 236 255
222 236 255
222 236 255
222 236 255
222 236 255
222 236 255
222 236 255
222 236 255
222 236 255
222 236 255
222 236 255
222 236 255
222 236 255
222 236 255
222 236 255
222 236 255
222 236 255
222 236 255
222 236 255
222 236 255
222 236 255
222 236 255
222 236 255
222 236 255
222 236 255
222 236 255
222 236 255
222 236 255
222 236 255
222 236 255
222 236 255
222 236 255
222 236 255
222 236 255
222 236 255
222 236 255
222 236 255
222 236 255
222 236 255
222 236 255
222 236 255
222 236 255
222 236 255
222 236 255
222 236 255
222 236 255
222 236 255
222 236 255
222 236 255
222 236 255
222 236 255
222 236 255
222 236 255
222 236 255
222 236 255
222 236 255
222 236 255
222 236 255
222 236 255
222 236 255
222 236 255
222 236 255
222 236 255
222 236 255
222 236 255
222 236 255
222 236 255
222 236 255
222 236 255
222 236 255
222 236 255
222 236 255
222 236 255
222 236 255
222 236 255
222 236 255
222 236 255
222 236 255
222 236 255
222 236 255
222 236 255
222 236 255
222 236 255
222 236 255
222 236 255
222 236 255
222 236 255
222 236 255
222 236 255
222 236 255
222 236 255
222 236 255
222 236 255
222 236 255
222 236 255
222 236 255
222 236 255
222 236 255
222 236 255
222 236 255
222 236 255
222 236 255
222 236 255
222 236 255
222 236 255
222 236 255
222 236 255
222 236 255
222 236 255
222 236 255
222 236 255
222 236 255
222 236 255
222 236 255
222 236 255
222 236 255
222 236 255
222 236 255
222 236 255
222 236 255
222 236 255
222 236 255
222 236 255
222 236 255
222 236 255
222 236 255
222 236 255
222 236 255
222 236 255
222 236 255
222 236 255
222 236 255
222 236 255
222 236 255
222 236 255
222 236 255
222 236 255
222 236 255
222 236 255
222 236 255
222 236 255
222 236 255
222 236 255
222 236 255
222 236 255
222 236 255
222 236 255
222 236 255
222 236 255
222 236 255
222 236 255
222 236 255
222 236 255
222 236 255
222 236 255
222 236 255
222 236 255
222 236 255
222 236 255
222 236 255
222 236 255
222 236 255
222 236 255
222 236 255
222 236 255
222 236 255
222 236 255
222 236 255
222 236 255
222 236 255
222 236 255
222 236 255
222 236 255
222 236 255
222 236 255
222 236 255
222 236 255
222 236 255
222 236 255
222 236 255
222 236 255
222 236 255
222 236 255
222 236 255
222 236 255
222 236 255
222 236 255
222 236 255
222 236 255
222 236 255
222 236 255
222 236 255
222 236 255
222 236 255
201 215 233
59 65 74
145 161 183
169 188 212
164 182 207
101 111 125
32 36 41
13 15 17
43 48 54
47 52 59
23 26 29
10 12 13
11 13 14
6 7 8
15 17 19
17 19 21
37 42 47
77 86 97
127 141 160
142 158 180
158 175 198
168 186 209
167 186 211
171 190 215
171 190 215
171 188 212
160 178 202
147 164 186
130 145 165
125 138 155
127 140 159
144 159 180
149 165 187
151 168 192
137 151 170
119 133 151
106 118 134
93 103 117
90 100 114
84 94 107
78 86 97
90 101 115
118 131 149
108 121 138
118 131 149
110 122 138
110 122 140
125 139 158
130 143 161
142 158 179
158 175 198
166 185 210
169 188 214
177 196 221
173 192 218
168 186 210
164 183 207
161 179 202
159 178 203
174 192 216
164 182 205
156 173 195
149 165 186
133 148 168
118 131 149
124 137 155
131 145 164
139 154 174
133 147 166
118 131 149
117 131 148
118 130 147
102 113 128
105 118 134
114 126 142
123 136 154
121 135 152
125 139 158
134 150 170
127 141 159
121 134 152
100 111 126
89 98 111
75 84 95
53 58 66
32 35 40
20 22 25
10 11 13
6 7 8
9 10 12
21 23 26
19 21 24
22 25 28
24 27 30
41 46 52
56 63 71
64 71 80
67 74 84
68 75 85
57 64 72
75 83 94
96 107 122
115 127 143
121 134 152
127 141 159
141 156 176
157 173 195
160 177 201
168 186 212
173 192 218
170 188 213
167 187 212
166 184 209
164 182 206
164 181 205
154 172 195
155 172 194
149 165 188
158 176 200
167 186 211
169 188 212
172 191 216
164 183 208
149 165 186
133 148 168
127 141 159
127 141 159
135 150 169
147 163 185
152 169 192
157 174 197
168 186 210
159 178 203
171 190 215
142 159 181
127 141 160
101 112 127
87 97 111
68 75 86
49 55 62
22 24 27
33 36 41
41 46 52
45 50 56
70 78 88
91 101 114
112 124 141
123 136 154
134 149 170
129 144 163
122 135 152
102 113 128
84 94 107
56 63 71
34 37 42
25 28 32
20 22 25
19 21 24
9 11 12
18 20 22
22 25 28
39 44 50
50 56 63
49 54 61
37 41 46
19 22 24
28 31 35
72 80 91
103 114 129
137 152 172
153 170 192
153 169 192
131 147 167
130 143 161
117 130 148
104 116 132
97 107 121
78 87 98
60 67 76
43 48 55
17 18 21
15 17 19
9 11 12
8 9 11
17 19 21
23 26 29
41 46 52
75 82 93
70 78 88
107 118 132
132 146 166
154 172 195
168 186 210
201 214 232
222 236 255
222 236 255
222 236 255
222 236 255
222 236 255
222 236 255
222 236 255
222 236 255
222 236 255
222 236 255
222 236 255
222 236 255
222 236 255
222 236 255
222 236 255
222 236 255
222 236 255
222 236 255
222 236 255
222 236 255
222 236 255
222 236 255
222 236 255
222 236 255
222 236 255
222 236 255
222 236 255
222 236 255
222 236 255
222 236 255
222 236 255
222 236 255
222 236 255
222 236 255
222 236 255
222 236 255
222 236 255
222 236 255
222 236 255
222 236 255
222 236 255
222 236 255
222 236 255
222 236 255
222 236 255
222 236 255
222 236 255
222 236 255
222 236 255
222 236 255
222 236 255
222 236 255
222 236 255
222 236 255
222 236 255
222 236 255
222 236 255
222 236 255
222 236 255
222 236 255
222 236 255
222 236 255
222 236 255
222 236 255
222 236 255
222 236 255
222 236 255
222 236 255
222 236 255
222 236 255
222 236 255
222 236 255
222 236 255
222 236 255
222 236 255
222 236 255
222 236 255
222 236 255
222 236 255
222 236 255
222 236 255
222 236 255
222 236 255
222 236 255
222 236 255
222 236 255
222 236 255
222 236 255
222 236 255
222 236 255
222 236 255
222 236 255
222 236 255
222 236 255
222 236 255
222 236 255
222 236 255
222 236 255
222 236 255
222 236 255
222 236 255
222 236 255
222 236 255
222 236 255
222 236 255
222 236 255
222 236 255
222 236 255
222 236 255
222 236 255
222 236 255
222 236 255
222 236 255
222 236 255
222 236 255
222 236 255
222 236 255
222 236 255
222 236 255
222 236 255
222 236 255
222 236 255
222 236 255
222 236 255
222 236 255
222 236 255
222 236 255
222 236 255
222 236 255
222 236 255
222 236 255
222 236 255
222 236 255
222 236 255
222 236 255
222 236 255
222 236 255
222 236 255
222 236 255
222 236 255
222 236 255
222 236 255
222 236 255
222 236 255
222 236 255
222 236 255
222 236 255
222 236 255
222 236 255
222 236 255
222 236 255
222 236 255
222 236 255
222 236 255
222 236 255
222 236 255
222 236 255
222 236 255
222 236 255
222 236 255
222 236 255
222 236 255
222 236 255
222 236 255
222 236 255
222 236 255
222 236 255
222 236 255
222 236 255
222 236 255
222 236 255
222 236 255
222 236 255
222 236 255
222 236 255
222 236 255
222 236 255
222 236 255
222 236 255
222 236 255
222 236 255
222 236 255
222 236 255
222 236 255
222 236 255
222 236 255
222 236 255
222 236 255
222 236 255
222 236 255
222 236 255
222 236 255
222 236 255
222 236 255
222 236 255
222 236 255
222 236 255
222 236 255
222 236 255
222 236 255
222 236 255
222 236 255
222 236 255
222 236 255
222 236 255
222 236 255
221 235 254
60 66 75
140 155 175
165 184 209
168 186 211
125 138 157
39 44 50
8 8 10
25 27 31
43 47 53
15 17 19
28 31 35
30 33 38
13 15 17
13 15 17
7 8 9
35 39 44
75 83 93
118 131 148
135 150 170
151 169 192
168 185 209
173 193 219
170 189 215
167 185 209
161 180 204
173 192 218
148 166 188
125 140 159
129 144 163
139 154 175
156 173 196
155 171 194
165 183 207
151 169 192
140 156 176
141 157 178
118 130 147
94 106 120
90 99 112
75 83 94
78 86 98
106 117 133
107 119 135
104 115 130
101 112 126
104 116 132
117 130 147
122 136 154
131 145 165
145 161 182
147 165 188
166 183 207
159 176 200
162 180 203
165 183 207
165 182 206
168 185 207
163 181 205
157 176 201
158 176 201
159 177 201
152 169 192
143 160 181
130 144 163
130 145 164
125 139 158
139 155 176
129 143 162
121 134 152
120 134 153
119 132 149
119 133 151
124 138 157
115 128 145
120 133 151
117 130 148
121 135 153
130 143 162
122 136 154
110 123 139
97 107 122
83 93 105
76 84 95
53 59 68
28 31 35
6 7 7
6 6 7
9 10 12
10 11 13
8 9 10
10 11 12
12 13 15
13 15 17
27 30 34
45 51 57
52 58 66
61 68 77
73 80 91
67 75 86
69 77 88
93 103 117
109 122 140
128 141 160
136 151 172
150 165 186
154 171 193
159 177 200
171 189 213
169 187 211
181 199 225
163 182 207
170 188 212
164 182 206
158 176 201
150 167 188
157 173 195
162 179 203
161 179 204
162 180 204
166 185 211
167 185 209
161 179 203
154 171 194
138 153 174
124 138 156
117 130 148
129 143 162
143 160 182
152 168 190
160 178 202
167 186 210
172 191 215
171 190 215
142 157 178
126 140 159
101 112 126
89 98 111
76 84 95
53 59 66
24 27 30
38 43 48
43 47 54
51 56 64
75 83 94
96 106 120
125 139 158
127 140 159
125 137 155
121 134 151
124 137 154
102 114 130
85 94 106
49 55 62
31 35 39
23 26 29
24 26 30
26 29 33
31 34 39
49 54 62
38 43 49
42 47 53
51 56 64
39 43 49
21 23 26
10 11 13
39 44 50
80 89 101
108 121 138
135 150 169
156 173 196
149 166 188
156 173 195
128 142 161
117 130 148
111 123 140
95 106 120
80 89 100
61 68 78
30 34 38
15 17 19
22 24 27
14 15 17
5 6 6
15 17 19
25 28 31
42 47 54
57 63 71
67 75 84
115 128 145
138 153 173
163 181 205
163 180 204
219 233 252
222 236 255
222 236 255
222 236 255
222 236 255
222 236 255
222 236 255
222 236 255
222 236 255
222 236 255
222 236 255
222 236 255
222 236 255
222 236 255
222 236 255
222 236 255
222 236 255
222 236 255
222 236 255
222 236 255
222 236 255
222 236 255
222 236 255
222 236 255
222 236 255
222 236 255
222 236 255
222 236 255
222 236 255
222 236 255
222 236 255
222 236 255
222 236 255
222 236 255
222 236 255
222 236 255
222 236 255
222 236 255
222 236 255
222 236 255
222 236 255
222 236 255
222 236 255
222 236 255
222 236 255
222 236 255
222 236 255
222 236 255
222 236 255
222 236 255
222 236 255
222 236 255
222 236 255
222 236 255
222 236 255
222 236 255
222 236 255
222 236 255
222 236 255
222 236 255
222 236 255
222 236 255
222 236 255
222 236 255
222 236 255
222 236 255
222 236 255
222 236 255
222 236 255
222 236 255
222 236 255
222 236 255
222 236 255
222 236 255
222 236 255
222 236 255
222 236 255
222 236 255
222 236 255
222 236 255
222 236 255
222 236 255
222 236 255
222 236 255
222 236 255
222 236 255
222 236 255
222 236 255
222 236 255
222 236 255
222 236 255
222 236 255
222 236 255
222 236 255
222 236 255
222 236 255
222 236 255
222 236 255
222 236 255
222 236 255
222 236 255
222 236 255
222 236 255
222 236 255
222 236 255
222 236 255
222 236 255
222 236 255
222 236 255
222 236 255
222 236 255
222 236 255
222 236 255
222 236 255
222 236 255
222 236 255
222 236 255
222 236 255
222 236 255
222 236 255
222 236 255
222 236 255
222 236 255
222 236 255
222 236 255
222 236 255
222 236 255
222 236 255
222 236 255
222 236 255
222 236 255
222 236 255
222 236 255
222 236 255
222 236 255
222 236 255
222 236 255
222 236 255
222 236 255
222 236 255
222 236 255
222 236 255
222 236 255
222 236 255
222 236 255
222 236 255
222 236 255
222 236 255
222 236 255
222 236 255
222 236 255
222 236 255
222 236 255
222 236 255
222 236 255
222 236 255
222 236 255
222 236 255
222 236 255
222 236 255
222 236 255
222 236 255
222 236 255
222 236 255
222 236 255
222 236 255
222 236 255
222 236 255
222 236 255
222 236 255
222 236 255
222 236 255
222 236 255
222 236 255
222 236 255
222 236 255
222 236 255
222 236 255
222 236 255
222 236 255
222 236 255
222 236 255
222 236 255
222 236 255
222 236 255
222 236 255
222 236 255
222 236 255
222 236 255
222 236 255
222 236 255
222 236 255
222 236 255
222 236 255
222 236 255
222 236 255
222 236 255
222 236 255
222 236 255
222 236 255
222 236 255
222 236 255
222 236 255
222 236 255
222 236 255
222 236 255
222 236 255
222 236 255
73 79 87
132 146 166
161 178 202
173 192 218
146 162 183
55 61 69
8 9 10
20 22 25
43 48 54
8 9 10
39 43 49
45 50 57
13 15 17
7 8 9
11 12 14
29 33 37
80 89 100
111 123 140
142 158 178
158 176 201
171 190 215
179 198 223
165 185 210
174 193 220
170 189 214
159 177 201
142 157 178
119 132 149
135 149 169
140 156 176
163 180 203
164 182 206
166 186 212
170 189 214
158 175 199
155 172 195
138 154 175
123 137 155
98 109 123
91 101 113
73 81 92
72 80 91
89 98 110
92 102 115
88 98 111
89 99 112
89 99 112
110 122 139
127 141 161
130 145 165
147 162 183
151 167 189
156 173 196
157 174 197
167 185 210
169 187 211
170 189 215
160 179 203
171 189 213
161 179 202
152 169 192
151 168 191
142 157 179
130 144 163
127 140 158
122 135 152
119 133 151
123 137 155
125 138 156
120 133 151
124 138 157
129 143 162
132 145 163
122 135 153
112 124 140
117 130 147
111 125 142
120 134 152
112 124 141
104 116 132
99 110 124
82 91 103
69 77 86
51 57 65
36 40 46
8 9 11
13 14 16
12 13 15
11 13 15
12 14 16
5 5 6
13 15 17
7 8 9
12 13 15
32 36 40
53 59 66
65 72 81
72 80 90
80 89 101
87 96 109
99 109 124
109 122 139
130 144 163
148 163 184
150 166 187
155 172 194
152 169 191
153 170 193
167 185 210
168 187 212
157 175 198
170 187 211
157 175 199
166 185 210
159 176 198
148 165 188
169 187 212
172 192 218
171 189 214
165 183 207
170 188 213
162 181 206
156 173 195
146 161 182
131 145 163
131 145 164
135 149 169
146 162 184
156 174 198
176 195 222
168 186 210
172 191 216
165 183 207
152 168 190
128 142 160
103 114 129
89 99 112
72 80 91
46 51 58
30 33 37
38 41 47
34 38 43
50 55 63
77 85 96
103 114 129
121 134 152
128 142 162
120 133 150
118 131 149
128 142 160
103 114 129
75 84 95
57 64 72
39 43 49
23 25 29
7 8 9
30 33 38
42 47 53
57 63 72
48 53 60
39 44 50
38 42 48
27 31 35
11 12 13
25 28 31
60 67 76
87 97 110
109 122 139
130 144 163
147 163 185
159 176 200
153 170 192
145 160 180
121 134 151
123 135 152
96 107 122
76 85 96
53 59 67
18 20 23
23 26 29
32 36 41
21 23 27
7 8 9
19 21 23
31 34 39
43 49 55
48 53 61
80 89 101
109 121 136
148 163 184
167 185 209
173 190 214
222 236 255
222 236 255
222 236 255
222 236 255
222 236 255
222 236 255
222 236 255
222 236 255
222 236 255
222 236 255
222 236 255
222 236 255
222 236 255
222 236 255
222 236 255
222 236 255
222 236 255
222 236 255
222 236 255
222 236 255
222 236 255
222 236 255
222 236 255
222 236 255
222 236 255
222 236 255
222 236 255
222 236 255
222 236 255
222 236 255
222 236 255
222 236 255
222 236 255
222 236 255
222 236 255
222 236 255
222 236 255
222 236 255
222 236 255
222 236 255
222 236 255
222 236 255
222 236 255
222 236 255
222 236 255
222 236 255
222 236 255
222 236 255
222 236 255
222 236 255
222 236 255
222 236 255
222 236 255
222 236 255
222 236 255
222 236 255
222 236 255
222 236 255
222 236 255
222 236 255
222 236 255
222 236 255
222 236 255
222 236 255
222 236 255
222 236 255
222 236 255
222 236 255
222 236 255
222 236 255
222 236 255
222 236 255
222 236 255
222 236 255
222 236 255
222 236 255
222 236 255
222 236 255
222 236 255
222 236 255
222 236 255
222 236 255
222 236 255
222 236 255
222 236 255
222 236 255
222 236 255
222 236 255
222 236 255
222 236 255
222 236 255
222 236 255
222 236 255
222 236 255
222 236 255
222 236 255
222 236 255
222 236 255
222 236 255
222 236 255
222 236 255
222 236 255
222 236 255
222 236 255
222 236 255
222 236 255
222 236 255
222 236 255
222 236 255
222 236 255
222 236 255
222 236 255
222 236 255
222 236 255
222 236 255
222 236 255
222 236 255
222 236 255
222 236 255
222 236 255
222 236 255
222 236 255
222 236 255
222 236 255
222 236 255
222 236 255
222 236 255
222 236 255
222 236 255
222 236 255
222 236 255
222 236 255
222 236 255
222 236 255
222 236 255
222 236 255
222 236 255
222 236 255
222 236 255
222 236 255
222 236 255
222 236 255
222 236 255
222 236 255
222 236 255
222 236 255
222 236 255
222 236 255
222 236 255
222 236 255
222 236 255
222 236 255
222 236 255
222 236 255
222 236 255
222 236 255
222 236 255
222 236 255
222 236 255
222 236 255
222 236 255
222 236 255
222 236 255
222 236 255
222 236 255
222 236 255
222 236 255
222 236 255
222 236 255
222 236 255
222 236 255
222 236 255
222 236 255
222 236 255
222 236 255
222 236 255
222 236 255
222 236 255
222 236 255
222 236 255
222 236 255
222 236 255
222 236 255
222 236 255
222 236 255
222 236 255
222 236 255
222 236 255
222 236 255
222 236 255
222 236 255
222 236 255
222 236 255
222 236 255
222 236 255
222 236 255
222 236 255
222 236 255
222 236 255
222 236 255
222 236 255
222 236 255
222 236 255
222 236 255
222 236 255
222 236 255
222 236 255
222 236 255
151 161 175
98 109 124
161 179 203
168 186 211
150 166 188
76 84 96
11 12 14
7 8 9
27 30 34
18 20 23
42 46 53
48 54 61
13 14 16
6 6 7
7 8 9
28 31 35
80 89 101
115 127 144
132 147 167
150 168 191
163 182 206
166 185 210
164 182 206
173 192 219
163 182 207
158 175 199
143 158 179
122 135 153
141 156 177
150 167 189
163 181 205
169 188 213
173 193 219
170 188 213
172 190 214
170 189 213
166 185 209
142 158 178
118 132 150
112 124 141
84 94 106
63 70 79
61 68 78
71 78 89
74 82 93
81 90 101
82 90 102
96 106 121
108 120 136
117 130 147
122 135 154
138 154 174
144 160 181
149 165 187
156 174 198
167 185 210
165 183 207
162 179 202
169 188 212
158 175 198
145 161 182
144 161 182
140 156 176
123 136 153
123 136 153
108 120 136
105 117 132
108 120 136
122 135 152
119 132 149
121 134 152
117 130 147
123 136 153
109 120 136
102 113 129
101 112 127
105 117 133
118 130 147
110 122 137
97 107 122
91 101 115
82 92 105
72 80 90
51 57 64
25 28 32
8 9 10
19 21 24
19 21 24
11 12 14
7 8 9
6 7 7
12 13 15
8 8 10
15 16 19
30 33 37
47 52 59
68 76 86
74 83 94
81 90 102
93 103 116
117 129 146
118 131 148
130 144 163
143 159 180
147 163 185
158 175 198
162 179 203
158 175 198
173 192 217
168 187 211
170 188 212
173 191 215
169 185 208
158 175 198
158 174 197
152 168 190
164 182 205
169 188 214
169 187 211
161 179 203
173 190 214
151 168 191
147 163 183
147 163 184
134 149 170
135 151 171
141 157 177
161 178 201
162 180 205
167 185 209
175 194 220
177 194 218
171 189 214
160 178 202
141 155 175
119 132 149
91 101 114
61 68 77
31 34 39
28 31 34
29 32 37
34 38 43
59 65 73
82 92 104
96 107 121
112 124 140
123 136 154
112 125 142
105 117 133
102 113 127
92 102 116
66 73 83
44 49 56
28 30 34
14 16 18
5 5 6
22 24 28
40 45 51
49 55 62
41 46 51
27 30 33
20 22 25
19 21 24
12 13 15
40 44 50
68 76 86
88 98 110
99 110 125
132 145 163
145 161 182
159 177 201
158 175 198
132 147 167
128 142 161
124 138 157
95 106 120
60 67 76
28 31 35
25 28 31
38 43 49
34 38 43
26 29 33
13 14 16
34 38 43
38 42 48
45 50 57
64 71 81
110 122 138
107 119 135
147 162 184
152 168 189
192 207 229
222 236 255
222 236 255
222 236 255
222 236 255
222 236 255
222 236 255
222 236 255
222 236 255
222 236 255
222 236 255
222 236 255
222 236 255
222 236 255
222 236 255
222 236 255
222 236 255
222 236 255
222 236 255
222 236 255
222 236 255
222 236 255
222 236 255
222 236 255
222 236 255
222 236 255
222 236 255
222 236 255
222 236 255
222 236 255
222 236 255
222 236 255
222 236 255
222 236 255
222 236 255
222 236 255
222 236 255
222 236 255
222 236 255
222 236 255
222 236 255
222 236 255
222 236 255
222 236 255
222 236 255
222 236 255
222 236 255
222 236 255
222 236 255
222 236 255
222 236 255
222 236 255
222 236 255
222 236 255
222 236 255
222 236 255
222 236 255
222 236 255
222 236 255
222 236 255
222 236 255
222 236 255
222 236 255
222 236 255
222 236 255
222 236 255
222 236 255
222 236 255
222 236 255
222 236 255
222 236 255
222 236 255
222 236 255
222 236 255
222 236 255
222 236 255
222 236 255
222 236 255
222 236 255
222 236 255
222 236 255
222 236 255
222 236 255
222 236 255
222 236 255
222 236 255
222 236 255
222 236 255
222 236 255
222 236 255
222 236 255
222 236 255
222 236 255
222 236 255
222 236 255
222 236 255
222 236 255
222 236 255
222 236 255
222 236 255
222 236 255
222 236 255
222 236 255
222 236 255
222 236 255
222 236 255
222 236 255
222 236 255
222 236 255
222 236 255
222 236 255
222 236 255
222 236 255
222 236 255
222 236 255
222 236 255
222 236 255
222 236 255
222 236 255
222 236 255
222 236 255
222 236 255
222 236 255
222 236 255
222 236 255
222 236 255
222 236 255
222 236 255
222 236 255
222 236 255
222 236 255
222 236 255
222 236 255
222 236 255
222 236 255
222 236 255
222 236 255
222 236 255
222 236 255
222 236 255
222 236 255
222 236 255
222 236 255
222 236 255
222 236 255
222 236 255
222 236 255
222 236 255
222 236 255
222 236 255
222 236 255
222 236 255
222 236 255
222 236 255
222 236 255
222 236 255
222 236 255
222 236 255
222 236 255
222 236 255
222 236 255
222 236 255
222 236 255
222 236 255
222 236 255
222 236 255
222 236 255
222 236 255
222 236 255
222 236 255
222 236 255
222 236 255
222 236 255
222 236 255
222 236 255
222 236 255
222 236 255
222 236 255
222 236 255
222 236 255
222 236 255
222 236 255
222 236 255
222 236 255
222 236 255
222 236 255
222 236 255
222 236 255
222 236 255
222 236 255
222 236 255
222 236 255
222 236 255
222 236 255
222 236 255
222 236 255
222 236 255
222 236 255
222 236 255
222 236 255
222 236 255
222 236 255
222 236 255
222 236 255
222 236 255
222 236 255
222 236 255
222 236 255
222 236 255
183 195 212
81 90 102
155 173 196
169 188 213
161 178 202
100 112 128
27 30 34
17 18 21
16 18 20
15 17 19
43 48 54
54 60 68
17 19 22
6 7 8
4 4 5
28 31 35
81 89 100
113 125 142
127 140 159
166 183 205
175 194 220
177 196 222
167 186 210
172 191 215
164 182 206
156 172 193
142 157 177
127 142 161
141 156 177
147 164 186
166 183 207
175 194 220
174 193 219
164 182 205
171 190 216
169 188 213
166 184 207
160 178 203
131 145 165
113 125 141
103 113 127
92 102 116
71 78 88
58 64 72
66 74 83
73 81 91
78 87 99
75 84 96
91 101 115
99 110 125
111 123 138
119 133 151
143 157 177
150 167 190
159 177 201
160 178 201
164 182 205
169 187 212
152 168 191
166 184 208
160 178 202
151 167 189
141 156 176
125 139 157
110 121 137
102 114 129
93 103 116
100 111 125
106 117 133
117 130 147
111 123 140
116 129 147
116 129 145
101 112 126
84 94 106
83 92 103
94 103 116
100 111 125
91 100 113
84 94 106
78 86 98
79 88 99
72 79 89
38 43 49
20 22 25
7 7 8
22 24 27
16 17 20
6 6 7
5 5 6
11 12 14
8 9 10
1 2 2
8 9 10
23 26 29
32 36 40
53 58 66
72 80 90
90 98 110
94 104 118
112 123 139
110 123 140
120 133 150
135 150 170
144 159 178
153 170 191
160 178 201
174 192 216
166 184 209
174 192 217
175 194 221
163 182 206
160 178 202
148 165 188
153 170 193
161 178 202
166 184 209
168 186 210
174 193 218
159 177 201
168 186 210
139 155 177
144 161 183
134 149 170
136 151 171
141 157 179
148 165 187
145 162 185
167 185 209
169 188 213
174 192 217
168 187 212
161 178 200
151 169 192
141 157 179
123 137 155
90 100 114
48 53 61
22 24 27
24 27 31
38 42 47
42 46 52
71 79 89
93 103 117
100 112 127
97 107 121
102 113 128
79 88 100
76 85 96
72 80 90
75 83 94
50 56 64
17 19 21
5 6 7
4 5 6
8 9 10
12 13 15
22 24 28
21 23 26
27 31 35
18 20 22
14 15 17
15 17 19
11 12 14
39 43 49
65 72 82
68 75 84
93 103 117
118 131 149
138 153 172
152 168 190
153 170 193
128 142 161
123 136 153
111 123 140
78 86 97
46 51 58
14 16 18
36 40 46
40 44 50
26 29 33
27 30 34
19 21 24
43 48 55
52 58 67
56 62 71
90 100 114
114 127 144
119 131 148
137 153 174
160 177 201
199 213 234
222 236 255
222 236 255
222 236 255
222 236 255
222 236 255
222 236 255
222 236 255
222 236 255
222 236 255
222 236 255
222 236 255
222 236 255
222 236 255
222 236 255
222 236 255
222 236 255
222 236 255
222 236 255
222 236 255
222 236 255
222 236 255
222 236 255
222 236 255
222 236 255
222 236 255
222 236 255
222 236 255
222 236 255
222 236 255
222 236 255
222 236 255
222 236 255
222 236 255
222 236 255
222 236 255
222 236 255
222 236 255
222 236 255
222 236 255
222 236 255
222 236 255
222 236 255
222 236 255
222 236 255
222 236 255
222 236 255
222 236 255
222 236 255
222 236 255
222 236 255
222 236 255
222 236 255
222 236 255
222 236 255
222 236 255
222 236 255
222 236 255
222 236 255
222 236 255
222 236 255
222 236 255
222 236 255
222 236 255
222 236 255
222 236 255
222 236 255
222 236 255
222 236 255
222 236 255
222 236 255
222 236 255
222 236 255
222 236 255
222 236 255
222 236 255
222 236 255
222 236 255
222 236 255
222 236 255
222 236 255
222 236 255
222 236 255
222 236 255
222 236 255
222 236 255
222 236 255
222 236 255
222 236 255
222 236 255
222 236 255
222 236 255
222 236 255
222 236 255
222 236 255
222 236 255
222 236 255
222 236 255
222 236 255
222 236 255
222 236 255
222 236 255
222 236 255
222 236 255
222 236 255
222 236 255
222 236 255
222 236 255
222 236 255
222 236 255
222 236 255
222 236 255
222 236 255
222 236 255
222 236 255
222 236 255
222 236 255
222 236 255
222 236 255
222 236 255
222 236 255
222 236 255
222 236 255
222 236 255
222 236 255
222 236 255
222 236 255
222 236 255
222 236 255
222 236 255
222 236 255
222 236 255
222 236 255
222 236 255
222 236 255
222 236 255
222 236 255
222 236 255
222 236 255
222 236 255
222 236 255
222 236 255
222 236 255
222 236 255
222 236 255
222 236 255
222 236 255
222 236 255
222 236 255
222 236 255
222 236 255
222 236 255
222 236 255
222 236 255
222 236 255
222 236 255
222 236 255
222 236 255
222 236 255
222 236 255
222 236 255
222 236 255
222 236 255
222 236 255
222 236 255
222 236 255
222 236 255
222 236 255
222 236 255
222 236 255
222 236 255
222 236 255
222 236 255
222 236 255
222 236 255
222 236 255
222 236 255
222 236 255
222 236 255
222 236 255
222 236 255
222 236 255
222 236 255
222 236 255
222 236 255
222 236 255
222 236 255
222 236 255
222 236 255
222 236 255
222 236 255
222 236 255
222 236 255
222 236 255
222 236 255
222 236 255
222 236 255
222 236 255
222 236 255
222 236 255
222 236 255
222 236 255
222 236 255
222 236 255
222 236 255
222 236 255
222 236 255
222 236 255
222 236 255
205 219 238
75 83 94
133 149 169
157 174 197
156 173 196
122 135 153
53 59 66
14 16 18
28 32 36
28 31 35
45 50 56
59 66 75
23 25 29
10 11 12
8 9 10
39 43 49
75 82 93
101 112 126
132 147 167
155 172 194
169 188 212
171 191 218
176 196 222
166 184 208
161 179 203
155 171 192
130 145 166
129 142 160
142 158 180
154 171 194
169 187 211
176 193 217
168 187 212
171 189 213
169 187 211
171 190 216
169 187 211
171 190 215
135 150 170
116 128 145
97 108 122
84 93 106
80 89 101
60 66 75
51 56 64
59 65 73
57 64 73
54 60 69
63 70 79
83 92 105
95 106 120
108 121 137
135 149 169
149 165 187
160 178 201
156 173 197
168 186 210
159 176 199
154 172 195
145 161 183
139 155 176
147 163 184
141 156 175
126 139 156
108 120 136
89 99 113
85 95 107
90 100 114
103 114 129
106 118 133
106 117 133
108 120 135
102 114 129
93 103 117
83 92 104
77 85 97
74 83 94
72 80 91
66 73 82
60 66 76
59 66 75
66 73 82
54 60 68
36 40 45
25 28 32
17 19 22
9 10 11
10 11 13
5 5 6
19 22 24
22 24 27
9 10 11
9 10 11
16 18 21
17 19 21
31 34 39
49 55 63
67 74 84
86 95 107
88 97 111
107 119 136
115 128 146
120 133 151
134 148 168
143 159 179
165 183 207
162 180 205
171 190 214
177 195 219
174 193 218
170 188 212
158 177 202
155 172 194
148 165 187
160 178 202
163 181 205
170 188 212
171 189 214
169 186 210
175 194 220
163 180 203
156 173 195
144 161 182
139 155 176
150 165 186
150 166 187
149 165 187
161 179 204
162 180 204
171 190 216
176 195 222
166 185 210
160 177 200
148 165 187
144 159 180
116 129 147
85 94 106
56 62 70
28 32 36
40 44 50
55 60 68
71 78 88
86 95 108
92 102 116
89 99 113
95 105 119
75 83 94
53 59 66
41 45 51
45 50 56
53 59 66
30 34 38
10 11 13
10 12 13
7 7 8
8 9 11
11 12 14
10 12 13
19 21 23
29 33 37
12 13 15
8 9 10
9 10 12
7 7 8
32 36 41
48 54 61
62 68 77
81 90 102
114 126 143
126 140 159
161 177 199
152 168 190
141 156 176
122 134 150
94 103 116
62 69 78
24 27 30
11 12 14
37 41 46
27 30 34
14 16 18
26 29 33
22 25 28
51 57 65
75 83 94
77 85 96
107 119 135
124 138 156
138 154 175
134 150 171
160 178 201
211 225 245
222 236 255
222 236 255
222 236 255
222 236 255
222 236 255
222 236 255
222 236 255
222 236 255
222 236 255
222 236 255
222 236 255
222 236 255
222 236 255
222 236 255
222 236 255
222 236 255
222 236 255
222 236 255
222 236 255
222 236 255
222 236 255
222 236 255
222 236 255
222 236 255
222 236 255
222 236 255
222 236 255
222 236 255
222 236 255
222 236 255
222 236 255
222 236 255
222 236 255
222 236 255
222 236 255
222 236 255
222 236 255
222 236 255
222 236 255
222 236 255
222 236 255
222 236 255
222 236 255
222 236 255
222 236 255
222 236 255
222 236 255
222 236 255
222 236 255
222 236 255
222 236 255
222 236 255
222 236 255
222 236 255
222 236 255
222 236 255
222 236 255
222 236 255
222 236 255
222 236 255
222 236 255
222 236 255
222 236 255
222 236 255
222 236 255
222 236 255
222 236 255
222 236 255
222 236 255
222 236 255
222 236 255
222 236 255
222 236 255
222 236 255
222 236 255
222 236 255
222 236 255
222 236 255
222 236 255
222 236 255
222 236 255
222 236 255
222 236 255
222 236 255
222 236 255
222 236 255
222 236 255
222 236 255
222 236 255
222 236 255
222 236 255
222 236 255
222 236 255
222 236 255
222 236 255
222 236 255
222 236 255
222 236 255
222 236 255
222 236 255
222 236 255
222 236 255
222 236 255
222 236 255
222 236 255
222 236 255
222 236 255
222 236 255
222 236 255
222 236 255
222 236 255
222 236 255
222 236 255
222 236 255
222 236 255
222 236 255
222 236 255
222 236 255
222 236 255
222 236 255
222 236 255
222 236 255
222 236 255
222 236 255
222 236 255
222 236 255
222 236 255
222 236 255
222 236 255
222 236 255
222 236 255
222 236 255
222 236 255
222 236 255
222 236 255
222 236 255
222 236 255
222 236 255
222 236 255
222 236 255
222 236 255
222 236 255
222 236 255
222 236 255
222 236 255
222 236 255
222 236 255
222 236 255
222 236 255
222 236 255
222 236 255
222 236 255
222 236 255
222 236 255
222 236 255
222 236 255
222 236 255
222 236 255
222 236 255
222 236 255
222 236 255
222 236 255
222 236 255
222 236 255
222 236 255
222 236 255
222 236 255
222 236 255
222 236 255
222 236 255
222 236 255
222 236 255
222 236 255
222 236 255
222 236 255
222 236 255
222 236 255
222 236 255
222 236 255
222 236 255
222 236 255
222 236 255
222 236 255
222 236 255
222 236 255
222 236 255
222 236 255
222 236 255
222 236 255
222 236 255
222 236 255
222 236 255
222 236 255
222 236 255
222 236 255
222 236 255
222 236 255
222 236 255
222 236 255
222 236 255
222 236 255
222 236 255
222 236 255
222 236 255
222 236 255
222 236 255
222 236 255
222 236 255
222 236 255
109 121 136
113 125 141
149 165 187
163 181 204
140 155 175
74 82 94
23 26 29
18 20 23
46 51 58
62 69 78
68 75 85
40 45 51
17 19 22
8 9 10
37 42 47
78 86 98
107 118 133
135 151 171
156 174 198
165 184 209
165 184 209
166 185 209
160 180 205
160 178 203
159 178 203
138 153 173
131 145 163
150 166 187
160 177 200
169 187 211
163 182 206
162 181 205
168 186 209
156 174 197
164 183 208
164 183 208
156 172 195
150 167 191
122 136 154
102 112 127
87 97 110
71 79 90
53 58 66
47 52 59
48 53 60
45 50 56
44 48 55
34 37 42
48 53 61
79 88 99
103 114 129
113 126 143
139 154 174
151 168 192
157 174 198
168 185 209
163 182 206
153 170 193
147 164 186
143 158 180
132 147 167
120 135 153
109 121 137
96 106 120
91 101 115
99 110 124
103 114 129
98 108 122
92 102 115
88 98 112
93 104 118
97 107 121
85 94 107
72 79 90
71 79 90
65 72 81
52 58 65
38 43 48
42 46 53
45 49 56
38 42 48
28 32 36
37 42 47
42 47 53
30 33 37
19 21 24
7 8 10
12 13 15
25 28 32
26 29 33
7 8 10
28 31 36
33 37 42
31 35 40
39 43 49
58 65 73
72 80 91
79 88 100
97 108 122
108 120 136
111 123 139
125 139 158
152 168 190
149 166 187
161 179 202
171 190 215
177 195 221
171 189 214
172 191 216
162 182 207
163 181 205
154 170 191
157 174 197
170 189 214
175 194 221
172 190 216
168 187 212
172 190 215
163 181 205
162 180 204
157 175 198
149 165 187
150 167 189
142 158 178
159 176 198
168 186 210
165 184 208
175 193 218
162 180 204
172 190 215
162 180 203
144 161 184
142 157 178
135 150 171
117 130 148
84 94 107
54 61 69
31 34 39
51 57 65
59 66 75
76 85 97
85 95 107
87 97 109
80 89 101
70 78 89
58 64 73
24 26 30
20 22 26
38 42 48
38 42 48
19 21 23
5 5 6
9 10 11
8 9 10
8 9 10
12 14 16
18 20 23
32 36 41
32 36 40
11 12 14
2 2 2
8 9 10
22 25 28
42 46 53
53 59 67
68 76 86
91 100 114
121 135 153
140 156 177
166 184 208
155 172 194
148 165 188
136 151 171
93 103 117
50 56 64
22 24 28
7 8 9
21 24 27
11 13 15
11 12 13
24 27 30
27 30 34
53 59 67
82 91 104
89 99 112
114 126 142
130 144 164
147 163 184
133 147 166
154 170 192
222 236 255
222 236 255
222 236 255
222 236 255
222 236 255
222 236 255
222 236 255
222 236 255
222 236 255
222 236 255
222 236 255
222 236 255
222 236 255
222 236 255
222 236 255
222 236 255
222 236 255
222 236 255
222 236 255
222 236 255
222 236 255
222 236 255
222 236 255
222 236 255
222 236 255
222 236 255
222 236 255
222 236 255
222 236 255
222 236 255
222 236 255
222 236 255
222 236 255
222 236 255
222 236 255
222 236 255
222 236 255
222 236 255
222 236 255
222 236 255
222 236 255
222 236 255
222 236 255
222 236 255
222 236 255
222 236 255
222 236 255
222 236 255
222 236 255
222 236 255
222 236 255
222 236 255
222 236 255
222 236 255
222 236 255
222 236 255
222 236 255
222 236 255
222 236 255
222 236 255
222 236 255
222 236 255
222 236 255
222 236 255
222 236 255
222 236 255
222 236 255
222 236 255
222 236 255
222 236 255
222 236 255
222 236 255
222 236 255
222 236 255
222 236 255
222 236 255
222 236 255
222 236 255
222 236 255
222 236 255
222 236 255
222 236 255
222 236 255
222 236 255
222 236 255
222 236 255
222 236 255
222 236 255
222 236 255
222 236 255
222 236 255
222 236 255
222 236 255
222 236 255
222 236 255
222 236 255
222 236 255
222 236 255
222 236 255
222 236 255
222 236 255
222 236 255
222 236 255
222 236 255
222 236 255
222 236 255
222 236 255
222 236 255
222 236 255
222 236 255
222 236 255
222 236 255
222 236 255
222 236 255
222 236 255
222 236 255
222 236 255
222 236 255
222 236 255
222 236 255
222 236 255
222 236 255
222 236 255
222 236 255
222 236 255
222 236 255
222 236 255
222 236 255
222 236 255
222 236 255
222 236 255
222 236 255
222 236 255
222 236 255
222 236 255
222 236 255
222 236 255
222 236 255
222 236 255
222 236 255
222 236 255
222 236 255
222 236 255
222 236 255
222 236 255
222 236 255
222 236 255
222 236 255
222 236 255
222 236 255
222 236 255
222 236 255
222 236 255
222 236 255
222 236 255
222 236 255
222 236 255
222 236 255
222 236 255
222 236 255
222 236 255
222 236 255
222 236 255
222 236 255
222 236 255
222 236 255
222 236 255
222 236 255
222 236 255
222 236 255
222 236 255
222 236 255
222 236 255
222 236 255
222 236 255
222 236 255
222 236 255
222 236 255
222 236 255
222 236 255
222 236 255
222 236 255
222 236 255
222 236 255
222 236 255
222 236 255
222 236 255
222 236 255
222 236 255
222 236 255
222 236 255
222 236 255
222 236 255
222 236 255
222 236 255
222 236 255
222 236 255
222 236 255
222 236 255
222 236 255
222 236 255
222 236 255
222 236 255
222 236 255
222 236 255
222 236 255
222 236 255
222 236 255
222 236 255
222 236 255
169 183 202
94 104 118
127 141 159
165 183 207
139 155 176
99 109 124
51 57 64
16 18 20
43 48 54
82 91 103
80 89 101
54 59 67
30 34 38
11 13 15
35 39 44
88 98 111
128 142 162
144 160 182
158 175 199
175 193 218
159 177 201
174 192 217
169 187 210
171 190 216
168 186 210
133 149 169
131 145 164
148 164 186
159 176 199
166 183 207
176 195 219
147 163 186
159 176 200
162 180 204
169 187 212
178 197 223
158 175 199
144 159 180
122 135 152
97 108 122
78 87 98
53 59 67
47 52 60
46 51 58
38 42 48
35 39 44
31 34 39
23 26 29
27 31 35
49 55 63
87 97 109
112 125 142
138 154 175
159 177 200
170 188 213
176 195 221
173 192 217
157 174 196
142 158 180
142 158 179
129 143 162
115 129 148
103 115 131
92 102 115
84 93 105
92 102 115
95 105 118
93 103 116
85 94 107
86 96 109
86 97 110
90 100 113
81 90 101
70 78 88
65 72 82
66 73 82
51 57 65
33 36 41
24 27 30
33 37 41
25 28 32
23 26 30
30 33 37
36 40 46
33 37 42
20 23 26
15 17 19
10 11 12
15 17 19
13 14 16
10 11 13
33 37 42
48 54 61
47 52 59
49 55 62
69 76 86
69 76 87
77 86 98
85 94 106
99 111 126
111 124 140
132 147 166
151 168 191
164 182 206
160 178 202
173 192 218
170 189 215
168 187 211
157 175 199
162 180 204
157 174 197
159 177 201
162 180 204
161 179 202
177 196 221
168 187 212
165 184 209
174 192 217
166 184 208
172 190 215
166 184 207
166 183 207
162 180 205
163 181 205
165 183 207
171 189 214
173 192 217
174 193 220
173 192 217
170 189 215
162 181 207
167 185 209
152 168 190
139 153 173
123 136 152
90 99 111
42 47 53
42 46 53
69 76 86
74 83 94
73 81 92
84 93 106
75 83 94
67 74 84
56 62 70
33 37 42
9 10 11
11 12 14
26 29 34
29 33 37
20 22 25
11 13 14
8 9 11
6 7 8
13 15 17
28 32 36
43 48 54
40 44 50
21 24 27
3 4 4
9 10 11
22 24 28
46 51 58
60 67 76
73 81 92
81 90 102
101 111 126
138 153 172
148 164 186
150 168 190
154 170 191
143 158 178
117 129 145
72 80 91
32 36 40
10 11 13
7 8 9
19 22 24
14 16 18
28 31 35
22 25 28
17 19 21
66 73 83
86 95 108
98 109 124
99 110 125
122 135 153
145 162 183
138 152 172
181 198 221
222 236 255
222 236 255
222 236 255
222 236 255
222 236 255
222 236 255
222 236 255
222 236 255
222 236 255
222 236 255
222 236 255
222 236 255
222 236 255
222 236 255
222 236 255
222 236 255
222 236 255
222 236 255
222 236 255
222 236 255
222 236 255
222 236 255
222 236 255
222 236 255
222 236 255
222 236 255
222 236 255
222 236 255
222 236 255
222 236 255
222 236 255
222 236 255
222 236 255
222 236 255
222 236 255
222 236 255
222 236 255
222 236 255
222 236 255
222 236 255
222 236 255
222 236 255
222 236 255
222 236 255
222 236 255
222 236 255
222 236 255
222 236 255
222 236 255
222 236 255
222 236 255
222 236 255
222 236 255
222 236 255
222 236 255
222 236 255
222 236 255
222 236 255
222 236 255
222 236 255
222 236 255
222 236 255
222 236 255
222 236 255
222 236 255
222 236 255
222 236 255
222 236 255
222 236 255
222 236 255
222 236 255
222 236 255
222 236 255
222 236 255
222 236 255
222 236 255
222 236 255
222 236 255
222 236 255
222 236 255
222 236 255
222 236 255
222 236 255
222 236 255
222 236 255
222 236 255
222 236 255
222 236 255
222 236 255
222 236 255
222 236 255
222 236 255
222 236 255
222 236 255
222 236 255
222 236 255
222 236 255
222 236 255
222 236 255
222 236 255
222 236 255
222 236 255
222 236 255
222 236 255
222 236 255
222 236 255
222 236 255
222 236 255
222 236 255
222 236 255
222 236 255
222 236 255
222 236 255
222 236 255
222 236 255
222 236 255
222 236 255
222 236 255
222 236 255
222 236 255
222 236 255
222 236 255
222 236 255
222 236 255
222 236 255
222 236 255
222 236 255
222 236 255
222 236 255
222 236 255
222 236 255
222 236 255
223 236 255
223 236 255
223 236 255
222 236 255
222 236 255
223 236 255
223 236 255
222 236 255
223 236 255
223 236 255
223 236 255
223 236 255
223 236 255
223 236 255
223 236 255
223 236 255
223 236 255
223 236 255
223 236 255
223 236 255
223 236 255
223 236 255
223 236 255
223 236 255
223 236 255
223 236 255
223 236 255
223 236 255
223 236 255
223 236 255
223 236 255
223 236 255
223 236 255
223 236 255
223 236 255
223 236 255
223 236 255
223 236 255
223 236 255
223 236 255
223 236 255
223 236 255
223 236 255
223 236 255
223 236 255
223 236 255
223 236 255
223 236 255
223 236 255
223 236 255
223 236 255
223 236 255
223 236 255
223 236 255
223 236 255
223 236 255
223 236 255
223 236 255
223 236 255
223 236 255
223 236 255
223 236 255
223 236 255
223 236 255
223 236 255
223 236 255
223 236 255
223 236 255
223 236 255
223 236 255
223 236 255
223 236 255
223 236 255
223 236 255
223 236 255
223 236 255
223 236 255
223 236 255
199 214 234
108 120 137
110 122 138
159 177 202
145 161 182
118 131 148
84 93 105
30 34 38
41 45 51
79 88 99
77 85 97
43 47 53
29 33 37
14 15 17
36 40 45
86 96 109
133 148 167
148 163 183
160 176 199
160 178 202
167 184 207
157 175 199
164 183 208
171 189 214
164 181 203
140 156 177
140 156 176
149 166 189
167 185 209
163 180 203
163 181 205
160 179 204
146 161 182
155 172 194
168 187 211
164 182 206
164 183 208
146 162 183
107 119 134
97 107 121
73 81 91
63 70 80
59 65 73
50 56 64
42 47 53
33 36 41
33 36 41
27 30 34
18 20 22
39 44 50
71 79 90
111 123 139
149 165 187
161 178 201
169 187 212
163 181 204
156 174 197
156 173 195
142 158 179
119 133 152
121 134 152
112 125 142
87 97 110
78 86 98
71 79 90
79 87 99
78 87 99
79 88 100
83 92 104
72 80 91
73 81 91
74 82 93
76 85 96
66 73 84
64 71 81
60 67 76
48 53 61
37 41 46
31 34 39
22 24 28
26 29 33
23 25 29
21 23 27
17 19 21
17 18 21
14 16 18
11 13 15
11 12 14
14 15 17
6 7 8
22 25 28
45 50 57
55 61 69
63 70 79
66 74 83
78 87 98
70 78 89
73 81 91
81 91 103
103 115 130
125 139 158
134 149 169
149 165 186
171 190 214
155 173 196
179 198 224
160 179 205
167 186 211
160 177 200
157 175 198
169 188 214
169 187 210
168 187 211
177 195 218
164 182 205
171 190 216
166 185 210
175 192 215
162 180 205
176 195 221
165 183 208
167 185 209
165 182 204
171 189 213
160 178 201
166 185 211
168 187 211
166 185 210
164 182 207
169 187 212
165 183 207
150 166 187
144 160 181
126 139 157
106 117 133
65 72 82
33 37 42
60 67 76
78 86 97
78 86 97
75 84 95
69 77 87
59 65 74
53 59 67
30 33 38
15 16 19
25 28 32
12 14 16
11 13 14
10 12 13
13 14 16
14 16 18
4 4 5
1 2 2
16 18 20
38 43 49
43 48 54
29 32 36
5 6 7
10 12 13
24 27 30
44 49 55
58 64 73
70 78 89
74 83 94
89 98 110
104 114 128
132 146 165
151 167 187
155 172 196
136 150 170
125 138 155
98 109 123
39 43 48
13 14 16
18 20 22
22 24 28
29 32 36
21 24 27
34 37 42
17 19 21
18 20 22
65 72 82
89 98 111
89 99 112
106 117 133
131 146 166
136 151 171
152 168 191
206 220 241
223 236 255
223 236 255
223 236 255
223 236 255
223 236 255
223 236 255
223 236 255
223 236 255
223 236 255
223 236 255
223 236 255
223 236 255
223 236 255
223 236 255
223 236 255
223 236 255
223 236 255
223 236 255
223 236 255
223 236 255
223 236 255
223 236 255
223 236 255
223 236 255
223 236 255
223 236 255
223 236 255
223 236 255
223 236 255
223 236 255
223 236 255
223 236 255
223 236 255
223 236 255
223 236 255
223 236 255
223 236 255
223 236 255
223 236 255
223 236 255
223 236 255
223 236 255
223 236 255
223 236 255
223 236 255
223 236 255
223 236 255
223 236 255
223 236 255
223 236 255
223 236 255
223 236 255
223 236 255
223 236 255
223 236 255
223 236 255
223 236 255
223 236 255
223 236 255
223 236 255
223 236 255
223 236 255
223 236 255
223 236 255
223 236 255
223 236 255
223 236 255
223 236 255
223 236 255
223 236 255
223 236 255
223 236 255
222 236 255
223 236 255
222 236 255
222 236 255
222 236 255
222 236 255
222 236 255
222 236 255
222 236 255
222 236 255
222 236 255
222 236 255
222 236 255
222 236 255
222 236 255
222 236 255
222 236 255
222 236 255
222 236 255
222 236 255
222 236 255
222 236 255
222 236 255
222 236 255
222 236 255
222 236 255
222 236 255
222 236 255
222 236 255
222 236 255
222 236 255
222 236 255
222 236 255
223 236 255
223 236 255
223 236 255
223 236 255
223 236 255
223 236 255
223 236 255
223 236 255
223 236 255
223 236 255
223 236 255
223 236 255
223 236 255
223 236 255
223 236 255
223 236 255
223 236 255
223 236 255
223 236 255
223 236 255
223 236 255
223 236 255
223 236 255
223 236 255
223 236 255
223 236 255
223 236 255
223 236 255
223 236 255
223 236 255
223 236 255
223 236 255
223 236 255
223 236 255
223 236 255
223 236 255
223 236 255
223 236 255
223 236 255
223 236 255
223 236 255
223 236 255
223 236 255
223 236 255
223 236 255
223 236 255
223 236 255
223 236 255
223 236 255
223 236 255
223 236 255
223 236 255
223 236 255
223 236 255
223 236 255
223 236 255
223 236 255
223 236 255
223 236 255
223 236 255
223 236 255
223 236 255
223 236 255
223 236 255
223 236 255
223 236 255
223 236 255
223 236 255
223 236 255
223 236 255
223 236 255
223 236 255
223 236 255
223 236 255
223 236 255
223 236 255
223 236 255
223 236 255
223 236 255
223 236 255
223 236 255
223 236 255
223 236 255
223 236 255
223 236 255
223 236 255
223 236 255
223 236 255
223 236 255
223 236 255
223 236 255
223 236 255
223 236 255
223 236 255
223 236 255
223 236 255
223 236 255
223 236 255
223 236 255
223 236 255
223 236 255
223 236 255
223 236 255
223 236 255
223 236 255
212 225 245
130 144 163
124 138 156
152 169 192
158 175 199
141 157 177
106 117 132
62 69 79
36 39 44
70 78 88
68 75 84
38 42 47
23 26 29
14 16 18
44 49 55
82 91 103
121 134 152
130 144 163
159 176 198
171 190 216
165 182 206
163 181 205
158 175 197
165 184 208
152 169 191
125 138 156
141 157 179
151 169 191
163 181 206
167 185 209
167 185 209
151 169 192
155 172 195
157 174 196
168 186 210
165 183 207
156 173 196
143 158 179
122 136 154
98 109 124
78 87 98
68 76 87
63 70 80
60 67 76
40 45 51
32 35 40
27 30 34
26 29 34
24 27 31
27 31 35
57 63 72
97 108 122
134 149 169
153 169 191
157 175 198
158 175 198
158 174 196
148 164 185
128 142 161
116 129 146
100 110 125
88 98 111
78 87 98
74 83 94
75 83 95
80 88 100
76 84 95
73 81 92
81 90 102
74 81 92
59 65 74
54 60 69
67 74 84
68 76 86
61 68 77
53 59 67
35 39 45
22 24 27
25 28 31
19 21 24
10 12 13
8 9 10
12 13 15
6 7 8
6 6 7
5 5 6
5 6 7
5 5 6
7 7 9
8 9 10
27 30 35
57 64 73
72 79 90
76 84 96
82 92 104
83 92 104
78 86 98
74 83 94
81 90 102
110 122 138
129 143 161
144 159 180
157 175 198
156 174 199
176 196 223
173 192 217
165 184 209
160 178 202
156 173 195
169 187 212
169 188 213
175 194 220
172 191 215
160 180 205
165 183 208
171 190 215
161 179 202
156 173 196
158 176 199
163 180 203
166 184 207
165 183 208
162 179 203
172 191 215
164 182 205
171 190 215
173 192 216
168 187 212
160 177 200
163 181 205
160 177 200
136 151 172
126 139 157
111 123 139
81 91 104
47 52 58
49 54 61
72 80 91
83 93 105
79 88 100
75 83 94
55 61 69
42 46 52
31 34 39
13 15 17
22 25 28
37 41 47
37 41 46
26 29 33
7 8 9
9 10 11
13 15 17
12 14 16
14 16 18
38 42 48
52 58 65
38 42 48
25 28 31
9 10 11
31 34 39
42 47 54
50 55 62
62 69 78
69 78 89
86 95 108
90 100 113
116 129 146
141 156 176
158 175 198
154 170 193
123 137 155
111 123 139
77 86 97
25 27 31
18 20 23
26 29 33
36 40 45
41 46 52
30 33 38
29 32 36
8 9 10
28 32 36
78 87 98
103 115 130
89 99 112
116 128 144
139 154 174
132 146 166
158 176 200
206 220 240
223 236 255
223 236 255
223 236 255
223 236 255
223 236 255
223 236 255
223 236 255
223 236 255
223 236 255
223 236 255
223 236 255
223 236 255
223 236 255
223 236 255
223 236 255
223 236 255
223 236 255
223 236 255
223 236 255
223 236 255
223 236 255
223 236 255
223 236 255
223 236 255
223 236 255
223 236 255
223 236 255
223 236 255
223 236 255
223 236 255
223 236 255
223 236 255
223 236 255
223 236 255
223 236 255
223 236 255
223 236 255
223 236 255
223 236 255
223 236 255
223 236 255
223 236 255
223 236 255
223 236 255
223 236 255
223 236 255
223 236 255
223 236 255
223 236 255
223 236 255
223 236 255
223 236 255
223 236 255
223 236 255
223 236 255
223 236 255
223 236 255
223 236 255
223 236 255
223 236 255
223 236 255
223 236 255
223 236 255
223 236 255
223 236 255
223 236 255
223 236 255
223 236 255
223 236 255
223 236 255
223 236 255
223 236 255
223 236 255
223 236 255
223 236 255
223 236 255
223 236 255
223 236 255
223 236 255
223 236 255
223 236 255
223 236 255
223 236 255
223 236 255
223 236 255
223 236 255
223 236 255
223 236 255
223 236 255
223 236 255
223 236 255
223 236 255
223 236 255
223 236 255
223 236 255
223 236 255
223 236 255
223 236 255
223 236 255
223 236 255
223 236 255
223 236 255
223 236 255
223 236 255
223 236 255
223 236 255
223 236 255
223 236 255
223 236 255
223 236 255
223 236 255
223 236 255
223 236 255
223 236 255
223 236 255
223 236 255
223 236 255
223 236 255
223 236 255
223 236 255
223 236 255
223 236 255
223 236 255
223 236 255
223 236 255
223 236 255
223 236 255
223 236 255
223 236 255
223 236 255
223 236 255
223 236 255
223 236 255
223 236 255
223 236 255
223 236 255
223 236 255
223 236 255
223 236 255
223 236 255
223 236 255
223 236 255
223 236 255
223 236 255
223 236 255
223 236 255
223 236 255
223 236 255
223 236 255
223 236 255
223 236 255
223 236 255
223 236 255
223 236 255
223 236 255
223 236 255
223 236 255
223 236 255
223 236 255
223 236 255
223 236 255
223 236 255
223 236 255
223 236 255
223 236 255
223 236 255
223 236 255
223 236 255
223 236 255
223 236 255
223 236 255
223 236 255
223 236 255
223 236 255
223 236 255
223 236 255
223 236 255
223 236 255
223 236 255
223 236 255
223 236 255
223 236 255
223 236 255
223 236 255
223 236 255
223 236 255
223 236 255
223 236 255
223 236 255
223 236 255
223 236 255
223 236 255
223 236 255
223 236 255
223 236 255
223 236 255
223 236 255
223 236 255
223 236 255
223 236 255
223 236 255
223 236 255
223 236 255
223 236 255
223 236 255
223 236 255
223 236 255
223 236 255
223 236 255
223 236 255
223 236 255
166 182 202
132 146 166
151 167 189
166 184 208
143 159 179
111 123 139
95 106 120
38 43 48
56 62 70
64 70 80
31 35 40
16 18 21
23 26 30
46 51 58
71 79 90
105 116 132
117 129 145
142 158 179
167 185 210
167 184 207
160 179 205
155 172 195
154 171 193
141 156 176
135 150 169
149 165 186
160 179 204
168 186 211
172 192 218
172 191 215
169 188 214
158 176 200
162 179 203
163 181 204
172 191 216
162 179 203
146 163 185
144 159 180
120 134 151
95 105 120
82 91 102
62 69 78
47 52 59
37 41 47
38 42 48
27 30 35
22 25 28
18 20 23
23 25 29
46 51 58
74 82 94
107 119 135
132 147 166
140 156 177
145 160 180
141 157 178
130 144 162
115 128 146
107 119 134
97 108 123
84 94 106
75 83 94
78 86 98
89 99 112
92 103 117
92 102 115
90 100 112
77 86 98
65 72 81
48 53 60
43 48 54
53 59 67
51 57 65
49 55 62
37 41 46
18 20 23
6 7 8
6 6 7
11 12 14
23 25 29
24 27 31
22 24 28
16 18 21
12 14 15
4 4 5
4 5 6
9 10 11
12 14 16
26 29 32
39 44 50
77 86 97
91 101 114
98 109 124
87 97 110
86 95 108
94 104 118
93 102 115
100 111 125
125 138 156
127 141 160
145 161 183
157 175 199
162 181 206
159 177 201
173 192 217
159 176 199
155 173 197
150 166 187
161 178 201
174 192 217
170 190 216
175 194 219
175 193 218
162 181 205
165 183 207
154 170 193
154 171 194
154 171 194
155 172 194
157 174 197
163 181 206
167 184 208
157 175 199
177 195 221
175 193 218
171 190 216
166 184 208
168 185 208
156 173 196
141 157 178
132 146 165
116 128 145
90 99 112
66 74 84
40 44 50
56 63 72
72 79 90
78 87 98
71 79 89
62 69 78
46 51 58
24 27 31
10 11 12
4 5 6
20 21 24
41 46 52
44 49 56
30 34 39
14 16 18
5 6 7
14 15 17
19 21 24
33 37 42
54 60 69
59 65 74
40 44 50
31 35 39
13 14 16
37 41 46
57 63 72
63 70 79
74 82 93
78 87 98
93 103 117
96 107 121
112 123 139
139 154 175
148 163 183
144 160 182
127 141 160
90 101 114
60 67 76
17 19 22
13 15 17
27 30 35
47 52 58
42 47 53
25 28 32
16 17 19
9 10 12
47 52 58
94 106 121
120 133 151
99 109 124
141 157 179
141 157 179
157 174 196
172 190 213
222 236 255
223 236 255
223 236 255
223 236 255
223 236 255
223 236 255
223 236 255
223 236 255
223 236 255
223 236 255
223 236 255
223 236 255
223 236 255
223 236 255
223 236 255
223 236 255
223 236 255
223 236 255
223 236 255
223 236 255
223 236 255
223 236 255
223 236 255
223 236 255
223 236 255
223 236 255
223 236 255
223 236 255
223 236 255
223 236 255
223 236 255
223 236 255
223 236 255
223 236 255
223 236 255
223 236 255
223 236 255
223 236 255
223 236 255
223 236 255
223 236 255
223 236 255
223 236 255
223 236 255
223 236 255
223 236 255
223 236 255
223 236 255
223 236 255
223 236 255
223 236 255
223 236 255
223 236 255
223 236 255
223 236 255
223 236 255
223 236 255
223 236 255
223 236 255
223 236 255
223 236 255
223 236 255
223 236 255
223 236 255
223 236 255
223 236 255
223 236 255
223 236 255
223 236 255
223 236 255
223 236 255
223 236 255
223 236 255
223 236 255
223 236 255
223 236 255
223 236 255
223 236 255
223 236 255
223 236 255
223 236 255
223 236 255
223 236 255
223 236 255
223 236 255
223 236 255
223 236 255
223 236 255
223 236 255
223 236 255
223 236 255
223 236 255
223 236 255
223 236 255
223 236 255
223 236 255
223 236 255
223 236 255
223 236 255
223 236 255
223 236 255
223 236 255
223 236 255
223 236 255
223 236 255
223 236 255
223 236 255
223 236 255
223 236 255
223 236 255
223 236 255
223 236 255
223 236 255
223 236 255
223 236 255
223 236 255
223 236 255
223 236 255
223 236 255
223 236 255
223 236 255
223 236 255
223 236 255
223 236 255
223 236 255
223 236 255
223 236 255
223 236 255
223 236 255
223 236 255
223 236 255
223 236 255
223 236 255
223 236 255
223 236 255
223 236 255
223 236 255
223 236 255
223 236 255
223 236 255
223 236 255
223 236 255
223 236 255
223 236 255
223 236 255
223 236 255
223 236 255
223 236 255
223 236 255
223 236 255
223 236 255
223 236 255
223 236 255
223 236 255
223 236 255
223 236 255
223 236 255
223 236 255
223 236 255
223 236 255
223 236 255
223 236 255
223 236 255
223 236 255
223 236 255
223 236 255
223 236 255
223 236 255
223 236 255
223 236 255
223 236 255
223 236 255
223 236 255
223 236 255
223 236 255
223 236 255
223 236 255
223 236 255
223 236 255
223 236 255
223 236 255
223 236 255
223 236 255
223 236 255
223 236 255
223 236 255
223 236 255
223 236 255
223 236 255
223 236 255
223 236 255
223 236 255
223 236 255
223 236 255
223 236 255
223 236 255
223 236 255
223 236 255
223 236 255
223 236 255
223 236 255
223 236 255
223 236 255
223 236 255
223 236 255
223 236 255
223 236 255
223 236 255
223 236 255
223 236 255
223 236 255
223 236 255
194 209 230
143 158 179
152 168 190
165 184 208
158 174 196
110 123 140
88 98 110
53 59 67
38 42 48
61 68 77
46 51 57
19 21 24
31 34 39
38 43 49
63 70 79
89 99 112
105 116 131
140 155 175
171 190 215
163 182 206
164 182 206
155 173 196
144 161 182
134 149 169
137 151 171
143 160 182
161 179 202
167 185 209
166 184 208
161 179 203
163 181 204
162 179 203
168 185 208
173 192 217
168 186 211
157 175 200
164 183 208
154 172 195
139 155 175
114 127 143
96 106 120
64 71 80
47 52 59
49 55 62
48 53 60
37 41 46
26 29 33
14 16 18
31 35 40
45 50 57
71 78 89
89 98 111
105 117 132
125 139 157
119 133 151
120 133 151
120 134 152
117 130 147
109 121 137
93 104 118
86 95 108
85 94 106
100 111 126
111 123 139
118 131 148
109 121 137
89 98 111
81 91 103
69 76 86
41 45 51
24 27 31
32 36 41
40 44 50
36 41 46
23 26 29
9 10 11
18 20 22
30 33 37
29 32 37
37 42 48
42 46 52
33 36 41
29 32 36
28 31 36
21 23 26
16 17 20
17 19 22
27 30 34
40 45 51
63 70 80
87 96 109
101 112 127
116 128 145
108 120 136
107 119 135
106 118 134
103 115 131
116 130 147
139 155 175
142 158 180
149 166 187
170 188 212
164 184 209
158 174 197
167 185 210
159 176 200
163 181 205
160 178 202
156 173 195
160 177 199
171 190 215
172 191 216
153 169 191
166 184 208
155 171 194
147 162 183
140 155 176
146 162 183
157 175 198
154 170 192
161 178 201
157 175 199
150 167 189
160 178 202
174 191 215
166 185 210
157 173 196
152 169 192
152 169 192
142 157 177
125 140 159
101 112 126
77 86 97
46 51 57
56 61 69
60 67 76
58 65 74
48 54 61
45 50 56
42 46 53
28 32 36
11 12 14
2 2 3
2 3 3
24 27 31
41 45 51
44 49 56
26 30 34
23 26 29
7 8 9
10 11 13
25 28 32
48 53 60
57 63 71
53 59 67
47 53 59
40 44 50
13 14 16
40 44 50
59 65 73
73 81 92
84 93 105
88 98 111
92 102 115
106 117 132
115 127 143
135 149 169
153 170 191
125 140 159
101 112 127
87 96 108
50 56 64
28 32 36
11 12 14
23 25 29
31 34 39
20 23 26
10 11 13
20 23 26
28 30 34
76 84 95
118 130 146
125 138 156
122 135 153
153 168 189
160 177 200
167 186 211
181 196 216
223 236 255
223 236 255
223 236 255
223 236 255
223 236 255
223 236 255
223 236 255
223 236 255
223 236 255
223 236 255
223 236 255
223 236 255
223 236 255
223 236 255
223 236 255
223 236 255
223 236 255
223 236 255
223 236 255
223 236 255
223 236 255
223 236 255
223 236 255
223 236 255
223 236 255
223 236 255
223 236 255
223 236 255
223 236 255
223 236 255
223 236 255
223 236 255
223 236 255
223 236 255
223 236 255
223 236 255
223 236 255
223 236 255
223 236 255
223 236 255
223 236 255
223 236 255
223 236 255
223 236 255
223 236 255
223 236 255
223 236 255
223 236 255
223 236 255
223 236 255
223 236 255
223 236 255
223 236 255
223 236 255
223 236 255
223 236 255
223 236 255
223 236 255
223 236 255
223 236 255
223 236 255
223 236 255
223 236 255
223 236 255
223 236 255
223 236 255
223 236 255
223 236 255
223 236 255
223 236 255
223 236 255
223 236 255
223 236 255
223 236 255
223 236 255
223 236 255
223 236 255
223 236 255
223 236 255
223 236 255
223 236 255
223 236 255
223 236 255
223 236 255
223 236 255
223 236 255
223 236 255
223 236 255
223 236 255
223 236 255
223 236 255
223 236 255
223 236 255
223 236 255
223 236 255
223 236 255
223 236 255
223 236 255
223 236 255
223 236 255
223 236 255
223 236 255
223 236 255
223 236 255
223 236 255
223 236 255
223 236 255
223 236 255
223 236 255
223 236 255
223 236 255
223 236 255
223 236 255
223 236 255
223 236 255
223 236 255
223 236 255
223 236 255
223 236 255
223 236 255
223 236 255
223 236 255
223 236 255
223 236 255
223 236 255
223 236 255
223 236 255
223 236 255
223 236 255
223 236 255
223 236 255
223 236 255
223 236 255
223 236 255
223 236 255
223 236 255
223 236 255
223 236 255
223 236 255
223 236 255
223 236 255
223 236 255
223 236 255
223 236 255
223 236 255
223 236 255
223 236 255
223 236 255
223 236 255
223 236 255
223 236 255
223 236 255
223 236 255
223 236 255
223 236 255
223 236 255
223 236 255
223 236 255
223 236 255
223 236 255
223 236 255
223 236 255
223 236 255
223 236 255
223 236 255
223 236 255
223 236 255
223 236 255
223 236 255
223 236 255
223 236 255
223 236 255
223 236 255
223 236 255
223 236 255
223 236 255
223 236 255
223 236 255
223 236 255
223 236 255
223 236 255
223 236 255
223 236 255
223 236 255
223 236 255
223 236 255
223 236 255
223 236 255
223 236 255
223 236 255
223 236 255
223 236 255
223 236 255
223 236 255
223 236 255
223 236 255
223 236 255
223 236 255
223 236 255
223 236 255
223 236 255
223 236 255
223 236 255
223 236 255
223 236 255
223 236 255
223 236 255
223 236 255
223 236 255
223 236 255
223 236 255
223 236 255
207 222 243
156 173 195
155 173 197
166 183 205
157 174 196
128 142 160
84 94 107
58 64 74
18 20 23
51 57 64
39 44 49
18 21 23
60 67 76
45 50 57
48 53 60
72 80 90
98 109 124
132 146 165
155 172 196
171 189 213
166 184 209
148 163 184
137 153 173
140 154 173
150 167 190
144 160 181
167 184 207
167 185 210
170 189 214
164 182 206
167 185 210
168 186 211
166 186 212
163 181 205
159 177 201
160 178 203
159 175 197
153 170 192
135 150 170
116 129 147
95 106 120
68 75 84
54 60 68
67 74 85
58 65 74
38 42 48
24 27 30
15 16 18
28 31 35
44 48 55
50 55 62
60 67 76
86 96 109
97 108 122
103 114 129
105 116 132
108 119 135
106 118 134
110 123 139
94 105 120
93 103 116
98 109 123
112 123 139
103 114 128
110 121 137
106 118 134
101 112 126
103 114 128
82 91 104
49 55 62
34 38 43
28 31 35
28 31 35
18 20 23
10 11 12
15 16 18
31 34 39
38 43 48
46 50 57
46 52 59
45 50 57
47 53 60
45 50 57
46 51 58
48 54 61
39 43 49
39 43 49
49 55 62
64 71 80
70 78 88
84 93 106
103 114 129
113 126 143
111 123 140
121 133 150
117 129 146
120 134 152
143 159 179
146 161 182
152 168 189
148 166 189
154 170 193
173 191 216
173 191 215
168 186 209
157 175 199
168 187 212
164 182 206
153 170 192
148 166 189
157 176 200
159 177 200
156 172 195
151 167 188
151 166 187
139 155 175
139 154 174
136 151 172
143 159 180
150 167 189
145 161 182
150 167 189
157 174 197
150 166 188
160 177 200
161 178 202
152 169 192
154 172 195
154 171 194
145 160 181
131 145 163
94 104 117
55 61 70
47 53 60
58 65 74
58 64 73
52 58 66
31 35 40
22 25 28
19 21 24
15 16 19
5 6 7
3 4 4
9 11 12
30 33 38
40 45 51
36 40 45
22 25 28
21 23 26
19 21 24
7 7 9
21 24 27
30 33 38
41 45 51
42 47 53
50 55 62
34 38 43
11 12 13
34 38 43
61 67 76
72 80 91
72 80 90
84 93 104
86 95 107
102 113 128
113 127 144
138 154 174
137 152 171
109 120 134
90 100 113
81 90 102
70 77 88
40 44 50
12 14 15
22 24 28
18 20 22
10 11 13
10 11 13
34 38 43
48 54 62
91 101 115
117 129 146
120 132 150
144 160 182
135 150 171
162 179 203
167 186 211
205 219 238
223 236 255
223 236 255
223 236 255
223 236 255
223 236 255
223 236 255
223 236 255
223 236 255
223 236 255
223 236 255
223 236 255
223 236 255
223 236 255
223 236 255
223 236 255
223 236 255
223 236 255
223 236 255
223 236 255
223 236 255
223 236 255
223 236 255
223 236 255
223 236 255
223 236 255
223 236 255
223 236 255
223 236 255
223 236 255
223 236 255
223 236 255
223 236 255
223 236 255
223 236 255
223 236 255
223 236 255
223 236 255
223 236 255
223 236 255
223 236 255
223 236 255
223 236 255
223 236 255
223 236 255
223 236 255
223 236 255
223 236 255
223 236 255
223 236 255
223 236 255
223 236 255
223 236 255
223 236 255
223 236 255
223 236 255
223 236 255
223 236 255
223 236 255
223 236 255
223 236 255
223 236 255
223 236 255
223 236 255
223 236 255
223 236 255
223 236 255
223 236 255
223 236 255
223 236 255
223 236 255
223 236 255
223 236 255
223 236 255
223 236 255
223 236 255
223 236 255
223 236 255
223 236 255
223 236 255
223 236 255
223 236 255
223 236 255
223 236 255
223 236 255
223 236 255
223 236 255
223 236 255
223 236 255
223 236 255
223 236 255
223 236 255
223 236 255
223 236 255
223 236 255
223 236 255
223 236 255
223 236 255
223 236 255
223 236 255
223 236 255
223 236 255
223 236 255
223 236 255
223 236 255
223 236 255
223 236 255
223 236 255
223 236 255
223 236 255
223 236 255
223 236 255
223 236 255
223 236 255
223 236 255
223 236 255
223 236 255
223 236 255
223 236 255
223 236 255
223 236 255
223 236 255
223 236 255
223 236 255
223 236 255
223 236 255
223 236 255
223 236 255
223 236 255
223 236 255
223 236 255
223 236 255
223 236 255
223 236 255
223 236 255
223 236 255
223 236 255
223 236 255
223 236 255
223 236 255
223 236 255
223 236 255
223 236 255
223 236 255
223 236 255
223 236 255
223 236 255
223 236 255
223 236 255
223 236 255
223 236 255
223 236 255
223 236 255
223 236 255
223 236 255
223 236 255
223 236 255
223 236 255
223 236 255
223 236 255
223 236 255
223 236 255
223 236 255
223 236 255
223 236 255
223 236 255
223 236 255
223 236 255
223 236 255
223 236 255
223 236 255
223 236 255
223 236 255
223 236 255
223 236 255
223 236 255
223 236 255
223 236 255
223 236 255
223 236 255
223 236 255
223 236 255
223 236 255
223 236 255
223 236 255
223 236 255
223 236 255
223 236 255
223 236 255
223 236 255
223 236 255
223 236 255
223 236 255
223 236 255
223 236 255
223 236 255
223 236 255
223 236 255
223 236 255
223 236 255
223 236 255
223 236 255
223 236 255
223 236 255
223 236 255
223 236 255
223 236 255
223 236 255
223 236 255
223 236 255
223 236 255
223 236 255
223 236 255
222 236 255
171 189 212
162 180 203
159 176 199
164 181 204
148 163 183
95 105 118
73 81 92
22 25 28
31 34 39
25 27 31
24 27 30
68 76 85
67 74 84
48 52 59
63 70 79
92 102 115
124 138 157
158 176 200
164 182 206
165 183 206
148 164 186
138 154 175
141 156 177
164 180 202
157 174 197
174 193 218
175 194 219
166 185 210
170 188 212
166 184 208
163 181 205
161 180 205
162 180 204
168 188 214
170 188 212
158 175 198
146 163 185
132 147 166
117 129 145
102 113 128
72 80 91
45 50 56
54 60 68
47 52 59
30 33 38
25 28 32
19 21 23
15 17 19
19 21 24
19 21 24
34 37 42
55 62 70
74 82 93
84 94 107
70 78 88
87 96 109
96 106 119
105 117 132
86 97 110
84 94 107
92 102 115
93 104 118
105 115 130
104 115 131
101 112 127
110 123 140
113 125 141
92 102 115
59 66 75
44 48 55
30 33 38
12 13 15
10 12 13
23 26 29
37 41 46
34 38 43
34 38 43
51 56 63
55 61 69
57 63 72
55 61 69
68 75 85
70 78 88
72 80 90
53 59 68
52 58 65
60 67 76
62 68 76
65 73 82
84 93 105
95 106 120
114 126 142
119 131 149
128 142 161
125 139 158
136 151 172
152 168 190
153 170 193
149 165 187
154 171 195
164 181 205
172 190 215
165 183 207
159 177 201
154 172 196
157 173 196
154 171 194
161 180 204
158 174 196
153 169 192
156 174 197
155 171 193
140 157 178
135 151 171
132 147 167
130 145 165
135 149 169
126 141 160
139 153 173
142 158 179
152 169 191
152 169 191
145 161 182
147 163 185
157 175 198
162 180 203
160 178 202
138 152 172
129 143 161
107 119 135
92 101 114
50 56 64
52 57 65
59 66 75
53 58 66
32 36 40
19 21 24
10 11 13
6 6 7
6 7 8
5 6 7
5 6 6
15 16 19
32 36 41
44 49 55
36 40 45
23 26 29
19 21 24
21 23 26
8 9 11
17 19 21
9 9 11
19 21 23
34 38 43
36 40 45
14 16 18
10 11 13
20 22 26
43 48 55
56 63 71
73 81 91
84 93 105
82 90 101
104 115 131
119 132 149
151 167 189
126 141 161
98 109 123
86 96 108
86 95 107
78 87 99
47 52 59
9 9 11
9 10 11
16 17 20
8 9 10
16 18 20
46 51 57
69 76 87
100 110 125
119 131 148
138 153 173
148 164 185
158 174 196
163 181 205
160 176 198
223 236 255
223 236 255
223 236 255
223 236 255
223 236 255
223 236 255
223 236 255
223 236 255
223 236 255
223 236 255
223 236 255
223 236 255
223 236 255
223 236 255
223 236 255
223 236 255
223 236 255
223 236 255
223 236 255
223 236 255
223 236 255
223 236 255
223 236 255
223 236 255
223 236 255
223 236 255
223 236 255
223 236 255
223 236 255
223 236 255
223 236 255
223 236 255
223 236 255
223 236 255
223 236 255
223 236 255
223 236 255
223 236 255
223 236 255
223 236 255
223 236 255
223 236 255
223 236 255
223 236 255
223 236 255
223 236 255
223 236 255
223 236 255
223 236 255
223 236 255
223 236 255
223 236 255
223 236 255
223 236 255
223 236 255
223 236 255
223 236 255
223 236 255
223 236 255
223 236 255
223 236 255
223 236 255
223 236 255
223 236 255
223 236 255
223 236 255
223 236 255
223 236 255
223 236 255
223 236 255
223 236 255
223 236 255
223 236 255
223 236 255
223 236 255
223 236 255
223 236 255
223 236 255
223 236 255
223 236 255
223 236 255
223 236 255
223 236 255
223 236 255
223 236 255
223 236 255
223 236 255
223 236 255
223 236 255
223 236 255
223 236 255
223 236 255
223 236 255
223 236 255
223 236 255
223 236 255
223 236 255
223 236 255
223 236 255
223 236 255
223 236 255
223 236 255
223 236 255
223 236 255
223 236 255
223 236 255
223 236 255
223 236 255
223 236 255
223 236 255
223 236 255
223 236 255
223 236 255
223 236 255
223 236 255
223 236 255
223 236 255
223 236 255
223 236 255
223 236 255
223 236 255
223 236 255
223 236 255
223 236 255
223 236 255
223 236 255
223 236 255
223 236 255
223 236 255
223 236 255
223 236 255
223 236 255
223 236 255
223 236 255
223 236 255
223 236 255
223 236 255
223 236 255
223 236 255
223 236 255
223 236 255
223 236 255
223 236 255
223 236 255
223 236 255
223 236 255
223 236 255
223 236 255
223 236 255
223 236 255
223 236 255
223 236 255
223 236 255
223 236 255
223 236 255
223 236 255
223 236 255
223 236 255
223 236 255
223 236 255
223 236 255
223 236 255
223 236 255
223 236 255
223 236 255
223 236 255
223 236 255
223 236 255
223 236 255
223 236 255
223 236 255
223 236 255
223 236 255
223 236 255
223 236 255
223 236 255
223 236 255
223 236 255
223 236 255
223 236 255
223 236 255
223 236 255
223 236 255
223 236 255
223 236 255
223 236 255
223 236 255
223 236 255
223 236 255
223 236 255
223 236 255
223 236 255
223 236 255
223 236 255
223 236 255
223 236 255
223 236 255
223 236 255
223 236 255
223 236 255
223 236 255
223 236 255
223 236 255
223 236 255
223 236 255
223 236 255
223 236 255
223 236 255
223 236 255
223 236 255
223 236 255
223 236 255
223 236 255
223 236 255
199 216 238
169 188 214
160 179 203
166 185 210
159 176 199
109 120 136
87 96 108
34 37 42
12 13 15
12 13 15
29 33 37
70 77 88
83 92 104
63 70 79
74 82 92
105 117 133
134 148 168
149 165 186
164 182 206
154 172 195
145 161 181
120 133 151
149 166 188
157 175 198
156 173 195
164 182 206
166 184 208
169 188 213
174 193 219
166 186 212
168 185 209
166 185 209
175 193 219
170 189 214
170 189 215
152 168 189
138 154 175
128 142 162
117 129 146
103 115 130
76 84 95
53 59 66
47 53 60
48 54 61
33 37 42
32 35 40
21 24 27
8 9 10
10 11 13
4 5 5
12 13 15
39 43 48
53 59 66
61 67 76
55 61 70
60 67 76
75 84 95
82 91 103
73 81 92
69 77 87
88 97 110
89 99 111
97 107 121
100 110 124
102 114 129
113 126 142
113 126 142
103 114 130
75 83 94
48 53 60
29 32 36
11 12 14
30 33 37
50 55 63
56 62 70
57 64 72
52 57 65
54 61 69
63 69 78
55 62 70
65 72 82
74 83 94
86 95 108
82 90 102
69 77 87
57 63 71
60 66 75
56 63 71
61 68 78
86 96 109
100 111 127
116 129 145
130 145 165
132 147 167
140 156 177
150 167 189
159 175 198
159 178 202
170 188 213
172 190 216
166 184 209
163 182 206
170 188 213
174 193 217
175 193 217
161 179 202
161 180 205
163 181 204
149 167 190
153 169 191
151 166 187
135 151 173
142 157 179
141 157 178
134 149 169
136 151 171
138 152 172
127 141 159
125 139 158
127 142 162
153 171 194
153 171 195
148 165 187
143 158 178
146 162 185
155 172 194
145 162 183
144 159 180
126 139 157
115 126 143
85 95 108
61 68 77
45 50 56
35 39 45
27 30 34
23 26 29
28 31 35
21 24 27
4 4 5
6 6 7
4 5 6
5 6 7
11 12 14
18 20 23
31 34 39
28 31 35
22 25 28
21 24 27
18 20 22
10 12 13
6 7 8
2 3 3
20 22 25
30 33 38
17 19 22
20 22 24
19 21 24
20 22 25
35 39 45
47 52 59
67 75 85
91 100 113
84 94 106
94 104 118
122 135 152
143 158 178
139 155 176
103 114 128
91 100 112
87 96 109
87 96 109
45 50 57
12 13 15
7 8 9
8 9 10
16 18 20
33 37 42
56 62 70
90 99 112
102 113 129
123 136 154
144 159 180
156 173 196
161 179 203
165 183 207
169 182 201
223 236 255
223 236 255
223 236 255
223 236 255
223 236 255
223 236 255
223 236 255
223 236 255
223 236 255
223 236 255
223 236 255
223 236 255
223 236 255
223 236 255
223 236 255
223 236 255
223 236 255
223 236 255
223 236 255
223 236 255
223 236 255
223 236 255
223 236 255
223 236 255
223 236 255
223 236 255
223 236 255
223 236 255
223 236 255
223 236 255
223 236 255
223 236 255
223 236 255
223 236 255
223 236 255
223 236 255
223 236 255
223 236 255
223 236 255
223 236 255
223 236 255
223 236 255
223 236 255
223 236 255
223 236 255
223 236 255
223 236 255
223 236 255
223 236 255
223 236 255
223 236 255
223 236 255
223 236 255
223 236 255
223 236 255
223 236 255
223 236 255
223 236 255
223 236 255
223 236 255
223 236 255
223 236 255
223 236 255
223 236 255
223 236 255
223 236 255
223 236 255
223 236 255
223 236 255
223 236 255
223 236 255
223 236 255
223 236 255
223 236 255
223 236 255
223 236 255
223 236 255
223 236 255
223 236 255
223 236 255
223 236 255
223 236 255
223 236 255
223 236 255
223 236 255
223 236 255
223 236 255
223 236 255
223 236 255
223 236 255
223 236 255
223 236 255
223 236 255
223 236 255
223 236 255
223 236 255
223 236 255
223 236 255
223 236 255
223 236 255
223 236 255
223 236 255
223 236 255
223 236 255
223 236 255
223 236 255
223 236 255
223 236 255
223 236 255
223 236 255
223 236 255
223 236 255
223 236 255
223 236 255
223 236 255
223 236 255
223 236 255
223 236 255
223 236 255
223 236 255
223 236 255
223 236 255
223 236 255
223 236 255
223 236 255
223 236 255
223 236 255
223 236 255
223 236 255
223 236 255
223 236 255
223 236 255
223 236 255
223 236 255
223 236 255
223 236 255
223 236 255
223 236 255
223 236 255
223 236 255
223 236 255
223 236 255
223 236 255
223 236 255
223 236 255
223 236 255
223 236 255
223 236 255
223 236 255
223 236 255
223 236 255
223 236 255
223 236 255
223 236 255
223 236 255
223 236 255
223 236 255
223 236 255
223 236 255
223 236 255
223 236 255
223 236 255
223 236 255
223 236 255
223 236 255
223 236 255
223 236 255
223 236 255
223 236 255
223 236 255
223 236 255
223 236 255
223 236 255
223 236 255
223 236 255
223 236 255
223 236 255
223 236 255
223 236 255
223 236 255
223 236 255
223 236 255
223 236 255
223 236 255
223 236 255
223 236 255
223 236 255
223 236 255
223 236 255
223 236 255
223 236 255
223 236 255
223 236 255
223 236 255
223 236 255
223 236 255
223 236 255
223 236 255
223 236 255
223 236 255
223 236 255
223 236 255
223 236 255
223 236 255
223 236 255
223 236 255
223 236 255
223 236 255
223 236 255
223 236 255
223 236 255
223 236 255
223 236 255
223 236 255
207 222 242
165 183 207
163 181 206
164 181 204
154 171 194
133 148 168
104 115 130
59 65 73
18 20 23
12 14 16
47 52 59
70 78 88
98 109 123
91 102 115
92 103 117
118 130 147
137 152 172
156 173 196
175 193 218
160 176 198
148 164 184
134 149 170
164 182 207
162 180 205
167 185 210
161 179 202
165 183 207
168 186 211
167 186 212
160 178 202
167 185 209
165 183 207
163 180 203
170 190 216
155 172 196
166 184 209
151 167 190
143 159 180
116 129 147
95 106 120
79 87 98
57 64 72
38 42 48
40 45 51
25 28 31
28 31 35
20 23 26
12 13 15
13 15 17
4 5 6
5 5 6
18 20 22
25 27 31
28 31 35
29 32 36
28 31 35
39 44 49
52 57 65
58 64 73
53 60 68
64 71 81
82 91 102
88 97 110
97 108 122
97 107 121
107 118 134
108 120 135
90 100 114
74 82 93
46 51 57
25 28 32
9 11 12
32 36 41
59 65 74
73 81 91
72 80 91
70 78 88
71 79 89
68 76 85
68 76 86
75 83 94
89 99 111
98 108 122
86 96 109
68 76 85
60 67 76
56 63 72
57 63 71
73 81 91
103 115 130
107 118 133
125 139 157
133 147 166
144 159 180
148 165 187
155 173 197
161 178 202
166 183 207
169 187 212
165 183 208
164 182 207
153 171 195
172 190 214
166 184 209
169 188 212
176 195 221
165 184 208
152 169 192
155 173 196
146 162 185
153 169 191
147 163 185
149 165 186
140 155 175
131 147 167
150 166 187
140 156 177
136 151 171
117 130 147
137 153 174
139 155 176
145 160 181
136 151 171
145 160 181
154 171 193
147 163 184
149 165 186
149 165 186
131 146 166
122 134 152
100 111 126
78 87 99
64 70 78
32 35 40
32 36 40
36 40 45
41 46 52
31 34 39
7 8 9
7 8 9
5 6 7
3 4 4
4 4 5
6 7 8
28 31 35
36 40 46
25 28 31
13 14 16
12 14 16
14 16 18
6 7 8
14 15 17
27 29 33
16 18 20
16 18 21
33 37 42
32 35 40
35 39 45
38 42 47
49 54 61
80 88 100
95 105 119
87 97 110
99 110 124
128 141 159
142 159 181
123 137 156
103 114 129
84 94 106
90 100 114
95 105 118
49 54 61
30 34 38
14 16 18
21 24 27
25 27 31
48 53 61
73 81 92
91 101 114
94 104 118
131 146 166
154 171 193
152 168 191
163 182 207
148 164 184
199 211 229
223 236 255
223 236 255
223 236 255
223 236 255
223 236 255
223 236 255
223 236 255
223 236 255
223 236 255
223 236 255
223 236 255
223 236 255
223 236 255
223 236 255
223 236 255
223 236 255
223 236 255
223 236 255
223 236 255
223 236 255
223 236 255
223 236 255
223 236 255
223 236 255
223 236 255
223 236 255
223 236 255
223 236 255
223 236 255
223 236 255
223 236 255
223 236 255
223 236 255
223 236 255
223 236 255
223 236 255
223 236 255
223 236 255
223 236 255
223 236 255
223 236 255
223 236 255
223 236 255
223 236 255
223 236 255
223 236 255
223 236 255
223 236 255
223 236 255
223 236 255
223 236 255
223 236 255
223 236 255
223 236 255
223 236 255
223 236 255
223 236 255
223 236 255
223 236 255
223 236 255
223 236 255
223 236 255
223 236 255
223 236 255
223 236 255
223 236 255
223 236 255
223 236 255
223 236 255
223 236 255
223 236 255
223 236 255
223 236 255
223 236 255
223 236 255
223 236 255
223 236 255
223 236 255
223 236 255
223 236 255
223 236 255
223 236 255
223 236 255
223 236 255
223 236 255
223 236 255
223 236 255
223 236 255
223 236 255
223 236 255
223 236 255
223 236 255
223 236 255
223 236 255
223 236 255
223 236 255
223 236 255
223 236 255
223 236 255
223 236 255
223 236 255
223 236 255
223 236 255
223 236 255
223 236 255
223 236 255
223 236 255
223 236 255
223 236 255
223 236 255
223 236 255
223 236 255
223 236 255
223 236 255
223 236 255
223 236 255
223 236 255
223 236 255
223 236 255
223 236 255
223 236 255
223 236 255
223 236 255
223 236 255
223 236 255
223 236 255
223 236 255
223 236 255
223 236 255
223 236 255
223 236 255
223 236 255
223 236 255
223 237 255
223 237 255
223 236 255
223 237 255
223 237 255
223 237 255
223 237 255
223 237 255
223 237 255
223 237 255
223 237 255
223 237 255
223 237 255
223 237 255
223 237 255
223 237 255
223 237 255
223 237 255
223 237 255
223 237 255
223 237 255
223 237 255
223 237 255
223 237 255
223 237 255
223 237 255
223 237 255
223 237 255
223 237 255
223 237 255
223 237 255
223 237 255
223 237 255
223 237 255
223 237 255
223 237 255
223 237 255
223 237 255
223 237 255
223 237 255
223 237 255
223 237 255
223 237 255
223 237 255
223 237 255
223 237 255
223 237 255
223 237 255
223 237 255
223 237 255
223 237 255
223 237 255
223 237 255
223 237 255
223 237 255
223 237 255
223 237 255
223 237 255
223 237 255
223 237 255
223 237 255
223 237 255
223 237 255
223 237 255
223 237 255
223 237 255
223 237 255
223 237 255
223 237 255
223 237 255
223 237 255
223 237 255
223 237 255
223 237 255
223 237 255
223 237 255
223 237 255
223 237 255
223 237 255
223 237 255
223 237 255
221 235 254
167 185 209
172 190 214
160 179 203
165 183 207
149 164 185
129 142 160
78 87 99
42 47 53
33 37 41
63 70 79
89 99 113
92 102 116
110 122 139
121 134 151
133 148 167
147 163 184
164 181 203
163 181 205
158 176 200
149 164 184
137 153 175
168 185 208
161 180 206
172 190 215
162 180 204
169 188 214
160 178 202
165 182 205
163 181 205
165 182 206
168 186 211
175 192 217
165 184 210
165 183 208
168 185 209
154 171 194
147 163 185
132 146 165
106 118 133
86 95 107
61 68 77
42 46 53
31 34 39
29 32 37
26 29 33
21 24 27
14 15 17
10 11 13
3 3 4
6 7 8
7 8 9
12 13 15
16 18 20
20 22 25
18 20 23
17 19 21
33 37 42
40 44 50
50 56 64
50 56 63
53 59 67
55 61 69
63 70 79
77 85 97
83 92 105
83 93 105
73 81 91
50 56 63
28 31 35
13 15 17
14 16 18
40 44 50
61 67 76
85 94 106
80 90 103
86 95 107
80 89 102
78 87 99
74 82 93
75 84 95
89 99 112
100 111 125
94 104 118
76 83 94
65 72 82
69 76 86
66 73 82
78 87 99
109 121 137
118 132 151
138 154 174
137 153 174
147 163 184
153 170 193
154 172 195
164 183 207
156 173 196
168 186 210
169 187 212
175 194 221
162 181 205
158 175 198
164 182 206
164 182 206
162 181 207
164 182 207
166 184 209
154 171 193
157 174 196
146 163 184
146 162 183
134 149 168
142 157 178
146 163 185
145 162 185
135 150 171
121 135 153
121 134 152
123 138 157
130 144 163
134 149 169
152 169 192
143 160 181
155 171 193
156 172 194
149 167 190
151 168 190
141 156 177
130 144 162
119 132 149
93 103 117
69 77 88
41 45 51
41 46 52
41 45 52
36 40 45
24 26 30
13 14 16
10 11 12
13 15 17
2 3 3
5 6 7
9 10 11
28 31 35
33 37 42
19 21 23
12 13 15
14 16 18
9 10 11
12 13 15
23 25 29
16 18 21
15 16 18
14 16 18
37 41 47
40 45 51
37 42 47
34 38 43
56 62 70
79 88 100
84 94 107
85 95 108
104 115 131
132 147 166
151 168 191
117 130 147
101 112 128
92 103 117
91 101 115
75 84 96
52 58 65
40 45 51
38 43 48
33 37 42
26 29 33
51 57 64
71 79 90
88 98 111
98 109 123
133 148 167
146 161 182
161 179 203
171 188 212
135 149 169
223 237 255
223 237 255
223 237 255
223 237 255
223 237 255
223 237 255
223 237 255
223 237 255
223 237 255
223 237 255
223 237 255
223 237 255
223 237 255
223 237 255
223 237 255
223 237 255
223 237 255
223 237 255
223 237 255
223 237 255
223 237 255
223 237 255
223 237 255
223 237 255
223 237 255
223 237 255
223 237 255
223 237 255
223 237 255
223 237 255
223 237 255
223 237 255
223 237 255
223 237 255
223 237 255
223 237 255
223 237 255
223 237 255
223 237 255
223 237 255
223 237 255
223 237 255
223 237 255
223 237 255
223 237 255
223 237 255
223 237 255
223 237 255
223 237 255
223 237 255
223 237 255
223 237 255
223 237 255
223 237 255
223 237 255
223 237 255
223 237 255
223 237 255
223 237 255
223 237 255
223 237 255
223 237 255
223 237 255
223 237 255
223 237 255
223 237 255
223 237 255
223 237 255
223 237 255
223 237 255
223 237 255
223 237 255
223 237 255
223 237 255
223 237 255
223 237 255
223 237 255
223 237 255
223 236 255
223 236 255
223 236 255
223 236 255
223 236 255
223 236 255
223 236 255
223 236 255
223 236 255
223 236 255
223 236 255
223 236 255
223 236 255
223 236 255
223 236 255
223 236 255
223 236 255
223 236 255
223 236 255
223 236 255
223 236 255
223 236 255
223 236 255
223 236 255
223 236 255
223 236 255
223 236 255
223 236 255
223 236 255
223 236 255
223 237 255
223 237 255
223 237 255
223 237 255
223 237 255
223 237 255
223 237 255
223 237 255
223 237 255
223 237 255
223 237 255
223 237 255
223 237 255
223 237 255
223 237 255
223 237 255
223 237 255
223 237 255
223 237 255
223 237 255
223 237 255
223 237 255
223 237 255
223 237 255
223 237 255
223 237 255
223 237 255
223 237 255
223 237 255
223 237 255
223 237 255
223 237 255
223 237 255
223 237 255
223 237 255
223 237 255
223 237 255
223 237 255
223 237 255
223 237 255
223 237 255
223 237 255
223 237 255
223 237 255
223 237 255
223 237 255
223 237 255
223 237 255
223 237 255
223 237 255
223 237 255
223 237 255
223 237 255
223 237 255
223 237 255
223 237 255
223 237 255
223 237 255
223 237 255
223 237 255
223 237 255
223 237 255
223 237 255
223 237 255
223 237 255
223 237 255
223 237 255
223 237 255
223 237 255
223 237 255
223 237 255
223 237 255
223 237 255
223 237 255
223 237 255
223 237 255
223 237 255
223 237 255
223 237 255
223 237 255
223 237 255
223 237 255
223 237 255
223 237 255
223 237 255
223 237 255
223 237 255
223 237 255
223 237 255
223 237 255
223 237 255
223 237 255
223 237 255
223 237 255
223 237 255
223 237 255
223 237 255
223 237 255
223 237 255
223 237 255
223 237 255
223 237 255
223 237 255
223 237 255
223 237 255
223 237 255
223 237 255
223 237 255
184 199 219
171 188 212
158 175 198
158 176 200
155 172 195
136 152 172
96 106 119
67 75 84
43 47 54
79 88 99
113 125 142
104 116 132
117 129 145
132 147 166
145 161 183
158 175 198
165 183 206
165 184 208
153 169 190
154 169 191
144 160 181
163 181 204
155 172 196
164 182 207
163 182 207
159 176 199
163 181 206
161 177 199
155 173 196
156 173 197
169 188 213
160 178 202
169 187 210
155 172 194
157 174 197
162 180 203
150 166 188
139 154 175
124 137 155
94 105 119
66 74 84
48 53 61
44 50 57
40 44 50
36 40 45
29 32 36
26 29 33
15 17 19
2 3 3
4 4 5
3 4 4
6 7 8
11 12 14
17 19 21
25 28 32
28 32 36
16 18 20
18 20 23
24 27 30
27 30 34
18 20 23
27 31 35
34 37 42
48 54 61
57 63 72
48 53 61
42 47 53
29 32 37
10 11 13
19 21 25
32 36 41
41 45 51
61 68 77
75 83 94
95 106 121
93 103 117
80 89 101
87 96 108
85 95 108
88 97 110
101 112 127
115 129 146
95 106 120
87 96 108
77 85 96
83 92 104
88 98 111
97 107 121
107 119 135
132 147 167
147 162 184
157 174 197
156 173 196
163 180 204
166 184 208
155 173 197
167 186 212
165 183 206
170 187 211
177 197 223
159 177 201
165 181 204
165 183 207
165 183 207
171 191 217
170 188 213
167 184 207
151 169 192
151 168 190
144 160 183
144 160 180
143 158 179
148 164 186
146 161 182
126 140 159
134 149 168
114 127 145
112 126 144
131 145 164
126 141 161
145 160 180
148 165 187
151 168 191
155 173 196
159 176 198
146 163 185
156 173 195
145 160 181
138 153 174
126 140 159
106 118 134
85 94 107
56 62 70
42 46 53
39 43 49
34 37 42
32 36 41
21 23 27
11 12 13
16 18 20
11 13 15
12 13 15
15 17 19
31 35 39
33 37 42
22 25 28
14 15 17
7 7 8
23 26 29
28 31 36
19 21 24
15 17 19
21 23 27
9 10 12
30 33 38
35 39 45
28 31 35
31 34 39
51 57 64
75 84 95
77 85 96
78 87 99
99 110 125
137 153 173
129 143 162
100 111 125
102 113 128
87 96 108
88 97 109
66 73 82
47 53 60
35 39 44
40 44 50
27 30 34
29 33 37
63 70 79
89 99 112
95 105 120
113 125 141
133 147 166
146 162 183
167 184 207
151 168 190
162 174 191
223 237 255
223 237 255
223 237 255
223 237 255
223 237 255
223 237 255
223 237 255
223 237 255
223 237 255
223 237 255
223 237 255
223 237 255
223 237 255
223 237 255
223 237 255
223 237 255
223 237 255
223 237 255
223 237 255
223 237 255
223 237 255
223 237 255
223 237 255
223 237 255
223 237 255
223 237 255
223 237 255
223 237 255
223 237 255
223 237 255
223 237 255
223 237 255
223 237 255
223 237 255
223 237 255
223 237 255
223 237 255
223 237 255
223 237 255
223 237 255
223 237 255
223 237 255
223 237 255
223 237 255
223 237 255
223 237 255
223 237 255
223 237 255
223 237 255
223 237 255
223 237 255
223 237 255
223 237 255
223 237 255
223 237 255
223 237 255
223 237 255
223 237 255
223 237 255
223 237 255
223 237 255
223 237 255
223 237 255
223 237 255
223 237 255
223 237 255
223 237 255
223 237 255
223 237 255
223 237 255
223 237 255
223 237 255
223 237 255
223 237 255
223 237 255
223 237 255
223 237 255
223 237 255
223 237 255
223 237 255
223 237 255
223 237 255
223 237 255
223 237 255
223 237 255
223 237 255
223 237 255
223 237 255
223 237 255
223 237 255
223 237 255
223 237 255
223 237 255
223 237 255
223 237 255
223 237 255
223 237 255
223 237 255
223 237 255
223 237 255
223 237 255
223 237 255
223 237 255
223 237 255
223 237 255
223 237 255
223 237 255
223 237 255
223 237 255
223 237 255
223 237 255
223 237 255
223 237 255
223 237 255
223 237 255
223 237 255
223 237 255
223 237 255
223 237 255
223 237 255
223 237 255
223 237 255
223 237 255
223 237 255
223 237 255
223 237 255
223 237 255
223 237 255
223 237 255
223 237 255
223 237 255
223 237 255
223 237 255
223 237 255
223 237 255
223 237 255
223 237 255
223 237 255
223 237 255
223 237 255
223 237 255
223 237 255
223 237 255
223 237 255
223 237 255
223 237 255
223 237 255
223 237 255
223 237 255
223 237 255
223 237 255
223 237 255
223 237 255
223 237 255
223 237 255
223 237 255
223 237 255
223 237 255
223 237 255
223 237 255
223 237 255
223 237 255
223 237 255
223 237 255
223 237 255
223 237 255
223 237 255
223 237 255
223 237 255
223 237 255
223 237 255
223 237 255
223 237 255
221 235 254
221 234 254
222 235 255
220 234 253
221 235 254
216 230 249
214 227 246
216 230 249
213 226 244
209 222 240
207 220 238
208 221 239
208 222 240
212 225 244
213 227 246
206 220 239
210 225 246
212 228 249
209 225 246
211 226 248
212 228 250
212 228 249
208 223 244
194 208 228
199 214 233
196 210 230
203 218 239
192 205 224
187 200 217
189 201 219
178 191 208
178 190 206
190 204 224
194 209 229
201 217 240
187 204 227
198 215 238
195 212 235
194 209 231
195 211 233
193 208 229
182 197 217
187 201 220
180 194 214
150 167 189
168 185 209
158 175 198
133 148 168
123 137 155
120 133 151
92 102 115
49 54 62
79 87 98
106 118 134
123 137 156
129 142 160
136 150 170
152 168 189
162 179 202
165 182 205
162 180 204
166 185 211
149 166 188
126 141 160
156 173 196
158 176 200
169 188 214
156 173 196
166 184 208
162 181 205
155 172 194
152 168 190
158 175 198
170 189 214
170 188 212
164 182 205
164 182 206
154 170 192
163 182 207
162 180 204
146 162 184
132 147 166
121 134 151
87 96 109
62 69 78
59 65 74
51 57 65
40 45 50
22 24 28
19 21 24
17 19 22
9 10 12
9 10 12
14 15 17
12 14 15
4 5 5
5 6 7
14 16 18
27 30 35
36 40 46
15 17 19
9 10 11
16 18 20
11 13 15
13 14 16
15 17 20
19 21 23
26 29 33
22 25 28
13 15 17
12 13 15
10 11 13
37 41 46
48 54 61
54 60 68
62 69 79
76 84 95
97 108 122
104 115 130
102 113 128
99 111 126
100 111 125
105 117 133
115 127 143
121 135 153
103 115 130
100 112 127
98 109 124
98 109 124
108 120 136
118 131 149
138 152 171
139 155 176
151 168 191
163 181 205
164 182 207
164 182 206
165 183 207
168 187 212
164 183 208
167 185 209
159 176 199
161 178 201
173 190 214
149 166 189
160 178 201
168 185 208
174 193 219
172 190 215
163 182 207
164 182 205
153 170 192
151 168 191
147 163 184
143 159 181
142 158 180
140 155 176
134 149 169
125 138 156
115 127 144
122 135 152
122 135 152
131 146 165
148 163 184
142 158 178
149 166 189
161 179 203
155 172 194
151 167 189
137 152 173
142 157 177
143 158 179
127 141 160
112 125 141
100 111 127
62 69 79
42 47 53
47 52 59
49 55 62
37 41 46
21 23 26
9 10 11
13 14 16
24 27 31
24 27 30
26 29 32
32 35 40
32 35 40
30 33 38
15 17 19
5 5 6
29 33 37
27 30 34
20 22 25
26 30 34
25 28 32
12 13 15
26 29 33
27 30 34
14 16 18
18 21 23
37 41 46
57 64 73
69 77 87
81 90 102
109 122 138
146 161 181
116 129 146
97 108 122
88 97 110
84 93 105
72 80 90
52 58 66
39 43 49
23 25 29
17 19 21
11 13 14
39 43 49
81 90 103
106 117 132
114 127 144
126 139 157
138 153 173
149 165 187
151 167 189
127 140 158
149 164 185
184 198 217
186 200 220
175 189 208
181 195 215
184 199 219
183 198 218
194 208 227
195 209 229
190 205 227
192 208 230
195 210 231
201 216 236
195 209 229
198 213 234
195 211 232
197 211 231
199 214 234
205 220 241
197 212 232
197 211 230
208 222 241
197 211 229
202 217 237
210 225 245
207 221 240
198 211 230
198 211 230
203 217 236
200 214 232
204 218 236
213 227 246
202 215 234
215 228 247
212 226 245
214 227 246
214 228 247
219 233 253
221 234 253
215 229 248
218 232 251
219 233 252
221 235 254
219 233 252
223 237 255
223 237 255
223 237 255
223 237 255
223 237 255
223 237 255
223 237 255
223 237 255
223 237 255
223 237 255
223 237 255
223 237 255
223 237 255
223 237 255
223 237 255
223 237 255
223 237 255
223 237 255
223 237 255
223 237 255
223 237 255
223 237 255
223 237 255
223 237 255
223 237 255
223 237 255
223 237 255
223 237 255
223 237 255
223 237 255
223 237 255
223 237 255
223 237 255
223 237 255
223 237 255
223 237 255
223 237 255
223 237 255
223 237 255
223 237 255
223 237 255
223 237 255
223 237 255
223 237 255
223 237 255
223 237 255
223 237 255
223 237 255
223 237 255
223 237 255
223 237 255
223 237 255
223 237 255
223 237 255
223 237 255
223 237 255
223 237 255
223 237 255
223 237 255
223 237 255
223 237 255
223 237 255
223 237 255
223 237 255
223 237 255
223 237 255
223 237 255
223 237 255
221 235 253
221 235 254
220 233 252
217 231 249
213 226 245
210 223 241
214 228 247
215 228 248
213 227 247
214 229 249
215 230 250
214 229 250
209 225 247
212 227 248
204 219 241
204 218 238
205 219 238
191 204 222
193 206 224
192 205 222
186 198 215
183 196 213
183 196 214
193 206 225
191 206 226
198 214 235
195 212 235
200 218 242
205 223 247
198 216 240
191 208 232
169 184 205
183 197 217
160 174 192
177 191 210
171 185 205
163 176 193
158 171 188
150 162 179
140 152 169
150 162 179
167 181 200
167 182 203
168 184 205
163 180 203
184 204 230
187 208 237
184 204 230
179 200 227
174 194 220
164 183 208
161 177 199
156 173 195
130 144 162
104 116 131
91 100 113
90 99 111
80 91 105
108 121 139
115 129 149
130 147 170
143 161 185
136 154 178
154 175 202
168 191 221
174 197 227
168 192 222
172 195 225
155 177 205
148 167 192
128 146 169
111 127 147
103 116 134
96 109 126
103 117 135
87 99 115
84 95 111
101 115 132
114 129 150
127 145 168
142 161 185
157 178 205
171 193 223
175 199 229
173 197 228
165 187 215
163 185 214
162 183 211
160 181 209
168 192 222
156 178 205
155 175 202
145 164 189
137 155 177
128 145 167
113 129 149
105 119 138
111 126 145
112 126 145
111 125 144
110 124 142
114 129 149
125 142 164
144 162 187
149 170 197
153 174 202
154 172 195
163 180 204
151 167 188
139 155 176
116 129 146
120 133 151
118 130 147
85 94 107
80 89 101
101 111 126
121 135 153
140 156 177
138 155 176
144 161 183
162 179 202
170 188 213
165 182 205
170 188 212
153 170 192
134 147 166
147 164 185
151 168 190
159 177 201
170 187 211
165 183 206
151 169 192
160 178 202
166 185 209
163 181 204
159 177 202
164 183 209
152 170 193
162 179 202
154 170 192
159 176 198
168 186 211
154 170 192
139 154 175
129 144 164
106 118 133
74 82 92
51 57 65
56 62 70
43 48 55
28 32 36
15 17 19
13 14 16
18 20 22
16 18 20
11 12 14
10 11 13
6 7 8
15 17 19
15 17 19
24 27 31
42 47 53
51 57 64
35 39 44
22 24 27
15 17 19
8 9 11
15 16 19
12 14 16
12 13 15
11 12 14
13 15 17
15 17 19
28 31 35
50 55 63
66 73 82
71 79 89
74 82 92
93 104 118
104 116 131
115 128 145
120 134 152
115 128 145
105 116 132
109 120 135
117 129 146
115 128 146
115 128 146
112 125 142
113 125 141
128 142 160
132 146 165
140 155 176
159 178 202
161 179 203
150 167 190
158 177 201
167 185 210
165 183 208
170 189 214
161 179 202
176 195 220
170 188 213
164 181 205
150 167 189
167 185 209
158 174 197
163 181 206
164 182 207
161 179 202
172 191 216
173 192 217
166 183 207
165 183 206
154 171 194
155 172 194
139 155 175
136 152 172
144 161 183
127 141 159
128 142 161
123 136 155
114 128 145
131 145 165
136 151 171
138 154 175
144 160 181
158 174 195
155 171 193
147 163 185
158 176 199
140 155 176
137 152 174
134 148 167
126 140 160
118 132 150
102 113 127
61 67 76
45 50 56
52 58 66
53 58 66
31 34 38
13 14 16
11 12 14
19 21 24
22 24 27
29 32 37
28 31 35
29 32 37
34 38 43
30 33 38
15 17 19
3 3 4
12 13 15
23 25 28
27 30 34
33 36 41
21 23 26
19 21 24
31 34 39
28 31 35
15 17 19
7 7 8
28 31 35
45 50 57
56 63 71
82 90 102
120 133 150
139 153 173
98 108 122
84 93 105
90 100 113
77 84 95
53 58 66
37 41 47
30 33 38
20 22 25
5 5 6
12 13 15
53 59 66
86 96 110
122 135 153
124 138 157
138 153 173
147 164 186
157 174 197
145 160 181
118 132 151
131 149 173
127 145 168
130 147 170
145 164 190
145 164 188
159 181 209
172 195 225
159 181 209
150 170 196
143 162 188
137 155 178
145 164 190
136 154 177
124 141 164
122 139 161
142 161 186
141 160 186
141 160 185
143 161 184
149 169 194
152 172 198
145 164 190
151 171 198
151 171 197
122 138 159
123 139 161
130 148 172
131 148 171
132 150 174
134 151 174
128 146 169
145 165 190
121 138 160
134 151 173
146 166 192
148 168 194
146 166 192
142 162 187
144 165 191
147 166 190
144 162 187
127 144 165
118 134 155
123 139 160
129 146 169
130 146 169
106 121 140
98 110 126
112 127 145
122 136 155
145 162 184
140 157 180
151 170 194
164 184 210
160 179 203
158 176 200
153 170 193
158 176 199
152 169 192
160 176 198
160 176 198
173 189 212
161 177 198
163 178 199
160 176 196
163 179 202
169 186 208
177 194 216
180 196 218
173 190 213
183 200 224
180 196 217
169 183 202
180 194 215
175 189 209
182 197 217
180 195 217
190 206 227
183 199 221
193 208 229
183 197 216
195 211 232
189 204 224
198 213 233
190 204 223
185 200 221
193 207 227
197 212 232
199 212 231
199 214 235
205 219 239
198 213 234
212 227 248
207 223 244
206 220 240
212 226 245
211 224 243
212 226 246
218 232 251
218 231 250
218 232 251
220 233 252
219 233 252
219 233 252
222 236 255
222 236 255
223 237 255
223 237 255
223 237 255
119 133 152
118 134 155
115 132 153
102 115 133
101 114 132
121 137 158
149 169 195
170 192 222
174 198 229
178 201 232
175 198 228
173 196 226
172 195 225
169 192 222
167 190 219
154 174 201
145 165 190
135 154 179
105 120 138
83 95 110
100 113 130
106 120 138
124 140 161
145 165 191
148 168 194
146 166 192
143 163 188
146 165 190
160 181 209
159 179 207
169 192 221
175 199 231
167 191 222
149 168 194
116 132 153
96 109 125
97 109 126
96 108 125
112 126 145
115 129 149
112 127 147
111 127 146
120 136 158
132 150 173
134 151 174
159 180 208
169 191 221
175 199 231
181 205 237
184 209 241
176 199 230
169 192 221
164 186 214
144 164 190
140 159 184
130 148 171
129 147 170
125 142 165
112 126 145
92 104 121
77 87 100
85 96 111
105 119 137
123 140 161
129 146 169
139 158 183
142 161 187
144 164 189
135 153 177
148 168 195
147 167 193
160 181 209
154 175 202
148 169 195
151 171 198
158 179 206
132 149 172
115 130 149
98 111 127
99 111 128
103 117 135
110 124 143
128 145 167
129 146 168
121 136 156
113 127 147
114 129 150
132 150 174
147 166 192
145 165 191
155 175 202
163 185 213
158 178 205
146 166 191
159 180 208
152 173 199
153 173 200
146 165 191
143 162 187
134 152 176
125 142 163
91 103 119
68 77 89
76 86 99
94 107 124
99 112 130
111 125 143
114 130 151
106 121 141
124 139 159
159 176 199
150 168 191
144 160 180
111 123 139
103 115 130
118 131 148
97 108 122
97 108 124
98 109 123
121 133 150
134 149 169
141 157 177
145 159 179
155 173 196
156 173 196
161 179 203
156 174 198
153 171 194
130 145 165
139 154 174
155 171 193
158 177 201
164 183 207
172 191 217
164 183 207
158 176 200
161 178 201
159 176 200
162 180 204
156 173 195
151 169 193
163 180 204
153 170 193
163 180 204
160 178 201
153 169 191
157 174 196
129 143 163
125 138 155
89 98 112
67 75 85
65 72 81
51 57 64
43 48 54
20 22 25
4 4 5
8 9 11
11 13 14
3 3 3
5 5 6
6 6 7
20 22 25
17 19 21
18 20 23
24 27 30
45 50 56
49 55 63
34 38 43
32 35 40
22 24 27
30 33 38
36 40 45
31 35 40
40 44 50
37 41 47
36 40 45
47 52 59
58 64 73
72 80 90
87 97 110
86 95 109
99 111 126
115 127 143
113 124 140
124 138 156
126 140 158
116 129 146
115 129 147
119 132 150
113 125 142
116 128 146
122 136 155
131 145 164
138 153 174
143 158 179
145 160 180
170 187 210
164 182 206
168 186 211
170 188 213
163 182 206
159 177 201
155 173 197
158 174 197
163 182 207
169 188 214
163 181 205
157 174 196
143 159 181
160 178 203
170 189 214
166 185 209
160 177 201
168 186 210
164 181 204
163 182 207
150 168 190
164 183 207
147 162 183
138 153 173
148 164 184
125 139 158
129 143 161
123 136 154
124 138 157
130 143 162
135 150 171
136 151 171
150 166 188
154 170 192
148 164 186
148 164 185
142 158 179
149 165 186
148 164 185
125 139 158
134 149 169
130 143 160
116 129 147
89 99 113
52 58 66
44 48 55
40 45 50
30 33 37
21 23 26
9 10 11
13 15 17
19 21 24
27 30 34
26 29 33
18 20 23
31 34 39
39 43 49
25 28 31
11 13 15
9 10 11
5 5 6
23 25 28
26 28 32
20 22 25
11 13 14
15 17 19
24 27 31
26 28 32
9 10 11
10 12 13
17 19 22
32 36 41
57 63 72
96 107 121
137 152 172
128 142 161
94 104 118
88 97 109
72 81 91
46 51 58
36 40 45
32 36 40
27 30 34
11 12 14
4 4 5
19 21 24
65 73 83
117 130 147
146 161 181
146 162 184
165 182 205
165 183 207
156 173 196
122 137 156
132 148 169
118 135 156
113 129 149
80 91 106
84 97 113
105 118 136
129 147 170
138 156 180
148 168 195
155 176 203
154 176 204
154 175 201
146 166 192
157 177 204
155 176 204
147 167 193
135 153 178
136 153 176
127 144 166
129 146 169
144 164 189
152 174 201
152 172 198
140 159 183
151 170 196
136 155 179
135 153 176
123 140 161
133 151 174
145 165 191
138 157 181
132 149 171
127 144 166
149 170 197
151 172 199
146 166 192
137 154 178
145 164 188
119 136 158
139 158 183
124 141 163
135 153 178
143 162 187
143 161 185
141 160 183
144 162 186
145 163 188
132 150 174
132 149 172
125 141 162
133 150 173
118 134 156
119 134 154
140 159 184
133 151 175
143 163 188
132 150 173
148 167 192
151 171 197
146 166 192
146 165 189
141 161 187
128 145 167
132 150 174
121 137 157
129 146 169
146 165 190
132 150 172
144 163 188
151 171 197
129 146 169
123 139 160
125 142 164
118 134 155
131 148 171
131 148 171
146 167 193
128 146 168
143 162 186
148 167 192
131 150 174
135 153 176
136 154 178
133 151 175
130 147 171
135 154 178
135 154 177
141 160 184
130 147 170
137 156 180
137 155 179
155 176 204
151 172 198
155 176 204
152 173 199
154 175 203
150 169 194
139 157 182
137 155 180
138 156 181
151 169 194
145 164 190
137 155 178
141 160 185
122 139 160
106 120 138
127 144 166
140 158 182
143 162 187
140 159 183
135 153 176
133 151 174
140 159 183
144 165 192
153 173 199
156 177 205
168 191 221
166 188 217
168 189 218
160 182 211
143 162 187
127 143 166
113 128 148
107 121 140
111 125 145
96 108 124
92 104 120
90 102 118
106 121 139
115 131 151
133 150 173
126 143 165
132 149 172
136 154 178
155 178 207
164 186 214
175 199 231
181 205 237
184 209 241
179 202 233
159 181 209
150 170 196
129 147 170
129 146 169
131 148 171
135 154 178
145 164 189
118 134 155
97 110 128
99 112 129
98 112 130
117 132 152
126 144 167
123 140 162
130 147 170
134 151 173
144 163 189
165 186 214
173 195 224
169 192 222
158 179 207
160 182 210
157 177 204
145 164 189
144 163 189
152 172 198
136 154 178
123 138 159
93 106 122
91 103 119
81 92 107
86 98 112
87 99 115
114 129 150
116 131 151
117 132 153
125 142 163
125 142 164
126 142 164
130 146 168
141 160 184
171 194 224
169 192 223
169 192 223
181 204 235
175 197 227
166 189 219
164 185 212
129 147 170
121 138 160
112 128 148
119 134 154
111 126 146
101 115 133
118 134 154
117 132 152
121 137 158
119 135 156
121 138 160
138 155 179
167 189 217
181 205 237
187 213 246
189 214 247
187 213 247
187 211 243
175 199 230
177 200 230
172 195 225
165 188 219
153 173 200
137 156 181
100 114 132
83 94 109
64 72 83
62 70 80
70 79 92
79 89 103
84 96 111
87 99 114
154 169 190
158 176 201
145 161 182
123 136 154
103 114 128
115 128 145
104 115 131
108 120 136
105 117 133
129 142 161
122 136 154
149 165 187
156 173 196
162 180 204
159 176 199
164 182 206
156 173 197
149 165 187
146 161 180
129 142 161
157 174 197
160 178 203
162 180 204
154 173 199
162 179 202
164 182 206
159 177 201
157 175 199
164 182 205
173 191 216
166 183 207
158 175 198
158 175 198
165 184 209
166 185 210
165 183 207
158 176 200
146 161 183
136 150 170
100 111 125
82 91 103
67 75 85
56 63 72
43 48 55
29 33 37
13 14 16
14 16 18
16 17 20
6 7 8
4 4 5
4 4 5
7 7 8
10 11 13
22 24 27
31 34 39
51 56 63
52 57 65
41 46 52
44 49 56
51 56 64
49 55 62
48 54 61
45 49 56
47 52 59
52 58 65
52 58 66
54 60 68
62 69 79
71 78 88
82 91 103
96 106 119
117 129 147
107 119 135
110 122 137
113 126 143
114 127 144
108 120 137
119 133 150
112 125 142
120 133 150
129 143 161
141 156 177
149 166 188
144 159 180
152 169 191
157 174 196
154 172 196
158 175 198
158 176 199
157 175 200
169 189 215
165 183 208
165 183 207
157 175 198
162 180 205
178 196 221
174 192 217
154 171 193
163 181 206
169 188 214
163 180 204
164 182 206
170 188 212
174 194 221
164 181 205
162 181 206
173 192 217
169 187 211
158 175 198
141 156 177
135 151 172
131 146 166
133 147 166
127 141 160
142 158 179
141 156 176
141 155 174
150 166 188
157 174 197
151 167 189
153 170 192
158 175 198
161 180 205
149 165 186
135 150 170
145 161 182
133 147 166
130 144 163
106 118 134
79 88 99
47 52 59
30 33 38
19 21 24
14 15 17
9 10 11
8 9 10
9 10 11
7 8 10
12 13 15
12 13 15
24 27 30
32 36 41
32 35 40
12 14 16
17 18 21
25 28 32
10 11 13
21 23 27
22 24 27
19 21 23
20 22 25
11 13 14
23 25 29
11 12 14
21 23 26
17 19 22
6 7 8
27 30 34
71 80 92
114 127 143
143 159 180
112 125 141
99 109 123
84 93 106
51 57 65
33 36 41
36 40 46
35 39 44
36 40 45
15 17 19
19 21 23
54 60 68
104 116 133
129 145 165
159 176 199
157 174 195
160 178 201
163 180 204
138 153 172
121 136 155
164 187 216
158 179 207
153 173 199
132 149 172
119 134 155
108 123 143
127 143 165
142 160 185
129 147 170
131 149 172
129 145 167
123 140 162
134 152 176
130 149 172
153 174 202
157 177 204
158 179 207
154 175 202
135 154 178
121 138 160
113 128 148
107 122 141
127 144 166
116 132 152
130 148 172
148 167 192
153 174 202
149 169 195
140 158 182
140 160 186
149 168 193
151 171 197
162 184 213
156 177 205
150 171 198
141 159 183
131 149 171
141 159 184
164 185 212
149 169 196
137 156 180
140 159 183
152 173 199
157 178 206
171 195 226
163 184 213
157 176 202
157 178 206
162 184 214
148 169 196
131 149 172
128 145 168
111 125 144
139 159 185
145 165 192
151 172 199
152 172 198
153 173 200
142 161 186
148 168 193
130 146 168
129 146 170
121 137 158
111 126 146
132 150 174
146 166 192
146 166 191
154 175 201
135 153 178
133 152 177
132 150 173
149 168 194
145 165 191
152 172 198
123 140 162
134 152 177
132 150 174
135 152 176
141 161 186
145 165 191
154 175 203
147 166 191
151 171 198
157 178 206
147 167 193
152 172 199
161 182 210
150 170 196
152 172 198
125 142 165
130 147 169
138 157 182
139 157 182
140 159 183
148 168 194
147 167 193
156 176 203
157 177 204
162 183 210
157 178 206
157 178 205
147 167 193
145 164 190
147 166 192
145 165 192
153 174 202
154 176 203
153 174 200
154 175 203
168 191 221
174 198 230
181 204 235
181 205 236
176 200 230
169 191 220
157 178 206
140 159 183
124 141 163
127 144 166
114 130 150
86 97 111
82 93 108
69 78 90
66 76 89
60 68 79
77 88 101
83 95 109
110 125 144
133 151 174
144 163 188
169 192 221
175 199 230
181 206 238
187 212 245
188 214 247
187 212 245
183 208 240
184 209 241
175 199 230
164 186 215
163 186 215
160 180 207
146 165 190
132 150 174
124 141 162
111 127 147
114 130 151
112 128 149
113 129 149
115 130 150
115 131 152
105 119 137
122 139 160
133 151 175
158 179 208
173 197 228
180 204 235
188 212 243
185 211 244
184 209 241
174 198 229
159 180 208
142 161 186
150 170 197
134 153 177
97 110 127
57 65 76
49 55 64
43 49 57
57 65 75
69 78 91
87 98 113
97 110 127
108 122 141
127 144 167
128 145 168
127 144 167
137 157 183
149 169 195
160 180 207
156 176 204
165 187 216
164 186 216
176 199 231
177 201 232
173 195 223
165 189 219
151 171 197
137 156 180
119 135 156
128 145 167
119 134 155
108 121 139
113 128 149
107 122 142
85 96 111
98 112 129
87 100 116
84 96 111
100 113 131
106 120 139
121 137 158
130 148 170
153 173 200
165 188 218
178 202 234
175 199 231
172 196 226
171 193 223
171 194 223
169 192 221
165 187 216
164 185 214
168 191 221
151 172 198
142 160 185
135 153 177
115 131 152
89 101 117
82 93 108
125 140 159
156 174 196
155 172 195
127 141 161
99 110 124
105 117 133
109 121 137
110 122 137
109 121 137
121 135 154
122 135 152
138 152 171
152 169 192
176 195 220
158 176 200
154 170 192
158 174 195
140 156 178
133 148 168
140 157 178
146 162 183
150 167 189
160 176 198
165 184 209
164 182 206
168 185 208
161 178 202
161 179 202
165 182 205
155 172 196
160 179 204
152 169 192
165 183 208
165 184 209
165 183 207
162 181 206
164 181 205
161 178 200
137 151 170
121 134 151
104 115 130
80 89 101
71 79 90
58 65 73
37 41 47
26 28 32
16 18 20
8 9 10
4 5 6
3 3 4
2 3 3
6 6 7
6 7 8
12 13 15
24 27 30
41 45 52
53 59 67
55 61 69
62 69 78
62 69 79
63 70 79
55 61 69
54 60 69
53 59 66
63 70 79
66 73 83
58 64 73
63 69 78
56 63 71
61 68 77
88 97 109
106 118 133
106 117 133
97 108 123
99 110 125
112 125 143
121 134 151
115 128 145
123 138 157
134 149 169
130 145 164
143 159 180
149 165 186
148 165 187
149 166 188
163 179 202
151 167 189
155 171 193
159 176 199
162 180 204
165 182 205
170 188 213
166 184 209
166 184 208
166 183 207
167 185 208
167 185 210
158 176 200
164 181 205
171 190 215
162 179 202
163 182 206
166 184 208
163 182 207
168 187 213
167 185 208
165 184 208
172 190 214
153 171 194
153 170 192
143 158 179
134 149 168
144 159 180
155 172 195
152 168 190
147 163 184
154 170 191
151 169 192
169 187 211
156 174 198
160 179 204
155 173 196
157 175 198
159 176 199
142 158 179
149 166 188
142 157 179
131 145 164
111 123 139
78 87 98
48 53 61
29 32 37
15 17 20
11 12 14
5 5 6
7 8 9
7 8 9
11 13 14
6 6 7
13 15 17
30 34 38
30 33 38
22 25 28
16 18 20
19 21 24
23 26 29
7 8 9
18 20 23
23 26 29
22 24 28
27 30 34
11 13 15
13 15 17
14 15 18
27 30 34
21 23 26
8 9 10
33 37 42
92 102 116
124 139 157
146 163 184
112 125 142
100 110 124
70 79 89
32 36 41
38 42 47
42 47 53
40 44 50
27 30 33
21 23 26
53 59 68
89 100 114
122 135 153
146 162 184
162 180 204
160 177 201
156 173 195
151 167 189
130 144 162
140 157 179
120 136 157
91 104 120
98 111 129
101 114 131
121 137 159
144 163 188
161 183 212
174 197 227
169 192 223
170 193 223
164 185 214
128 145 168
117 132 152
100 112 129
90 102 119
109 124 143
115 131 152
112 126 145
100 115 134
107 121 141
104 118 135
109 124 144
122 138 160
140 158 183
140 158 183
146 165 191
157 177 204
165 187 217
173 197 229
167 189 219
145 164 188
142 161 186
134 152 175
138 158 183
152 173 200
145 165 191
149 168 194
137 154 178
141 161 186
149 169 194
122 138 160
112 127 148
110 125 145
135 153 177
134 151 175
131 149 171
137 156 180
142 162 187
141 159 184
121 138 159
121 138 159
124 141 163
142 161 186
156 176 202
128 145 167
115 130 150
94 107 124
92 104 121
95 109 127
106 120 139
120 135 156
137 154 178
142 161 187
147 167 193
132 150 174
120 136 158
115 130 151
111 125 144
107 122 142
112 127 147
105 120 139
110 124 143
116 131 151
107 121 139
109 125 145
113 128 148
141 161 186
150 170 196
131 149 171
142 161 186
155 177 205
157 177 204
164 186 215
154 175 202
145 164 189
131 148 171
131 148 170
121 138 159
117 133 153
107 122 141
90 102 118
121 138 160
138 156 179
154 174 201
146 165 191
152 172 198
150 170 197
149 169 195
143 163 188
139 157 181
130 148 171
131 149 172
131 149 172
131 148 172
128 145 168
141 159 184
149 169 196
133 151 174
136 155 179
144 164 190
152 172 199
151 172 198
160 182 211
139 157 181
136 154 178
128 145 167
121 137 159
119 135 156
128 144 166
126 143 166
128 145 167
116 131 152
109 124 144
102 116 134
93 105 121
91 104 120
98 112 130
103 116 133
112 127 146
116 131 151
137 155 178
154 176 204
160 182 211
167 189 219
166 189 218
172 196 226
164 187 216
153 174 201
144 164 190
141 161 186
147 167 193
148 169 195
135 153 177
131 149 172
104 119 137
106 120 139
96 108 125
101 114 132
117 133 154
126 143 165
132 149 172
150 171 197
161 183 211
164 185 213
172 195 225
172 195 226
179 203 234
177 200 230
176 199 230
178 202 235
173 197 227
167 189 218
163 184 212
164 186 215
170 193 224
168 191 222
143 162 188
110 125 144
67 76 87
43 48 56
53 60 69
76 87 101
76 86 99
78 88 101
80 91 106
103 117 135
123 140 162
141 160 184
156 177 204
160 182 210
152 173 200
172 195 226
158 180 209
173 195 224
179 203 235
186 210 241
181 205 237
183 207 240
179 203 234
175 198 229
151 173 201
142 162 188
106 121 140
97 111 129
89 102 118
108 122 141
104 118 136
106 120 139
88 101 116
94 107 123
88 100 116
94 107 123
102 116 135
112 127 146
121 137 159
134 153 177
133 151 174
145 166 192
150 169 194
157 178 206
159 180 208
165 187 216
166 189 219
154 175 203
146 165 191
128 146 168
122 138 160
137 155 179
143 163 188
142 162 187
147 166 191
157 174 197
150 167 189
126 140 158
99 110 124
94 104 118
110 121 137
124 137 155
110 123 139
119 132 149
129 144 162
123 136 153
145 160 181
158 175 198
158 175 197
148 165 188
158 176 200
125 139 157
122 135 153
152 169 192
156 173 196
151 168 192
163 181 206
165 184 209
161 179 203
150 167 190
152 169 192
157 174 197
162 180 205
170 189 214
169 185 208
155 172 195
163 181 205
163 182 207
170 188 213
155 173 196
162 180 204
150 167 190
152 168 190
141 157 177
120 133 151
100 112 127
92 102 115
75 84 95
52 58 67
34 37 42
24 27 30
21 23 26
23 25 29
16 18 20
10 11 13
8 9 10
3 4 4
7 7 8
11 12 14
30 33 37
38 42 47
56 62 71
64 71 81
68 75 85
77 85 97
68 75 86
65 73 83
66 73 83
73 81 91
69 77 88
66 73 82
62 69 79
59 65 74
53 59 67
67 74 84
79 88 99
85 95 107
98 109 123
114 126 143
117 130 148
129 143 162
122 136 155
127 141 160
135 150 170
137 152 173
145 160 181
144 161 184
150 167 189
152 169 191
163 180 203
154 170 192
149 166 189
157 175 199
162 180 205
163 180 203
159 177 202
158 176 201
162 181 206
168 187 212
158 175 197
164 181 204
163 180 203
156 173 195
167 185 208
159 176 200
162 180 205
159 179 205
166 184 207
161 179 202
163 181 205
161 179 204
166 185 210
170 188 213
155 171 193
131 146 165
139 155 176
152 168 190
156 172 195
156 174 198
158 176 200
147 163 184
167 184 208
165 183 208
154 172 195
162 179 201
162 180 205
166 183 207
161 179 203
153 170 193
142 157 178
141 155 176
118 131 149
103 114 129
87 97 109
44 49 56
20 23 25
27 30 34
27 30 34
20 23 26
23 25 28
28 32 36
25 27 31
9 10 11
9 10 12
18 20 23
14 16 18
19 21 24
17 20 22
12 13 15
13 14 16
6 7 8
16 18 20
29 33 37
38 42 47
30 33 38
8 9 11
4 4 5
14 15 17
18 19 22
11 13 14
24 26 29
60 67 76
102 113 128
129 144 163
150 168 191
128 143 162
95 106 120
58 64 73
38 42 47
53 59 68
55 61 69
47 52 58
40 45 51
63 70 80
100 111 126
126 140 158
148 165 187
161 178 201
158 175 198
149 165 187
146 162 183
133 148 167
126 140 158
154 174 201
144 163 188
122 138 159
110 126 146
85 96 111
75 85 98
78 89 103
88 100 116
80 90 103
88 99 113
92 105 121
120 136 157
130 146 168
133 151 175
146 165 190
148 168 195
160 182 212
168 191 221
177 200 231
172 196 227
180 204 236
186 210 243
188 213 245
179 203 235
179 203 235
159 180 209
143 164 191
122 138 160
107 122 141
107 122 140
111 125 145
116 131 151
132 149 172
122 138 160
117 133 153
130 147 170
117 133 154
120 136 158
137 156 180
145 164 189
160 181 209
173 196 226
181 205 237
173 196 226
160 182 211
154 175 202
155 176 203
148 167 193
139 157 181
141 160 185
140 159 185
149 168 194
150 170 195
135 154 178
140 159 185
119 134 155
97 111 128
89 101 117
84 95 110
92 105 122
91 103 119
112 127 147
143 162 187
163 185 212
166 188 216
158 179 207
169 190 219
164 187 217
165 187 216
155 176 204
158 179 207
155 175 202
148 167 193
147 167 193
143 163 188
152 173 201
146 167 193
133 150 173
116 132 153
125 141 162
126 143 166
135 153 177
143 162 187
142 161 186
136 155 180
123 140 161
116 132 153
126 142 164
135 152 175
132 150 173
133 151 175
129 146 168
134 152 176
137 156 180
139 158 182
139 157 180
129 146 167
126 144 167
114 129 150
120 136 157
129 146 167
117 133 154
137 155 179
151 172 199
155 176 204
149 170 196
160 181 208
154 175 203
166 188 218
161 183 211
155 176 203
162 184 213
150 171 197
148 169 195
151 171 197
140 160 185
133 152 177
124 141 163
116 132 152
93 106 123
84 95 110
82 93 108
94 105 121
96 109 127
106 121 141
124 140 162
150 170 196
168 191 220
177 201 231
173 196 227
172 196 227
171 194 225
183 208 239
178 201 231
176 200 230
166 187 216
144 163 188
128 144 166
123 139 161
103 117 134
80 91 105
69 78 90
57 65 75
47 54 62
40 45 52
38 43 50
65 74 85
89 101 117
102 115 133
113 129 149
131 149 172
127 145 167
135 153 176
140 160 185
153 174 202
148 167 193
159 179 207
167 190 219
176 199 229
177 200 231
170 194 224
169 191 220
165 186 215
156 177 205
142 162 187
110 124 143
88 100 115
66 76 88
55 62 72
43 49 57
51 58 67
79 90 104
84 95 109
97 110 126
108 123 142
120 136 157
125 143 166
139 157 181
136 154 178
126 143 165
123 140 161
142 161 186
156 177 204
179 203 235
182 207 241
187 212 244
180 205 237
179 204 236
181 205 236
179 202 233
179 204 236
176 199 229
169 192 221
169 192 222
164 185 214
153 173 200
150 171 197
148 168 194
149 168 194
131 149 172
109 123 142
86 97 112
94 106 122
105 120 138
123 139 160
143 163 188
144 163 188
141 160 186
130 148 171
117 133 154
133 151 175
145 164 188
145 164 189
148 168 195
137 155 178
147 167 192
154 174 200
158 179 208
157 179 207
153 173 200
133 151 173
121 137 158
156 173 196
151 167 188
127 141 160
103 114 130
91 101 113
107 119 134
133 146 165
112 124 140
122 135 153
130 144 163
133 148 167
141 157 178
162 179 203
161 179 203
157 174 198
150 166 188
127 142 162
126 140 159
140 155 174
149 164 184
157 175 199
155 173 196
161 179 204
164 183 208
159 177 202
150 165 185
153 170 192
159 176 199
165 183 208
160 179 204
168 186 211
166 185 209
163 181 207
172 191 217
159 177 201
164 181 205
153 170 193
154 170 191
150 166 187
144 160 181
133 147 166
112 126 144
104 115 130
73 81 93
49 54 62
38 42 48
39 43 49
38 42 47
29 33 37
20 23 26
13 15 17
5 5 6
6 7 8
5 6 7
16 18 21
14 16 18
19 21 24
32 36 41
39 43 49
60 67 76
82 91 102
74 82 93
77 86 97
84 93 105
78 87 99
66 73 82
74 82 93
61 67 76
55 61 69
60 66 75
71 79 89
78 87 99
88 98 111
106 118 134
118 131 148
117 130 147
119 132 149
128 143 162
140 155 175
141 157 178
140 157 178
134 149 170
158 176 199
150 167 190
150 166 188
140 155 175
148 165 187
152 169 192
143 159 180
156 173 197
162 180 203
161 179 202
165 184 208
160 178 201
164 183 208
161 177 200
157 173 194
158 175 198
166 186 212
154 172 195
170 189 213
158 176 200
163 181 206
163 181 205
161 178 201
156 173 196
161 179 204
171 191 217
149 166 188
128 143 162
145 162 184
160 178 202
157 175 199
165 184 209
162 180 204
167 185 210
171 191 217
161 179 202
169 188 212
170 189 215
165 183 207
166 184 209
159 177 201
155 172 195
144 160 181
132 147 166
117 130 147
100 110 125
78 86 97
39 43 49
29 32 37
39 43 49
39 43 48
40 45 51
49 54 61
48 53 61
30 33 37
6 7 8
10 12 13
8 8 10
9 10 12
17 19 22
7 8 9
9 10 11
4 5 5
9 10 12
29 32 36
44 49 56
39 43 49
20 22 25
5 6 7
10 12 13
16 18 20
9 11 12
20 23 26
44 49 56
69 77 87
106 117 133
134 149 169
145 161 182
128 142 160
81 89 101
62 69 78
63 70 79
60 67 76
53 58 66
47 52 59
62 69 79
91 101 114
123 135 152
146 163 184
161 177 199
160 178 202
140 156 177
147 162 183
131 146 165
126 140 158
140 156 177
123 140 163
156 177 204
174 197 227
178 202 233
180 203 235
177 200 232
166 189 218
152 172 199
151 170 196
141 160 186
141 160 185
126 144 167
99 112 130
84 96 112
94 107 124
122 139 161
134 151 174
140 159 184
135 153 177
116 132 153
92 104 121
88 100 116
105 119 137
116 131 151
142 161 185
149 170 196
151 171 198
154 176 204
169 192 222
166 188 217
163 185 213
161 183 213
163 184 211
153 173 200
126 143 166
142 161 186
148 167 193
140 159 184
145 164 189
144 163 188
133 150 174
135 152 175
127 144 167
117 132 151
111 126 146
109 124 143
101 114 132
104 118 135
104 118 136
116 131 152
122 138 158
135 153 178
134 153 177
146 165 191
151 172 199
153 174 202
141 161 186
125 143 165
130 147 170
127 144 167
143 162 187
144 164 189
138 158 183
147 166 192
130 147 169
134 153 177
113 129 149
93 105 121
93 106 122
91 104 120
90 102 119
107 121 139
129 147 170
155 175 202
145 165 190
151 172 199
143 161 186
142 161 187
131 149 172
149 169 195
147 167 194
162 184 213
178 201 231
182 207 240
174 198 228
142 161 187
124 140 161
102 117 136
105 119 138
107 121 140
97 109 126
109 124 144
123 141 164
117 132 153
120 137 159
141 160 184
136 154 179
145 163 188
143 162 187
136 155 179
152 173 200
168 190 220
177 201 231
183 208 240
187 212 244
182 206 238
172 194 224
163 186 215
152 173 199
154 174 201
139 159 184
122 138 159
110 126 145
125 142 164
118 134 155
104 118 136
75 85 98
70 80 93
74 84 98
89 102 118
97 110 127
119 135 156
135 154 179
146 165 190
154 174 201
168 190 219
168 191 220
178 200 230
169 192 221
181 205 236
185 209 240
185 209 241
184 209 242
180 204 236
175 198 228
170 193 222
158 179 206
151 171 197
135 154 178
113 129 149
75 85 97
42 47 55
49 56 64
74 85 99
80 91 104
92 104 120
102 117 136
112 127 148
109 124 144
103 116 133
107 121 140
99 113 130
93 105 121
102 116 133
104 119 137
102 117 135
104 118 136
120 138 160
144 163 187
153 173 200
161 183 211
156 178 205
163 185 214
169 190 219
166 188 218
161 182 210
152 172 198
154 174 201
168 191 220
168 190 219
166 189 218
152 172 199
142 162 187
124 140 162
119 135 156
108 124 144
96 109 127
98 113 131
120 136 157
141 161 186
151 171 198
140 159 184
149 168 194
148 168 195
151 172 200
159 180 208
152 173 200
164 186 214
163 184 213
166 188 217
173 195 225
165 187 216
167 189 219
172 195 225
163 185 214
169 192 221
158 177 203
156 177 205
154 175 202
129 146 168
115 130 151
107 121 139
100 114 131
96 109 126
102 116 135
101 114 131
112 128 148
122 141 164
144 164 189
133 152 177
132 149 172
119 136 157
118 132 151
116 131 152
154 175 203
172 194 224
159 180 208
153 175 203
152 172 198
144 162 186
138 156 181
129 146 169
143 161 186
161 179 202
146 162 183
111 123 138
91 101 115
107 118 134
140 155 175
131 145 163
119 131 147
123 138 157
128 142 161
143 158 179
156 173 196
156 172 195
156 173 196
147 163 184
123 138 157
125 138 156
135 151 172
145 162 183
145 161 183
160 176 198
166 183 206
165 184 209
155 173 197
144 160 181
147 163 185
149 166 188
154 171 195
156 172 194
158 175 199
159 177 200
158 176 199
161 179 203
158 175 198
154 171 195
165 181 204
148 164 186
157 175 199
152 170 193
149 166 188
140 156 176
127 141 159
108 120 136
80 89 101
49 54 62
46 51 58
48 54 61
48 54 61
38 42 48
32 36 41
16 18 20
10 11 12
15 16 18
24 27 31
19 21 24
4 5 6
11 12 14
20 22 25
54 60 68
75 83 94
81 91 103
88 97 110
90 100 113
75 84 95
66 74 83
68 75 85
57 63 71
48 53 60
50 56 63
68 75 84
68 76 86
84 94 106
97 108 122
101 112 128
110 121 137
108 120 136
126 140 158
140 155 176
138 154 174
143 159 180
149 166 188
159 177 200
163 180 204
143 159 179
134 149 168
124 138 156
145 161 184
138 154 175
151 168 191
156 172 195
161 178 202
165 182 205
166 183 207
164 182 205
162 179 203
163 182 208
162 180 204
163 180 203
163 181 204
164 182 207
165 183 208
168 185 208
161 179 203
164 182 206
155 172 194
156 174 197
152 169 191
143 160 181
137 153 174
143 159 180
158 176 200
159 176 199
168 184 207
170 189 214
155 172 194
168 187 212
164 181 204
165 183 206
161 179 203
162 179 202
162 180 204
165 184 209
159 176 200
144 160 180
127 141 161
118 130 147
96 107 120
52 58 66
26 29 33
32 35 40
36 40 45
43 48 54
56 62 71
59 65 74
48 53 61
32 35 40
21 23 27
26 29 33
17 19 21
8 8 10
8 9 10
20 22 25
12 13 15
6 6 7
10 11 13
38 42 47
44 49 55
32 35 40
21 24 27
17 19 21
21 23 26
19 21 24
10 11 13
32 36 41
55 61 70
73 81 91
109 121 139
128 143 163
147 163 184
115 127 143
93 103 117
71 79 90
71 79 89
52 57 65
59 65 74
67 74 83
110 123 140
124 139 158
149 166 189
161 177 200
172 190 215
161 177 200
148 163 185
120 134 152
130 144 164
133 148 167
113 127 146
98 112 129
90 101 115
99 113 131
109 124 143
107 121 140
111 126 147
129 147 169
132 150 174
138 156 181
161 183 211
173 197 228
169 192 223
180 204 235
186 210 242
183 207 239
185 210 243
181 205 237
165 188 218
150 170 197
132 149 172
127 143 166
115 131 150
109 123 143
117 132 152
125 142 165
125 142 165
141 161 186
132 150 175
152 171 197
146 165 191
144 163 188
131 148 171
117 133 153
121 137 159
153 174 200
162 185 214
159 180 208
160 181 209
149 168 194
156 177 204
159 180 208
175 198 229
178 203 235
182 206 238
182 205 236
167 191 221
160 181 209
165 186 215
166 188 217
158 180 208
149 169 196
141 160 185
150 170 196
141 160 185
131 148 171
128 145 168
110 125 145
121 137 160
124 141 163
119 134 154
123 140 163
120 135 156
108 123 143
112 128 149
127 144 165
132 150 172
142 161 185
146 165 191
151 170 196
156 178 206
158 180 208
151 171 198
158 179 207
152 171 198
149 169 196
131 149 173
115 130 149
96 110 128
110 125 145
130 148 172
131 149 172
145 164 190
118 134 155
132 150 173
147 167 193
147 166 192
149 169 196
153 173 200
161 182 211
174 197 228
176 201 233
173 195 225
172 196 227
172 196 227
176 200 232
164 186 214
146 166 192
153 174 201
133 151 175
122 139 161
123 140 162
118 134 155
123 139 161
132 150 173
116 133 155
108 122 140
97 111 129
101 115 133
100 113 130
98 110 127
88 100 116
61 70 80
59 67 78
47 53 60
46 52 61
51 58 67
69 77 89
61 70 81
63 72 83
75 85 98
98 112 129
121 136 157
123 139 159
119 135 156
126 143 165
132 149 173
149 169 196
157 178 206
182 205 235
175 198 228
179 203 234
174 197 228
171 194 224
167 189 218
153 174 202
146 166 192
118 133 153
94 107 124
74 85 98
67 76 88
71 81 93
79 90 105
85 97 112
96 108 125
95 108 124
94 107 124
88 99 114
74 84 96
76 87 100
119 136 158
134 152 175
149 170 197
144 164 190
159 181 209
158 180 208
158 180 209
161 183 212
172 195 224
167 189 218
162 183 211
144 164 189
140 158 182
148 169 195
156 176 203
153 174 201
153 174 202
157 178 207
159 180 208
145 165 191
130 146 168
100 113 131
91 103 119
67 76 88
69 79 92
72 81 93
78 89 103
93 105 121
114 131 152
139 157 182
129 147 170
146 166 192
154 174 200
158 179 207
145 165 190
151 172 198
152 173 199
153 173 200
160 181 209
169 193 223
175 199 231
183 208 239
188 213 246
182 206 238
169 191 220
164 187 216
156 177 205
142 161 186
130 147 170
138 155 179
142 161 186
137 156 181
142 161 185
134 152 176
133 151 174
118 134 155
118 134 154
111 126 145
100 114 132
83 94 108
66 75 87
75 86 99
83 94 107
102 117 136
138 158 183
168 190 219
182 206 238
188 213 246
187 211 243
183 207 238
181 206 238
180 204 236
179 203 234
176 199 230
150 168 193
148 163 183
125 138 157
97 107 121
99 111 126
138 152 172
145 161 182
121 134 151
131 145 163
129 142 160
119 133 150
146 162 184
164 182 205
148 164 186
143 160 181
127 141 160
128 142 161
131 146 166
134 149 170
131 145 164
146 162 183
145 161 183
159 176 200
169 187 212
159 176 199
142 158 180
138 155 177
158 175 198
158 175 197
167 185 209
160 178 202
165 184 208
155 171 194
165 183 207
157 174 197
145 161 182
143 160 181
152 169 192
148 165 186
158 174 196
158 176 199
140 156 177
131 144 162
97 108 122
72 80 91
45 50 57
41 45 51
33 37 42
30 34 39
18 20 22
13 15 17
5 5 6
7 8 9
10 11 12
8 9 10
5 6 7
11 13 14
19 22 25
55 61 69
74 82 93
87 96 109
93 103 117
96 106 119
77 85 96
69 77 87
63 70 80
59 65 74
55 62 70
44 49 55
63 70 80
70 77 87
88 98 110
96 107 121
88 97 109
96 107 121
94 105 118
107 119 135
130 143 162
139 155 175
149 165 187
153 170 194
159 177 200
153 169 192
146 162 184
134 149 169
132 148 168
131 145 165
139 155 176
148 165 187
154 171 193
154 170 192
162 179 201
162 180 205
157 174 197
160 177 199
163 180 203
171 189 214
174 192 215
165 182 205
166 183 205
164 182 207
162 178 200
158 175 198
151 168 190
158 175 198
138 153 173
126 140 159
135 151 172
145 161 183
153 170 193
147 165 188
166 184 208
164 181 204
156 174 197
170 187 211
166 184 209
149 167 191
155 172 195
144 160 182
161 178 201
151 169 193
164 182 206
154 170 193
148 164 186
134 149 169
106 117 133
64 72 81
34 37 42
28 31 35
35 39 44
48 53 60
61 67 77
56 62 70
41 46 52
32 36 41
32 35 40
25 28 31
24 27 30
15 17 19
14 15 17
18 20 23
29 32 37
13 15 17
8 9 10
18 20 23
39 44 49
50 56 64
39 43 49
32 36 41
34 37 42
28 31 35
13 14 16
22 25 28
47 52 59
57 64 72
68 75 85
95 106 120
132 146 165
142 157 177
116 129 147
95 105 118
77 86 98
45 50 57
49 55 63
79 88 100
107 119 135
126 140 160
148 163 183
154 171 194
159 177 202
162 180 204
140 156 178
136 151 171
136 152 172
136 151 172
148 166 190
169 192 221
178 202 234
169 191 220
139 158 182
120 136 157
98 111 128
89 101 117
97 111 129
103 117 135
106 121 140
103 117 136
117 133 155
105 120 140
116 131 151
103 117 135
100 114 131
117 133 154
140 158 181
152 172 199
155 175 202
161 183 211
166 189 218
166 188 218
173 197 227
173 196 227
174 198 228
182 207 239
177 201 232
171 193 223
161 182 209
158 178 205
140 158 183
139 157 182
123 140 161
120 137 159
111 126 146
119 135 156
106 119 137
115 131 151
119 136 157
88 100 115
75 86 100
78 89 103
76 86 99
88 100 116
96 108 125
122 138 159
145 164 189
163 185 213
158 180 209
148 169 195
145 165 191
152 172 198
162 184 212
169 192 222
169 193 224
163 185 214
170 193 223
162 184 213
126 143 165
87 99 114
72 81 94
87 99 114
86 98 113
91 103 119
86 97 112
82 94 108
91 103 119
91 103 120
106 120 139
133 150 173
144 163 189
157 178 205
160 181 209
172 194 224
169 192 222
178 201 232
181 206 238
183 208 241
174 197 227
173 196 227
172 195 226
171 193 222
154 174 200
163 184 211
154 175 202
149 169 195
109 124 143
89 101 116
78 88 102
99 112 129
97 111 129
101 115 133
114 130 150
122 138 160
125 142 164
136 153 176
133 152 177
138 158 183
142 161 186
154 175 202
171 192 221
183 207 240
187 211 244
184 209 241
179 203 235
177 200 231
167 189 218
155 176 204
145 164 190
132 150 174
130 147 169
129 146 169
136 153 176
122 138 160
103 117 136
85 97 112
59 68 79
49 56 65
66 74 86
79 90 105
92 104 119
103 116 133
110 126 145
136 153 177
148 167 192
145 165 191
138 157 182
140 159 183
150 170 196
149 170 197
154 174 201
149 168 193
138 156 180
150 171 197
149 169 195
144 164 190
138 156 181
132 150 174
154 175 201
145 164 190
117 133 154
125 141 163
116 133 155
125 142 163
110 124 142
71 81 93
72 82 95
95 108 125
105 119 138
124 140 162
137 154 177
143 162 187
144 162 186
148 169 195
151 171 197
148 169 196
151 170 196
141 160 186
146 165 190
154 175 202
163 185 213
171 193 222
176 201 233
183 208 241
170 194 224
143 163 188
127 144 166
122 137 158
108 122 141
110 124 144
101 114 131
95 107 124
79 89 103
90 102 118
111 126 146
109 123 142
120 136 157
133 151 175
125 142 163
127 145 168
127 143 165
147 167 192
155 176 204
152 172 198
148 168 194
132 151 175
120 136 157
113 129 149
111 127 147
109 124 143
116 132 153
131 150 174
150 171 198
149 169 195
158 178 205
146 165 190
147 166 192
149 168 194
145 164 189
131 149 172
124 141 162
121 137 158
123 140 162
115 130 150
125 141 163
110 125 144
86 98 114
56 64 74
61 70 81
90 103 118
113 127 147
138 156 179
149 170 197
154 174 201
160 181 210
163 185 213
161 183 211
155 176 204
148 168 193
131 149 171
137 155 179
135 153 176
144 164 190
159 179 205
155 172 195
138 153 172
108 120 136
104 116 131
145 161 181
149 165 187
143 159 180
129 144 164
141 156 177
129 144 163
132 147 167
160 178 202
154 171 195
131 145 165
121 134 153
132 146 165
138 152 172
135 149 169
124 137 156
121 135 154
148 163 184
147 163 184
160 176 199
166 185 210
156 173 196
146 163 185
152 169 191
152 169 191
174 193 219
155 173 196
143 159 180
151 168 191
152 170 193
145 162 184
137 151 170
135 150 171
135 150 170
139 155 175
155 173 196
151 169 193
151 167 190
139 155 176
110 122 139
86 95 107
64 71 80
42 47 53
24 27 31
12 13 15
7 8 9
14 15 17
18 20 23
18 20 23
14 15 17
16 18 20
8 9 10
7 8 9
17 19 22
43 49 55
68 75 86
74 83 94
76 84 96
92 102 115
93 103 116
71 79 90
66 74 84
60 67 76
49 54 61
57 64 72
75 84 95
82 91 103
85 95 108
84 92 104
84 93 105
83 92 104
91 102 115
104 116 131
121 135 154
140 156 177
143 159 181
148 166 189
160 178 201
152 168 189
134 149 169
138 153 174
129 144 163
127 141 161
142 156 176
150 166 188
152 169 191
148 165 187
156 173 197
160 177 200
170 189 214
170 190 215
153 170 192
170 189 214
166 186 212
167 186 213
158 175 199
162 179 202
150 166 188
146 162 184
153 170 193
152 170 193
157 174 196
152 169 192
154 171 193
169 186 210
173 191 215
164 183 207
172 190 215
158 175 197
166 184 207
163 180 203
160 177 201
167 185 207
156 173 195
166 183 207
158 175 198
169 187 212
161 178 202
154 171 194
138 154 174
121 136 156
95 105 119
51 56 64
31 35 39
36 40 45
43 48 54
55 61 69
57 64 73
36 40 45
25 28 32
21 24 27
19 22 25
11 13 14
8 9 10
18 20 23
34 38 43
36 40 45
38 42 48
28 31 35
26 29 32
37 41 46
51 57 65
65 72 82
47 52 59
34 38 44
34 38 42
22 25 28
11 12 14
24 27 31
38 42 48
41 46 52
57 63 71
84 93 105
129 143 162
150 167 190
129 142 161
106 118 133
75 83 94
63 70 79
84 93 106
114 126 143
135 150 170
140 156 177
145 161 181
152 169 193
153 171 194
168 186 210
142 158 179
141 157 178
140 155 176
141 155 175
153 173 199
154 176 203
169 192 222
161 183 211
158 180 209
156 177 205
147 167 193
155 176 204
165 187 216
170 193 222
162 183 212
149 170 196
150 171 197
139 158 182
137 156 181
129 147 171
113 127 146
91 103 120
88 101 117
91 104 120
96 109 126
109 124 143
116 131 151
127 144 166
126 143 165
118 134 156
116 132 153
119 135 156
132 149 173
152 173 200
167 188 217
176 199 230
181 206 237
183 208 240
188 214 248
185 210 243
179 203 235
169 192 222
164 186 215
162 183 210
151 173 200
153 173 199
155 175 203
149 169 194
138 157 182
147 166 192
155 175 202
144 163 189
150 169 194
144 164 190
148 169 196
138 156 181
128 145 168
107 120 139
107 122 142
125 142 165
153 174 201
163 185 214
173 196 227
179 203 235
174 197 227
171 193 222
168 190 220
163 186 215
164 185 213
167 190 220
155 176 203
161 183 211
166 189 219
164 186 216
132 150 174
98 110 127
81 92 107
67 77 90
61 70 81
58 65 75
78 88 101
86 97 112
99 112 130
96 110 127
90 102 118
101 115 133
109 123 143
126 143 165
117 133 154
100 113 130
86 97 112
116 131 151
123 139 160
139 158 184
162 184 212
177 200 230
186 211 243
185 211 244
187 211 242
176 199 229
167 190 220
156 177 205
149 168 194
110 124 144
78 88 102
79 90 103
89 100 116
86 99 114
96 109 125
96 108 125
100 113 131
121 137 158
135 154 178
136 155 179
152 172 199
160 181 209
142 160 185
84 94 108
97 110 128
105 119 138
109 124 144
106 121 141
115 131 152
127 145 168
130 148 171
115 131 152
98 112 129
102 116 134
116 131 150
140 159 183
155 176 205
157 179 207
159 180 207
157 178 206
149 169 195
148 168 194
143 162 188
152 172 198
147 167 193
153 175 203
144 163 187
133 151 174
100 114 131
70 79 91
60 68 79
87 100 116
111 125 145
120 136 157
121 137 158
111 127 147
135 153 176
130 147 170
128 144 166
118 133 154
127 145 167
132 150 174
138 157 182
130 147 170
130 148 170
148 168 194
168 191 220
163 186 215
160 181 208
154 174 201
149 169 195
156 177 205
142 161 186
129 146 169
111 125 144
97 110 128
92 105 121
118 134 154
143 162 187
159 180 208
171 194 225
178 202 233
176 200 231
175 199 231
171 194 225
176 200 232
181 205 237
168 190 220
130 148 172
86 98 113
73 83 96
107 121 140
133 151 175
146 166 192
158 179 207
165 187 215
173 196 227
165 187 216
176 199 230
179 202 233
182 207 239
183 207 239
185 209 241
183 207 238
177 200 231
171 194 225
176 198 228
167 190 219
152 173 200
124 141 164
120 136 158
132 151 174
136 155 179
122 138 159
122 138 159
126 143 165
113 129 149
82 93 107
63 71 82
62 71 82
76 86 99
94 107 124
127 143 165
143 162 187
166 187 215
167 190 219
177 201 232
184 210 243
184 210 243
188 212 243
182 206 238
177 201 233
177 200 231
165 188 217
167 188 216
165 187 215
165 184 210
145 161 182
127 142 161
105 117 132
143 158 179
141 158 180
150 167 190
136 151 171
139 154 174
138 153 173
133 149 169
147 163 185
161 178 200
132 146 165
127 141 159
139 153 173
127 141 160
131 145 164
136 151 172
130 144 163
133 147 166
138 153 173
149 166 189
158 175 199
157 174 197
152 169 191
150 167 189
166 185 210
166 184 208
157 174 197
151 166 187
139 154 175
137 152 171
138 153 173
142 158 179
130 143 162
124 137 155
135 150 169
146 161 182
148 164 186
145 162 184
139 154 174
123 137 154
88 98 111
66 74 84
46 51 58
30 34 38
10 12 13
14 16 18
26 29 33
27 31 35
28 31 35
32 36 40
34 38 43
23 25 29
6 7 8
2 3 3
25 28 32
55 61 69
65 72 82
61 68 78
77 86 97
98 108 122
78 87 98
71 78 89
66 73 83
51 57 64
58 64 73
58 64 73
71 80 91
78 86 98
80 89 100
73 81 92
79 88 100
91 102 116
101 112 128
111 123 139
128 144 164
141 157 178
158 175 198
147 163 184
126 140 159
124 138 157
124 138 156
123 137 156
136 150 169
139 155 176
158 174 195
154 171 194
162 180 204
149 165 187
162 179 203
162 180 203
164 182 206
157 175 198
169 189 216
162 179 202
173 192 217
157 175 200
151 169 192
154 171 194
155 173 196
155 172 195
161 179 204
165 182 206
153 170 193
165 183 206
160 178 203
170 189 213
166 184 209
161 178 202
165 182 205
144 160 181
150 166 188
156 173 197
159 176 200
164 181 204
157 175 198
168 187 213
165 182 206
159 177 200
152 169 191
138 153 172
110 122 139
85 95 108
47 53 60
35 38 43
42 46 53
45 49 55
46 51 58
38 43 48
33 36 41
32 35 40
25 27 31
10 12 14
18 20 23
9 10 11
22 24 27
42 47 53
52 57 65
58 65 74
50 56 63
35 39 44
48 53 60
66 74 83
75 83 93
61 68 78
52 57 64
38 42 47
17 19 21
14 15 17
21 23 26
23 26 30
26 29 33
45 49 55
63 71 81
111 122 138
138 153 173
143 159 180
108 119 135
84 94 107
90 100 113
125 138 155
137 152 172
152 169 192
143 158 179
156 173 196
146 163 186
156 174 197
157 174 197
140 154 173
136 150 170
144 159 178
124 137 155
83 94 109
97 111 128
102 115 133
98 112 129
91 105 122
96 108 125
111 128 149
133 151 174
145 165 191
158 180 208
162 184 213
164 187 217
160 182 211
162 183 210
157 177 203
146 166 192
157 179 207
149 169 196
148 169 195
124 141 163
129 147 170
133 150 174
117 133 154
96 108 125
86 98 113
80 91 105
103 116 134
113 128 148
130 147 170
137 156 181
140 157 179
148 168 195
151 172 199
151 172 198
160 182 210
143 163 188
149 170 196
155 176 203
153 173 199
155 176 203
148 168 195
139 157 182
131 148 171
157 179 206
165 187 215
182 207 239
191 215 248
179 204 237
171 194 224
158 180 208
146 165 190
131 148 171
126 143 166
104 118 137
89 102 118
75 85 99
74 84 97
68 77 89
66 75 86
95 107 124
98 112 130
102 117 135
111 126 146
102 117 136
116 131 152
120 135 155
122 139 161
108 123 142
94 106 123
116 131 151
135 154 179
164 186 215
180 204 235
172 195 225
154 175 201
152 173 201
143 162 187
148 168 194
139 157 182
145 165 191
157 178 205
155 176 203
155 176 205
146 165 190
132 150 173
98 111 129
75 86 100
76 86 99
106 120 138
119 134 155
126 142 164
125 142 163
124 140 160
113 128 148
128 145 167
138 156 179
159 180 208
178 203 236
183 208 240
185 210 242
184 208 239
169 192 222
156 177 204
141 161 187
152 173 200
141 159 184
148 168 193
146 167 194
136 155 179
143 162 188
150 169 195
132 149 173
118 133 154
73 84 97
69 79 91
74 84 96
72 82 95
79 90 105
82 93 107
110 124 142
112 127 146
124 141 164
145 165 192
152 173 200
154 174 201
160 181 209
162 183 212
171 195 225
183 207 239
185 211 245
184 208 241
177 201 232
163 185 214
150 170 197
124 142 164
104 117 135
98 111 128
95 108 125
83 94 108
88 100 116
81 91 105
83 94 108
85 96 110
104 119 138
128 145 168
134 153 178
136 155 180
142 162 187
146 166 191
147 167 192
144 163 188
149 169 196
150 170 197
148 170 198
151 172 199
154 174 201
151 171 198
148 169 195
146 165 190
137 156 180
143 163 188
145 165 192
165 187 216
172 195 225
170 193 223
158 179 206
147 166 192
134 151 175
139 158 182
122 138 159
107 121 140
102 116 134
102 115 133
89 101 116
69 78 89
73 83 95
76 86 99
72 81 94
81 92 106
99 112 129
115 130 149
140 158 181
113 129 149
113 128 147
102 117 136
116 131 152
122 138 159
114 128 148
122 138 160
131 149 172
138 156 181
131 148 171
150 170 197
165 187 217
175 199 230
174 197 226
176 200 231
177 202 234
173 198 230
169 193 223
156 177 205
144 163 188
123 140 162
116 133 154
96 109 127
87 99 114
68 77 89
48 54 62
38 43 50
59 66 76
56 64 74
82 94 109
93 105 121
109 124 143
111 126 145
125 142 164
137 156 180
145 164 189
135 155 180
147 167 193
157 177 203
153 174 201
142 161 186
155 176 203
157 179 207
161 183 211
163 185 213
158 175 197
142 157 177
116 129 147
137 152 172
150 166 187
162 179 202
145 161 183
154 171 193
146 163 185
140 157 178
154 171 193
159 177 201
128 143 162
145 161 183
145 161 183
138 153 173
122 134 152
126 139 157
134 149 169
126 140 160
137 153 173
141 156 176
156 173 196
158 176 199
149 165 187
165 183 207
161 177 199
160 177 200
154 171 193
143 159 180
144 160 182
134 149 169
130 145 164
122 136 154
124 138 156
116 129 146
128 141 159
137 153 173
140 155 176
145 161 182
141 157 178
125 139 159
106 118 134
72 80 90
45 50 57
30 33 38
15 17 19
10 11 13
33 37 42
39 43 49
42 47 53
38 43 48
42 46 52
40 45 51
27 30 35
18 20 23
26 28 32
41 45 52
54 60 68
64 71 80
76 85 97
98 110 124
81 91 103
64 71 81
59 66 75
49 55 62
38 42 47
47 52 59
63 70 79
63 70 79
67 74 84
56 62 71
58 64 73
88 98 111
103 115 130
113 125 142
129 145 166
136 152 173
149 166 188
142 157 178
126 140 159
112 124 140
101 112 126
107 119 135
118 131 149
134 148 167
146 162 183
154 171 193
149 165 186
160 177 200
166 185 209
175 193 217
162 180 204
152 169 191
163 181 204
163 181 205
159 178 202
159 177 202
162 180 204
152 169 191
152 169 193
155 173 197
162 180 204
165 182 205
169 187 213
158 175 198
163 182 206
169 187 212
157 174 197
153 169 191
134 149 168
146 162 184
148 164 186
155 171 192
149 166 190
150 167 189
154 172 196
154 172 196
170 189 214
162 180 205
140 155 175
130 144 163
112 124 140
82 91 103
50 56 63
31 34 39
34 38 43
32 36 41
34 38 43
27 30 35
29 32 36
28 32 36
20 22 25
7 8 9
16 18 20
13 15 17
25 28 31
43 48 55
63 70 80
72 80 91
62 69 78
54 60 68
65 72 82
86 96 108
80 90 102
76 84 95
60 66 76
33 37 42
7 8 9
8 9 10
13 14 16
11 13 15
18 19 22
34 38 43
60 66 75
90 100 114
132 147 166
145 161 182
122 135 153
111 123 140
122 136 154
139 155 175
153 169 192
142 159 181
165 182 205
162 180 205
159 175 198
162 179 202
136 151 171
139 154 175
136 150 169
139 155 177
131 148 170
73 83 97
59 67 78
49 55 64
50 57 66
78 88 102
100 113 131
107 121 140
105 118 137
121 136 156
115 131 152
113 128 148
96 109 126
92 104 120
75 84 97
74 84 97
92 104 120
106 121 140
124 140 161
149 169 196
166 188 216
163 185 215
174 197 227
176 201 234
172 195 226
157 178 206
147 167 193
135 153 177
118 135 157
113 128 147
114 130 150
100 112 129
88 99 114
65 74 86
51 57 65
48 55 64
61 69 80
83 93 107
94 106 121
96 108 124
92 105 121
83 95 110
63 71 82
92 104 120
96 109 126
136 155 180
158 180 209
166 189 218
169 191 221
164 186 215
164 186 215
175 198 229
179 202 233
182 207 240
185 210 243
188 213 247
190 215 248
186 210 242
187 211 244
174 197 227
148 168 194
139 158 183
130 147 169
136 155 178
143 163 188
139 158 184
118 135 156
107 121 140
75 85 98
54 62 71
83 94 108
122 138 160
131 148 171
152 173 199
162 184 213
166 188 218
167 190 220
166 188 217
152 173 201
158 180 208
166 189 219
172 195 226
176 199 230
169 193 223
156 177 206
149 169 195
143 162 187
139 159 184
129 146 169
130 147 171
123 140 161
140 158 182
143 162 188
145 166 192
140 159 184
139 158 183
142 162 187
119 135 156
83 94 109
63 72 83
99 113 131
119 136 157
118 135 157
112 127 147
119 134 155
141 160 185
148 168 194
143 162 187
149 170 196
159 179 206
152 171 197
152 172 199
142 160 184
129 146 169
83 93 107
100 113 131
105 119 137
122 139 160
128 144 166
139 157 181
132 150 173
123 139 160
122 139 160
130 148 170
155 176 202
160 182 211
178 201 232
184 209 242
185 211 244
179 204 236
169 192 222
175 198 227
175 199 231
175 198 229
171 195 226
181 204 235
179 203 236
182 207 241
176 201 232
159 180 209
138 157 182
97 110 128
92 104 121
82 93 107
95 108 125
112 127 147
110 125 145
98 111 128
93 106 122
98 111 127
116 132 153
116 132 152
114 130 150
128 146 168
140 159 183
145 165 190
141 160 185
147 167 193
158 179 205
172 195 225
183 207 239
184 209 240
180 204 235
178 201 232
177 201 233
179 202 232
172 195 225
168 191 221
173 197 228
164 186 214
153 174 201
145 165 191
120 136 156
93 105 122
58 65 76
34 39 45
49 56 65
45 51 59
48 54 63
57 65 76
74 83 96
89 101 116
87 99 114
78 89 103
84 96 111
103 117 136
124 140 161
145 165 191
169 192 223
181 205 236
188 213 246
191 217 251
192 217 251
190 215 248
186 210 241
181 205 237
179 202 233
178 203 235
174 198 229
163 184 213
157 178 206
147 167 193
126 143 165
113 128 147
99 113 131
102 116 134
116 132 153
130 149 172
130 147 169
129 146 169
128 145 168
131 149 173
140 159 184
145 165 190
142 161 187
147 166 191
143 163 189
136 154 177
143 162 187
142 162 187
147 167 193
142 161 187
148 168 194
163 185 214
186 212 245
186 210 243
175 198 229
177 200 230
159 178 204
140 154 174
134 148 168
133 147 165
149 165 187
147 162 183
149 166 189
153 170 193
165 183 206
156 173 195
153 169 191
160 177 200
131 146 166
145 161 182
152 168 190
146 162 183
126 141 161
130 144 164
150 166 187
140 155 175
138 152 171
140 155 176
132 147 167
135 151 173
143 159 180
156 173 196
160 179 203
163 180 203
152 168 190
136 151 171
128 142 161
126 140 158
125 139 157
132 145 164
115 128 145
115 128 146
115 128 145
125 139 156
125 139 157
129 143 162
119 133 151
123 137 156
100 112 128
74 82 93
47 52 59
25 28 31
21 23 26
9 10 12
21 23 26
28 32 36
32 36 41
29 32 36
35 39 44
50 55 63
49 55 63
42 47 53
31 35 39
34 38 43
52 58 66
67 74 84
82 92 105
99 110 124
87 96 109
65 72 82
57 62 70
47 52 59
53 59 68
56 62 71
62 69 78
66 73 83
77 85 96
71 79 90
77 86 98
89 99 112
117 129 146
128 142 161
133 148 168
147 163 184
156 173 197
138 153 174
117 130 147
109 122 139
99 110 124
97 108 123
114 126 142
124 137 156
133 148 167
136 151 171
151 168 192
161 177 200
161 178 201
160 178 202
165 183 208
164 182 206
159 175 198
164 181 205
161 179 203
167 186 211
158 174 197
162 180 205
165 184 208
161 178 201
164 183 207
162 179 202
168 187 211
162 179 203
159 178 202
147 164 186
145 161 182
140 156 178
131 146 165
133 148 168
146 163 186
154 171 192
156 173 195
144 159 180
152 168 190
159 176 199
163 181 206
155 171 194
144 159 180
129 143 162
116 128 144
87 98 112
64 71 80
38 42 48
23 26 29
24 26 30
29 32 36
23 25 29
14 15 18
15 17 19
22 24 28
24 26 30
18 20 23
24 26 30
45 50 56
68 76 85
85 94 106
86 96 108
73 81 91
76 84 95
80 89 101
87 97 110
92 102 115
67 74 83
43 48 54
14 15 17
8 9 11
5 5 6
8 9 10
3 3 4
19 21 23
40 45 51
54 60 68
91 101 116
124 138 157
150 165 187
127 141 159
115 128 146
134 149 169
156 174 197
157 173 195
158 175 198
161 178 201
155 172 195
148 165 186
152 170 193
148 164 186
147 163 185
137 152 172
170 190 217
187 212 244
188 213 246
183 208 241
177 200 232
165 187 216
148 169 195
128 145 167
93 106 124
90 102 117
75 85 97
77 88 101
77 88 102
52 59 68
43 49 57
40 45 52
39 44 51
52 59 69
60 68 79
69 79 92
80 91 105
99 112 129
130 148 172
165 186 215
174 197 227
170 192 222
175 198 228
163 185 214
163 184 211
162 185 214
164 186 214
173 197 229
182 206 237
183 208 241
185 210 243
181 205 236
178 203 235
172 196 226
154 175 203
145 165 191
138 155 177
139 158 182
152 172 197
152 172 199
153 174 201
151 172 199
148 168 194
162 183 210
145 165 191
145 165 192
131 148 170
114 130 151
94 106 123
109 122 140
112 127 148
122 138 159
150 171 198
173 196 226
187 212 244
193 218 250
189 214 248
186 211 244
175 199 230
174 196 226
160 182 210
154 174 200
152 172 198
161 184 214
166 189 220
172 196 227
177 200 231
179 205 238
178 202 234
164 187 217
140 158 182
126 144 167
91 103 119
57 65 76
55 63 73
77 87 100
102 116 135
106 120 139
91 103 119
99 112 129
116 132 153
128 145 167
128 146 169
129 146 168
129 146 169
137 156 181
152 173 200
157 178 205
164 186 215
175 199 229
183 206 238
174 197 227
178 201 232
180 205 238
179 204 235
180 204 235
173 195 225
171 194 224
165 188 216
144 163 188
120 136 158
111 125 144
129 146 169
121 136 156
107 121 140
95 109 127
72 81 94
65 73 84
80 91 104
94 107 124
92 104 120
83 95 110
102 116 134
119 135 156
135 152 175
121 136 157
130 149 172
123 141 163
129 147 171
138 155 179
134 151 174
140 159 183
143 163 188
156 178 206
161 182 211
154 175 202
161 182 210
163 185 214
165 187 216
178 202 234
186 211 243
188 212 245
181 207 240
167 189 218
137 155 179
116 131 152
99 113 131
87 99 114
65 74 86
40 45 52
52 59 69
57 64 74
59 68 78
67 76 88
90 102 118
105 119 137
123 139 160
119 135 157
119 134 155
132 150 174
144 163 189
166 188 217
177 201 232
179 204 236
187 213 247
190 215 249
183 208 241
178 201 231
178 202 234
177 200 230
174 199 231
171 194 225
169 192 223
170 194 225
171 193 222
155 177 205
121 137 159
98 111 129
97 109 125
84 95 110
73 83 96
56 63 73
62 70 81
51 57 66
52 59 69
81 92 106
87 98 114
83 95 110
71 80 92
71 80 92
67 76 88
77 87 101
82 94 108
103 117 135
92 105 122
114 129 149
107 121 140
139 158 182
159 180 208
174 198 229
183 208 241
183 208 240
183 207 239
179 203 234
181 206 238
183 207 238
171 195 226
173 197 228
185 209 240
175 198 228
162 183 211
142 161 185
126 144 166
121 137 157
87 100 116
83 94 109
63 71 83
72 82 95
65 74 86
75 85 98
78 89 103
62 71 83
63 71 83
77 87 101
86 97 113
103 117 135
119 134 155
119 135 156
120 136 158
140 159 185
147 167 192
160 183 213
177 201 232
182 207 240
187 211 244
183 207 239
156 174 198
148 164 186
127 140 158
139 154 175
150 167 191
157 173 195
162 180 203
149 166 189
159 176 199
150 167 190
159 177 200
124 138 157
141 157 179
152 169 191
153 170 193
146 163 186
143 158 179
143 158 179
141 157 178
130 145 164
128 141 159
129 143 162
136 151 171
139 155 175
151 167 190
153 171 194
155 174 198
145 160 181
122 136 154
124 137 155
116 129 146
111 123 139
106 118 134
103 115 132
109 120 136
107 118 133
99 110 125
104 116 131
113 125 142
113 126 143
108 120 136
106 118 133
82 91 102
46 51 58
21 23 26
11 13 15
7 8 9
5 6 7
15 17 20
28 31 35
32 35 40
41 45 52
47 52 60
58 65 74
60 66 75
43 49 56
26 29 32
31 34 39
44 49 55
70 78 88
98 108 122
100 111 126
82 91 103
69 76 86
54 60 69
61 68 77
69 77 87
73 81 92
80 89 100
94 105 118
96 107 122
100 111 125
109 121 137
120 134 152
139 155 176
148 163 184
141 156 178
138 154 174
128 142 162
123 136 155
115 128 146
96 106 120
87 97 109
101 112 126
110 122 139
136 151 170
153 170 192
152 170 193
161 178 201
149 165 187
156 172 195
154 170 193
162 180 204
160 179 204
160 178 201
163 181 206
159 177 201
165 183 208
163 180 203
161 179 203
166 184 209
158 176 200
169 187 212
158 175 198
148 165 187
151 168 191
150 167 189
137 152 173
122 135 153
109 121 138
124 138 156
134 148 167
141 156 177
135 150 170
135 150 170
151 167 190
143 159 180
163 182 207
161 179 204
154 171 193
127 141 160
115 128 146
99 111 126
81 90 102
52 58 65
22 25 28
10 12 13
13 15 17
7 7 8
10 11 13
22 24 28
32 35 40
35 38 43
43 48 54
59 65 74
69 77 88
87 97 109
95 105 119
98 108 122
84 93 106
92 103 116
101 112 127
91 101 114
81 90 101
45 50 57
10 11 12
4 5 6
6 7 8
9 10 12
10 11 12
5 5 6
17 19 22
32 36 40
46 51 58
93 103 116
123 137 155
148 164 186
156 172 194
151 167 188
155 171 194
164 182 206
154 170 192
168 185 209
156 173 197
154 171 194
154 171 193
163 182 207
142 159 181
146 162 184
140 156 176
152 173 201
176 201 233
178 203 236
179 203 235
171 193 222
157 180 209
153 174 201
152 172 198
151 172 199
159 181 209
149 169 196
146 165 191
129 148 171
123 139 160
114 129 149
121 137 158
137 155 179
157 179 208
154 175 203
151 172 198
144 163 188
153 173 200
138 157 182
143 162 187
142 160 184
138 156 179
147 167 192
143 162 187
134 152 176
138 157 181
151 172 199
150 170 197
164 186 215
158 179 207
159 181 210
162 183 211
146 164 189
137 157 182
120 135 155
132 150 173
149 169 196
170 193 224
181 206 238
179 202 232
182 205 237
177 201 232
170 193 223
166 188 216
160 181 209
161 182 210
151 171 198
120 136 158
106 120 139
81 92 107
94 107 124
91 103 119
96 109 126
97 111 128
95 108 125
96 108 125
87 98 113
85 97 112
97 111 128
107 121 140
102 116 135
96 109 126
105 119 137
128 145 168
146 166 192
163 185 214
175 198 229
179 202 233
179 203 234
187 212 245
178 203 235
178 202 233
177 201 233
172 195 226
164 187 217
159 181 210
140 158 181
127 145 168
114 129 149
92 104 119
72 82 95
66 75 87
72 81 93
72 82 95
81 92 107
93 106 122
95 108 125
111 126 146
130 147 168
139 159 184
138 157 181
130 148 171
147 165 190
156 177 204
140 160 185
138 156 180
118 133 152
121 137 159
125 141 163
131 148 170
152 173 199
173 196 226
168 191 221
158 180 208
147 167 192
133 150 173
127 143 164
125 142 164
116 132 152
103 117 136
95 108 124
122 138 160
134 151 175
124 141 163
105 120 139
105 120 140
120 136 157
125 142 165
123 140 162
125 141 162
111 126 145
115 130 150
114 130 151
135 153 176
156 176 203
175 198 228
182 207 240
186 210 241
172 196 227
156 177 204
133 150 173
120 137 159
90 102 117
79 89 103
86 97 112
74 84 97
70 80 93
64 73 85
56 64 73
39 45 52
44 50 57
60 68 79
72 81 94
95 108 126
96 109 126
85 96 111
75 85 98
74 85 98
61 70 82
68 78 90
71 80 93
89 102 118
102 116 134
119 136 157
126 143 166
144 164 190
163 185 213
172 195 225
180 204 235
186 211 244
187 211 244
180 204 236
162 184 212
147 167 193
127 144 167
104 118 136
103 118 137
110 125 144
110 125 144
119 134 155
106 121 140
109 123 142
107 120 138
109 124 143
106 121 140
115 131 151
113 128 149
92 104 119
64 72 83
61 68 78
75 86 99
101 114 131
123 139 160
136 154 177
134 152 175
138 156 181
143 162 187
137 155 179
140 158 182
133 151 174
135 154 179
143 162 187
150 170 197
148 168 194
165 188 217
177 202 234
184 209 242
179 203 234
179 203 235
168 190 219
148 168 193
122 138 159
107 121 140
99 112 129
83 95 110
74 84 98
69 79 92
74 84 97
72 81 93
71 80 93
59 67 78
66 75 86
92 104 120
84 95 110
103 117 136
117 133 153
121 137 158
124 141 162
115 129 148
113 129 150
123 140 162
114 129 150
115 130 149
127 145 169
163 184 213
180 204 236
168 189 218
138 154 175
146 162 183
134 149 168
146 162 184
145 160 180
158 174 196
153 170 194
161 178 201
159 177 201
163 180 203
141 156 177
138 153 173
162 178 200
160 178 201
150 167 190
163 182 206
153 169 191
147 163 184
143 160 182
129 142 161
126 140 158
125 139 158
138 152 171
142 158 180
155 173 195
162 180 204
151 167 189
136 151 171
116 128 145
99 111 126
98 109 124
91 102 116
93 103 116
100 111 126
97 108 122
80 88 100
81 90 103
97 109 123
107 118 133
104 116 131
109 121 137
98 109 123
73 81 91
45 50 56
22 24 27
17 19 21
19 21 23
7 8 10
14 16 18
32 35 40
40 44 50
35 39 45
55 61 70
63 70 80
47 52 59
23 26 30
7 8 9
23 25 29
59 66 75
93 102 116
103 114 128
106 118 133
87 97 110
81 90 102
77 85 95
78 87 99
87 97 111
94 104 118
93 104 118
114 127 144
116 128 144
121 135 153
138 153 173
150 167 189
142 158 180
137 152 171
136 151 170
121 134 152
117 130 147
94 105 119
80 89 100
74 82 93
90 101 114
107 119 134
125 139 158
142 158 178
140 155 176
148 165 188
154 171 193
152 168 190
162 180 204
157 173 195
160 178 202
154 171 194
164 182 206
166 184 208
161 178 200
165 183 206
158 176 199
158 175 199
157 175 199
154 172 197
158 176 199
157 173 195
151 168 191
139 154 174
117 130 148
95 106 121
102 113 129
116 129 146
118 131 148
122 137 157
132 146 165
137 152 172
133 148 167
153 169 191
156 173 197
154 171 193
150 167 190
136 153 174
132 147 167
117 130 147
98 108 122
61 68 77
29 32 36
8 9 11
3 3 4
9 10 12
26 29 32
35 39 44
41 46 52
42 47 53
62 70 79
69 77 87
81 91 103
106 117 133
111 123 139
108 120 137
96 107 121
103 114 129
97 109 124
88 97 110
71 79 89
31 34 38
10 11 12
5 6 7
9 10 11
18 20 23
12 14 16
13 14 16
13 14 16
16 17 20
42 47 53
89 99 112
131 145 165
143 158 179
148 165 187
147 163 184
152 169 191
163 181 205
154 171 194
151 168 191
146 162 183
146 162 183
154 170 192
150 167 189
158 175 198
138 153 172
120 134 154
102 115 133
117 132 153
134 153 177
145 165 191
146 167 193
143 162 188
162 183 212
168 191 220
176 201 232
182 206 238
189 215 248
191 216 249
188 213 246
182 207 239
180 205 237
177 201 231
170 193 223
161 182 211
160 181 210
154 176 204
146 167 193
147 167 193
130 147 170
130 147 170
107 122 141
96 109 126
86 98 114
106 120 138
114 130 151
118 134 154
109 124 143
98 112 130
94 107 124
84 94 108
81 93 108
94 106 122
101 114 132
126 144 166
151 172 199
171 195 227
182 205 236
182 208 241
186 211 244
186 211 243
182 206 237
177 202 235
172 195 226
169 192 222
153 174 201
157 177 204
152 172 197
151 171 197
146 166 191
159 181 209
163 185 214
176 200 231
177 201 232
184 207 238
169 192 222
141 160 185
109 123 142
104 119 137
77 87 100
53 60 70
70 79 91
79 90 103
56 63 73
41 46 54
38 44 50
40 46 53
59 67 78
96 109 125
126 143 166
133 151 175
151 172 199
162 184 213
177 201 231
177 201 233
187 212 244
187 212 244
187 212 244
174 198 230
170 193 223
163 186 216
162 184 214
155 176 204
152 172 198
133 151 174
139 159 184
147 167 193
153 175 203
142 161 187
130 148 172
128 145 167
119 135 156
109 125 145
104 118 137
105 118 137
100 114 131
109 123 142
125 141 164
139 157 181
149 170 196
147 167 192
149 168 194
149 169 195
147 167 193
141 161 186
138 156 179
144 163 187
151 171 198
166 188 217
159 179 206
158 179 207
155 176 204
123 139 160
133 151 174
146 165 191
156 176 204
172 196 227
186 211 244
191 217 250
192 217 249
188 214 247
187 213 246
186 210 243
182 207 239
181 206 238
174 197 229
164 185 213
141 160 184
128 146 169
147 167 193
151 171 196
150 170 196
145 165 191
133 151 175
139 159 184
145 164 189
166 188 217
174 198 229
175 198 229
165 187 216
142 161 187
115 132 154
116 132 153
120 136 157
112 127 147
105 119 137
111 125 143
116 131 151
100 113 132
109 124 143
125 142 164
143 162 188
150 170 197
144 164 189
150 169 193
142 160 184
159 180 207
177 201 233
189 214 247
177 203 235
172 195 226
175 198 227
175 198 228
168 190 219
163 184 212
162 184 212
168 190 220
167 190 219
168 190 220
178 202 232
181 206 237
171 193 223
161 183 211
140 159 184
111 126 146
80 91 105
62 70 82
48 54 62
36 41 48
50 57 66
77 87 100
77 88 102
82 92 106
70 79 91
76 86 100
56 64 74
57 65 75
69 79 91
69 78 91
86 96 111
94 106 122
118 134 155
142 162 187
154 175 201
151 172 199
164 185 213
178 202 232
183 207 240
173 198 229
169 192 223
164 186 216
149 168 194
147 166 192
146 166 191
148 168 195
152 173 200
155 176 204
164 186 215
151 171 197
135 154 178
110 124 142
97 111 129
65 74 85
57 64 74
59 67 77
66 75 87
73 82 94
73 83 95
67 77 89
62 70 81
69 78 91
90 102 118
89 101 118
104 119 137
122 138 159
134 152 175
146 166 192
167 190 220
151 169 191
150 165 187
141 156 176
145 160 181
142 157 177
153 170 192
155 172 195
155 173 196
162 180 203
147 163 184
130 144 163
150 168 191
151 168 189
161 179 203
153 169 191
151 167 190
155 173 196
147 163 185
139 155 176
123 137 155
115 128 145
131 145 164
137 153 173
145 161 182
150 167 191
156 173 196
150 167 190
149 165 187
127 141 159
108 120 137
94 104 118
85 94 106
79 88 100
87 98 111
77 86 97
69 76 86
77 86 97
88 99 112
108 120 136
112 125 141
117 130 146
119 133 152
108 120 136
77 86 97
54 60 67
35 39 44
30 34 38
20 22 26
8 9 11
23 25 29
36 40 45
35 39 44
38 42 47
30 34 38
30 33 38
17 19 21
6 7 8
13 15 16
46 51 58
73 81 92
105 116 130
109 121 137
109 121 136
110 123 139
113 126 142
102 113 129
108 120 137
113 126 142
116 129 146
138 153 173
137 152 172
136 150 169
146 162 184
143 158 179
138 154 176
122 136 155
119 132 149
102 113 129
97 108 122
80 89 101
65 73 83
78 87 98
94 104 118
100 110 124
120 133 150
133 149 169
143 158 178
154 171 193
157 174 197
144 161 183
154 170 192
160 177 201
142 158 181
141 156 178
159 176 200
159 176 199
164 182 206
156 174 198
149 167 190
160 179 203
155 172 196
161 178 201
147 162 182
150 167 189
153 170 193
128 142 162
105 117 134
78 86 97
80 89 101
90 99 112
97 108 123
109 121 136
120 134 151
130 145 164
145 161 182
154 170 191
159 176 200
163 182 207
159 177 202
152 169 192
123 138 157
124 137 155
105 117 132
67 75 85
38 43 49
18 20 22
5 6 7
17 19 22
32 35 40
36 41 46
43 47 54
51 57 65
68 76 86
66 73 83
84 94 106
102 114 130
118 130 147
107 119 136
106 118 133
96 107 121
98 109 123
82 91 102
40 44 50
11 12 14
2 2 2
4 4 5
15 17 19
21 24 27
22 24 28
39 43 48
26 29 33
12 14 16
49 54 61
97 107 121
132 145 163
154 170 192
161 179 202
155 172 193
167 185 210
151 169 192
161 178 202
146 162 183
140 156 176
138 153 174
147 164 186
159 176 197
153 170 192
136 151 171
157 178 205
161 183 211
169 191 219
155 176 203
144 164 189
127 145 168
105 119 137
77 87 100
59 66 77
77 88 101
83 94 108
106 121 140
123 139 161
160 181 208
172 195 226
179 203 234
187 212 244
189 212 244
175 199 229
173 196 226
172 197 229
177 200 231
175 199 231
171 196 227
167 189 219
158 178 206
151 171 198
117 133 154
106 120 138
108 122 141
120 137 159
106 121 140
98 111 128
92 104 121
95 107 124
105 119 137
97 110 128
84 95 110
78 88 102
84 95 109
71 80 93
66 74 85
82 93 107
71 81 94
80 91 105
84 95 109
94 106 122
94 106 122
102 115 133
107 121 140
120 137 159
124 141 163
145 165 191
172 195 225
178 201 233
176 200 230
163 185 214
164 187 216
159 180 208
142 161 187
128 147 171
128 146 169
115 131 151
128 144 166
120 136 157
104 118 137
76 86 99
55 62 72
54 62 71
52 59 68
65 74 85
79 90 104
94 106 123
106 120 138
105 120 139
124 141 164
148 168 194
155 176 204
154 173 199
143 162 187
145 165 190
133 151 175
133 151 175
149 169 195
142 163 189
153 174 201
142 161 187
151 171 198
160 181 208
159 180 209
159 180 207
161 182 210
150 170 196
130 148 170
130 147 169
123 139 160
124 140 162
130 148 171
132 150 173
131 147 169
141 160 185
131 148 171
121 137 159
120 137 158
135 154 178
129 146 169
128 145 167
126 143 165
136 154 177
117 134 155
107 122 141
92 105 122
91 103 119
70 80 92
85 96 111
121 137 158
139 157 181
152 173 200
155 176 203
169 191 220
172 195 226
176 200 232
181 206 239
187 211 244
188 214 248
187 213 246
184 209 243
179 202 233
168 190 220
154 175 202
138 156 181
131 149 172
129 147 170
139 158 182
151 171 199
157 178 206
161 183 211
151 171 198
153 174 202
162 184 212
162 184 213
145 164 188
130 148 171
108 122 140
118 135 156
115 131 152
86 98 114
65 74 86
59 67 77
105 119 139
140 159 184
138 157 183
148 169 196
154 175 202
148 167 193
152 173 199
160 181 209
167 189 218
169 191 221
169 192 222
163 185 214
161 182 210
153 173 200
141 159 183
141 161 186
148 169 195
156 178 207
166 189 218
165 187 215
169 193 223
171 193 223
165 187 216
141 160 184
95 108 125
74 84 97
86 98 114
91 103 119
83 94 108
68 77 88
66 75 88
59 67 77
57 65 75
55 62 72
67 76 87
87 98 113
101 115 133
114 130 150
107 121 140
87 99 115
97 110 128
89 102 118
116 132 152
127 144 166
123 139 161
132 150 174
146 166 191
156 176 203
162 184 213
170 192 221
178 202 232
182 206 237
181 206 237
186 211 244
185 210 243
184 209 242
183 208 241
183 208 240
168 189 218
163 184 212
140 158 182
103 116 134
81 92 107
86 97 112
90 102 118
94 106 123
80 91 105
76 86 99
75 85 98
85 97 112
100 114 132
115 130 151
113 129 148
109 124 143
86 97 111
77 87 100
108 123 142
149 168 194
156 177 204
149 169 195
142 161 186
139 158 182
142 161 186
131 148 171
154 171 194
141 157 179
148 165 187
136 150 169
136 150 169
149 165 187
146 162 184
148 165 188
145 162 184
118 131 148
133 149 169
155 172 195
157 174 197
152 169 191
146 162 184
163 179 202
147 164 188
153 170 192
138 154 176
129 143 162
126 141 161
127 141 160
136 152 172
147 164 185
148 164 186
159 177 201
147 163 185
131 145 164
99 110 125
80 89 101
64 71 80
54 60 68
68 75 85
71 79 90
62 68 77
76 84 96
83 91 103
99 110 125
111 123 140
124 138 157
130 144 164
118 132 150
106 117 133
74 83 94
47 52 59
29 33 37
21 23 26
10 11 13
15 17 20
30 34 38
34 38 43
34 38 43
23 25 29
8 10 11
6 6 7
7 8 9
10 11 13
28 31 35
56 63 72
80 89 100
90 99 112
103 115 131
102 113 127
100 111 126
118 132 150
126 140 159
124 138 157
131 145 165
141 157 178
145 161 182
133 148 168
139 155 176
136 150 170
126 139 158
118 131 150
108 120 135
102 113 127
84 93 105
70 78 88
74 82 93
83 92 104
96 106 120
105 116 131
113 126 143
120 134 152
131 146 166
142 158 178
143 158 179
144 159 180
156 173 196
158 175 199
145 162 184
149 165 186
142 159 180
149 165 188
156 173 197
161 179 203
152 169 191
139 154 175
146 163 184
143 159 181
146 162 183
133 149 170
134 149 169
126 140 158
106 118 134
78 87 98
70 78 88
76 85 97
81 90 102
96 106 119
103 115 130
130 143 161
126 141 160
150 167 190
162 179 203
150 166 187
160 177 199
145 161 183
144 159 179
125 138 156
106 117 133
77 85 97
56 62 71
43 47 54
22 25 28
6 6 7
17 19 21
27 31 35
35 39 45
36 40 45
50 55 62
59 66 76
83 93 106
115 127 143
119 132 149
109 122 138
107 119 134
104 116 132
79 88 100
56 62 70
27 30 34
9 9 11
13 14 16
24 27 30
38 43 48
36 40 45
50 55 62
51 57 65
28 31 35
18 20 22
60 67 76
104 115 130
130 145 165
131 146 167
133 149 170
142 157 177
150 167 189
151 168 190
148 165 187
148 165 188
134 148 168
138 153 173
161 178 201
145 161 183
142 158 179
174 196 224
165 186 213
147 165 190
136 154 177
115 131 151
117 133 154
107 122 141
109 123 141
105 119 138
85 97 112
84 96 111
78 89 104
94 107 123
119 136 158
130 147 170
142 162 187
151 171 197
162 184 213
167 189 217
180 204 235
182 207 239
189 214 248
194 219 252
194 219 253
191 218 252
189 215 249
185 211 245
182 206 238
185 209 241
180 204 236
179 202 233
179 203 236
179 204 236
173 196 227
172 195 225
172 195 225
169 192 222
163 185 214
172 195 225
172 195 226
176 199 230
168 190 218
166 188 217
157 178 207
163 185 215
156 177 205
162 184 213
165 187 215
155 175 202
136 155 179
119 135 156
90 102 117
76 86 99
62 70 81
64 73 84
52 59 68
71 80 93
101 115 133
116 132 154
133 152 177
148 167 191
147 167 193
163 185 213
175 198 228
185 209 242
191 217 251
174 198 228
166 188 216
161 183 211
152 172 198
129 146 168
121 137 158
125 142 164
121 138 159
120 136 158
123 139 160
128 145 168
128 145 167
135 153 177
140 158 182
130 148 170
99 113 131
83 94 108
65 73 85
73 83 96
98 111 129
105 119 138
106 120 138
98 111 129
105 119 137
110 125 144
116 132 152
127 144 165
143 163 188
137 155 180
133 151 175
125 141 162
129 146 168
121 138 160
129 146 169
135 153 176
140 159 184
148 169 195
157 178 205
169 191 220
170 194 224
171 194 223
172 195 226
172 196 226
169 191 219
176 199 229
163 184 212
169 192 222
157 177 204
147 166 192
130 148 170
99 113 130
138 157 181
131 149 173
150 170 196
161 182 210
167 190 219
172 195 225
180 204 236
188 214 249
191 216 248
179 202 233
171 195 225
165 187 216
158 179 206
166 189 218
167 189 217
160 182 210
153 174 201
136 154 178
125 141 163
113 129 149
104 117 135
88 101 117
85 96 111
85 97 111
74 84 97
71 81 93
70 79 91
63 72 82
51 58 67
51 58 67
65 74 86
84 95 109
120 136 157
144 163 187
159 180 207
160 181 208
161 183 211
174 198 228
182 206 238
184 209 241
189 214 246
191 216 250
191 217 252
193 219 252
190 215 249
187 212 244
183 208 240
183 208 241
180 203 235
184 209 241
190 215 247
188 214 248
188 213 246
188 213 245
186 211 244
185 209 242
179 203 235
168 191 221
162 183 212
156 177 205
152 172 199
146 167 193
122 139 161
114 129 150
107 122 142
103 116 133
81 93 107
77 88 102
81 92 107
92 105 122
100 114 133
98 112 129
90 102 117
85 97 112
76 86 100
81 92 106
94 107 123
122 139 160
129 147 170
134 152 176
139 158 183
149 170 197
146 166 192
147 167 194
138 157 182
147 167 192
153 174 201
160 181 209
162 184 212
166 189 218
162 184 212
176 199 229
179 204 236
178 202 234
158 178 206
115 131 151
112 127 147
94 107 124
88 100 115
102 116 134
92 104 120
92 104 120
105 120 139
102 116 135
93 106 123
78 89 103
67 76 88
84 95 111
90 102 118
82 93 107
75 85 98
87 99 115
110 125 145
136 154 179
142 162 187
154 174 201
164 185 213
157 176 200
154 171 193
156 173 195
137 152 173
112 125 141
144 160 181
158 174 196
163 180 203
148 165 188
129 143 163
145 161 183
147 165 188
149 166 187
144 161 183
154 170 191
153 170 193
151 168 190
161 179 203
139 153 173
128 144 164
139 156 177
142 157 177
139 155 176
151 168 190
142 159 181
147 163 185
157 175 198
141 156 177
106 118 134
79 89 101
60 67 76
37 41 47
37 41 46
61 67 76
73 82 93
68 76 86
71 79 89
93 104 117
112 125 142
128 142 161
133 147 167
138 154 175
130 144 163
91 102 117
63 70 78
40 44 50
24 27 30
19 21 23
12 13 15
14 15 17
20 22 25
27 30 34
15 16 19
12 14 16
21 23 26
17 19 22
5 6 6
12 13 15
27 30 33
40 45 51
69 77 86
81 90 102
80 88 100
86 96 108
102 113 128
118 132 150
120 133 150
136 150 169
134 149 169
135 150 169
129 143 162
129 144 164
125 139 159
119 132 149
111 123 140
114 126 143
106 118 133
99 110 124
80 88 99
74 82 92
74 83 94
92 103 117
110 122 138
120 132 149
119 132 150
134 148 166
136 151 171
151 167 189
145 163 186
150 166 187
145 160 181
150 167 190
137 153 174
142 157 177
147 163 184
138 153 173
145 161 181
132 148 169
128 143 162
130 145 164
131 146 165
141 156 177
135 150 169
130 145 164
116 129 146
92 101 114
76 84 95
70 78 88
74 83 94
72 80 90
84 93 104
96 107 122
116 129 146
141 156 176
164 181 204
158 176 200
152 170 194
155 173 196
146 163 185
142 157 178
142 158 178
118 131 148
95 106 121
80 90 102
62 69 78
37 42 47
11 13 15
7 8 9
10 11 13
22 25 28
24 27 30
26 29 33
50 55 63
82 91 104
100 111 125
109 122 138
107 120 136
103 114 129
78 86 98
59 65 74
48 53 60
20 23 26
23 25 28
35 39 45
49 55 63
69 76 86
64 71 81
69 76 86
55 62 70
25 27 31
33 36 42
79 87 99
102 114 129
116 128 145
124 138 156
132 147 167
135 151 172
151 167 189
162 180 204
145 161 183
144 159 179
149 166 187
149 166 188
158 176 200
152 169 193
153 172 196
161 182 210
132 150 173
111 125 144
114 130 151
117 133 153
121 138 160
144 162 186
151 171 197
146 166 192
157 178 206
133 151 174
102 115 133
69 79 91
40 45 52
71 81 94
90 103 119
82 94 108
75 85 98
93 106 123
98 111 129
101 113 131
101 115 132
124 141 163
131 149 173
151 172 198
155 177 204
171 193 223
158 180 208
173 196 226
175 200 232
182 207 239
183 208 241
180 203 234
177 201 233
181 206 238
184 209 241
177 201 233
173 196 227
168 190 220
168 191 221
163 185 214
152 172 199
152 171 197
150 170 197
148 168 194
151 172 199
128 145 168
117 133 153
95 108 124
91 103 119
74 84 97
65 74 85
63 72 83
58 66 77
72 81 94
78 88 101
85 97 112
102 116 135
100 113 131
112 128 148
130 147 170
135 152 176
137 156 181
144 162 187
142 161 185
136 154 177
144 163 189
157 179 206
179 203 234
184 209 242
178 202 234
165 187 217
168 191 222
178 201 232
180 203 234
175 198 229
168 190 220
166 189 219
180 203 234
177 201 232
179 203 234
179 203 234
173 195 225
151 172 199
139 158 183
122 137 158
121 138 160
104 118 137
110 125 145
113 130 151
133 151 175
142 160 185
127 144 167
144 163 189
143 163 188
138 157 181
127 144 167
125 142 164
110 124 143
105 120 138
121 138 160
150 170 196
180 204 235
192 217 250
192 217 251
190 216 249
190 216 249
190 215 247
188 211 243
184 208 240
179 202 233
167 190 219
149 170 197
121 136 156
100 113 130
105 119 138
122 138 158
85 97 113
115 131 151
128 146 169
127 144 166
142 160 184
159 181 210
179 204 236
185 211 245
187 211 243
178 202 234
160 182 210
147 166 192
150 171 197
148 167 193
152 171 197
149 169 196
148 168 195
145 164 189
141 161 187
140 159 184
129 147 171
113 129 149
92 105 121
85 97 112
77 87 101
72 81 93
61 70 81
59 67 77
69 79 91
78 89 102
86 97 112
72 82 95
77 88 102
86 97 111
90 102 118
98 111 128
111 126 146
111 126 145
134 152 175
144 163 188
154 174 201
157 178 206
169 192 222
180 204 235
183 208 241
185 211 244
183 207 239
172 196 226
170 193 223
176 199 230
186 210 241
177 201 233
160 182 210
141 160 186
131 149 173
124 140 162
107 121 139
93 105 122
82 93 107
77 86 99
76 86 99
85 97 112
103 117 135
86 98 114
81 93 108
77 87 101
86 97 111
80 91 105
61 69 80
66 75 86
85 95 110
114 130 151
136 153 176
132 150 174
140 158 182
137 155 179
151 171 198
162 185 215
159 181 209
146 166 191
139 158 183
145 165 191
143 164 190
136 155 179
156 176 204
169 192 222
185 209 241
187 212 245
174 198 229
161 183 211
149 169 196
132 150 173
126 143 166
123 139 161
141 160 184
157 179 208
181 204 235
182 206 237
178 203 234
171 195 226
163 185 214
162 183 211
155 175 201
145 165 190
127 144 167
102 115 133
65 74 86
72 82 94
91 104 121
83 94 109
84 95 110
90 102 118
107 122 142
122 139 160
136 154 177
142 161 187
154 175 203
146 166 191
150 166 188
148 164 186
151 167 188
119 132 149
134 149 170
140 155 176
151 167 189
154 169 191
128 143 161
129 144 163
140 154 174
156 173 196
143 158 178
151 168 190
155 174 198
161 178 202
161 179 204
149 165 186
134 149 170
134 149 170
139 154 175
146 161 181
143 160 181
144 159 179
146 162 184
147 163 184
138 153 174
121 134 152
90 101 114
69 77 87
42 47 53
36 40 45
48 53 60
69 76 87
71 79 89
81 90 102
97 108 123
111 124 141
122 136 154
137 153 173
133 148 169
138 153 173
113 126 143
92 102 116
74 82 92
50 55 62
44 49 55
37 41 46
33 37 42
16 18 20
10 11 13
8 9 10
15 16 19
21 24 27
36 39 44
23 25 28
5 6 7
18 20 23
23 26 29
43 47 54
55 61 70
63 70 80
77 85 97
96 107 121
101 113 128
116 129 147
119 133 151
127 142 162
133 149 169
133 147 166
116 129 147
116 129 148
116 129 146
117 129 146
106 117 133
114 126 143
91 101 114
82 91 102
82 91 103
84 94 107
89 99 112
104 115 131
119 132 150
124 138 157
127 141 159
135 150 169
143 158 179
147 163 185
146 163 185
139 155 176
151 167 189
136 151 171
129 143 162
136 150 169
120 134 154
127 141 161
131 145 164
113 126 143
110 122 138
107 118 133
119 133 150
119 132 150
117 130 148
112 124 140
97 107 121
82 91 103
76 84 96
79 88 100
74 83 95
80 88 100
100 110 124
121 135 154
142 157 178
149 165 187
165 184 209
154 171 193
154 170 191
153 170 192
147 163 185
141 157 178
130 144 162
117 130 147
91 101 114
72 79 90
43 48 55
23 25 29
11 12 14
8 9 10
9 10 11
6 7 8
12 13 15
35 39 44
70 78 88
86 96 108
99 111 126
95 106 122
89 98 111
60 66 74
55 61 69
53 59 67
44 49 55
47 52 59
57 63 71
58 65 74
76 85 96
78 87 99
75 83 94
62 70 79
32 36 41
37 41 46
73 81 92
110 121 136
112 124 140
123 137 156
124 137 154
138 154 175
152 171 195
143 159 182
147 163 185
144 160 181
158 176 199
148 164 185
153 170 192
140 156 179
171 194 223
180 204 235
179 202 233
175 198 229
163 185 214
171 194 224
181 206 238
183 208 240
175 198 228
155 176 203
126 143 164
99 112 129
84 95 110
88 100 116
84 95 109
96 109 126
91 103 119
94 107 124
99 114 132
104 117 135
110 124 143
105 119 136
107 122 140
96 109 125
81 91 105
48 55 64
41 47 55
70 80 93
106 121 140
136 154 179
158 179 207
175 198 228
186 211 243
189 214 246
186 210 242
171 195 226
164 185 213
161 182 209
140 159 184
142 161 186
129 146 168
125 142 164
132 150 174
146 166 192
169 192 221
172 195 226
177 201 231
179 203 234
146 165 190
112 126 145
92 104 121
113 128 148
139 157 181
157 178 206
163 184 212
164 186 215
159 179 206
167 191 222
175 199 231
186 210 243
186 211 243
170 194 224
149 169 194
118 134 155
85 97 112
66 75 87
53 60 70
91 103 119
126 143 165
146 166 192
150 170 197
160 182 210
156 177 205
167 190 219
174 198 230
193 217 250
191 216 249
187 212 244
181 204 235
175 197 226
174 196 226
163 184 213
157 178 207
148 168 194
152 173 200
135 153 177
129 146 168
128 146 169
139 158 182
154 176 204
143 162 188
157 177 204
155 176 204
143 162 187
134 152 175
145 165 191
137 156 180
119 135 156
91 103 118
80 90 104
69 78 90
103 117 135
133 151 175
160 181 209
173 197 227
174 198 229
168 190 219
163 185 213
158 179 207
168 190 219
169 191 220
177 201 232
181 204 235
175 198 228
172 194 223
174 198 228
179 204 237
182 207 239
150 170 196
169 192 222
169 191 221
172 195 225
177 200 230
181 205 237
181 207 241
186 212 245
183 208 240
177 200 229
164 186 215
151 171 198
151 171 198
144 164 189
130 148 171
112 127 146
118 133 154
111 125 144
107 121 141
97 110 128
88 100 115
79 89 103
74 84 98
69 79 91
85 96 111
84 96 111
81 93 107
71 81 93
58 65 75
46 53 61
55 62 72
80 91 106
97 110 127
100 113 130
113 127 147
128 145 168
150 170 197
154 174 201
156 177 204
156 177 205
160 180 207
165 188 218
164 185 213
172 196 226
163 184 213
164 186 215
159 179 206
167 188 217
173 196 227
179 202 233
184 210 243
190 215 248
186 211 243
166 189 219
157 179 207
160 180 207
156 177 205
150 170 197
148 169 196
153 173 200
143 162 187
139 158 182
133 151 174
129 145 167
114 130 151
107 121 140
100 113 131
82 94 108
61 69 81
45 51 58
68 77 89
92 104 120
127 144 166
144 163 187
151 172 199
157 179 207
161 183 212
155 176 204
152 171 197
152 172 198
142 162 188
148 168 194
155 177 205
164 186 215
154 175 202
155 175 202
152 172 198
155 176 204
172 196 228
185 210 242
190 215 247
186 212 245
185 211 245
183 209 242
182 206 237
173 196 226
179 202 233
173 197 229
179 203 234
180 205 238
180 204 236
172 195 227
166 188 217
172 195 226
169 192 222
171 195 225
170 193 222
155 177 205
143 162 188
140 159 184
139 158 183
156 177 205
153 173 200
153 174 201
150 170 196
145 164 189
146 165 189
138 157 182
141 159 183
137 152 172
152 168 190
135 150 171
119 133 151
132 147 167
144 161 183
141 158 179
129 143 162
125 138 157
146 163 185
146 162 182
157 175 198
146 162 185
140 156 177
149 166 188
149 166 189
150 167 189
161 178 201
143 159 180
145 160 180
141 157 177
141 157 179
145 161 182
140 155 175
145 162 183
130 145 165
111 124 141
98 109 123
83 92 104
71 79 90
60 67 76
58 65 73
66 74 84
72 80 90
88 97 111
93 103 117
113 125 141
114 127 144
133 149 169
133 149 171
125 138 156
117 131 149
103 115 131
89 99 113
78 86 98
66 74 84
56 62 71
52 58 66
42 47 53
35 39 44
34 38 43
28 31 35
24 26 30
36 40 46
29 32 37
8 10 11
18 21 23
28 31 36
28 31 36
36 40 45
45 50 57
60 67 76
81 90 101
94 105 120
101 113 129
116 129 146
127 141 159
128 142 160
128 142 161
109 122 139
107 119 134
109 122 138
96 107 121
109 121 138
101 113 129
85 94 107
83 92 104
88 99 113
113 125 141
113 125 142
122 136 155
120 135 154
130 144 163
127 140 158
128 143 163
139 153 173
139 154 175
138 152 172
145 161 182
136 152 173
135 150 170
144 160 181
132 146 165
125 139 158
121 134 152
104 116 132
85 95 108
87 97 110
87 97 111
93 104 119
108 120 135
106 118 133
99 110 124
87 96 109
68 75 86
68 76 86
74 82 93
75 84 95
90 100 114
108 120 136
120 134 152
138 154 174
145 161 181
158 175 197
160 178 201
145 161 182
144 159 180
139 155 178
136 152 172
131 146 166
116 128 146
102 112 127
84 93 106
59 66 75
30 34 38
9 10 12
20 22 25
15 17 19
8 9 11
5 6 7
21 23 27
48 54 61
59 66 76
71 79 89
57 64 72
53 59 67
50 56 63
61 68 77
71 79 89
69 77 87
61 68 77
46 51 58
63 70 79
77 86 97
72 81 93
77 85 96
70 78 89
27 30 33
37 41 46
81 89 100
82 91 103
101 111 126
102 114 129
117 130 148
130 145 164
153 170 192
148 164 185
153 170 193
157 173 196
148 165 187
148 164 186
141 158 180
112 125 143
138 158 184
163 183 211
180 204 236
187 212 245
191 216 248
193 218 251
192 217 251
190 215 249
186 212 246
182 207 240
177 201 232
169 192 223
168 192 223
167 190 220
169 192 222
177 202 234
176 200 230
165 188 217
161 182 210
151 172 199
148 168 193
138 157 182
128 145 168
106 120 139
78 89 104
59 67 77
76 86 100
83 94 109
107 121 140
114 130 151
137 156 180
157 178 206
164 186 214
148 168 194
144 164 189
123 140 163
119 136 157
112 127 147
113 128 147
104 118 137
103 116 135
118 134 155
154 174 201
173 196 227
182 206 239
185 211 244
187 211 244
173 197 227
170 193 223
173 196 226
179 203 235
183 208 241
184 210 243
187 212 246
186 211 244
183 209 243
187 212 246
190 216 249
187 212 245
191 216 249
189 215 249
184 209 241
165 187 216
132 149 173
97 110 127
76 86 99
81 92 106
88 100 115
105 119 138
96 109 126
100 115 133
102 116 134
116 132 153
115 131 152
129 146 169
146 166 192
155 177 204
163 185 213
168 190 218
175 198 228
183 208 241
185 210 243
181 206 238
178 202 234
171 194 225
152 172 198
150 170 196
142 161 187
145 165 192
157 178 205
156 177 204
165 187 215
156 177 206
148 168 194
149 169 195
151 170 195
163 185 214
170 192 221
179 203 235
185 209 242
188 212 244
178 202 234
150 171 198
99 113 131
57 65 75
46 53 61
74 84 97
116 131 150
139 158 183
138 157 181
132 150 173
132 150 173
128 146 168
134 153 178
137 155 180
139 158 182
135 154 177
135 153 178
177 201 232
172 196 226
173 196 226
177 202 233
180 205 237
190 215 247
193 217 250
187 212 245
184 209 241
178 202 233
173 196 227
169 192 222
170 192 221
160 182 210
153 174 202
164 185 212
159 180 208
160 182 210
153 174 202
152 173 200
143 162 188
135 153 177
106 121 139
95 108 125
90 102 118
93 105 121
86 97 113
74 84 97
67 75 87
67 76 87
86 98 114
103 117 135
115 130 150
133 150 173
146 166 191
157 179 207
165 187 215
176 200 231
185 210 242
189 213 246
178 202 233
175 199 231
178 202 234
185 210 243
189 216 250
190 216 250
181 206 239
178 202 234
180 204 237
176 199 230
175 199 231
173 197 228
173 197 227
169 191 220
169 191 221
162 184 213
154 175 202
151 171 198
150 169 194
147 166 191
134 152 176
124 139 159
89 101 118
53 60 70
42 48 55
45 51 58
62 70 81
69 78 91
77 88 102
100 114 131
95 108 124
99 113 131
111 125 143
121 138 159
144 163 189
169 191 220
176 201 232
181 206 238
176 198 227
158 180 208
154 174 201
157 179 208
159 181 210
150 170 196
135 154 178
135 153 177
138 157 182
126 143 165
140 159 184
152 173 200
165 187 215
175 198 228
172 196 226
173 197 227
170 193 223
172 195 225
169 191 220
163 185 214
158 180 209
146 166 193
135 153 176
139 159 184
151 171 198
136 154 179
136 153 176
135 154 178
135 153 177
138 157 181
132 150 173
129 145 167
122 138 160
133 151 174
122 139 161
130 147 171
130 148 171
132 150 173
145 164 190
150 171 199
145 165 190
135 152 175
141 155 173
147 162 183
144 160 181
128 141 159
134 149 170
144 160 182
137 151 171
125 139 157
144 159 180
140 156 179
150 166 189
154 170 193
158 175 198
140 156 177
149 165 187
147 163 185
148 165 187
154 171 193
157 174 197
153 171 194
153 170 192
135 151 173
147 164 187
131 145 164
127 142 161
125 138 155
98 109 124
95 105 120
94 104 118
86 95 107
81 90 102
72 80 91
80 88 99
81 89 101
89 99 112
113 125 142
119 133 151
125 140 159
129 143 161
138 152 172
119 132 149
119 132 149
107 119 136
106 117 132
95 105 119
81 91 103
71 79 89
74 82 93
72 79 89
59 66 75
48 53 60
32 36 40
20 23 25
28 31 35
14 16 18
23 25 28
33 37 43
27 30 34
13 15 17
11 12 14
30 34 38
54 60 68
73 81 92
87 96 109
111 123 139
123 137 156
122 136 156
112 124 141
117 131 148
114 125 141
108 120 137
101 113 128
103 114 129
103 114 129
88 99 112
89 99 113
110 122 138
127 142 161
126 140 159
126 140 158
126 140 159
135 149 167
124 138 157
116 130 147
122 135 153
122 135 153
137 152 172
139 155 176
143 160 182
144 160 180
137 152 172
131 145 163
110 123 141
102 113 128
89 99 111
70 78 88
70 78 88
79 88 99
80 89 100
86 96 110
93 104 118
84 94 107
55 62 70
48 54 61
48 54 61
67 74 84
76 85 97
85 94 106
96 107 122
113 127 145
130 144 163
150 166 189
159 177 201
161 178 202
157 174 196
158 176 201
158 174 197
149 167 190
133 148 167
129 143 162
118 131 148
84 94 107
57 63 71
40 44 51
10 11 13
24 27 31
20 22 25
17 18 21
15 17 19
11 12 14
41 46 52
50 55 62
42 47 53
44 48 54
51 56 63
55 61 69
63 70 80
74 83 95
79 88 100
69 76 85
59 65 74
71 78 88
82 91 103
77 85 97
69 77 87
51 56 64
21 24 27
48 53 60
66 73 82
70 78 88
85 94 107
106 118 134
129 143 161
132 147 167
158 176 199
155 172 194
156 173 196
145 161 183
147 163 184
152 169 192
127 142 161
79 90 105
99 112 129
121 138 159
130 146 167
150 171 197
166 188 217
178 202 233
186 211 243
186 212 246
181 206 238
180 205 237
173 196 227
182 206 238
181 205 236
183 207 240
173 196 226
167 189 218
159 179 205
159 180 207
156 176 203
153 173 200
160 182 211
154 174 201
153 172 198
140 159 184
137 155 179
122 139 161
119 135 155
126 143 165
132 149 172
135 154 178
124 141 163
119 135 156
110 125 144
93 106 123
117 132 152
120 136 157
123 140 162
113 128 148
96 108 125
79 90 105
75 86 99
83 94 110
106 121 141
112 127 146
124 141 163
139 157 181
150 171 197
148 168 195
166 187 216
173 195 224
177 201 232
178 203 237
181 205 238
178 203 234
178 202 233
182 206 237
184 209 241
171 195 226
159 180 208
147 167 193
121 138 161
120 136 158
133 151 174
142 162 188
136 155 179
146 166 192
145 164 188
130 147 169
114 128 148
105 119 137
78 88 102
79 89 103
67 76 87
62 70 81
65 74 85
75 85 99
97 110 127
116 131 151
127 145 168
142 161 187
159 180 209
163 185 214
160 181 210
160 181 208
159 181 211
168 190 220
170 194 225
170 193 223
155 176 204
155 176 203
157 179 207
159 181 209
154 175 202
159 181 209
163 184 212
152 173 200
154 174 202
159 180 208
156 178 206
159 180 207
151 171 198
141 160 186
120 136 157
64 72 83
34 38 44
40 45 52
56 63 73
86 97 112
88 100 116
87 99 114
66 75 87
61 69 79
71 81 94
95 108 125
114 129 148
128 145 167
152 173 199
158 178 204
146 165 190
168 191 220
182 208 241
187 214 248
186 211 243
176 200 231
180 204 236
179 203 234
176 200 231
153 174 202
137 156 181
135 153 177
127 144 166
129 146 168
125 141 163
127 144 167
125 141 164
130 147 169
127 144 166
134 151 174
140 159 184
133 151 174
115 130 150
88 99 115
70 79 92
64 73 84
68 77 88
68 77 89
77 88 102
79 89 103
80 91 104
72 82 94
63 71 83
77 87 100
94 107 124
117 133 153
139 156 180
158 179 206
170 192 221
186 210 242
190 215 248
189 215 249
189 215 249
185 211 244
184 210 243
184 209 242
186 210 241
187 212 245
191 216 250
184 209 241
176 199 228
174 197 227
164 187 218
164 186 215
163 184 212
158 180 207
168 190 219
144 163 187
121 138 159
110 125 145
90 102 117
46 52 60
24 28 32
26 29 34
35 40 46
40 45 52
59 67 78
67 76 87
61 69 80
55 63 72
65 74 86
75 85 98
86 97 111
92 104 121
107 122 141
116 130 150
130 147 169
123 140 163
119 135 157
133 151 175
139 158 182
158 179 206
162 185 214
165 187 216
174 198 228
181 206 238
187 211 243
185 210 242
180 206 238
182 206 239
176 199 229
167 190 220
152 174 202
153 173 199
149 169 195
138 157 181
130 148 172
122 138 160
113 129 150
88 100 117
91 104 120
88 99 114
95 108 124
100 114 131
91 104 121
85 96 111
67 76 88
57 65 75
59 67 78
53 60 70
51 58 67
71 81 94
99 112 130
127 144 167
135 153 176
145 165 190
156 178 206
162 184 213
161 183 211
153 173 200
133 148 168
139 155 177
146 162 183
142 158 179
151 168 191
144 160 182
134 149 169
124 137 154
133 149 169
143 159 181
140 154 174
144 161 183
154 170 192
145 161 183
149 164 184
154 171 194
154 171 193
148 166 190
157 174 197
149 165 187
147 162 183
151 167 190
144 161 182
135 150 170
128 141 160
128 142 160
120 133 150
120 132 150
108 121 138
108 119 135
93 103 117
98 108 123
89 99 112
94 104 118
94 105 119
120 133 150
120 134 154
136 151 170
141 157 179
137 152 171
130 144 162
139 155 176
123 137 156
141 156 177
129 144 163
123 137 156
107 120 137
104 115 130
93 104 118
87 96 109
72 82 93
54 60 68
46 51 58
36 40 45
23 25 29
12 13 15
22 24 27
23 25 29
12 13 15
5 6 7
12 13 15
43 48 55
59 65 74
75 83 94
99 110 125
115 128 145
126 139 157
110 122 139
111 123 139
107 119 135
104 116 131
104 116 132
104 116 132
99 110 124
87 97 110
109 121 137
122 135 153
127 141 159
127 141 159
140 155 175
140 155 176
134 148 168
133 148 169
127 141 159
110 123 140
117 130 146
122 136 154
123 136 154
130 144 162
119 133 150
120 132 150
101 112 128
90 100 114
79 88 100
87 97 110
81 90 102
68 75 85
63 71 80
74 82 92
78 87 99
67 75 85
47 52 59
28 31 35
25 28 31
29 33 37
52 57 65
59 66 75
75 84 95
87 97 110
111 123 140
120 133 150
152 169 191
153 171 194
161 179 203
162 180 203
148 165 187
159 176 200
140 154 174
132 147 167
127 141 160
106 117 132
79 88 101
61 68 77
36 40 45
7 8 10
23 25 29
30 33 38
37 41 47
32 35 40
12 14 15
23 26 29
26 29 32
31 34 38
41 45 51
55 61 70
61 68 77
75 84 96
75 82 93
76 84 95
74 82 93
66 74 84
74 82 93
73 81 91
69 77 87
51 57 64
38 42 47
23 26 29
50 56 63
60 67 77
69 77 87
93 103 117
121 135 154
139 155 176
149 165 186
142 159 181
153 169 190
149 166 188
135 150 170
148 165 188
154 171 194
110 125 143
113 128 148
123 139 161
124 141 164
133 151 174
147 167 192
167 189 218
160 180 208
154 175 203
149 170 197
137 157 182
149 169 195
157 177 204
164 186 215
169 192 221
164 186 215
157 177 204
158 179 207
153 174 201
168 190 219
171 194 224
175 199 230
178 203 235
180 204 236
176 199 230
166 189 218
156 177 204
171 195 227
184 209 242
189 215 250
189 215 249
190 216 250
192 217 251
186 211 244
181 206 238
160 182 211
135 152 176
102 116 134
87 99 114
85 97 112
79 90 104
71 81 93
63 72 83
64 73 85
79 90 104
88 99 114
90 102 117
100 113 131
97 110 126
106 120 138
122 138 159
123 140 163
128 145 167
132 150 174
134 152 176
140 158 182
160 182 210
178 202 233
189 215 249
191 216 250
182 207 239
172 195 225
158 180 209
151 171 198
154 175 202
160 182 210
155 176 203
149 168 194
137 155 180
117 133 152
94 106 123
83 94 109
81 92 107
70 79 91
73 83 96
76 86 99
71 81 94
70 80 92
79 90 104
88 99 115
82 93 107
53 61 70
66 75 87
92 104 121
125 142 164
134 152 176
117 133 153
126 143 165
133 151 175
122 139 162
114 129 149
107 122 141
110 125 145
139 158 183
152 172 199
170 193 224
190 214 247
191 216 250
183 207 240
175 198 228
170 192 221
162 184 212
167 190 220
174 198 228
178 201 232
169 191 221
147 167 193
140 158 182
137 155 179
114 129 149
119 135 155
108 122 140
86 98 114
60 69 80
46 53 61
53 60 70
67 75 87
71 80 93
57 66 76
53 61 70
188 213 245
192 218 251
191 217 250
193 218 251
192 218 251
193 219 252
190 216 250
188 213 247
184 208 240
178 202 234
182 207 241
177 201 233
175 198 229
174 197 228
159 181 208
153 175 203
137 156 179
114 129 148
79 89 103
33 37 43
28 32 37
38 43 50
36 41 48
31 35 41
45 51 59
62 70 81
72 81 94
79 90 104
82 94 108
88 100 116
100 114 133
113 128 148
115 131 151
117 133 153
120 136 157
123 140 162
132 150 173
154 174 201
173 196 227
188 213 246
191 216 250
191 216 249
184 210 243
185 210 242
185 210 243
186 212 245
185 211 245
181 205 237
170 192 220
158 180 208
146 165 190
156 177 204
160 182 211
159 179 207
159 180 209
143 164 190
130 148 171
116 132 153
105 119 137
103 117 135
83 95 110
69 78 90
48 55 64
27 30 35
25 29 33
54 61 70
68 77 90
78 88 101
84 95 109
98 111 128
114 130 150
118 134 155
115 131 152
112 128 148
117 133 154
116 131 152
123 139 160
111 127 148
130 148 170
125 142 164
143 164 190
166 188 218
181 205 237
188 214 247
190 216 250
188 213 246
179 203 233
169 192 222
155 177 206
146 166 192
145 165 192
141 160 186
162 183 210
164 185 214
176 199 229
182 206 237
177 201 232
171 195 225
171 193 223
163 185 214
141 160 185
122 138 159
110 125 145
103 117 135
98 112 129
96 109 126
81 92 106
92 104 120
85 96 110
74 84 97
69 78 90
89 101 116
104 118 137
94 107 123
81 92 106
72 81 94
80 91 105
91 103 119
100 114 131
92 104 120
112 126 144
133 147 166
134 150 171
149 166 187
142 156 176
159 177 201
144 158 178
117 130 147
133 147 166
135 151 171
150 166 188
139 154 174
146 161 183
149 166 188
158 175 199
158 175 199
157 174 197
159 176 199
138 154 174
158 175 197
141 157 179
138 154 175
141 155 175
130 143 162
128 142 160
123 137 156
124 137 155
132 146 165
117 130 147
118 131 149
113 125 142
100 111 126
97 109 124
98 110 125
113 125 142
112 124 141
126 141 161
130 145 165
141 156 176
134 150 171
132 146 166
139 155 177
144 161 183
147 163 185
135 150 171
148 165 188
142 156 176
141 156 177
121 134 152
117 130 146
100 111 126
78 86 97
63 70 79
56 62 70
31 34 39
16 17 20
10 11 13
4 5 6
6 7 8
4 4 5
9 10 11
21 24 26
44 50 57
69 77 87
94 104 117
113 125 140
107 118 133
90 99 113
93 103 117
99 109 123
100 111 126
104 115 130
102 114 130
93 104 119
79 87 99
92 103 116
122 136 153
130 144 164
141 155 173
135 151 171
149 164 185
136 152 173
139 155 177
132 146 166
117 131 149
124 138 157
114 127 143
113 126 142
97 109 124
100 111 125
95 105 120
87 97 110
78 87 100
77 86 98
84 93 106
89 99 113
81 90 102
69 77 87
63 70 79
48 53 61
34 37 42
16 17 20
9 10 11
7 8 9
22 24 28
38 42 48
50 56 63
71 79 90
87 97 110
109 120 136
130 144 162
141 157 178
158 175 198
156 175 199
163 180 204
161 180 205
156 174 197
145 161 183
131 146 166
115 129 146
102 113 128
82 91 103
55 61 70
27 29 33
6 7 8
18 20 23
26 29 32
26 29 33
40 45 51
31 34 39
9 10 12
12 14 16
32 36 41
51 56 63
78 86 97
88 98 110
90 100 112
84 94 107
82 91 103
80 89 102
71 78 89
65 72 81
63 70 80
66 73 83
61 68 76
32 35 40
18 20 23
53 58 66
71 79 90
85 94 107
116 129 146
124 138 157
142 157 178
152 168 191
155 173 196
144 160 181
141 157 179
130 145 164
156 173 196
122 137 157
86 98 113
61 69 79
66 75 87
62 71 82
78 89 102
92 105 122
115 131 151
114 130 151
118 133 152
130 148 170
130 147 170
129 146 168
106 119 137
86 98 114
58 66 77
47 53 61
58 67 77
77 87 100
95 108 125
114 129 150
118 134 155
142 161 187
178 202 235
188 214 247
191 216 250
178 203 235
163 185 214
166 188 217
178 201 232
173 197 230
177 201 233
184 209 241
180 203 234
170 192 222
149 169 196
138 156 181
129 146 167
104 117 135
79 90 104
62 70 81
58 65 76
47 54 62
37 42 48
46 53 61
53 60 69
62 70 81
69 78 90
83 94 109
99 112 129
112 127 147
96 110 127
96 109 126
95 107 123
81 92 106
60 68 78
60 69 80
47 53 61
43 48 56
41 47 55
58 67 78
77 86 99
94 107 124
115 129 149
116 131 151
99 112 129
88 100 115
103 118 136
132 150 172
145 164 189
150 169 195
160 181 208
158 179 207
152 172 198
141 159 184
124 140 161
117 132 153
108 123 142
90 102 117
77 88 101
72 81 94
74 84 97
71 80 92
88 100 115
87 99 115
82 93 107
83 94 109
73 83 96
66 75 88
62 71 82
67 76 88
61 69 80
76 86 99
78 89 104
90 102 118
117 132 151
141 161 186
162 184 212
169 192 221
162 183 210
155 177 205
157 178 205
157 178 206
172 196 226
173 196 225
177 202 234
184 210 243
182 206 238
182 207 239
187 212 245
190 215 249
186 212 245
179 204 236
177 201 232
168 191 220
159 180 207
164 187 217
151 170 196
152 174 202
149 170 198
146 166 191
190 216 249
189 214 247
185 210 242
179 203 234
172 196 227
169 193 223
165 187 217
165 188 218
160 183 212
159 182 211
166 188 217
161 182 210
150 170 198
148 166 191
144 163 188
119 135 156
90 102 118
74 84 97
55 62 71
51 58 68
55 63 73
64 73 84
72 82 94
48 54 62
39 44 51
52 59 69
75 85 98
99 113 130
115 130 149
118 134 155
121 137 159
121 137 158
98 110 127
87 99 115
60 68 78
63 71 83
105 119 138
144 163 188
169 191 220
185 210 242
193 219 252
191 217 252
188 215 250
187 213 247
187 211 243
182 207 238
181 205 236
177 201 233
175 197 226
168 190 219
164 185 214
157 178 206
141 161 186
126 143 165
112 128 147
92 104 121
88 100 116
87 99 114
80 91 105
74 83 96
60 68 78
56 63 73
45 51 59
50 57 66
53 60 69
54 61 71
54 62 72
61 69 80
84 95 110
100 114 132
101 115 132
99 112 130
106 120 139
113 128 149
116 132 153
136 154 179
142 161 186
154 175 202
164 186 215
165 187 216
168 191 221
175 198 228
175 198 228
178 203 236
182 207 239
186 211 244
190 216 250
193 219 252
189 214 247
184 209 242
182 206 237
179 202 232
162 184 213
156 177 205
151 171 197
155 176 203
158 179 207
155 176 203
159 181 209
163 185 214
164 187 216
167 189 218
169 192 221
164 185 213
151 172 199
137 155 179
113 128 148
92 105 122
66 75 87
38 42 48
22 25 29
49 56 65
77 87 101
107 122 141
109 123 143
94 106 123
75 86 99
76 86 100
80 90 104
80 92 106
103 116 134
135 151 172
124 137 155
138 154 174
151 167 189
151 168 191
146 162 185
129 143 162
134 149 169
133 147 167
142 158 179
136 152 173
155 171 193
149 166 188
148 164 185
143 160 182
150 167 189
159 177 200
153 170 192
148 164 186
126 139 157
132 147 167
118 131 149
114 126 142
121 134 151
112 125 142
115 127 144
118 132 149
128 142 160
113 127 144
107 120 136
104 115 130
101 112 127
100 112 127
111 124 142
117 129 146
120 133 151
119 133 151
114 127 144
129 144 164
133 148 169
134 148 167
148 165 186
150 166 188
148 164 187
151 168 191
150 166 188
143 160 183
127 141 160
121 135 154
102 113 127
88 98 112
72 80 91
54 60 68
28 31 36
16 18 21
7 8 9
5 5 6
3 4 4
6 7 8
9 10 12
13 14 16
13 15 17
42 47 54
70 78 89
86 96 110
90 101 114
85 94 106
78 86 98
86 96 109
86 96 109
99 111 126
91 102 116
79 88 100
73 80 91
80 90 103
106 118 134
127 141 160
133 147 166
129 144 164
139 155 176
140 155 175
141 156 177
135 150 171
130 144 162
125 139 158
112 125 142
101 112 126
87 97 110
76 84 95
88 97 109
77 86 98
79 89 102
75 84 96
81 90 102
85 95 108
85 95 108
66 73 83
55 61 69
28 31 35
10 11 13
13 14 16
17 19 22
14 15 17
20 22 25
40 44 50
46 51 58
68 77 87
93 104 118
109 120 136
124 138 157
148 164 186
154 170 192
155 172 194
165 182 206
152 170 195
157 174 197
150 166 188
137 152 173
122 137 158
119 132 150
95 105 120
72 81 91
40 45 51
18 19 22
11 12 14
10 12 13
15 17 19
41 45 51
38 42 48
21 24 27
13 14 16
38 41 46
74 82 92
90 100 113
92 102 116
91 101 114
99 109 122
92 102 116
82 91 104
72 80 90
73 80 90
79 87 98
78 87 98
69 77 89
30 33 38
18 19 22
54 61 69
76 85 97
96 106 119
136 150 169
139 155 177
142 158 179
155 172 195
157 173 194
135 150 170
131 146 165
143 159 180
135 151 173
132 150 172
111 126 145
97 110 128
77 88 102
40 46 53
48 55 64
51 58 67
56 64 74
30 35 40
27 31 36
45 51 59
48 55 64
55 62 72
64 73 85
65 74 85
49 56 65
33 38 44
28 31 36
39 44 51
74 84 97
109 123 142
144 163 189
173 195 225
190 214 246
194 219 251
189 215 249
188 212 245
181 205 237
178 203 236
182 206 238
180 205 237
178 203 234
179 204 236
185 209 241
186 211 243
184 209 241
182 206 238
171 194 224
166 188 217
152 172 199
145 165 191
121 138 159
76 87 100
47 54 62
51 58 67
55 62 72
54 62 72
55 63 73
70 80 93
84 95 109
64 72 84
55 63 72
63 72 83
67 76 88
82 93 108
85 96 112
78 88 101
78 89 102
82 94 108
82 92 106
69 78 90
74 83 96
67 76 88
62 70 81
48 54 63
47 54 62
48 54 62
50 57 65
40 46 53
41 46 54
68 77 89
107 122 141
147 167 192
168 190 219
181 206 238
188 214 248
182 207 240
170 194 224
160 182 210
146 165 191
115 130 149
105 119 137
95 107 122
87 99 115
89 101 116
82 93 108
82 93 108
80 91 105
61 70 80
49 56 65
37 42 48
50 57 66
38 43 49
35 40 47
42 48 56
46 52 59
71 80 93
85 97 112
107 121 140
118 134 154
129 147 170
149 169 195
160 181 210
168 191 220
163 185 213
161 182 210
152 173 201
153 174 202
158 179 206
149 170 196
149 170 197
149 170 197
151 170 196
126 142 164
122 139 161
120 136 157
116 131 151
125 143 166
135 154 178
155 177 205
179 203 234
183 209 242
185 210 243
184 209 241
182 207 239
179 203 234
184 208 241
190 215 248
191 216 250
190 216 249
192 217 250
187 213 246
190 215 249
187 212 245
180 203 233
154 176 203
130 148 171
100 113 130
75 86 100
66 75 87
55 62 71
74 83 96
75 86 100
68 77 88
50 57 66
57 64 74
81 93 108
92 103 119
96 109 126
98 111 128
96 108 125
95 109 127
95 107 124
116 131 151
121 137 157
117 133 154
124 141 163
139 158 182
141 161 186
158 179 207
179 203 235
190 217 252
189 216 250
190 215 248
187 212 246
186 211 245
184 209 242
187 212 245
190 215 248
188 214 247
184 209 242
186 211 244
179 203 234
178 201 231
168 192 223
159 180 208
150 169 195
140 158 182
132 150 174
137 155 180
164 186 215
161 182 210
172 194 222
174 196 226
155 176 204
141 160 185
133 151 175
125 143 166
99 113 131
96 108 123
76 86 99
68 77 90
67 76 87
61 70 80
90 102 119
100 113 131
123 140 162
134 152 175
150 170 196
161 182 210
168 191 221
174 198 229
183 207 238
182 206 238
181 205 237
187 212 245
190 215 249
191 217 251
190 215 248
188 213 246
185 210 242
187 211 243
187 210 242
182 206 238
180 205 237
178 203 235
176 200 231
172 195 225
165 187 216
151 171 198
150 170 197
150 170 197
152 173 200
158 179 207
158 180 208
140 159 184
115 131 151
90 102 118
86 98 113
58 67 77
38 43 49
42 48 56
37 42 49
37 41 48
64 73 84
66 74 86
74 84 97
93 106 122
106 121 140
102 115 133
117 134 155
139 157 181
150 169 194
134 149 170
129 143 162
123 137 157
138 153 174
145 162 185
134 148 167
122 135 153
125 139 157
126 139 158
137 152 173
139 154 174
127 142 161
131 146 167
136 151 172
149 164 185
141 158 179
130 146 166
138 154 175
117 130 148
101 112 127
89 98 111
83 93 105
99 110 124
112 124 139
103 114 130
98 109 123
112 124 140
109 121 137
110 123 139
104 116 130
106 118 133
104 114 129
98 109 124
92 103 117
104 116 131
96 106 121
97 109 124
111 123 140
122 135 153
124 137 155
132 147 166
125 139 157
144 160 182
147 165 187
141 156 177
143 159 180
132 147 166
121 134 151
107 119 135
89 99 112
80 89 101
59 66 75
37 42 47
18 20 23
4 4 5
4 5 6
5 5 6
8 9 10
12 14 16
14 15 18
21 23 26
38 42 48
54 60 68
74 82 94
81 89 101
73 81 92
68 75 85
67 74 84
72 80 91
76 84 96
75 83 94
67 74 83
69 78 88
78 87 98
89 99 112
90 101 115
104 116 131
115 128 146
121 135 153
123 137 156
129 143 162
126 139 157
131 146 165
123 137 155
109 122 138
97 107 120
82 91 103
74 83 94
84 93 105
84 93 106
79 88 100
83 93 106
90 100 112
85 95 107
71 78 89
53 59 67
37 42 47
21 23 27
7 8 9
22 24 27
25 27 31
10 11 13
25 28 32
43 48 55
59 66 75
83 92 105
102 113 129
123 136 155
132 146 165
148 165 187
148 164 186
154 170 192
159 177 200
161 178 201
163 179 201
159 178 203
147 163 184
128 143 164
133 149 169
117 130 147
92 102 116
65 72 81
46 50 57
27 30 34
19 21 23
8 9 11
44 49 55
50 56 63
21 24 27
24 27 31
63 70 80
85 94 106
88 99 113
90 100 112
103 115 130
114 126 143
107 119 135
93 103 116
84 94 107
82 91 103
79 88 100
74 81 92
59 65 74
18 20 22
27 30 34
51 57 64
76 84 94
102 114 129
123 138 157
147 163 184
156 173 195
143 159 181
164 181 205
146 163 184
136 151 170
167 186 211
178 202 234
168 190 219
146 164 189
144 163 188
136 155 180
123 140 163
118 134 155
111 126 145
126 143 165
131 149 172
141 160 185
145 165 192
153 174 201
169 191 221
172 195 225
156 178 206
103 117 136
48 55 63
51 58 67
114 129 149
135 153 177
126 143 165
120 137 158
115 131 153
101 115 133
104 117 135
108 123 142
112 127 147
129 146 170
133 152 175
143 162 187
151 172 198
154 176 204
175 198 227
184 209 241
192 217 251
187 212 245
176 199 231
161 183 212
154 175 203
148 168 193
140 158 182
136 155 180
142 160 184
137 156 180
135 153 177
137 156 181
126 143 165
111 126 146
108 123 143
101 114 132
71 81 93
38 43 50
51 58 67
84 95 110
94 106 122
97 110 127
88 100 115
76 86 99
71 81 95
74 83 96
79 90 104
70 80 92
72 81 93
78 88 102
79 89 103
79 90 104
75 85 98
70 79 91
82 93 107
83 93 107
77 87 100
67 76 87
73 83 97
88 100 115
108 123 143
119 135 155
129 147 169
152 172 199
159 181 209
168 190 220
173 196 227
176 199 229
177 200 230
180 204 235
169 192 222
140 159 184
127 143 165
144 163 189
138 157 181
154 175 202
161 183 211
154 175 203
139 158 182
132 150 174
116 132 153
103 116 134
91 103 118
81 91 105
70 80 92
71 81 94
80 91 105
89 101 116
78 89 102
62 70 81
66 74 86
56 64 74
51 57 66
65 73 84
75 85 98
77 88 102
106 120 138
121 138 160
151 170 197
162 184 213
173 197 229
174 197 226
166 188 217
167 190 220
162 184 213
152 173 199
124 141 163
175 199 230
175 199 229
175 199 230
179 202 233
180 205 236
184 209 242
171 194 224
163 185 214
150 171 197
144 164 191
141 160 185
143 161 185
156 178 206
155 176 204
169 192 222
172 194 224
173 196 227
167 190 221
172 195 225
167 190 219
160 181 209
136 155 178
126 143 165
114 129 150
94 107 124
95 107 123
78 89 103
78 88 102
83 94 109
91 103 120
99 112 130
97 109 125
100 113 130
113 129 150
125 142 164
116 131 150
134 151 174
138 157 181
160 182 210
177 200 230
186 212 245
191 216 250
191 216 250
190 215 247
188 214 248
190 215 248
188 212 244
179 203 235
168 191 220
168 191 221
178 202 235
182 206 238
171 194 224
161 182 211
170 193 222
175 199 231
168 191 221
174 198 228
170 193 223
178 202 234
176 199 230
177 201 232
171 194 224
156 178 207
148 167 193
159 182 212
144 163 189
148 169 195
147 168 194
152 172 198
132 151 175
110 124 144
74 85 98
58 66 77
51 58 67
69 79 92
78 88 102
87 99 115
97 109 126
96 109 126
97 110 128
110 124 143
126 143 166
147 166 191
158 180 209
170 193 223
176 200 231
182 207 239
189 215 248
192 217 251
193 218 252
188 213 246
184 209 241
171 194 224
173 197 228
174 198 229
180 204 235
181 206 239
179 202 233
174 196 226
172 194 224
162 184 214
150 171 198
133 151 175
131 149 172
114 129 149
96 109 126
65 73 85
36 41 47
32 37 43
37 42 49
47 53 61
49 56 64
48 55 64
50 57 66
63 71 82
71 81 93
73 82 95
80 91 105
93 106 122
100 113 131
113 129 149
132 150 174
133 148 167
121 134 153
127 141 161
126 141 161
147 163 185
125 139 158
121 134 151
124 138 156
135 149 167
131 145 164
120 133 152
110 122 139
115 127 144
120 133 150
124 137 154
128 141 159
122 135 153
104 116 132
75 83 95
60 67 76
67 75 84
80 89 101
89 99 113
91 101 114
75 83 94
69 77 87
89 99 112
98 109 123
108 120 136
105 117 132
107 119 135
86 96 109
65 73 82
67 75 86
74 83 94
76 85 96
96 107 122
108 120 136
117 130 148
112 125 142
121 134 152
125 139 157
129 144 164
145 161 182
139 155 176
133 148 168
120 133 151
100 112 127
86 95 107
72 80 91
58 65 73
45 51 58
23 26 30
9 10 11
5 6 7
2 2 2
4 4 5
18 20 23
26 29 32
33 37 41
42 46 52
45 50 57
51 57 65
61 68 77
53 59 67
40 44 50
37 42 48
58 64 73
70 78 88
69 76 86
64 71 81
60 68 77
60 66 75
56 62 70
55 61 70
64 71 80
77 85 97
91 101 115
105 117 133
112 124 141
110 123 139
111 124 141
114 127 145
107 119 135
95 105 119
70 78 88
83 93 105
88 97 110
77 87 99
74 83 95
68 75 86
78 86 98
77 86 97
75 83 94
54 60 68
44 49 55
29 32 36
9 10 11
13 14 16
22 25 28
15 16 18
32 36 41
58 64 73
68 76 86
99 111 126
103 116 132
130 145 165
142 159 180
156 173 196
153 171 194
152 169 192
168 187 212
156 173 196
149 166 188
158 176 199
153 171 193
139 154 174
131 146 166
112 125 142
91 101 114
65 72 81
56 63 71
53 60 68
34 38 43
13 14 16
43 47 53
44 49 56
20 22 25
46 51 57
70 77 87
87 97 110
89 99 112
106 117 132
125 139 157
122 136 155
109 122 139
99 110 124
81 90 102
68 75 85
80 89 100
81 89 101
52 58 66
12 13 15
33 36 41
54 60 68
77 85 96
106 119 135
151 167 188
157 174 195
163 181 205
151 167 189
149 166 189
132 147 166
144 161 183
180 204 235
184 209 242
179 203 233
173 197 229
174 197 227
174 197 227
165 188 218
165 187 217
170 192 222
172 195 225
162 184 212
163 185 213
167 190 220
172 195 226
174 197 227
146 166 193
116 132 153
81 92 106
58 66 77
71 81 94
88 99 115
97 111 128
99 112 129
110 124 143
115 130 150
113 128 148
114 131 152
114 130 150
124 141 162
128 144 166
109 123 142
125 141 164
142 161 186
155 176 202
158 179 206
154 175 204
162 184 212
171 193 222
167 191 221
179 203 234
181 205 237
186 210 241
186 210 242
180 205 237
175 199 231
165 187 215
162 184 213
170 192 222
166 188 218
167 188 216
161 183 211
155 176 204
137 156 180
122 139 161
128 145 167
124 142 165
114 130 151
110 124 144
116 131 152
126 143 165
118 135 156
114 130 150
93 106 122
83 94 109
85 97 112
76 87 101
87 99 114
95 107 124
106 121 139
122 139 161
128 145 167
131 149 173
120 136 156
119 135 156
126 143 166
149 169 196
180 204 236
188 214 248
192 217 250
186 211 245
188 214 247
191 216 249
190 216 250
192 217 250
191 216 249
179 203 235
175 198 228
164 186 215
157 178 206
147 168 194
144 163 188
143 162 187
154 175 202
158 179 207
149 169 195
140 158 182
123 139 161
101 114 132
109 124 143
100 114 132
94 106 122
81 92 107
80 91 105
80 91 105
85 95 110
85 96 111
96 109 125
96 109 126
83 94 109
72 82 95
57 65 75
31 36 42
34 38 45
64 72 83
71 80 93
82 93 107
95 108 125
117 133 154
129 147 170
142 161 186
157 178 205
177 200 231
183 207 240
142 161 187
164 186 215
178 202 232
181 205 237
178 202 234
162 185 215
143 162 187
149 169 196
147 167 194
148 169 195
142 161 186
133 150 172
124 141 164
118 133 154
134 152 175
143 162 187
134 152 175
142 161 187
140 159 184
130 148 172
109 124 143
105 120 139
102 115 133
71 81 94
64 73 84
57 64 74
71 80 93
84 95 110
100 114 132
124 141 163
125 142 165
125 142 164
119 136 157
110 125 145
95 108 125
108 122 141
123 139 160
138 157 181
151 172 199
157 178 206
175 200 231
187 212 245
192 218 251
190 216 249
191 216 248
183 208 240
178 203 236
185 209 241
189 215 249
195 220 253
194 219 252
192 219 254
189 215 249
177 201 232
166 188 217
159 180 209
150 170 197
124 140 162
121 137 158
83 95 109
56 64 74
33 38 43
29 33 38
23 26 30
37 42 48
43 49 57
45 51 59
55 62 73
62 71 82
61 69 80
56 64 75
68 77 89
65 74 85
65 73 85
58 65 74
44 50 58
42 48 55
72 82 95
93 106 122
109 124 144
132 150 173
151 171 198
153 173 200
152 172 199
146 165 191
146 166 192
154 176 205
166 189 219
180 203 235
189 214 246
189 215 250
190 215 247
181 205 238
180 205 237
174 198 229
168 190 219
153 174 201
152 173 201
151 171 198
158 180 208
150 171 198
140 159 184
119 134 153
96 109 126
69 79 91
46 52 60
57 65 75
63 71 81
55 63 73
51 59 68
39 45 51
30 35 40
33 37 43
47 53 61
62 70 81
67 77 89
73 83 96
82 93 108
89 100 115
92 104 119
108 122 142
116 132 153
134 152 175
135 153 176
129 143 161
114 126 142
127 141 160
139 155 175
135 149 168
114 126 143
121 134 152
122 136 154
135 149 168
119 133 151
103 115 130
105 116 131
101 113 128
120 133 150
129 143 161
123 137 155
108 120 136
72 80 91
62 70 80
64 71 80
61 67 76
66 73 83
67 75 85
66 73 83
68 76 86
62 70 80
73 80 91
91 102 116
85 95 108
90 99 112
75 83 95
48 54 61
36 40 45
44 49 55
51 57 64
77 86 97
95 106 120
102 113 128
98 109 123
94 105 119
98 109 123
107 120 136
120 134 153
123 136 154
127 141 160
104 117 134
96 106 120
72 80 91
51 56 63
35 39 45
35 39 44
23 26 30
18 20 23
5 5 6
12 14 15
18 20 23
29 32 36
37 41 46
49 55 63
42 46 53
36 40 45
27 30 34
25 27 31
20 22 24
12 14 16
16 18 20
30 33 38
46 51 58
58 65 74
53 59 67
40 45 51
25 28 32
21 24 27
25 27 31
32 35 40
52 58 65
66 73 82
76 85 97
85 95 107
91 102 115
99 110 125
111 123 140
103 115 131
81 89 101
75 84 95
77 86 98
68 75 86
75 83 95
70 78 88
72 81 92
85 94 107
87 97 109
83 91 102
66 73 83
62 69 78
46 52 59
17 19 22
11 12 13
10 11 13
12 13 15
25 28 32
53 59 67
74 82 93
94 105 119
121 134 152
137 152 172
149 165 186
144 160 182
154 171 194
156 173 197
156 174 198
155 173 197
152 169 191
156 173 196
157 174 196
131 148 170
121 136 155
106 118 133
88 99 113
77 86 97
70 78 89
58 64 73
39 43 49
16 17 20
40 45 51
31 35 40
16 17 20
49 55 62
71 79 89
77 86 97
102 114 130
120 133 152
120 134 152
121 133 150
111 124 141
96 107 121
75 83 93
83 92 105
99 111 127
81 90 103
34 38 44
15 16 18
49 54 61
72 81 92
94 104 118
135 150 171
148 163 185
144 159 179
139 156 178
153 170 192
142 159 180
143 158 178
157 178 205
170 193 223
185 209 241
182 206 239
173 197 228
170 193 223
161 183 212
155 175 201
161 182 210
164 187 216
168 190 220
155 176 204
146 165 189
134 152 176
132 150 174
139 158 183
143 162 188
161 182 210
153 174 202
123 140 162
102 115 133
69 78 90
36 40 46
29 33 38
51 58 67
79 90 104
86 98 114
78 89 104
71 81 94
58 66 76
62 70 81
68 78 90
76 87 100
94 107 123
110 125 145
117 133 153
112 127 146
116 132 153
124 141 164
128 145 167
128 146 169
123 140 161
129 146 168
130 148 172
118 134 154
122 139 161
124 140 162
140 159 184
138 157 181
148 169 195
149 169 195
156 177 205
155 176 204
148 169 195
158 180 209
166 188 216
170 194 224
179 203 235
187 213 246
181 205 237
169 191 221
143 162 188
106 120 138
59 67 77
29 33 38
35 40 46
40 45 52
50 57 65
53 61 71
76 86 99
88 99 113
93 105 121
92 104 121
76 86 100
67 76 88
68 77 90
96 110 128
126 143 165
136 153 176
128 145 167
128 146 168
128 145 168
129 145 167
132 149 172
131 149 173
143 162 188
156 177 205
151 172 200
161 182 209
162 184 214
162 184 212
167 190 221
168 190 219
173 197 228
176 199 230
162 184 212
158 179 206
159 181 209
161 183 212
153 173 200
145 165 191
141 160 185
132 151 175
114 129 149
115 130 150
111 126 146
112 126 146
96 108 125
81 93 107
67 76 88
50 57 65
37 42 49
24 27 31
29 33 38
45 51 60
57 65 75
70 79 91
102 115 133
118 134 154
123 140 161
128 145 168
134 151 173
139 158 182
148 168 193
169 192 221
164 187 217
170 194 224
183 207 239
181 205 237
174 197 229
160 182 210
139 159 185
125 141 163
116 132 153
102 117 135
100 113 131
80 91 105
90 102 117
102 116 134
105 119 138
125 142 164
125 142 163
110 124 144
104 117 134
112 128 148
106 121 140
124 140 162
119 136 158
128 145 168
129 147 170
125 141 162
105 119 137
101 115 133
83 94 109
69 78 91
60 68 78
59 67 78
70 80 92
80 90 103
85 96 111
85 97 112
88 100 116
74 84 97
69 78 90
81 92 106
121 138 159
153 173 199
179 204 235
189 215 249
184 210 244
180 204 236
180 204 236
187 211 243
184 208 241
174 198 228
152 173 200
129 146 169
116 132 152
115 131 153
104 118 136
96 109 127
79 89 103
64 73 85
50 56 65
53 60 69
87 98 114
88 100 116
127 144 166
123 139 160
124 141 163
128 146 170
118 134 155
101 114 131
62 71 82
45 51 59
60 68 79
84 95 110
99 112 130
120 136 158
124 139 160
114 129 149
112 128 148
110 126 147
119 134 153
113 128 148
124 142 165
143 163 188
151 171 197
140 160 186
136 155 180
139 159 184
147 167 194
151 170 196
170 192 222
185 209 240
183 208 241
190 214 247
184 210 243
175 198 229
156 177 205
155 177 205
152 172 199
146 166 191
151 171 198
154 176 204
163 185 215
164 187 216
154 175 202
142 162 188
139 159 184
146 166 192
141 160 184
150 170 196
160 181 210
169 193 223
164 185 213
167 190 220
156 177 205
154 174 201
133 153 178
116 132 153
97 110 128
76 86 100
61 70 81
51 57 66
69 78 91
85 97 112
100 114 132
110 123 139
120 133 151
116 129 146
107 119 136
106 118 134
105 117 133
109 122 139
114 126 141
118 131 149
123 137 155
116 129 147
77 85 96
93 103 117
88 98 111
100 110 125
111 123 139
116 129 146
87 97 110
59 66 74
77 86 98
64 71 80
49 54 62
49 55 62
56 62 71
75 84 96
71 79 89
64 71 81
69 77 87
76 85 96
65 72 82
52 58 66
43 48 55
40 44 50
33 37 41
31 35 40
59 65 74
71 79 89
80 89 100
85 95 107
94 104 118
93 102 116
96 107 121
93 105 120
101 112 128
103 114 129
103 115 130
100 112 127
78 86 98
63 69 78
27 31 35
17 19 22
17 19 21
13 14 16
4 4 5
16 18 21
35 39 45
40 45 51
37 42 48
39 43 49
45 50 57
36 40 45
28 31 35
18 20 23
16 18 20
13 15 17
13 14 16
12 13 15
28 31 35
42 46 52
26 29 33
15 16 18
7 8 9
3 4 5
10 11 13
23 26 30
39 44 49
49 55 62
65 72 82
75 84 95
76 85 96
88 98 112
96 107 122
101 112 127
94 104 118
91 101 113
93 103 116
92 102 116
84 93 106
82 91 103
76 84 95
78 87 98
85 94 107
78 87 99
78 87 99
76 84 95
69 77 87
51 57 64
26 29 33
16 17 20
25 28 32
37 41 46
43 47 54
54 61 69
82 91 103
110 122 139
115 128 144
142 159 180
140 155 176
144 160 181
152 169 191
154 171 194
150 168 192
148 165 188
151 168 191
146 161 182
128 142 161
125 139 157
109 121 138
102 113 129
85 95 109
75 83 95
64 72 81
47 52 58
17 20 22
49 54 62
28 31 35
13 14 16
40 45 51
63 70 80
83 93 105
115 127 143
118 131 148
117 129 146
110 122 139
107 118 134
97 108 122
86 96 108
96 107 122
92 102 116
73 82 93
22 25 28
36 40 45
65 72 82
85 95 107
127 141 160
136 151 171
138 154 175
151 167 189
157 175 199
142 159 181
158 176 199
116 130 149
77 87 101
89 100 114
80 92 106
73 83 97
90 103 119
74 84 98
67 76 88
65 73 85
68 77 89
71 80 93
93 105 121
112 127 146
133 151 173
149 169 195
158 179 206
169 192 223
181 205 236
186 212 245
189 214 247
172 195 225
137 154 178
87 99 114
39 44 51
17 20 23
27 31 36
28 32 37
30 33 38
27 30 35
32 36 42
36 41 48
50 57 66
74 84 97
74 85 99
86 97 112
99 112 129
121 138 159
125 142 165
123 140 162
129 146 169
132 150 173
132 151 174
126 143 166
126 143 166
122 138 160
122 139 161
121 137 156
107 121 140
107 121 140
118 134 155
129 147 170
124 140 161
101 114 133
107 121 139
115 131 152
126 142 164
161 182 210
179 204 236
188 214 248
186 211 244
166 188 218
145 164 190
129 147 169
116 132 152
109 124 143
101 114 132
112 128 148
121 137 159
127 144 166
118 134 154
136 155 179
134 152 177
117 133 155
106 120 137
84 95 110
68 77 88
37 42 49
69 78 90
76 86 100
67 75 87
59 67 78
54 62 72
60 68 79
79 89 103
80 91 106
68 78 90
63 72 83
78 88 101
94 106 121
113 129 149
135 152 175
138 156 181
148 168 193
157 179 208
165 188 218
179 202 233
177 201 232
177 201 233
175 199 232
171 194 225
165 188 217
165 187 216
165 187 216
169 193 223
181 206 240
183 208 239
178 203 235
179 204 237
181 207 240
186 211 244
177 202 234
159 180 209
134 151 175
141 160 185
154 174 201
171 194 223
166 189 219
161 183 212
149 168 194
145 165 191
143 163 189
146 166 191
145 165 191
133 152 176
137 157 182
169 192 222
160 182 210
164 185 213
161 183 212
153 173 199
126 143 165
116 131 151
106 120 138
99 113 130
102 115 133
100 113 131
80 92 107
78 89 103
79 90 104
83 94 108
94 106 123
99 112 129
105 120 138
98 112 129
92 105 122
87 99 114
77 88 102
88 100 115
88 100 115
99 113 130
102 116 134
93 106 122
107 121 140
127 144 166
149 169 195
164 185 214
170 193 224
160 181 209
153 174 201
150 172 199
129 147 170
119 135 156
109 124 143
100 114 132
88 100 116
71 80 93
74 84 97
85 96 111
125 141 162
160 182 210
180 204 236
189 214 247
192 218 251
191 217 251
190 216 249
188 214 247
180 206 239
178 202 234
163 186 215
142 160 184
111 127 147
97 110 127
117 132 152
123 141 164
141 160 186
147 167 194
156 177 204
153 174 202
150 170 197
154 174 200
158 179 206
149 169 195
158 180 209
149 169 196
141 160 185
137 155 179
136 154 177
138 156 181
135 153 177
132 149 172
131 149 173
136 153 176
127 145 167
139 158 182
142 161 187
141 160 184
119 135 157
103 117 135
78 89 102
43 49 57
53 60 69
100 113 131
126 144 166
148 169 195
173 195 225
183 207 240
190 216 249
192 218 252
191 217 250
188 214 248
191 217 250
190 216 249
192 217 250
193 219 253
192 219 254
188 213 247
180 203 234
166 189 220
171 195 225
170 193 222
169 192 221
171 194 225
170 193 222
170 192 221
170 193 223
155 175 201
143 162 187
121 137 158
98 111 127
103 117 135
132 150 173
145 165 191
148 168 194
141 160 184
151 171 198
135 153 178
120 136 156
125 141 163
117 133 153
101 114 131
112 126 143
101 113 129
121 134 150
118 131 148
104 115 130
105 118 134
121 135 153
114 128 145
119 131 148
120 133 151
86 96 109
77 86 98
77 85 96
91 102 116
102 113 128
105 118 134
97 107 121
65 72 81
82 91 103
91 101 114
70 78 88
40 44 50
32 35 40
59 65 74
69 76 87
61 67 76
57 63 72
68 76 85
57 63 71
42 47 53
39 43 49
41 46 52
28 32 36
24 27 31
40 44 50
56 63 71
59 65 74
71 79 89
85 94 106
91 101 115
99 109 123
89 99 112
97 107 122
110 122 137
113 126 142
107 120 138
104 116 132
80 89 102
57 63 71
36 40 45
18 20 22
8 9 10
4 4 5
20 22 25
45 50 57
57 63 72
56 61 69
52 58 66
38 42 48
36 40 45
38 43 48
31 34 39
26 30 34
28 32 36
22 25 28
11 12 14
15 17 19
15 17 20
13 14 16
6 6 7
7 8 10
5 6 7
7 7 8
18 20 22
28 31 36
48 53 60
63 70 79
68 77 87
86 96 108
80 90 103
92 102 116
92 103 117
98 109 123
92 102 116
94 105 119
102 113 127
82 92 105
72 80 91
69 77 87
67 74 84
86 95 108
77 85 97
83 92 104
91 101 114
96 107 121
70 78 88
42 47 54
44 49 55
36 41 46
37 42 47
50 55 62
61 68 77
80 89 101
116 129 147
131 145 164
131 146 166
142 158 180
149 166 189
141 157 179
152 169 191
150 167 190
154 171 194
147 163 185
139 153 172
130 145 164
128 143 162
127 141 159
104 116 132
96 107 121
79 88 100
49 54 61
33 37 42
19 21 24
52 58 66
37 41 46
12 13 15
36 40 45
68 76 86
90 101 116
106 118 134
100 110 124
102 113 128
103 114 129
110 122 138
104 116 131
94 106 121
99 111 127
91 101 114
52 58 66
20 22 25
51 57 65
79 88 100
112 124 140
121 135 154
140 156 176
142 158 179
153 169 189
155 172 196
144 160 180
148 165 188
144 163 189
139 157 181
143 163 189
132 150 173
127 144 167
121 136 156
129 147 171
121 138 160
141 161 186
157 178 205
168 191 221
173 196 226
171 194 225
175 198 229
174 199 231
180 204 236
174 197 228
172 196 226
166 188 217
153 174 202
139 158 183
136 155 180
128 145 167
122 137 158
117 133 153
97 110 126
68 77 89
42 48 55
35 39 45
22 24 28
19 22 25
39 45 52
53 61 70
68 77 88
71 81 93
72 81 94
83 94 108
104 118 136
102 116 134
117 133 154
131 148 171
143 162 188
146 166 192
132 151 175
115 132 153
93 105 122
64 72 84
59 67 78
73 83 96
88 99 115
85 96 111
94 107 123
106 119 137
118 134 155
131 148 170
126 143 165
112 127 145
120 137 158
140 159 183
163 185 213
166 189 219
162 185 214
167 189 219
174 198 229
171 194 225
166 189 219
164 186 214
164 185 213
163 186 215
143 162 187
113 129 149
103 116 135
115 131 152
127 145 167
129 147 170
135 153 177
137 155 179
127 144 165
151 171 197
137 155 179
127 144 166
117 132 152
114 130 150
117 133 154
124 141 163
136 154 177
124 142 165
140 159 184
126 143 166
112 127 146
114 130 150
114 130 150
101 115 133
102 116 133
108 123 143
103 117 135
91 103 119
91 103 119
77 88 102
61 70 80
78 89 102
111 126 145
152 172 197
174 197 227
185 210 243
193 219 252
191 216 249
187 213 246
174 199 231
167 190 221
166 189 218
167 190 219
164 187 217
171 195 227
173 198 229
174 198 229
173 197 227
166 187 215
176 199 228
178 201 231
168 191 221
176 200 232
177 201 233
182 207 239
190 215 248
183 207 240
186 211 244
182 207 239
181 206 237
173 197 227
152 172 199
140 159 184
145 166 192
150 170 196
138 157 182
126 143 166
113 128 147
74 85 98
61 69 80
41 46 54
31 35 40
30 34 39
26 30 35
41 47 54
47 54 62
74 84 97
91 103 119
93 105 122
89 101 117
85 97 112
70 80 92
70 79 92
73 83 96
81 92 106
73 83 96
83 93 107
85 96 111
102 115 133
127 145 168
153 172 198
163 185 214
177 200 229
181 205 235
179 204 236
180 204 235
183 207 239
183 207 239
187 212 245
187 213 246
188 214 248
190 216 250
189 216 251
179 204 236
161 182 211
153 174 201
154 175 202
162 184 212
170 192 221
158 180 208
158 179 206
156 177 205
163 185 213
169 192 222
181 206 238
185 210 243
190 216 249
186 212 246
182 207 239
161 184 213
159 181 210
157 178 207
146 166 193
143 163 189
143 162 188
133 151 174
126 143 164
124 140 161
118 134 156
121 137 159
112 127 147
111 126 147
119 135 156
110 124 144
108 123 142
115 130 150
123 140 161
137 155 180
154 174 201
162 185 214
169 192 221
174 198 229
175 198 229
173 197 228
174 199 230
180 204 236
182 206 239
185 210 243
188 213 247
190 214 246
185 211 245
181 205 237
180 203 233
181 205 237
176 201 233
179 203 233
183 207 238
185 209 241
182 207 241
184 209 242
179 204 237
179 204 236
179 203 234
167 189 218
161 181 209
144 163 187
124 141 162
113 129 149
111 126 145
94 107 124
75 86 99
64 72 82
62 71 82
60 68 78
60 69 79
69 79 91
58 66 77
64 72 83
66 75 87
66 75 87
57 65 75
47 53 61
102 113 129
110 122 138
123 137 156
112 124 140
98 109 124
109 122 139
128 142 162
126 140 158
128 141 160
107 119 134
79 87 98
68 75 86
76 85 97
89 99 113
90 100 112
80 89 101
67 75 85
63 70 80
92 103 117
92 103 117
69 77 87
40 44 51
26 30 34
34 38 43
51 57 64
45 50 57
58 65 74
59 65 74
42 47 54
32 35 40
28 31 35
22 25 28
14 16 18
12 14 15
30 34 38
44 49 56
49 54 62
65 73 82
72 80 91
82 91 104
82 90 102
96 107 122
103 114 129
112 125 141
116 129 146
114 127 145
101 112 127
83 92 103
53 58 65
25 27 31
9 10 12
10 12 13
21 23 26
31 34 39
45 50 57
61 67 76
63 71 81
58 64 72
49 55 62
51 57 65
45 50 57
33 37 42
39 43 49
36 40 45
18 20 23
10 11 12
4 5 5
7 7 8
11 13 15
17 19 21
19 21 23
12 14 16
10 11 13
25 28 32
44 49 56
61 67 76
75 83 94
83 92 104
79 87 99
80 88 100
85 95 108
82 92 105
93 104 119
99 109 123
87 97 110
94 104 118
85 94 107
76 85 98
78 86 98
93 103 116
89 99 112
98 110 125
108 121 137
109 121 136
83 93 105
60 67 76
51 57 64
45 51 58
53 60 68
63 70 80
80 88 100
98 109 124
121 136 155
133 148 168
144 160 181
145 162 184
157 173 195
145 162 185
152 169 193
153 169 190
145 162 185
138 155 176
142 158 179
122 135 154
119 132 148
112 124 140
101 113 128
78 88 100
61 68 78
42 47 53
14 15 18
19 21 24
43 47 53
43 48 55
12 13 15
36 40 46
74 82 94
95 105 118
97 108 122
100 112 127
95 105 119
105 117 134
109 121 137
111 124 142
102 115 131
100 111 125
89 98 111
52 58 66
18 19 22
63 70 79
92 103 118
112 125 142
121 135 153
125 139 159
128 143 163
138 154 175
156 172 194
138 153 174
99 112 129
94 107 124
86 98 113
77 87 101
80 90 104
74 84 97
84 95 109
98 111 129
103 117 135
121 138 160
139 157 181
142 161 186
159 180 208
161 184 213
168 191 221
179 203 234
187 211 244
181 205 237
172 195 225
164 186 215
162 185 214
163 186 215
164 186 215
156 178 207
153 175 203
142 162 188
146 166 192
139 158 183
126 143 165
125 142 165
99 112 129
85 95 109
56 63 73
47 53 61
46 52 61
66 75 87
84 95 110
104 117 134
120 137 158
139 158 183
134 152 175
126 144 166
129 146 168
127 144 167
115 131 151
106 120 139
105 120 139
124 140 161
132 149 172
155 175 202
153 173 200
139 159 184
132 150 173
106 120 139
100 114 132
94 107 123
79 90 104
75 86 99
50 56 65
51 58 68
71 80 93
117 133 153
160 181 208
181 206 238
192 218 252
193 219 254
191 216 250
183 207 238
173 195 224
156 178 206
136 154 178
120 136 158
118 134 154
119 135 155
118 132 152
124 141 163
119 135 156
124 141 163
125 143 166
115 131 151
132 149 172
140 159 185
156 178 206
165 187 216
158 181 211
154 175 202
152 173 199
148 167 193
140 159 183
132 150 174
145 165 191
155 177 205
157 178 204
161 183 211
163 185 213
160 181 208
138 158 183
108 122 141
51 58 67
29 33 38
64 72 83
114 129 149
152 173 200
169 191 221
179 203 234
184 208 240
185 210 242
190 215 249
188 214 247
190 216 248
187 213 246
188 213 247
191 217 251
191 217 251
188 214 248
187 213 246
182 206 237
177 202 233
174 198 228
162 184 212
154 175 201
148 167 193
133 151 175
133 151 174
138 156 179
144 164 190
169 191 220
168 191 220
165 187 217
169 191 220
174 197 228
173 197 228
174 197 228
171 195 226
183 207 239
182 207 239
180 203 233
168 190 220
156 177 205
132 150 174
82 93 108
46 52 61
25 29 34
52 60 69
51 58 67
62 71 82
73 83 95
64 72 84
71 80 93
78 89 103
86 98 113
101 114 132
120 136 157
142 160 185
151 172 199
162 184 212
170 192 222
177 200 231
179 203 234
172 195 226
170 192 221
164 185 214
158 180 208
156 177 206
172 195 224
177 201 232
182 207 239
189 215 248
190 215 249
188 214 248
186 212 245
185 210 243
182 206 239
175 199 231
164 185 213
159 180 207
149 169 196
137 155 179
129 147 170
130 147 170
118 134 155
103 117 135
111 125 144
103 117 135
103 117 135
90 102 118
84 95 109
52 60 70
38 43 50
24 27 31
20 23 27
23 26 30
37 42 49
46 52 60
56 64 75
69 78 90
71 80 93
65 74 85
66 76 88
56 64 74
46 53 61
51 58 67
56 64 74
46 52 60
38 43 50
37 41 48
52 59 69
69 78 90
87 99 114
86 97 112
103 117 135
125 142 164
144 164 190
170 193 223
179 204 236
187 213 247
190 216 249
189 215 249
192 217 250
187 214 248
186 211 244
173 197 228
164 186 215
158 180 209
154 173 200
158 179 206
154 175 201
154 176 204
148 169 196
146 165 191
160 182 211
160 182 212
156 177 205
140 158 182
135 153 177
116 131 151
103 117 135
88 100 116
75 86 99
67 76 88
53 60 70
40 45 53
38 43 49
33 38 44
32 37 43
49 56 65
70 79 91
79 90 104
89 101 116
94 107 124
105 119 137
135 153 177
139 158 182
119 132 150
135 151 171
130 144 162
105 117 134
93 103 117
108 118 132
126 140 159
121 135 154
125 140 159
93 104 117
68 76 86
67 75 85
70 78 88
65 73 83
66 73 83
57 63 71
60 67 76
77 85 96
89 99 112
86 96 109
64 71 80
41 45 52
21 23 26
32 35 40
48 54 61
45 50 57
49 54 62
42 46 52
19 21 24
9 10 11
4 5 5
5 6 7
2 3 3
12 14 16
29 32 37
40 45 52
57 64 72
63 70 79
73 80 91
77 86 98
82 91 104
100 111 126
105 117 132
118 130 147
111 123 139
116 129 146
90 100 113
63 70 79
32 35 40
12 13 15
22 24 28
30 33 38
41 45 50
43 48 54
54 61 69
61 68 77
56 62 70
53 58 66
55 62 70
61 68 78
56 62 70
40 44 50
32 35 40
15 17 19
4 4 5
7 7 9
11 12 14
28 32 36
35 38 43
26 28 32
12 13 15
10 12 13
29 32 36
47 53 60
56 62 70
70 77 87
77 86 98
68 76 86
73 81 91
73 81 91
82 91 103
105 117 133
97 109 123
94 105 119
96 107 122
93 103 117
84 93 105
88 97 110
100 111 127
112 124 141
123 137 156
116 130 148
117 131 149
103 114 130
80 89 101
69 77 87
64 72 82
74 83 94
84 93 105
92 102 116
108 120 136
126 141 159
138 153 174
142 157 178
141 158 179
151 168 191
145 161 182
151 168 192
152 170 193
145 162 183
151 168 191
148 164 186
145 162 184
130 145 165
110 124 141
91 102 117
67 74 84
43 48 55
22 25 28
9 10 12
26 29 32
48 54 61
27 30 34
22 25 28
58 65 73
81 90 102
87 98 111
94 104 117
99 110 124
99 109 123
126 139 157
120 133 150
117 130 147
108 121 139
104 116 131
89 98 111
53 59 66
30 33 37
72 79 89
83 92 103
110 122 138
121 135 152
131 146 166
131 147 168
151 168 191
139 154 174
152 172 198
151 171 199
154 175 203
156 176 203
160 181 210
162 182 210
162 183 211
173 196 226
169 190 218
163 184 213
149 169 194
133 151 175
121 137 158
108 122 141
100 113 130
72 82 94
61 69 81
77 87 100
85 97 111
106 120 139
130 147 170
157 179 208
176 199 229
182 206 238
182 207 240
172 196 226
152 173 199
144 164 190
139 158 182
134 153 176
143 163 188
145 166 192
140 159 184
116 132 152
94 107 124
75 85 99
67 76 88
68 78 90
76 86 100
97 111 128
103 117 135
121 137 157
116 131 152
109 125 145
107 121 141
125 141 163
134 152 176
153 173 200
161 182 210
165 187 215
151 172 200
151 171 198
143 162 188
136 155 180
121 137 158
117 133 153
117 132 152
102 116 135
97 111 128
96 109 126
94 107 124
107 122 141
112 126 146
159 179 207
189 214 247
194 219 252
188 215 249
182 206 238
183 208 241
181 206 240
185 209 240
183 208 240
183 207 239
185 210 243
184 209 241
181 205 238
166 188 217
155 176 203
140 159 185
118 135 157
93 106 123
93 105 122
79 90 104
79 89 103
63 72 83
53 61 71
67 77 88
82 94 109
97 109 125
121 137 158
137 157 182
142 161 187
145 165 192
133 151 174
134 153 177
123 139 161
107 120 138
115 131 152
121 137 158
125 142 164
117 133 153
90 102 118
85 96 111
83 95 110
108 122 141
128 145 167
147 167 194
165 187 217
180 204 237
185 210 242
187 213 246
188 212 245
182 208 241
185 209 241
182 207 239
181 204 236
183 206 238
188 212 244
190 215 248
192 218 252
191 217 252
192 218 252
196 221 254
193 220 254
192 218 251
190 216 250
192 217 250
140 159 184
149 169 195
148 168 193
141 160 185
147 167 194
152 173 200
163 186 216
175 198 229
180 205 238
186 212 245
184 208 240
168 190 220
142 161 185
113 129 150
93 105 121
71 80 93
56 63 72
39 44 51
59 66 77
79 90 104
80 91 105
75 85 98
62 70 81
70 79 91
63 71 82
60 68 78
58 67 77
55 62 72
70 80 93
79 90 103
93 106 122
103 117 135
118 134 154
118 133 153
137 155 180
153 174 200
171 194 225
176 201 233
184 209 241
186 211 243
188 214 247
188 213 246
188 213 245
181 206 239
174 198 229
171 194 224
168 189 218
162 184 213
154 175 202
147 167 194
144 163 189
146 166 193
149 168 194
138 157 181
117 133 154
97 110 127
87 99 114
77 88 101
75 85 99
83 95 110
85 96 110
77 87 100
63 72 83
47 54 63
37 42 49
26 30 34
35 40 46
33 38 44
33 38 43
37 42 49
40 45 52
46 52 61
62 70 80
81 93 108
99 112 129
97 111 128
106 121 141
124 141 162
121 137 157
121 138 161
121 137 157
124 141 163
131 148 171
144 163 189
151 172 199
144 164 189
147 167 193
160 180 208
170 193 223
180 205 237
187 212 244
191 216 250
191 217 252
193 218 252
188 214 249
188 213 246
185 210 244
184 209 241
185 210 243
186 211 244
187 212 244
187 213 246
187 213 246
185 209 239
162 184 212
137 155 178
115 130 150
111 125 144
99 112 129
83 94 108
71 81 93
55 63 72
53 61 70
76 86 100
112 126 145
122 138 159
127 144 167
123 139 160
116 132 153
103 116 133
84 95 110
74 84 97
72 83 96
61 69 80
37 43 50
40 45 52
69 78 89
83 94 109
119 132 150
141 157 178
132 147 166
114 126 143
87 97 111
105 115 130
116 128 145
128 141 160
114 126 143
83 92 103
73 81 92
64 71 81
55 61 69
59 65 73
60 67 75
71 79 90
80 89 100
82 92 104
83 92 104
86 96 109
70 78 88
36 40 45
22 24 28
50 55 62
52 58 66
46 51 57
31 34 39
12 13 15
4 5 6
5 6 6
5 5 6
10 11 13
12 14 16
12 14 16
23 26 30
41 46 52
59 65 74
68 76 87
76 85 96
88 98 111
100 111 126
104 116 131
106 118 135
113 126 143
110 122 139
91 101 114
70 78 89
47 52 60
27 29 33
6 7 8
19 21 24
24 27 31
31 35 40
44 49 55
51 57 64
58 65 74
68 75 85
64 71 80
61 68 77
47 53 59
49 54 61
34 38 44
17 19 22
7 7 8
19 21 25
31 35 39
40 45 51
49 54 62
40 44 51
20 22 25
9 10 12
21 23 26
33 37 43
52 58 66
56 62 70
67 74 84
66 73 82
79 88 100
95 105 119
108 120 137
110 123 140
114 127 144
116 129 145
117 131 149
114 127 144
106 118 134
102 113 127
116 129 146
126 141 160
128 142 161
137 152 173
124 139 159
111 123 139
96 106 120
87 97 110
81 91 103
102 114 130
105 117 133
102 113 128
119 132 151
127 142 161
137 152 172
149 166 188
150 167 190
150 167 189
157 175 199
158 175 198
149 166 188
154 172 196
156 174 198
142 158 180
131 147 168
137 152 172
113 126 143
93 103 117
61 68 77
37 41 47
17 19 22
20 22 25
47 53 60
42 46 52
18 19 22
44 49 56
77 86 97
80 89 101
80 89 100
81 90 103
108 120 135
107 119 135
131 145 164
126 140 158
116 129 146
119 132 151
111 123 140
80 89 102
37 41 46
28 32 36
64 70 79
70 78 89
100 111 126
104 115 130
120 134 153
132 147 166
143 159 180
82 92 106
65 74 86
61 69 80
63 71 82
85 96 110
93 105 122
110 124 144
121 137 159
134 152 176
127 144 167
125 142 165
132 150 174
142 161 186
151 171 198
158 181 209
160 182 211
161 183 212
165 186 214
166 187 216
167 189 218
173 196 225
168 191 220
173 196 226
178 202 234
181 206 239
189 213 245
188 214 248
185 211 244
181 205 237
178 201 232
171 194 224
170 193 223
172 195 226
170 193 224
166 189 220
166 187 215
162 184 212
163 185 213
154 175 203
153 175 202
144 164 190
136 154 178
138 156 181
132 149 173
134 154 179
131 148 171
132 149 172
112 127 147
105 119 138
81 92 107
53 60 70
55 62 72
80 90 105
97 110 127
98 112 130
90 102 117
103 117 135
111 127 146
137 156 181
148 168 195
144 164 190
147 167 193
161 182 211
173 197 227
182 207 238
185 211 244
186 212 245
190 216 249
193 219 252
191 217 251
187 212 245
185 209 241
186 211 244
194 219 252
191 217 251
190 215 249
188 213 246
179 204 236
166 189 219
161 183 211
165 186 215
169 192 222
167 190 220
174 197 228
159 181 208
152 171 197
151 172 199
145 164 189
158 179 207
142 160 185
161 183 211
176 199 229
176 200 231
172 195 226
176 199 230
175 198 229
184 208 240
189 214 248
184 209 242
185 211 244
184 208 239
172 195 225
161 183 211
140 159 184
91 103 120
53 59 68
41 47 54
77 87 101
122 138 160
151 171 198
164 186 215
171 193 223
174 197 228
171 193 222
161 182 211
152 174 201
157 178 205
166 188 217
168 191 221
175 198 229
181 206 238
187 212 246
191 216 249
190 215 248
181 205 237
175 199 230
176 199 230
170 193 223
96 109 126
101 114 132
94 107 124
109 124 143
120 137 159
137 155 179
158 180 208
172 195 225
178 202 233
166 187 216
137 155 179
105 120 138
82 93 107
71 80 93
40 46 54
48 55 64
39 44 51
35 40 46
54 61 71
67 75 87
70 79 91
73 83 96
73 83 96
71 81 94
77 88 102
83 94 108
70 79 91
75 86 99
78 88 102
78 88 102
51 58 68
37 42 49
77 88 102
124 140 161
156 177 204
177 201 233
184 210 243
190 216 251
190 217 252
192 219 253
192 217 250
187 212 245
183 207 239
184 209 242
185 209 242
185 210 242
184 208 240
175 199 230
165 187 217
163 185 213
149 169 196
140 158 182
133 151 174
131 149 172
140 159 184
140 159 184
129 146 168
121 138 160
113 129 149
99 112 129
85 98 113
61 69 80
40 46 53
25 29 33
20 23 26
23 26 30
19 22 25
27 30 35
44 50 59
59 67 77
62 71 82
82 93 107
104 119 137
112 128 148
119 134 155
121 137 158
131 149 173
144 163 188
152 171 196
155 175 202
159 181 210
171 194 225
170 194 225
169 192 223
170 193 222
179 203 235
182 207 239
184 209 242
183 209 243
181 206 238
184 209 241
185 210 242
191 216 248
192 218 252
190 216 249
188 214 247
187 212 244
182 206 238
176 201 232
167 190 220
169 192 222
170 193 222
154 176 204
156 177 204
145 165 192
148 168 194
142 161 187
143 162 186
133 151 174
130 148 171
137 156 181
139 158 182
142 161 186
121 138 159
96 110 127
88 100 116
84 96 110
87 98 114
80 91 106
72 82 95
72 82 95
69 79 91
71 80 93
68 78 90
68 77 89
62 71 82
56 64 74
81 92 106
98 110 126
118 132 151
149 165 186
139 155 176
100 112 127
86 95 108
98 108 122
107 120 136
105 116 132
82 92 104
69 77 87
76 86 98
71 79 89
65 72 82
74 83 94
75 84 95
80 89 101
81 90 101
84 92 104
80 89 101
77 86 98
60 67 76
24 26 30
23 25 28
37 41 47
43 47 53
25 27 31
14 16 18
4 4 5
7 8 9
8 9 10
7 8 9
9 10 12
3 3 4
5 6 7
20 23 26
45 50 57
62 68 77
72 80 91
83 92 104
94 104 118
102 113 129
100 111 126
102 113 129
110 122 139
86 96 110
68 75 85
53 58 66
46 51 58
28 32 36
14 15 18
11 13 15
13 15 17
28 32 36
40 44 50
48 53 60
47 52 59
61 67 76
52 58 66
40 44 51
30 34 39
27 31 35
25 28 32
13 14 16
11 12 14
31 35 40
51 57 65
56 62 71
45 50 56
35 38 44
19 21 24
6 7 8
26 29 33
39 44 50
60 67 75
70 79 90
77 86 97
86 96 109
86 96 110
109 121 138
124 138 157
134 148 168
128 142 161
128 142 162
135 150 170
129 143 162
120 134 152
127 141 159
134 149 170
132 147 169
127 141 161
128 142 161
120 133 151
100 112 127
110 122 137
111 124 141
109 122 139
119 132 149
118 131 149
117 130 149
133 148 168
141 157 178
152 168 190
149 165 187
156 173 196
154 172 196
154 171 195
149 166 188
151 167 189
144 161 183
149 165 186
139 154 174
130 144 163
109 122 139
85 95 108
61 68 78
33 36 41
11 12 14
36 40 46
44 49 55
17 19 22
32 35 39
55 61 69
74 83 94
89 100 113
111 123 139
116 128 144
123 137 155
142 156 176
138 153 174
122 136 153
119 132 149
126 141 161
116 129 145
77 86 98
33 37 42
24 26 30
38 42 48
62 69 78
75 84 95
116 129 146
118 131 149
134 149 170
163 183 211
155 176 203
145 165 191
136 154 178
118 134 155
98 112 129
96 109 126
75 86 101
55 63 72
61 69 80
84 95 110
83 95 111
82 93 108
87 98 114
111 125 143
105 118 136
104 118 136
94 107 124
105 120 138
106 121 140
114 130 151
109 123 142
84 96 112
92 103 119
100 114 132
110 124 144
135 154 179
164 186 215
184 208 241
188 213 246
184 209 241
183 208 241
186 210 242
184 209 242
178 203 235
175 197 227
167 191 221
157 178 206
152 172 199
151 172 198
155 176 204
155 175 203
168 193 224
167 190 220
165 188 217
152 172 199
153 174 202
150 169 195
144 164 190
110 125 144
90 102 118
64 73 84
51 58 67
48 54 63
58 65 75
47 53 61
45 52 60
53 60 69
60 68 79
79 90 104
77 88 102
91 104 121
94 107 124
98 111 127
123 140 162
141 161 187
152 173 200
161 183 212
166 189 219
168 190 220
172 195 226
174 197 228
187 212 244
191 216 249
187 214 249
188 213 245
187 212 245
182 206 238
187 212 244
184 209 242
186 210 241
191 216 249
187 212 245
183 207 239
172 196 227
166 188 216
159 181 209
158 180 209
154 174 201
167 189 219
170 194 226
164 187 216
160 181 209
147 167 193
140 159 184
159 180 208
164 186 214
172 197 229
186 211 243
188 214 247
185 209 241
177 201 231
171 195 225
166 188 217
151 171 198
144 164 189
125 142 164
80 90 104
51 58 67
59 67 77
85 97 112
116 132 152
120 136 157
135 153 177
141 161 186
146 166 192
144 163 188
151 171 197
163 185 213
174 197 228
185 210 242
186 211 244
186 211 244
191 216 249
192 217 251
194 219 252
191 217 252
189 215 249
189 214 248
162 185 214
142 161 185
123 141 164
126 143 166
118 134 155
127 144 167
131 148 171
132 151 174
134 152 175
122 138 160
113 129 149
95 108 124
84 96 112
66 75 86
56 63 73
51 58 67
47 54 63
39 44 52
51 59 68
63 72 82
84 96 111
97 110 127
98 112 129
112 127 146
116 131 151
115 131 152
124 140 162
133 151 175
143 162 187
145 164 190
147 165 190
152 172 200
151 171 197
153 173 200
141 159 184
133 150 173
132 148 171
119 135 156
115 131 151
99 112 130
84 95 109
94 106 122
98 111 129
129 147 170
128 146 168
130 147 169
152 173 199
177 200 230
181 206 239
178 203 234
163 185 214
160 182 210
141 160 185
138 156 179
140 158 183
123 140 163
109 124 143
101 115 133
89 101 117
72 81 94
56 63 73
46 53 61
30 35 40
24 27 32
23 26 30
18 20 24
27 30 35
41 47 55
53 60 69
54 61 71
64 73 84
68 77 89
77 87 100
87 99 114
97 110 127
115 130 151
117 133 153
120 137 158
145 164 190
156 178 206
166 189 218
173 195 225
174 198 230
176 200 231
175 200 232
178 201 232
180 205 237
184 208 239
187 213 247
191 217 250
188 214 248
189 214 247
187 212 245
189 215 249
188 214 247
190 216 249
186 212 246
187 211 243
190 216 250
187 213 247
189 214 248
182 207 239
172 194 223
153 175 202
132 149 172
119 135 156
111 126 146
99 112 129
88 100 115
74 84 97
67 76 88
62 70 81
59 67 77
59 67 77
60 69 80
72 82 95
75 85 98
70 80 92
69 79 91
79 90 104
101 114 132
100 114 132
105 119 137
80 90 104
66 75 86
58 66 76
40 46 53
30 34 40
34 39 45
60 67 76
135 151 172
145 161 182
144 160 181
107 120 137
74 83 94
88 97 109
85 95 109
69 77 88
65 72 82
90 100 114
102 114 129
103 114 129
95 106 121
101 112 127
91 100 113
81 89 101
58 65 73
59 66 75
62 69 78
60 67 75
48 53 60
18 19 22
10 11 12
14 16 18
25 28 32
21 24 27
9 10 11
12 14 15
17 19 21
17 19 22
21 23 26
10 11 12
13 14 16
28 31 35
46 52 59
57 64 73
61 68 77
67 75 85
84 94 107
90 100 114
92 102 115
91 101 114
91 101 114
75 84 96
63 69 79
58 65 73
51 56 64
51 57 64
40 44 50
30 33 38
26 29 32
15 17 20
18 20 23
31 35 39
33 36 41
38 43 49
34 38 43
34 38 44
27 31 35
30 33 38
36 40 46
45 51 58
33 36 41
14 16 18
24 26 30
38 43 49
32 36 41
26 28 32
13 15 17
8 9 10
31 34 39
48 54 61
60 66 76
69 77 87
92 102 116
101 112 127
114 127 143
121 134 153
139 154 174
132 147 168
141 157 179
140 156 178
142 158 179
137 153 175
141 156 175
143 159 181
149 165 187
141 157 177
139 156 178
144 160 182
130 144 163
129 143 161
122 136 155
121 135 154
123 136 155
127 141 161
121 135 153
140 155 175
142 157 177
139 154 174
147 164 186
142 157 178
134 150 171
140 156 177
157 174 196
155 173 196
151 168 190
150 166 188
151 167 189
137 153 173
113 126 144
100 111 125
67 75 86
45 50 57
17 19 21
20 22 26
45 50 57
34 38 43
11 12 14
34 38 43
67 75 85
92 103 117
113 125 142
127 141 159
129 143 162
150 167 190
139 154 175
134 148 167
125 138 157
128 142 162
119 133 151
92 103 117
54 60 68
17 19 21
19 21 24
32 35 40
68 76 86
82 91 103
96 106 119
121 134 152
129 145 165
120 137 159
124 142 165
118 134 155
112 127 147
100 113 131
79 90 104
70 80 93
67 76 88
67 76 87
55 63 72
58 67 78
72 82 95
95 108 125
111 127 147
131 147 169
134 151 174
135 153 177
132 149 173
122 139 160
96 110 127
94 106 123
74 84 98
67 77 88
50 57 66
29 33 38
51 57 66
74 84 96
93 105 122
113 128 149
143 162 187
152 173 200
163 185 213
169 192 222
178 201 232
185 210 242
186 212 246
186 210 242
176 200 231
171 195 225
163 185 213
158 179 207
165 188 217
165 188 218
170 193 223
167 190 220
180 203 234
188 213 245
189 215 249
186 209 240
165 187 215
127 144 166
68 77 89
35 40 46
35 39 45
46 52 60
49 55 64
65 74 86
64 73 85
61 70 81
62 71 81
72 81 93
82 92 106
83 94 109
71 80 93
66 75 87
78 87 100
60 69 80
59 66 76
54 62 71
30 34 40
60 68 79
102 115 133
133 152 177
156 177 206
162 183 211
169 192 222
161 183 211
158 180 209
154 175 202
154 175 202
164 185 214
169 192 222
177 201 232
181 205 237
181 204 236
172 197 228
175 198 229
175 198 229
168 191 220
166 189 219
165 188 217
170 192 221
173 196 227
175 199 229
172 197 228
176 200 231
169 192 221
158 180 208
141 160 185
105 120 138
78 88 102
56 64 74
53 61 70
61 69 79
50 56 66
42 48 55
32 36 42
25 28 33
20 22 26
15 17 20
19 22 25
24 27 31
38 43 50
46 52 60
57 65 75
89 100 116
120 136 157
130 148 171
143 161 186
149 168 193
152 172 200
159 182 210
167 189 219
175 199 231
180 204 235
180 204 236
182 207 239
183 207 240
183 207 239
162 183 210
163 185 214
167 190 220
173 197 227
177 201 232
181 207 240
183 208 241
187 212 245
185 210 243
181 205 236
166 188 218
137 155 179
112 127 147
88 99 114
49 55 64
51 57 66
59 67 77
55 62 72
55 62 72
60 68 79
78 88 102
92 104 121
103 116 133
113 127 147
116 132 152
118 134 154
114 129 148
95 108 125
71 80 93
36 41 47
25 28 33
30 34 40
28 32 38
31 35 40
37 42 49
45 52 60
45 51 59
47 53 61
58 66 77
56 63 73
59 68 78
73 83 96
92 104 120
113 128 148
125 142 164
139 157 180
149 168 194
161 183 211
170 193 224
179 203 234
188 213 247
192 219 254
192 218 252
188 214 247
184 209 242
173 197 229
160 181 210
140 159 183
111 126 146
78 89 103
44 50 58
19 22 26
31 36 42
42 48 55
30 34 40
26 30 35
26 29 34
34 39 45
51 58 67
59 67 78
64 73 84
71 79 91
79 90 104
89 101 117
94 107 124
103 117 135
107 122 141
122 139 161
134 152 176
142 161 185
140 158 183
136 154 179
141 160 184
158 179 206
153 174 202
155 175 201
153 174 201
155 175 201
147 167 192
138 156 181
134 152 175
134 153 178
155 175 203
157 177 204
177 202 234
187 213 248
187 213 246
181 206 238
175 199 230
172 194 224
167 189 219
165 187 216
169 192 221
163 184 213
151 172 199
154 175 202
152 173 200
148 168 194
147 166 192
123 140 162
122 139 161
94 106 122
79 90 105
75 85 98
57 65 75
37 42 48
19 22 25
22 25 29
26 30 35
27 31 36
27 31 36
34 38 44
37 42 48
33 38 44
43 49 56
64 72 84
60 68 79
60 68 78
54 61 70
66 75 86
95 107 123
150 166 187
144 160 181
142 158 179
115 128 146
80 89 101
67 74 84
63 70 79
62 70 79
93 102 115
109 121 137
125 139 158
114 127 144
119 132 150
125 140 160
110 122 138
87 97 111
59 65 74
60 66 75
60 67 76
63 70 80
52 58 65
24 27 30
8 9 10
7 8 10
15 17 19
10 11 12
24 27 31
26 29 33
23 26 30
26 29 33
23 25 29
19 21 24
38 43 49
46 51 57
56 63 72
61 67 77
68 75 86
88 97 110
95 106 120
95 106 119
85 95 108
67 75 85
70 78 89
63 70 79
58 64 73
55 62 71
57 63 71
59 66 75
59 66 76
56 63 72
41 45 51
19 21 23
10 11 12
24 27 31
33 37 42
38 42 48
37 41 46
39 44 49
44 48 55
56 62 70
61 67 76
52 58 66
32 36 41
12 14 16
8 9 10
12 13 15
11 12 14
5 6 7
12 13 15
35 39 44
49 54 61
50 56 63
75 83 94
93 103 118
115 128 145
119 133 151
131 145 163
142 157 177
152 169 192
146 163 187
153 171 194
147 164 187
153 170 193
146 163 184
154 171 193
159 176 199
142 159 182
150 166 188
139 155 176
135 150 171
122 137 156
131 146 166
136 151 171
120 134 153
138 153 173
142 158 180
131 146 166
146 162 184
153 170 193
146 162 184
149 166 188
142 158 179
158 176 199
147 163 185
153 170 193
151 168 190
160 177 199
137 153 175
145 161 182
112 124 140
91 102 115
62 69 78
21 24 27
20 22 25
38 43 49
38 42 48
24 27 30
23 25 29
59 65 75
80 89 102
114 127 145
121 134 151
111 123 140
131 147 167
143 159 179
124 138 156
135 150 170
132 147 168
127 140 158
107 119 135
79 89 101
44 49 55
14 16 18
18 20 22
44 49 55
80 89 100
67 75 85
115 127 144
128 144 165
137 155 179
128 147 171
122 139 160
111 127 147
94 107 123
83 94 109
86 97 112
80 91 105
55 63 73
30 34 40
27 30 35
37 42 49
53 60 69
55 62 72
79 89 102
92 104 120
94 107 123
98 111 129
85 97 113
89 101 116
96 109 127
95 108 125
107 121 139
115 131 151
116 132 153
126 143 166
139 158 183
150 169 195
162 184 213
171 195 225
177 200 231
176 199 230
184 209 241
184 208 240
182 207 239
188 214 247
191 217 252
191 216 249
191 217 250
189 215 249
187 212 245
187 212 245
184 209 241
176 200 231
168 191 220
165 188 217
166 189 218
160 181 210
149 169 196
148 168 194
138 155 178
102 116 134
84 96 110
95 108 124
101 114 131
111 126 145
123 139 161
132 150 175
132 150 173
115 131 152
95 107 124
80 91 105
90 102 118
85 97 113
73 83 95
46 52 60
37 42 48
46 52 60
49 56 64
59 68 79
70 80 93
66 76 88
53 60 70
41 46 53
48 55 64
69 79 92
78 89 103
79 89 103
79 90 104
79 90 104
70 80 92
62 71 82
58 66 76
65 74 86
75 85 98
77 87 101
84 95 110
100 114 132
112 126 144
121 137 159
135 152 176
122 139 160
125 143 166
116 132 152
95 107 124
93 106 122
97 110 127
122 138 158
122 139 161
148 168 194
168 190 219
175 199 230
172 196 228
171 193 223
169 192 223
155 176 204
131 149 173
105 118 136
77 87 101
69 78 91
54 61 71
54 61 71
53 60 70
55 63 73
44 50 58
55 62 72
67 76 88
58 66 76
49 56 65
60 68 79
66 75 87
92 104 120
102 115 133
115 131 151
131 149 172
146 165 190
149 170 196
133 151 174
118 134 154
101 115 134
91 103 119
87 99 114
92 104 121
111 126 145
140 159 184
167 189 219
183 207 239
191 216 249
191 217 250
181 205 237
162 184 213
134 153 176
103 118 137
67 76 88
38 43 49
42 47 54
57 64 74
59 68 78
73 83 96
85 96 111
84 95 110
87 98 114
77 88 102
64 73 85
49 56 65
46 53 61
39 45 52
32 36 42
23 26 30
35 39 45
38 43 49
48 54 63
53 60 70
54 61 70
48 55 63
47 53 62
58 66 76
79 90 104
98 112 130
114 130 151
144 163 188
170 193 223
178 202 233
183 207 239
185 209 241
185 210 242
185 210 244
183 207 239
182 207 239
175 199 230
169 192 222
166 189 218
162 184 212
166 189 219
169 191 219
157 178 205
146 165 191
137 155 178
126 144 166
126 143 166
125 144 167
126 142 164
144 164 190
157 178 206
155 175 202
148 169 196
153 174 202
156 177 204
159 179 206
149 168 194
125 141 163
104 118 136
67 76 88
34 38 44
34 39 45
49 55 64
64 73 85
73 83 97
72 81 94
77 87 100
73 83 96
67 76 89
84 95 110
75 85 99
98 111 129
103 117 135
112 126 146
111 126 145
124 141 163
122 138 160
132 150 175
141 160 185
142 161 186
149 169 195
165 188 219
178 202 232
189 214 248
187 213 245
185 210 242
177 201 232
161 184 213
158 179 207
150 170 196
143 162 187
146 166 192
153 174 201
149 170 196
137 156 180
118 134 155
105 119 137
89 102 118
76 86 100
80 90 105
75 85 99
52 60 69
24 28 32
15 17 20
9 10 12
13 15 18
17 19 22
21 24 27
31 35 41
42 47 54
40 46 52
48 54 62
52 59 68
65 74 86
86 98 113
98 111 128
103 116 134
122 138 160
117 133 153
142 157 177
148 165 187
129 144 163
108 120 136
86 96 109
61 68 77
65 72 82
89 98 112
128 142 161
132 146 165
128 143 162
127 141 160
134 149 169
139 153 172
112 125 143
97 107 120
65 72 82
62 69 78
66 74 84
74 82 92
55 61 69
34 38 44
21 23 26
13 14 16
12 14 16
20 22 25
19 21 24
26 29 33
34 38 43
32 36 40
15 17 19
22 24 27
41 45 51
48 53 60
51 57 65
63 70 79
66 73 83
84 93 106
82 91 103
68 75 85
64 72 82
47 53 61
39 43 49
29 33 38
30 33 37
39 43 49
44 49 56
51 57 64
61 67 76
51 57 65
29 33 38
6 7 8
16 18 20
25 28 32
36 40 46
37 41 47
48 54 61
60 67 76
64 72 82
75 83 93
66 74 84
47 53 60
31 35 40
23 26 29
26 29 34
24 27 30
19 21 24
26 29 33
34 38 43
47 52 59
62 70 79
72 80 90
96 108 123
110 122 140
125 140 159
134 149 168
141 156 177
142 158 179
145 163 186
140 156 177
144 160 182
140 156 177
140 157 178
148 165 187
154 171 193
154 170 193
152 168 191
162 180 204
142 158 180
149 165 188
144 160 181
132 146 165
134 149 168
134 149 169
132 147 168
138 154 176
132 147 168
150 167 190
152 168 190
143 161 184
140 156 178
144 160 182
141 157 179
154 171 194
157 174 196
139 155 175
137 152 173
122 136 154
97 108 121
67 75 85
38 42 47
9 10 11
30 33 38
39 44 50
28 31 35
13 15 17
43 48 54
84 93 106
110 123 139
125 139 157
119 133 152
127 141 160
139 153 173
131 145 164
133 147 166
126 139 157
115 127 143
115 128 145
92 103 116
60 67 76
37 41 46
9 10 12
19 21 24
68 75 85
62 70 79
119 132 150
147 167 192
160 182 211
171 194 225
174 198 228
172 196 227
166 189 219
155 177 204
127 145 168
123 140 161
120 138 161
110 126 146
104 117 136
93 106 123
93 106 122
85 96 112
61 69 81
51 58 66
54 61 70
59 67 78
58 66 76
81 91 105
84 95 111
88 99 115
90 102 118
106 121 140
114 129 149
109 124 144
125 142 165
140 158 183
151 171 198
158 180 209
155 176 203
151 171 197
152 173 200
150 170 197
160 181 209
174 197 228
182 206 238
190 217 251
193 218 252
191 216 250
192 216 249
185 210 243
186 211 244
191 216 249
191 216 248
179 203 235
177 201 232
176 201 233
175 198 228
167 189 218
166 188 217
157 179 208
154 175 202
143 162 188
141 159 183
128 145 168
100 113 130
85 97 111
93 105 122
99 112 130
98 111 129
89 101 117
83 95 109
92 104 120
104 118 137
97 110 127
95 107 123
71 81 95
59 66 77
58 66 77
57 65 76
67 77 89
82 93 107
90 103 119
98 111 128
119 136 158
127 145 167
120 137 158
104 118 136
83 94 109
77 88 101
75 85 99
62 71 81
49 55 63
32 37 43
39 44 51
36 41 47
47 53 62
61 68 78
91 103 120
118 134 155
124 141 163
122 138 158
159 181 209
149 169 196
134 151 175
136 155 179
126 142 164
98 112 129
95 108 125
74 83 97
68 77 89
92 105 122
105 119 137
120 136 157
137 156 181
157 177 205
178 201 232
190 215 248
192 218 253
186 210 241
167 190 220
131 148 172
78 89 102
53 60 70
35 40 46
32 36 41
37 42 48
41 46 53
55 62 71
54 60 69
45 51 59
47 54 62
54 61 71
73 83 95
82 93 108
73 83 97
69 78 90
62 71 82
57 65 75
59 67 76
149 169 195
154 174 201
158 179 208
165 187 217
174 198 229
183 207 239
183 209 242
171 194 223
144 164 190
121 138 160
99 112 130
73 83 96
56 64 75
47 54 62
42 48 55
41 46 53
51 58 67
62 70 81
79 90 104
94 107 124
99 113 131
116 132 153
115 131 151
115 131 151
122 138 159
121 137 158
134 152 177
146 166 192
152 173 200
154 175 202
160 182 211
160 183 212
160 183 212
159 180 208
156 178 207
159 180 208
164 185 212
173 196 226
183 209 242
188 214 248
191 217 250
188 214 247
188 214 247
187 212 244
178 201 232
172 196 228
174 198 229
178 202 234
180 204 236
179 204 235
179 203 235
167 190 219
172 195 225
174 197 228
166 189 218
175 198 229
179 202 233
179 204 236
177 202 234
178 202 234
182 206 237
183 208 240
179 203 234
173 196 227
169 191 220
161 182 210
152 172 198
135 153 176
123 140 163
95 108 125
79 89 103
52 59 68
34 38 45
48 55 63
72 82 95
107 121 139
127 144 166
121 138 160
126 143 165
120 135 156
106 121 141
101 114 131
115 131 152
126 142 164
136 155 180
140 160 186
156 177 204
146 167 193
160 181 210
164 185 214
157 178 206
166 188 217
144 163 189
152 173 201
171 194 224
186 211 244
190 215 249
187 213 247
182 207 239
177 199 229
163 185 214
161 182 211
159 180 207
155 176 203
148 168 194
137 156 180
135 152 176
133 151 175
123 140 162
121 138 160
116 131 151
99 112 130
90 102 119
69 78 89
43 49 56
44 50 58
46 52 60
48 55 64
44 50 58
31 36 41
16 19 21
26 30 35
29 33 38
32 37 43
57 64 74
59 66 76
62 70 82
86 98 114
90 102 117
83 95 110
84 95 110
90 103 120
107 120 138
134 148 167
150 167 189
132 148 169
133 147 165
83 92 104
67 75 85
65 73 83
103 115 131
127 141 160
142 157 178
146 162 183
139 154 174
138 153 173
134 149 169
132 145 163
121 134 152
88 98 110
77 86 97
77 86 98
80 90 102
76 85 97
62 69 79
52 58 66
30 33 38
13 14 16
3 4 4
7 8 9
22 25 29
37 42 47
32 36 41
9 10 11
19 21 24
25 28 31
31 34 39
36 40 46
30 34 39
31 34 38
39 43 49
41 46 52
29 33 37
22 25 28
9 10 11
14 16 18
17 19 21
11 12 14
23 26 30
31 35 40
35 39 45
33 37 43
24 26 30
8 8 10
22 25 28
36 40 46
40 45 51
40 45 51
46 52 59
68 76 87
82 91 103
87 97 111
78 88 100
61 68 77
48 54 62
38 43 49
38 43 48
32 36 41
34 38 43
36 40 45
50 56 64
68 75 85
73 81 92
78 87 99
99 110 125
110 123 139
121 134 152
133 147 167
139 156 178
149 166 187
142 158 179
143 159 181
151 168 191
144 160 181
156 175 200
147 164 186
152 168 190
143 160 181
145 160 180
148 164 186
138 154 176
142 157 177
132 147 167
133 148 167
132 148 169
153 169 190
133 149 169
143 159 181
137 153 175
124 139 158
116 129 147
124 138 157
131 146 166
132 147 168
145 161 182
142 157 178
153 170 192
140 155 176
120 133 151
105 117 133
85 95 109
54 59 67
23 25 29
7 7 9
35 39 44
35 39 44
16 17 20
26 29 33
63 70 80
97 108 122
105 117 133
114 128 147
119 133 151
135 150 171
139 154 174
123 137 157
123 136 154
109 121 137
93 104 118
88 97 110
73 82 93
44 49 55
17 20 22
17 19 22
51 57 65
56 62 71
113 125 142
133 151 174
130 148 171
137 155 180
134 152 175
142 162 188
147 167 192
151 171 198
159 182 210
174 197 228
176 200 232
178 202 233
183 206 237
182 207 239
185 209 241
180 204 236
178 202 233
174 197 227
177 201 233
178 202 234
184 209 242
179 203 235
183 207 238
174 198 230
167 189 217
160 181 210
161 183 212
157 179 206
134 151 175
108 122 141
72 81 93
82 94 108
106 120 139
116 132 152
133 150 173
139 158 183
152 173 200
153 174 201
159 179 206
161 182 210
166 188 217
173 196 226
177 201 233
180 205 237
190 214 246
191 214 246
189 214 248
193 218 250
191 216 250
191 217 250
188 213 247
191 216 248
185 210 243
176 200 232
172 196 227
163 185 214
156 177 205
156 177 205
151 172 200
155 177 204
150 171 198
141 160 186
121 137 159
108 123 142
103 117 136
104 119 138
121 138 160
131 149 173
131 148 170
119 135 156
89 100 116
92 103 119
85 97 113
90 103 119
101 115 133
97 111 129
89 102 118
80 90 104
65 73 85
72 81 94
73 83 96
70 80 93
59 67 77
49 55 64
34 39 46
25 29 34
55 63 74
106 120 138
130 148 172
139 157 181
133 150 173
150 170 196
160 181 209
166 188 218
171 192 221
178 203 234
181 206 238
184 209 241
187 213 247
194 219 253
193 219 254
190 216 250
187 211 243
184 209 242
182 206 239
185 210 243
188 212 245
184 210 244
187 212 244
189 214 247
187 213 246
189 214 248
185 209 241
178 203 234
179 202 233
176 199 230
173 196 226
163 185 214
149 169 196
150 171 198
126 144 166
131 149 172
133 152 177
114 130 152
101 113 130
87 99 115
85 96 111
65 75 87
58 67 78
40 46 53
38 43 50
41 47 54
57 65 75
60 68 79
164 186 215
141 160 186
108 123 141
96 109 127
95 108 124
103 116 134
94 106 122
86 96 111
80 91 106
94 106 122
85 97 112
87 99 114
73 83 96
55 62 72
47 54 62
51 58 67
75 86 99
77 87 101
81 92 107
74 83 96
60 68 79
53 60 69
53 61 71
81 91 105
73 82 95
74 84 96
76 87 100
78 89 104
69 79 92
83 94 108
118 133 153
154 176 203
175 198 229
188 213 246
189 215 248
187 212 244
173 197 228
173 196 225
170 193 223
157 178 206
147 167 194
158 179 207
172 195 225
182 207 240
186 211 244
192 217 251
193 219 252
189 215 248
189 214 247
188 213 246
188 212 244
179 204 236
173 195 225
165 188 218
147 167 193
132 150 173
105 120 139
91 103 120
96 110 128
106 121 140
104 118 137
109 123 142
111 125 145
111 127 146
110 124 143
123 139 161
131 148 171
136 154 178
129 146 169
108 122 141
80 91 105
42 48 55
36 41 47
46 52 60
71 81 94
77 88 102
91 104 121
101 115 132
130 147 170
145 165 191
156 177 203
152 172 199
150 171 198
142 161 187
139 158 182
142 161 186
142 161 186
141 160 185
143 162 186
133 151 174
134 153 177
134 152 175
153 175 203
170 193 223
182 206 238
186 212 245
189 215 250
188 214 247
179 203 234
185 210 243
182 208 241
180 206 239
179 202 233
177 200 231
172 196 227
169 191 220
178 201 232
176 200 232
167 191 221
163 185 213
150 170 196
133 151 175
111 126 146
90 102 118
80 91 106
61 69 80
60 68 79
62 70 81
58 65 75
44 51 59
48 54 63
45 51 60
38 43 50
33 38 44
35 41 47
48 54 62
59 67 77
48 55 64
29 33 38
20 23 26
23 26 30
33 38 43
65 74 86
99 113 131
137 152 172
142 157 177
129 144 164
111 122 137
106 118 134
61 68 78
63 70 80
104 115 130
127 141 160
144 159 179
148 164 184
151 168 191
135 151 172
138 153 173
132 148 168
121 135 153
108 120 137
99 110 126
97 108 122
102 114 129
103 114 129
103 114 128
75 83 94
46 51 58
15 17 19
9 10 11
12 13 15
18 21 24
39 43 49
35 39 44
12 13 15
12 13 15
17 19 22
16 18 21
9 10 12
9 10 12
8 9 11
10 11 12
11 12 14
11 13 14
24 26 30
29 33 37
30 34 38
20 22 25
15 16 19
10 11 12
9 10 11
8 9 10
9 10 11
3 4 5
16 17 20
40 44 50
55 61 69
51 57 65
53 59 66
63 70 80
73 82 93
77 86 97
70 78 90
68 75 86
54 61 69
45 50 57
38 42 48
49 55 62
60 66 75
61 67 77
61 68 77
71 79 89
80 89 101
83 93 106
103 115 131
113 125 142
122 135 154
138 154 174
139 155 176
149 166 189
149 166 188
156 173 195
142 159 181
151 168 191
150 168 191
156 174 197
155 173 195
147 164 186
150 166 189
153 170 193
154 171 193
143 159 180
133 148 169
142 158 179
128 142 160
139 155 177
140 156 177
133 147 166
131 146 165
129 144 163
111 124 141
122 136 155
125 140 159
133 148 167
141 157 178
148 164 185
153 169 192
137 151 171
126 140 159
112 125 142
79 88 100
47 52 59
15 16 18
16 18 21
38 42 47
19 21 24
23 26 29
60 66 75
79 88 100
96 107 121
113 126 143
108 121 138
110 122 139
122 135 153
122 136 155
104 115 131
87 96 108
69 76 86
87 96 107
85 94 107
46 52 59
21 23 26
18 20 23
48 53 60
55 61 70
100 111 126
64 72 81
32 36 42
31 35 41
44 50 58
59 66 77
68 78 90
86 98 114
107 121 140
123 139 160
132 150 173
149 168 193
165 187 217
170 193 223
170 193 223
178 203 235
179 204 236
186 211 243
191 216 248
188 214 247
187 214 249
190 216 249
189 215 248
188 213 246
186 211 244
187 213 247
191 217 251
188 214 247
189 214 246
177 202 235
168 190 219
143 162 188
112 127 147
83 93 108
49 55 64
34 38 44
65 74 86
97 111 128
109 123 143
129 147 170
149 168 194
161 183 212
154 175 201
163 185 214
162 184 213
165 187 216
181 205 237
180 205 236
185 211 244
191 217 251
193 219 254
194 220 254
189 216 251
193 218 251
193 218 251
187 213 248
190 217 252
189 214 248
193 219 253
189 216 250
187 213 247
180 205 238
186 211 243
186 210 241
164 187 216
151 170 196
133 151 174
136 155 179
139 157 181
132 151 175
114 129 149
92 104 121
65 75 87
54 61 71
55 62 72
53 59 68
60 69 79
80 90 103
75 85 98
60 69 79
58 66 76
56 64 73
44 49 57
34 39 45
17 19 22
51 58 67
81 93 107
91 103 119
68 77 89
33 38 44
20 23 26
13 15 18
21 24 28
32 36 42
35 40 47
43 49 56
44 50 57
50 56 65
61 69 79
95 107 123
118 134 154
124 141 164
123 140 161
145 164 189
162 184 213
178 203 235
176 199 230
183 208 240
186 211 244
184 209 242
187 213 246
190 215 247
187 211 243
178 202 233
170 193 223
163 185 214
166 187 216
163 186 215
165 188 217
168 190 220
165 187 215
160 182 211
171 195 226
174 198 229
178 202 234
175 199 230
171 193 223
158 179 208
152 173 199
135 153 177
115 130 150
100 113 131
78 88 102
60 68 78
50 57 66
132 150 174
131 150 174
151 172 199
168 190 219
179 203 234
181 206 238
175 199 230
170 192 221
159 180 207
148 168 194
129 146 169
89 101 117
53 61 71
28 32 37
36 40 47
72 82 95
78 89 103
83 94 108
67 75 87
48 55 63
35 40 47
49 56 65
57 65 76
63 71 81
55 62 72
49 55 64
56 64 74
66 75 87
84 96 111
97 110 127
98 111 129
96 109 126
109 123 142
127 143 165
145 164 190
160 180 207
166 189 219
181 206 239
186 212 246
190 215 249
192 218 252
189 214 247
189 214 247
188 213 246
183 208 241
186 211 244
183 207 240
176 201 233
172 195 225
165 189 219
164 187 217
156 178 206
155 176 204
147 168 194
134 152 177
133 151 175
118 134 154
97 110 128
81 93 108
81 93 108
69 79 91
51 58 68
28 32 37
16 18 21
19 22 25
23 26 30
26 30 35
35 40 46
40 45 52
36 41 47
37 42 48
57 65 75
56 64 74
62 71 83
73 83 97
91 104 120
98 111 127
107 122 140
120 136 157
125 142 165
125 142 165
139 157 182
154 175 202
164 186 216
167 190 220
165 188 216
159 181 210
166 189 219
167 190 219
172 196 227
176 198 228
170 193 224
167 190 220
174 197 227
174 197 228
170 192 222
171 194 223
161 182 211
162 183 211
167 189 219
175 199 231
172 195 226
171 195 226
178 201 231
187 212 245
190 216 250
186 211 245
173 197 227
165 188 217
142 161 186
116 131 151
97 110 127
109 124 143
117 133 154
125 142 164
128 146 170
110 125 145
102 116 135
95 108 125
85 95 110
62 70 82
39 44 52
30 34 40
24 27 32
34 39 45
45 51 59
39 44 52
41 46 54
45 51 59
54 61 70
52 59 69
55 63 74
65 74 85
72 82 95
102 115 132
144 160 180
132 147 167
123 137 156
101 112 127
87 96 109
59 65 74
73 81 91
107 118 134
135 149 169
140 156 177
127 142 161
148 163 185
151 167 189
141 156 176
131 146 166
128 143 162
115 129 148
110 122 139
108 120 136
110 121 137
124 137 156
109 121 137
73 81 92
49 54 62
27 30 34
19 21 24
8 9 11
15 16 18
42 46 52
37 41 47
25 28 32
15 17 19
13 15 17
11 13 15
30 33 38
35 39 45
33 37 43
34 38 43
36 40 45
41 46 52
44 48 55
46 51 58
48 54 61
57 63 72
56 62 70
39 44 50
28 31 35
22 25 29
13 15 17
10 11 13
25 27 31
30 33 38
34 38 43
44 48 55
51 57 65
49 54 62
39 44 50
39 44 50
30 33 38
36 39 44
24 27 31
22 24 28
35 39 44
47 52 59
52 58 66
68 75 85
79 88 100
76 85 96
92 103 117
100 111 125
104 115 131
111 124 141
122 135 153
145 161 183
148 166 189
150 166 187
147 164 186
151 168 190
145 163 186
150 168 191
148 164 185
149 165 187
152 170 194
152 169 191
158 176 200
152 169 192
153 169 191
147 164 186
143 158 178
146 161 180
139 155 175
133 148 167
143 158 178
120 133 151
122 135 153
116 129 147
116 130 148
115 128 146
143 158 178
139 154 175
159 177 200
143 159 181
136 152 173
119 133 151
97 108 123
67 75 85
34 38 44
12 13 15
19 21 23
34 38 43
14 16 19
37 41 46
67 75 85
74 82 93
90 100 113
100 111 126
99 110 126
110 123 140
105 117 133
80 89 101
66 73 83
55 61 69
72 81 92
88 98 111
53 59 67
18 20 23
14 16 18
39 43 49
44 48 54
117 131 149
118 134 156
97 110 127
119 135 156
114 130 150
134 152 177
152 172 199
166 189 218
178 201 232
183 208 240
182 208 241
182 207 239
173 197 228
165 188 218
152 173 200
149 169 195
144 163 188
152 174 202
150 170 197
157 178 206
155 176 203
152 173 200
149 169 194
143 162 187
138 157 182
132 150 174
125 142 164
131 148 171
108 122 141
115 130 151
121 136 157
112 126 145
106 121 140
90 102 117
71 81 94
63 72 84
53 60 70
52 60 70
72 82 94
103 117 136
131 149 173
125 142 164
102 116 134
86 98 113
95 108 124
90 102 118
93 106 123
109 124 144
123 140 162
149 168 194
168 192 222
183 207 238
185 209 241
185 210 244
186 210 243
189 214 247
190 216 250
190 217 251
192 218 252
191 217 250
190 216 250
189 216 250
189 215 248
189 214 247
190 215 248
188 213 247
187 213 247
183 206 237
174 198 229
172 196 227
160 181 210
153 174 201
143 162 188
143 163 189
156 177 204
160 182 212
160 181 209
171 194 224
183 207 240
189 213 246
189 215 249
187 213 246
189 214 246
182 206 237
177 201 232
150 170 197
141 160 185
138 156 179
113 128 148
120 136 157
98 110 126
84 95 109
52 59 68
51 58 68
61 69 80
56 64 73
56 63 73
51 58 67
30 34 40
28 32 37
30 34 40
38 43 49
53 60 69
74 85 98
97 110 126
106 120 139
110 125 145
112 127 147
107 122 141
106 120 139
106 120 139
103 117 136
101 115 134
92 105 121
67 76 88
66 74 84
58 65 75
67 77 90
70 80 93
90 102 119
120 137 159
154 175 202
170 193 223
175 199 230
175 199 230
176 201 233
174 196 226
171 194 223
155 176 203
157 178 205
150 170 196
146 166 193
138 156 181
113 129 150
91 103 119
82 92 106
129 146 169
115 130 150
105 119 137
98 111 128
92 105 121
96 109 126
89 101 116
73 82 95
63 71 82
55 63 73
51 58 66
40 46 53
33 38 45
42 47 55
63 72 84
83 94 109
88 100 117
99 113 130
101 115 133
97 111 128
100 113 131
103 117 136
115 130 151
122 139 160
122 139 160
127 144 167
133 151 175
140 159 183
142 162 187
148 168 193
154 176 204
167 190 219
176 199 230
184 209 241
187 212 246
193 218 251
191 218 253
189 215 248
189 216 251
193 219 252
188 214 249
189 215 249
184 209 241
181 205 237
182 206 237
184 209 241
187 211 243
183 209 243
190 215 248
188 214 248
189 215 249
191 217 251
188 214 248
188 213 246
185 211 244
181 205 237
177 202 234
175 198 228
173 196 226
173 196 227
160 181 208
140 158 183
107 122 141
87 99 115
62 70 81
37 42 48
21 24 28
26 30 34
36 41 48
43 49 57
37 42 49
56 63 73
85 97 113
105 119 138
108 123 142
98 112 130
82 93 107
60 68 79
53 60 70
68 77 89
100 114 131
99 113 130
124 142 164
136 153 177
136 155 180
129 146 168
129 147 170
127 144 167
140 158 181
150 171 199
162 183 211
171 194 225
174 196 225
167 190 219
161 182 210
155 175 202
145 165 190
145 165 192
165 188 218
179 204 236
188 214 247
192 218 252
190 216 249
188 214 248
191 216 249
185 211 244
188 213 245
188 213 246
187 213 247
182 207 239
172 195 226
154 175 203
139 158 182
114 129 149
89 101 117
79 90 104
60 68 78
53 61 70
74 84 97
87 98 113
101 115 132
107 121 141
122 138 159
119 135 156
117 132 153
104 119 138
89 101 116
78 89 103
82 93 107
77 87 100
61 69 80
48 54 63
42 48 56
54 62 72
67 76 88
89 99 112
121 135 154
132 148 169
111 123 139
87 97 110
70 77 87
52 57 65
61 68 77
118 131 148
139 155 176
142 158 179
133 147 166
132 148 169
148 163 184
141 156 176
145 160 181
118 131 149
118 131 149
111 123 139
108 119 135
124 138 156
126 140 158
115 128 145
97 107 121
59 66 75
40 44 50
11 12 14
18 20 22
32 36 41
52 57 65
55 61 69
37 41 47
24 27 30
31 34 39
42 46 53
58 65 74
63 70 80
67 74 83
63 71 80
76 85 96
77 86 99
76 84 95
76 85 96
85 95 107
84 94 106
73 82 93
52 57 65
45 49 56
22 25 28
19 21 24
19 21 23
11 13 14
9 10 11
18 20 23
29 33 37
32 36 41
19 22 24
11 12 14
8 9 10
9 10 11
10 11 13
18 20 23
22 24 28
27 30 34
41 46 53
50 55 63
64 71 81
86 96 109
107 119 134
109 122 139
119 133 150
125 139 158
131 146 165
136 151 171
148 165 186
158 175 198
156 174 197
156 173 196
156 174 197
152 169 192
148 165 188
157 174 196
145 160 181
154 171 194
148 164 186
149 165 188
154 171 194
149 165 187
138 154 176
139 154 174
131 146 167
131 146 165
117 132 150
114 127 145
111 123 139
119 131 148
115 128 146
115 128 146
128 143 163
139 156 179
146 161 181
143 159 180
127 141 161
108 119 134
77 86 97
56 62 70
36 40 45
13 14 16
26 29 33
19 21 24
25 28 32
47 52 58
60 66 75
65 73 83
72 80 90
78 87 99
80 89 102
71 80 91
48 53 60
39 43 49
37 41 47
42 47 53
54 60 68
53 59 67
23 25 29
7 8 9
24 27 31
31 34 39
100 112 128
151 172 199
160 182 211
168 191 220
170 193 224
181 206 238
180 204 236
180 204 236
181 206 239
174 198 228
178 201 232
174 197 227
166 189 220
168 191 221
168 190 220
167 190 220
173 196 228
172 195 224
170 193 223
164 186 216
171 195 226
171 194 225
152 173 200
130 148 171
97 110 127
79 90 104
73 82 95
86 98 113
89 100 115
82 94 108
56 64 74
30 34 40
24 27 31
20 23 26
35 39 45
37 43 50
38 43 50
50 57 66
61 69 80
67 76 88
72 83 96
87 99 114
101 114 132
96 109 127
94 107 123
107 123 143
105 120 138
113 128 148
140 159 185
148 168 195
162 184 212
169 192 222
173 196 225
177 202 234
179 203 234
180 205 237
179 204 237
180 204 236
179 203 235
176 200 230
180 204 237
179 204 236
179 204 235
187 213 247
191 217 251
188 215 250
186 211 244
181 207 239
180 204 235
168 191 220
163 186 215
157 178 207
152 172 199
152 172 199
140 159 183
124 141 164
117 133 154
112 127 147
119 135 156
137 156 180
166 188 217
180 204 236
189 214 247
186 212 246
180 205 238
182 206 238
175 200 232
176 201 233
185 210 243
189 214 247
187 212 245
183 208 240
175 198 229
169 193 224
157 179 207
125 142 164
88 101 116
45 51 59
47 53 61
60 68 79
64 72 83
77 87 100
69 78 91
74 84 97
86 97 113
94 106 122
111 126 145
118 133 153
135 153 177
141 160 185
124 141 162
90 102 118
58 65 76
48 55 65
38 43 50
29 33 38
23 26 30
37 42 48
51 58 68
74 84 97
91 103 119
106 121 140
131 149 172
149 169 196
168 190 218
177 201 233
188 213 245
189 215 249
182 207 240
169 191 221
161 183 211
160 181 208
152 172 198
141 160 185
134 152 175
135 153 177
132 150 173
145 164 190
151 172 199
153 174 202
160 181 208
154 175 202
148 168 194
142 162 188
140 160 185
128 145 167
100 114 132
68 77 88
40 45 52
28 33 38
29 33 38
52 59 68
66 74 86
72 82 95
76 87 100
72 81 94
58 66 75
72 82 94
77 87 101
76 87 101
85 97 112
74 84 97
73 83 96
80 91 105
93 105 121
102 115 133
124 141 163
147 167 192
166 189 219
177 201 232
187 213 246
191 218 252
190 216 251
193 219 253
195 220 254
191 216 249
189 215 249
190 215 247
184 209 242
180 204 236
180 205 237
184 209 242
179 203 234
181 205 237
168 192 222
167 189 219
163 185 214
159 182 211
160 182 210
153 174 201
146 166 192
140 158 183
131 148 171
134 152 177
120 136 158
123 140 162
120 136 157
110 125 144
103 117 135
89 102 118
72 81 93
56 64 74
26 30 34
23 26 30
33 38 43
33 38 44
40 45 52
49 56 65
40 45 52
47 54 63
63 71 82
74 84 97
81 92 107
95 108 125
97 110 127
86 98 113
58 66 76
29 33 38
19 22 25
28 31 36
44 50 59
56 63 74
63 72 83
70 80 92
85 97 112
107 121 140
121 137 158
131 149 173
141 161 187
161 183 212
175 198 228
185 210 243
187 213 247
187 212 245
183 208 240
188 213 246
187 213 245
181 206 238
180 204 236
183 209 242
186 212 245
191 217 252
187 213 246
186 211 244
188 213 246
189 214 248
187 212 245
177 200 232
176 200 230
166 188 217
172 195 225
173 197 227
164 186 216
153 174 202
153 174 200
129 147 170
119 136 157
81 92 107
63 71 83
64 72 84
77 87 100
80 91 105
70 80 93
69 79 90
74 84 97
86 98 113
102 117 136
111 126 146
94 107 124
78 89 103
58 66 77
65 74 86
88 100 115
109 123 142
135 150 171
138 152 172
113 126 143
79 88 99
65 72 82
46 51 58
74 82 93
110 123 141
134 149 168
136 151 172
127 141 159
117 129 145
125 140 159
134 149 169
136 152 172
133 148 168
118 131 148
110 122 138
107 119 135
130 145 165
131 146 165
127 142 161
98 109 123
78 87 99
45 50 57
15 16 19
22 25 28
41 46 52
67 74 84
49 55 63
32 36 41
22 25 28
34 38 43
57 64 72
70 78 89
79 87 98
99 110 124
100 111 126
100 111 126
96 107 121
102 114 129
101 112 127
100 111 126
84 93 105
79 88 100
69 76 86
43 48 55
16 18 20
5 6 6
6 6 7
8 8 10
15 17 20
17 19 22
18 20 23
24 27 31
27 30 34
29 32 37
20 23 26
13 14 16
10 12 13
27 31 35
42 47 53
49 54 62
62 69 78
78 87 99
91 102 117
109 121 137
108 120 136
115 128 144
124 138 157
140 155 175
147 164 187
142 158 181
148 165 188
158 174 197
152 170 193
150 166 187
147 164 185
143 159 180
139 155 175
154 171 194
155 173 196
151 168 190
149 165 187
141 157 178
146 162 182
126 141 161
134 148 167
125 140 159
121 134 152
107 119 135
117 129 144
108 121 138
117 130 148
114 126 143
123 137 155
130 145 165
138 154 176
146 163 186
132 147 167
116 129 147
95 106 121
77 86 97
57 63 71
28 31 35
16 18 20
29 32 36
12 13 15
20 23 26
47 53 59
56 62 70
44 48 54
56 62 70
47 51 58
32 35 40
15 17 19
19 21 24
18 21 24
26 29 33
41 45 51
48 54 61
25 28 32
12 14 16
19 21 24
30 34 38
83 93 106
85 96 111
89 101 117
99 112 130
117 132 153
132 149 172
152 174 202
167 190 220
167 189 217
169 191 220
167 189 217
159 181 210
159 180 208
160 182 212
147 166 192
141 159 184
148 168 194
147 167 193
163 185 213
180 203 233
186 212 246
189 214 247
181 205 237
177 201 233
151 171 198
142 162 188
141 160 185
128 145 168
125 142 165
117 132 153
109 125 144
95 108 125
66 75 87
57 65 75
57 65 75
64 73 85
48 55 63
31 35 40
31 35 40
33 37 43
44 51 59
51 58 68
62 70 81
70 80 92
79 90 105
81 92 107
89 101 117
104 118 136
107 121 141
120 136 157
139 157 181
142 160 185
127 145 167
114 129 149
105 119 138
119 136 158
131 149 172
140 159 184
146 165 190
153 173 200
150 171 199
149 169 196
159 181 210
170 193 224
177 202 234
182 208 242
188 214 248
190 215 249
188 214 247
190 216 250
185 210 244
186 211 244
180 205 237
178 203 235
179 203 234
175 199 229
175 198 228
161 182 210
152 173 199
147 165 190
128 147 171
135 154 177
132 149 172
132 150 173
128 145 168
132 151 176
139 158 182
133 151 174
119 135 156
102 117 136
111 127 146
121 137 158
124 142 164
108 124 143
101 115 133
58 66 76
35 40 46
26 29 33
24 28 32
40 45 52
42 47 55
50 57 66
58 66 77
65 73 84
79 90 103
107 121 139
108 122 142
104 118 137
106 120 138
106 121 140
118 134 154
133 151 174
145 164 190
138 157 181
135 154 179
149 170 197
168 191 221
170 194 224
172 196 228
167 189 217
168 192 222
185 209 240
191 216 249
192 218 251
192 219 254
190 216 250
186 212 245
191 216 249
187 212 245
188 214 249
190 216 251
190 214 247
186 212 245
185 211 245
190 216 249
191 217 251
189 214 246
187 213 247
162 183 210
157 179 207
148 169 196
131 148 171
102 116 134
68 77 89
50 57 65
38 43 49
63 71 82
70 80 92
74 83 96
68 77 89
48 54 63
31 35 40
54 61 71
93 106 122
89 101 117
53 60 70
43 49 57
43 48 56
47 54 62
51 57 66
59 67 78
53 59 68
40 45 52
36 41 48
40 45 52
46 52 61
44 49 57
63 71 83
90 102 117
113 128 147
140 159 183
155 177 205
177 201 231
186 211 244
189 214 248
192 218 252
190 216 249
190 216 250
188 213 246
189 214 247
188 213 246
189 215 249
185 209 242
184 209 243
188 213 246
186 211 243
188 214 248
186 212 244
184 210 243
186 210 242
179 204 236
175 198 228
173 197 227
172 196 227
163 185 215
158 179 207
148 168 194
130 148 171
115 130 151
91 103 119
70 79 92
60 68 79
43 49 57
26 30 35
19 21 25
22 26 30
37 42 49
43 49 57
52 59 68
56 64 74
61 70 81
70 80 93
84 95 110
78 89 104
79 90 104
84 95 109
86 97 112
73 83 96
86 97 112
91 103 119
108 122 141
126 142 163
133 150 173
147 168 195
156 177 205
150 171 197
157 179 207
163 185 214
170 194 224
177 202 234
185 211 243
183 208 240
185 211 244
183 209 242
185 211 245
188 214 247
179 205 238
183 207 240
172 195 225
170 193 223
177 200 231
177 201 231
177 201 233
167 190 221
160 181 209
161 182 211
163 185 214
161 182 210
161 183 212
153 174 202
142 161 186
143 162 187
146 167 193
141 160 184
146 166 192
143 162 187
144 163 188
163 185 214
177 201 233
183 208 241
181 206 239
177 201 231
163 186 217
160 181 209
140 158 182
98 111 128
75 86 100
30 34 39
55 62 71
74 84 97
61 69 80
40 45 52
35 40 46
27 31 36
31 35 40
39 44 50
112 126 144
118 131 149
104 116 131
75 83 93
44 49 56
30 33 38
56 62 71
105 117 132
126 139 157
131 145 164
139 154 173
114 126 143
123 136 154
134 148 167
149 165 186
126 140 159
122 136 155
116 130 149
128 142 162
130 144 162
135 149 168
124 138 157
103 114 130
88 98 111
51 56 64
18 20 23
19 21 24
45 50 57
58 64 73
48 54 61
32 36 41
34 38 43
50 56 63
77 85 97
85 95 108
82 91 104
86 95 107
78 87 100
88 99 112
97 107 122
98 109 123
105 116 131
104 116 131
93 103 116
83 92 104
58 65 74
35 39 44
8 9 10
11 13 15
22 25 28
33 37 42
42 47 54
52 57 65
62 69 78
67 74 84
51 57 65
46 51 58
26 28 32
11 12 14
38 42 48
58 64 73
79 88 99
91 102 117
95 105 119
100 112 127
94 105 120
101 112 127
112 123 139
128 141 159
147 164 187
135 151 172
138 153 175
139 155 177
145 160 182
150 168 191
145 162 184
144 161 184
152 169 192
148 164 185
152 169 192
143 160 182
155 172 193
144 160 182
137 153 174
134 149 169
134 149 170
135 150 170
117 130 148
115 127 144
106 118 133
104 115 131
96 107 122
99 110 125
119 132 150
120 133 150
133 148 168
140 155 176
141 157 179
119 133 151
106 118 135
79 88 101
59 66 74
40 45 51
14 15 17
28 32 36
34 37 42
11 12 14
15 17 19
31 35 40
31 34 39
25 27 31
27 30 34
13 15 17
17 19 21
15 17 19
6 7 8
16 18 21
29 32 36
39 44 49
30 33 38
8 9 11
12 13 15
48 53 61
86 97 110
64 72 83
94 106 122
111 126 145
127 143 165
146 165 191
164 186 215
171 194 224
175 199 230
183 208 240
185 209 241
176 201 233
172 195 225
172 197 229
161 183 212
163 184 212
164 186 215
168 190 220
170 192 222
177 200 230
181 205 238
172 196 227
172 196 227
166 189 219
150 171 199
150 169 195
140 159 184
141 160 186
158 179 207
166 189 218
168 190 220
170 193 224
170 193 224
169 191 220
166 189 219
167 189 217
167 190 220
162 184 213
174 198 229
165 188 217
142 160 185
134 153 177
125 141 162
103 117 135
67 77 89
35 40 46
35 39 45
70 79 92
84 95 109
77 87 100
66 75 86
60 68 79
44 50 58
34 39 45
51 58 67
65 74 87
86 98 113
120 136 158
132 150 173
142 162 188
153 174 201
162 184 213
167 189 218
161 184 214
156 178 207
154 175 202
158 179 206
161 182 210
168 191 220
176 200 232
186 211 245
190 216 251
188 213 247
190 216 250
191 216 250
183 208 240
162 185 214
153 173 200
146 166 191
159 182 211
164 187 216
175 198 229
165 188 218
163 185 214
163 185 213
161 182 210
166 190 220
154 175 203
137 156 180
133 150 172
119 135 157
104 119 138
83 94 108
62 71 82
61 69 80
59 68 78
48 55 64
34 38 44
15 17 20
22 25 29
27 31 36
47 53 61
66 75 86
72 82 95
74 84 98
72 82 95
58 66 76
51 58 67
57 65 75
75 85 99
86 98 114
75 86 100
80 91 106
88 100 115
85 97 112
99 112 129
120 136 157
129 146 169
132 150 173
138 156 180
143 162 187
139 158 183
153 175 203
163 186 215
170 192 220
169 191 220
183 207 240
184 208 240
184 209 241
185 209 241
189 214 247
191 217 250
190 215 249
187 213 246
185 210 242
185 209 241
182 208 241
186 210 241
178 203 235
87 99 114
83 95 109
73 82 95
80 91 105
93 105 121
97 109 126
92 104 120
87 99 114
81 92 107
82 93 107
63 71 82
58 66 77
56 63 73
52 59 68
57 65 75
84 95 110
106 120 139
99 112 130
94 107 124
83 95 110
71 80 93
52 59 68
45 51 59
33 37 43
32 36 43
39 44 51
47 53 61
61 68 78
65 73 85
75 85 98
94 107 124
111 126 145
129 147 170
158 179 208
176 199 230
188 214 248
191 216 250
194 220 254
189 215 249
187 214 248
187 212 244
184 209 242
182 207 240
182 206 238
176 200 230
172 196 227
170 193 222
160 182 210
154 175 202
141 159 184
143 163 188
145 165 191
155 175 202
156 178 206
158 179 207
136 154 178
128 146 169
132 150 174
120 137 159
117 133 153
91 104 121
67 76 88
56 64 74
51 57 66
51 58 67
37 42 49
30 34 39
39 45 52
44 50 57
40 45 52
32 37 42
20 23 27
13 15 17
19 21 25
24 27 31
21 23 27
40 46 53
62 70 81
75 86 100
78 88 102
84 95 109
69 78 91
82 94 109
104 119 138
98 111 129
113 128 147
133 151 174
160 182 211
172 196 226
173 197 228
178 202 233
178 202 234
178 202 232
176 200 231
176 198 228
175 199 230
169 191 221
159 180 208
156 176 204
152 172 199
144 164 189
143 163 189
133 151 174
112 128 148
102 116 134
101 114 131
98 112 129
89 101 116
70 79 92
59 67 78
55 62 72
65 74 85
63 71 82
64 72 83
60 69 79
76 86 99
100 114 133
138 157 182
166 188 217
174 197 228
183 207 239
187 212 245
173 195 225
146 166 192
111 125 144
58 66 76
28 32 37
29 33 38
29 33 39
29 33 38
38 43 49
56 63 72
56 64 74
50 56 65
35 40 46
38 43 50
61 69 80
91 103 119
124 140 162
136 154 176
117 131 149
108 120 136
58 65 74
27 29 33
27 30 35
45 50 57
85 94 107
115 128 145
132 147 167
134 149 167
126 139 158
129 143 161
129 144 163
134 148 168
128 143 163
124 138 157
138 153 173
135 149 168
135 150 170
128 143 162
136 151 171
126 139 157
93 103 116
59 66 75
24 27 30
15 16 18
49 54 62
64 72 81
55 61 69
47 52 60
61 68 78
81 89 101
83 93 106
68 76 86
58 65 73
56 62 71
63 70 79
65 72 82
85 94 107
95 106 121
107 119 136
107 119 135
90 100 114
75 83 93
56 62 70
22 24 27
20 22 25
40 44 50
43 48 55
50 56 64
64 71 81
74 82 93
72 81 93
62 69 78
50 55 62
18 20 23
25 28 32
48 54 61
69 77 87
85 95 108
99 111 125
104 116 132
105 116 132
112 124 140
107 119 136
119 133 150
126 140 159
144 160 182
143 159 181
153 171 194
146 162 184
145 161 182
150 166 187
149 165 187
153 171 194
154 173 199
153 170 192
141 158 181
155 172 195
143 159 180
136 151 172
137 152 173
132 146 165
135 150 170
122 136 153
120 133 151
103 114 129
92 103 117
86 95 108
92 102 115
102 113 128
119 131 147
133 147 166
142 157 177
141 157 178
137 153 174
111 123 139
86 96 109
63 70 80
42 47 53
18 20 23
10 12 13
38 42 48
22 25 28
8 9 10
8 9 11
21 24 27
23 26 29
13 15 17
16 18 20
27 30 34
23 25 29
17 20 22
7 8 9
9 11 12
34 37 42
37 42 47
15 16 19
6 6 7
65 73 83
74 82 93
103 117 136
127 144 166
148 168 193
151 172 200
155 177 205
165 187 215
158 179 207
128 146 169
114 130 150
116 131 152
94 107 123
87 98 113
61 68 79
61 69 80
54 61 70
65 74 86
84 96 111
98 112 129
116 132 154
136 155 180
166 188 218
187 211 243
186 212 245
175 198 229
172 195 225
172 195 225
174 197 228
178 201 232
180 204 235
178 203 234
180 204 235
179 203 235
176 200 232
181 206 238
183 208 240
176 200 231
159 179 207
135 153 177
125 142 164
125 143 165
133 151 176
137 155 179
136 154 178
123 139 161
106 120 138
105 119 138
98 111 129
84 96 112
67 75 87
56 64 75
47 54 63
46 52 61
58 66 76
59 67 78
51 58 67
59 67 77
67 76 88
65 74 86
63 71 82
73 83 96
67 76 88
65 74 85
86 98 114
93 105 121
90 102 118
84 95 109
90 102 118
86 98 114
96 109 126
118 135 157
150 170 197
180 204 236
191 217 250
187 213 246
170 193 223
151 172 199
137 156 180
128 145 168
113 129 150
95 108 124
85 96 111
84 95 109
91 103 119
110 126 146
134 152 175
147 167 193
156 177 204
153 173 200
157 178 206
165 187 217
180 205 238
184 210 243
186 212 245
176 200 232
173 196 226
167 189 218
163 185 214
158 180 209
167 189 219
167 189 218
167 189 217
169 192 222
172 196 226
174 198 228
174 196 224
171 194 223
164 186 215
156 176 203
139 158 183
126 143 165
106 120 138
101 113 130
59 68 78
51 59 68
28 32 37
20 23 27
28 32 37
40 45 52
33 37 43
31 35 41
28 32 37
27 31 36
27 31 36
23 27 31
17 20 23
31 36 41
41 47 54
43 49 57
40 45 52
40 45 52
77 88 101
100 114 132
117 134 155
154 174 200
171 192 221
185 210 243
186 211 244
188 213 247
181 205 237
80 92 106
68 77 89
46 52 60
23 26 30
19 22 25
14 16 19
12 14 16
18 20 24
30 34 39
50 57 66
58 66 76
58 65 75
57 65 75
69 78 91
97 110 126
84 96 111
60 68 79
41 46 54
42 47 54
36 41 47
42 48 56
39 44 51
41 46 53
58 66 77
83 94 109
113 128 148
141 159 184
155 177 205
167 190 220
164 187 216
167 190 220
176 200 230
183 208 240
188 214 248
193 218 252
191 216 248
189 215 248
191 216 249
188 213 246
188 213 245
188 214 248
186 211 244
184 208 241
184 208 239
176 200 232
172 194 224
175 198 228
174 197 226
177 200 229
170 194 225
169 192 222
164 185 214
158 180 208
152 173 201
146 165 191
144 164 190
147 167 193
132 149 172
116 132 151
117 133 155
118 134 155
125 142 165
144 164 189
136 154 177
124 141 162
111 126 147
106 120 139
89 101 116
55 63 73
36 42 49
41 47 54
61 69 80
71 81 93
70 80 93
66 75 86
44 51 58
26 29 34
26 30 35
55 63 73
55 62 71
62 70 81
66 74 86
60 68 79
46 52 60
25 28 33
40 45 52
77 87 101
110 124 144
136 155 179
153 174 201
169 193 225
180 204 236
182 207 239
178 202 234
167 190 219
158 178 204
139 158 184
117 133 154
108 123 142
99 113 130
90 103 120
89 101 117
90 102 118
87 99 115
85 96 110
88 102 118
89 101 117
81 93 108
92 105 122
93 105 122
95 109 126
108 123 142
112 127 147
118 133 154
143 163 190
164 186 215
173 196 227
183 207 239
182 206 237
183 209 242
173 197 229
162 184 213
139 159 185
116 131 151
90 102 118
59 67 78
19 22 26
14 16 18
25 28 33
40 45 52
40 45 52
56 64 74
68 77 88
65 74 85
73 83 96
72 82 95
78 89 104
78 88 102
87 99 115
101 114 132
113 127 146
121 135 152
110 122 138
51 56 64
21 23 27
32 36 40
35 39 44
67 74 84
98 109 124
120 133 151
142 157 178
130 145 164
135 150 169
135 150 171
139 153 172
135 150 170
124 136 152
139 155 176
136 150 169
136 151 171
140 156 178
126 141 160
114 127 145
100 111 126
71 79 91
39 44 49
21 24 27
43 48 55
65 72 82
69 77 88
80 89 102
85 95 108
68 76 87
63 70 79
66 72 81
58 64 73
60 67 76
78 86 98
86 96 108
104 115 131
107 119 135
116 130 147
100 111 125
83 94 107
70 78 88
38 43 49
11 13 14
28 31 36
44 49 55
58 64 73
69 76 86
72 80 91
68 76 86
52 58 66
38 42 47
10 11 13
34 37 43
59 65 73
77 86 98
78 87 99
94 105 120
107 119 135
106 119 136
113 125 142
118 131 148
129 144 163
136 151 171
135 150 170
140 157 179
136 152 173
143 160 183
135 150 170
130 146 166
153 171 196
143 159 181
142 157 177
158 175 198
150 168 192
133 148 168
130 145 164
140 154 174
130 144 164
122 136 154
123 136 154
126 140 158
114 127 144
93 104 118
98 109 123
96 107 122
100 111 126
118 131 148
132 147 166
138 153 173
152 168 190
141 157 178
118 132 150
94 104 117
76 85 96
47 53 60
22 25 28
5 6 7
19 21 23
36 40 45
31 34 38
15 17 19
5 5 6
13 14 16
10 11 13
17 20 22
17 19 21
19 21 24
16 18 20
13 15 17
14 16 18
21 24 27
27 30 34
15 17 19
9 10 12
67 74 84
81 91 105
79 89 103
90 102 119
110 124 144
114 129 149
127 144 167
135 153 176
134 152 175
128 146 168
133 151 174
148 167 192
153 174 201
159 179 206
157 178 205
169 193 223
178 202 234
186 211 243
186 211 244
184 208 239
188 212 245
187 212 245
188 213 246
186 212 247
181 206 239
183 207 238
185 211 244
186 212 245
190 215 248
183 208 242
179 204 237
175 197 227
179 203 235
185 211 244
191 217 251
190 215 248
194 219 252
191 217 251
189 215 248
187 213 246
178 203 234
165 188 218
156 176 203
151 171 197
135 154 178
126 143 165
121 136 157
125 141 163
130 148 171
143 161 186
153 173 200
157 178 206
148 169 195
138 156 181
135 153 177
125 142 165
108 123 142
90 102 119
71 80 92
48 55 64
53 60 70
66 76 88
66 75 87
64 73 84
66 75 86
80 91 105
106 120 140
116 132 153
136 153 177
127 144 165
90 102 118
64 73 84
32 36 42
45 51 58
76 86 99
110 125 145
128 146 170
150 170 196
158 180 208
164 186 214
166 188 217
149 169 196
154 175 202
157 178 205
150 170 197
139 158 183
150 170 197
134 152 176
115 131 151
131 149 173
142 161 186
141 161 186
157 178 206
167 189 219
169 192 221
177 201 232
179 202 234
184 209 240
187 211 242
184 208 239
184 207 239
176 201 233
172 195 225
167 191 222
156 177 204
155 176 202
160 181 210
175 198 228
178 203 235
186 212 245
190 217 251
187 212 244
176 200 231
162 184 213
142 162 187
119 135 156
68 77 89
46 52 60
30 34 39
18 21 24
19 22 25
27 31 36
62 70 81
80 91 105
84 94 109
93 105 122
94 107 124
96 109 126
87 99 114
83 95 110
75 85 99
63 72 83
62 71 82
74 84 98
90 102 117
104 118 137
134 152 176
152 172 198
162 184 213
167 190 220
176 199 230
182 206 239
86 97 112
60 68 79
29 33 39
14 15 18
14 16 18
18 20 23
25 29 33
33 37 43
42 48 56
46 52 60
43 48 56
58 67 77
74 84 97
76 86 99
73 83 95
58 65 76
47 54 62
33 37 43
15 17 19
15 18 20
20 23 27
22 24 28
36 41 47
78 88 102
117 132 152
135 153 176
148 169 195
159 180 208
169 191 221
175 199 230
188 213 246
184 208 241
186 211 243
188 214 247
193 218 251
192 217 251
189 215 250
191 217 251
190 215 249
184 209 241
186 211 244
185 210 243
186 212 246
184 209 241
182 207 239
181 204 235
177 202 234
173 196 226
173 197 229
174 197 228
173 196 225
161 182 210
150 171 197
142 162 188
149 168 193
162 183 211
172 195 226
173 197 227
174 198 229
176 198 228
170 193 223
175 199 231
170 193 222
165 188 218
160 181 210
139 159 184
131 149 172
105 119 137
71 81 94
37 42 48
44 49 57
49 56 65
42 48 56
35 40 46
40 45 52
38 43 50
37 42 49
55 63 73
76 87 101
84 95 109
87 99 115
74 84 97
83 94 110
93 106 123
92 104 120
99 113 131
116 132 152
133 150 173
141 159 184
154 176 204
181 205 237
184 210 243
181 205 237
179 204 237
167 189 218
159 181 208
140 158 183
131 149 172
130 148 171
131 148 171
145 164 188
159 181 209
161 183 212
167 190 220
164 186 215
167 189 218
163 185 215
169 192 222
174 197 227
176 199 230
167 191 222
160 183 212
168 191 220
167 190 220
175 200 231
181 206 238
184 208 239
182 205 235
163 185 213
141 159 184
107 121 139
88 100 115
67 76 88
53 60 69
46 53 62
35 40 47
44 50 58
52 59 68
49 56 64
55 63 72
64 73 84
72 82 95
61 69 80
65 74 86
62 71 82
50 57 66
48 54 63
47 53 62
56 64 74
71 81 94
80 91 105
93 105 122
128 142 162
126 140 158
56 63 72
21 23 26
28 31 35
14 15 18
32 35 39
65 72 82
103 114 129
130 143 162
129 143 160
130 144 163
137 152 172
139 154 174
142 158 180
133 148 167
136 152 173
134 149 169
133 148 168
130 143 161
125 138 155
110 122 139
105 117 132
76 85 97
41 46 52
15 16 18
29 32 36
40 44 50
56 62 70
59 65 73
59 65 74
71 78 88
75 83 94
76 84 95
77 86 97
82 91 104
94 105 119
108 119 135
115 127 143
111 123 140
97 108 122
89 99 112
67 75 85
44 49 55
14 15 17
11 12 14
36 40 45
54 60 68
69 77 87
79 87 98
70 78 89
57 63 72
43 48 54
12 13 15
31 34 39
55 61 69
64 72 81
90 100 114
89 99 112
95 106 120
96 107 122
105 117 133
111 124 141
120 133 151
131 146 166
143 159 180
145 161 183
152 168 190
149 166 188
147 164 186
153 170 193
151 168 191
148 164 185
140 156 177
134 149 169
129 142 160
118 132 149
120 134 152
121 134 152
116 129 146
116 129 146
125 139 157
116 129 147
113 125 142
108 120 137
109 122 138
119 132 149
126 141 160
132 147 168
134 149 170
141 158 180
140 156 176
120 133 151
96 106 120
68 76 86
40 44 50
21 24 27
17 19 22
11 13 14
11 13 14
35 39 44
36 41 46
27 30 34
18 20 22
13 15 17
11 13 14
9 11 12
16 17 20
17 19 21
13 14 16
9 10 11
5 6 7
11 12 14
11 12 14
36 41 47
104 118 135
81 92 106
64 72 83
62 70 81
74 84 97
79 89 103
88 101 117
96 109 126
94 107 124
113 129 150
107 122 140
94 107 124
103 117 135
112 127 147
136 154 178
152 173 201
157 178 206
152 174 202
146 166 193
151 172 199
148 168 193
134 151 175
121 138 159
126 144 166
119 135 156
133 152 175
138 158 183
143 162 188
146 166 193
152 172 198
155 177 206
151 171 199
146 166 191
139 157 180
140 159 183
151 172 199
151 172 199
157 179 207
157 179 207
169 192 222
175 197 227
174 197 227
174 197 227
174 198 229
178 202 234
176 201 234
174 198 228
172 195 226
173 197 227
179 203 235
183 209 243
186 211 245
185 210 243
175 199 231
160 181 208
135 153 177
130 147 170
121 138 160
100 114 132
75 85 98
42 48 56
25 29 33
17 19 22
14 16 19
49 55 63
87 99 114
90 102 118
75 86 99
74 84 97
73 83 97
72 81 94
82 93 108
75 86 100
89 101 117
100 114 132
114 130 150
132 151 175
152 173 201
167 191 221
177 200 230
182 206 238
178 203 236
186 210 242
180 205 237
188 212 245
189 214 247
188 214 248
188 214 248
188 215 249
189 215 249
189 214 247
189 215 248
186 211 243
184 209 241
175 198 229
179 203 234
172 196 228
175 198 229
182 206 238
186 212 245
189 215 248
187 212 245
179 203 235
179 204 236
178 203 235
182 207 240
187 212 244
192 218 252
191 216 249
182 207 240
170 192 223
138 156 181
95 108 125
65 73 85
57 65 75
60 68 79
73 82 95
70 79 91
71 80 92
65 73 84
74 84 98
76 87 100
70 80 93
62 71 82
67 76 89
90 102 118
81 91 105
88 100 115
93 106 123
97 110 128
93 106 124
102 116 134
115 131 152
125 141 163
140 159 184
145 165 191
147 166 192
147 167 192
153 173 200
162 184 212
179 204 236
183 207 239
180 205 238
67 76 88
60 68 78
31 35 40
26 30 34
35 40 46
40 45 53
35 40 46
28 32 37
33 38 44
56 64 74
74 84 97
77 87 100
82 94 109
86 98 113
91 103 119
88 100 116
84 95 110
84 96 111
92 105 121
104 118 136
102 116 134
112 127 146
115 131 150
122 139 161
133 151 175
130 148 171
139 158 183
134 152 175
132 150 173
138 157 182
132 150 173
140 160 186
150 170 196
165 187 217
175 199 230
179 203 235
181 205 236
179 204 237
181 205 236
181 205 237
179 204 236
176 200 231
177 202 234
179 203 235
182 206 238
182 206 238
183 207 239
181 206 238
179 203 235
179 202 233
171 193 223
163 185 215
157 177 203
138 156 180
117 132 153
109 124 144
118 134 155
108 122 142
93 106 123
88 100 115
75 85 98
73 83 96
79 90 105
73 82 95
70 79 92
41 47 54
23 26 30
16 19 22
24 27 31
21 24 28
25 29 33
23 26 30
25 28 32
33 37 43
50 57 67
65 74 85
64 72 84
87 99 115
92 104 119
90 102 118
91 104 121
90 102 118
102 116 134
112 128 148
114 129 149
124 141 162
124 141 163
131 149 172
143 162 187
156 177 204
169 193 225
174 198 229
179 204 236
180 205 237
186 211 243
182 206 238
175 199 231
182 206 239
187 212 244
189 214 246
187 212 245
186 211 243
179 204 236
178 202 233
179 203 235
173 197 227
167 191 221
164 186 215
157 179 207
157 178 205
160 181 209
161 183 212
155 177 204
143 163 188
144 164 190
142 161 186
130 147 169
125 141 163
105 119 138
89 101 117
83 95 110
88 100 116
105 120 139
112 127 148
115 131 152
114 129 149
117 133 153
112 127 147
101 114 131
99 113 132
90 102 118
67 76 87
53 60 70
40 46 54
35 39 46
46 51 59
63 72 83
72 81 93
79 90 105
72 82 95
64 73 84
44 50 57
40 45 52
65 72 81
114 126 143
75 83 94
43 48 54
18 20 23
7 8 9
14 16 18
47 53 60
80 90 102
110 121 137
121 134 150
124 137 155
149 164 184
127 142 161
143 157 177
124 138 157
129 143 163
126 141 160
109 122 138
102 113 129
101 111 126
96 107 122
82 92 106
66 73 83
48 53 59
22 25 28
14 15 17
19 21 24
32 35 40
37 41 47
43 48 55
59 66 75
71 79 89
94 105 119
97 109 125
113 125 142
105 117 132
108 120 135
112 124 140
99 110 125
87 96 108
79 87 98
52 58 66
27 30 33
10 11 13
7 7 8
23 25 28
54 60 69
63 70 79
59 65 74
48 53 61
29 32 36
6 7 8
25 28 31
38 43 49
62 69 78
69 76 87
78 87 99
94 105 119
100 112 127
111 122 137
112 125 143
129 143 162
122 135 153
139 154 175
137 153 173
144 160 181
148 165 188
146 162 183
150 167 189
148 165 187
142 158 179
124 138 157
124 138 157
108 120 137
95 106 121
88 98 112
98 108 123
101 112 126
100 111 127
104 115 130
99 111 127
105 117 134
115 128 146
121 135 154
145 161 183
142 157 178
135 150 171
139 155 176
141 157 177
132 146 164
102 113 128
65 73 83
44 50 57
37 41 47
36 40 45
20 23 26
13 14 16
37 41 46
49 54 61
50 55 62
34 38 44
13 15 17
4 5 6
10 12 13
24 27 31
20 23 26
16 17 20
17 19 22
5 6 6
6 7 8
15 17 20
73 81 93
142 161 185
166 188 217
156 176 203
135 153 178
113 129 149
98 111 129
67 76 88
48 55 64
54 61 71
46 53 61
48 54 62
49 55 64
46 52 61
55 62 72
82 94 109
126 142 164
156 177 205
150 171 198
133 151 175
120 137 159
116 131 151
107 121 140
93 107 124
103 117 135
112 127 147
107 121 140
97 111 129
98 110 127
78 88 102
70 79 92
68 78 90
59 66 76
51 59 68
60 69 80
43 49 56
39 45 52
50 57 65
66 75 87
81 92 107
82 93 107
66 75 87
52 59 68
45 51 59
66 75 87
97 111 129
116 132 154
142 160 184
151 172 199
175 198 229
184 209 242
186 211 244
181 206 239
179 203 233
165 188 217
149 170 196
137 156 180
118 134 155
109 124 144
105 119 138
80 91 105
40 46 53
22 25 29
28 32 37
36 41 47
40 46 53
40 45 52
39 45 52
31 36 41
44 50 57
51 59 68
41 47 54
30 35 40
28 32 37
29 33 38
20 22 26
30 34 40
59 67 78
103 118 136
143 163 189
164 187 216
168 191 221
171 194 224
167 190 220
175 197 227
174 198 229
183 207 239
188 214 249
191 217 250
193 219 252
194 220 254
191 217 252
191 218 252
189 214 247
188 214 248
183 209 243
185 210 243
188 213 245
180 206 239
184 209 242
186 210 242
186 212 245
186 211 244
180 204 236
175 198 229
170 193 224
170 194 226
166 190 221
160 181 210
155 176 203
155 176 203
139 158 183
129 146 168
118 134 155
108 122 141
90 102 117
84 96 111
96 108 125
115 130 150
125 142 164
139 157 182
150 171 198
147 166 193
143 162 188
142 160 185
132 151 174
126 142 164
118 135 156
105 119 138
100 113 131
94 107 124
109 124 143
104 118 138
108 122 140
94 107 125
74 84 97
56 63 73
56 64 74
43 49 56
31 35 41
47 54 62
61 68 79
71 81 95
78 90 104
73 83 96
30 35 40
36 41 47
44 50 58
67 76 88
80 91 105
76 86 100
74 84 97
64 73 85
49 56 65
44 50 58
60 69 79
62 71 83
67 75 87
60 68 79
68 77 89
51 58 68
47 53 61
58 66 76
80 92 106
93 106 124
104 118 137
81 92 106
59 67 78
33 37 43
19 22 25
24 27 31
35 40 46
40 46 53
51 58 67
74 84 97
93 105 121
98 112 129
108 123 142
131 149 172
162 183 212
169 191 220
167 190 220
168 190 220
180 204 236
182 207 239
185 211 245
185 211 244
188 213 246
190 215 249
187 211 244
179 203 234
171 193 223
168 191 222
164 186 216
164 186 216
164 186 216
164 186 216
157 179 207
134 152 175
107 121 140
109 123 142
107 122 142
90 102 118
72 82 95
59 67 77
50 57 66
40 46 53
38 43 50
30 35 40
16 19 22
9 10 12
12 14 16
20 23 27
28 32 37
34 39 45
33 38 44
42 47 55
55 63 73
67 76 87
68 77 89
59 67 78
40 45 53
45 51 59
56 63 73
51 58 67
45 51 59
39 44 51
38 43 50
36 41 47
27 31 36
18 20 24
33 38 44
59 67 77
88 100 116
116 132 152
132 151 175
158 179 206
164 186 214
174 197 228
179 204 236
171 194 225
181 206 239
187 213 247
183 208 241
184 208 240
189 214 248
188 213 245
183 208 240
179 203 234
171 194 224
174 199 230
172 194 224
166 188 218
164 186 215
153 174 201
152 173 201
152 172 198
150 171 198
151 172 199
145 165 190
129 147 170
117 132 152
117 132 153
117 132 152
104 117 135
88 100 115
82 94 108
74 84 98
60 68 79
67 76 87
70 80 93
80 90 104
81 92 107
72 82 95
54 61 70
36 40 47
32 36 42
28 32 36
36 40 46
35 40 46
29 33 38
31 35 40
35 40 46
36 42 48
39 45 52
45 51 59
51 57 66
63 72 83
85 96 110
94 107 124
114 127 144
93 103 117
67 75 84
37 41 47
14 16 18
8 9 10
22 24 27
51 57 65
71 78 88
97 107 122
127 141 161
126 139 157
135 149 169
128 142 160
128 141 159
111 124 140
108 120 135
100 111 126
105 117 133
90 99 111
90 101 116
91 101 114
74 83 94
63 70 80
39 44 49
25 28 31
16 17 20
14 16 18
19 21 23
45 50 57
73 81 91
81 90 102
105 116 131
99 110 124
89 100 113
94 104 117
99 110 125
97 107 121
78 86 97
67 74 84
51 56 64
33 36 41
16 18 20
6 6 7
17 19 22
31 34 39
44 49 56
50 56 63
47 52 59
24 26 30
13 14 17
31 34 39
52 58 67
65 72 82
68 75 85
78 87 99
78 87 99
78 87 100
91 100 113
111 124 142
124 138 156
134 149 169
125 140 159
131 145 164
136 152 172
142 159 181
149 164 185
143 159 180
131 146 166
141 158 180
135 150 170
120 133 151
104 116 132
86 95 108
74 82 93
82 92 104
87 98 111
93 104 118
92 103 117
103 114 130
120 135 155
126 139 157
118 130 147
125 140 159
131 146 166
135 150 170
136 151 171
132 147 168
104 116 132
75 84 95
63 69 78
46 51 58
26 29 33
19 21 24
27 30 34
35 38 43
42 46 52
48 53 60
40 45 50
10 11 13
11 12 14
9 11 12
11 12 13
11 13 15
5 5 6
8 9 10
15 16 19
22 25 29
46 51 58
115 130 150
164 186 214
167 189 218
144 163 188
121 137 159
101 115 133
68 77 89
47 53 61
40 46 53
40 45 52
44 50 58
42 48 55
52 58 67
69 79 91
88 100 117
104 118 137
123 140 161
133 151 175
144 163 188
148 168 195
145 165 191
139 158 182
141 160 185
138 157 181
133 151 174
137 156 181
144 163 189
140 159 184
129 146 168
125 142 164
111 125 144
102 116 134
107 122 141
104 118 137
106 120 139
110 124 143
126 143 166
117 133 154
140 159 184
138 157 182
144 163 188
146 166 192
144 163 189
135 153 178
119 135 156
117 132 152
125 143 166
122 139 161
133 152 175
159 182 212
176 200 231
184 209 242
189 215 248
173 196 227
161 183 212
139 159 184
122 138 160
108 122 142
92 105 122
75 85 98
72 82 95
72 82 95
70 79 92
69 78 90
68 78 90
62 71 82
49 55 64
36 41 47
30 34 40
26 30 35
38 44 50
42 48 55
39 44 51
37 42 48
47 53 62
60 68 79
68 77 89
75 85 99
90 102 117
107 122 140
118 135 156
112 127 147
110 125 144
121 137 158
129 146 168
131 148 170
147 167 192
146 166 193
148 168 195
148 169 197
152 173 200
164 186 216
160 183 212
162 183 212
158 179 208
140 159 183
124 140 162
117 133 153
107 121 139
83 94 109
88 100 116
89 100 116
89 102 119
98 112 130
119 135 156
131 149 172
148 167 193
166 189 218
169 193 223
171 195 225
186 210 243
184 209 241
170 193 223
151 171 198
139 158 184
134 152 176
143 162 187
152 172 199
146 165 191
142 161 185
119 136 158
96 108 125
62 70 81
41 46 53
66 75 86
82 93 107
84 95 110
87 100 116
89 101 117
99 112 130
110 124 144
118 134 156
120 136 158
115 131 151
97 111 129
94 107 123
71 81 94
34 39 45
22 26 30
17 19 22
35 40 46
51 58 67
69 78 90
95 108 125
108 123 143
115 130 150
55 63 74
26 29 34
12 14 16
26 30 34
28 32 37
32 36 42
31 36 41
30 34 40
37 42 49
54 61 71
51 58 68
38 43 50
44 50 58
58 65 76
79 90 104
90 102 118
92 105 121
95 107 124
85 97 112
72 81 94
55 62 71
31 36 42
27 31 36
29 32 37
32 36 42
47 53 61
50 57 66
31 35 40
21 23 27
67 76 88
106 120 139
135 154 179
153 172 198
180 205 238
190 216 249
191 217 251
191 217 252
191 217 252
191 217 250
191 217 252
189 214 247
186 212 245
186 211 243
190 215 248
187 212 245
185 210 242
186 211 245
189 214 247
188 214 247
191 217 251
186 211 245
185 210 242
179 202 232
161 183 211
130 147 170
105 120 140
88 99 114
82 94 108
75 84 97
67 76 87
64 73 84
59 67 77
63 72 83
79 90 104
80 90 104
89 101 117
72 81 94
53 60 70
43 49 57
27 31 36
13 15 18
11 12 14
23 26 30
38 44 51
51 58 67
66 75 87
74 84 97
79 90 104
76 87 102
64 73 84
38 43 50
20 23 26
41 47 54
72 82 95
100 114 132
120 138 161
120 136 158
132 150 173
141 159 183
148 168 193
155 176 203
164 186 215
169 192 223
180 204 236
175 199 231
168 190 220
163 186 215
154 176 204
153 173 200
160 181 209
172 195 224
179 203 235
186 211 243
182 207 240
178 203 234
171 195 226
174 198 228
179 203 235
175 200 231
172 196 228
173 196 226
175 198 227
167 190 219
164 187 216
165 186 215
152 172 199
142 161 186
127 145 168
109 124 143
101 114 132
82 94 109
73 82 95
67 76 88
69 78 90
56 64 74
52 59 68
58 66 76
65 74 86
60 68 78
58 67 77
65 74 85
57 64 74
30 34 40
24 27 31
28 31 36
48 54 62
55 62 71
58 66 77
41 46 54
41 46 53
68 77 88
102 116 134
125 141 163
139 159 184
154 175 203
154 175 202
148 167 192
93 104 119
64 72 83
46 51 59
27 30 34
9 10 11
10 11 13
14 16 18
37 41 47
70 78 87
99 110 124
114 126 142
104 116 132
118 131 149
128 141 159
109 122 138
107 119 136
98 109 124
95 106 120
94 105 120
98 109 123
91 102 116
79 87 99
75 83 94
59 65 74
48 53 60
33 37 42
17 19 22
13 14 16
44 49 55
70 78 88
90 100 114
94 105 120
88 97 110
71 79 90
82 91 104
74 82 93
57 63 72
48 53 60
37 41 47
14 16 18
11 12 13
6 7 8
12 13 15
26 29 33
34 38 43
39 44 50
31 34 39
21 23 26
11 12 14
29 32 37
43 48 54
52 59 67
62 68 77
56 63 71
64 72 82
69 77 87
83 92 104
107 119 134
119 132 150
126 140 158
128 143 163
124 138 158
132 148 168
143 158 179
133 149 169
143 159 182
143 160 182
136 152 173
124 139 159
122 136 155
113 125 141
96 107 122
98 109 123
94 105 119
101 112 127
112 124 141
111 123 139
111 124 141
108 119 135
93 103 117
97 107 121
111 123 139
105 118 135
131 146 166
131 146 166
124 138 155
99 110 125
80 88 99
54 60 68
28 31 36
13 14 16
21 23 26
22 25 28
25 27 31
25 28 32
19 22 25
17 19 22
24 27 31
18 20 23
21 23 26
22 24 27
21 23 26
16 18 20
26 29 33
37 42 48
55 62 70
129 146 169
174 197 229
180 204 235
175 198 228
144 164 189
116 132 152
76 86 99
48 55 64
20 23 27
26 29 34
43 49 57
49 56 65
58 66 77
67 76 88
73 83 97
80 91 105
80 90 104
82 93 108
83 93 107
91 104 120
95 107 124
105 119 137
127 144 165
139 158 183
140 160 186
150 170 195
154 174 199
157 179 208
162 184 212
162 183 210
169 191 220
171 194 225
176 199 230
175 200 232
175 198 229
174 197 227
166 188 216
156 177 205
153 174 202
150 170 195
154 174 200
157 178 206
166 187 214
169 191 220
179 202 233
176 200 231
173 197 229
178 203 235
172 196 227
173 196 226
172 196 226
162 184 213
169 191 220
164 186 215
160 183 213
162 184 213
164 187 216
156 177 205
144 163 189
133 151 175
112 127 147
80 91 105
67 76 89
66 75 87
62 71 82
42 48 55
22 25 29
27 31 36
31 35 41
32 36 42
36 41 48
44 50 57
37 42 48
23 26 29
13 14 17
21 24 27
29 33 38
42 48 55
41 47 54
31 35 40
15 17 20
19 22 25
18 20 23
24 28 32
29 33 38
28 32 37
28 32 36
34 38 44
40 46 53
39 44 51
30 34 39
32 36 42
31 35 41
30 34 40
29 33 39
37 42 50
41 47 54
35 40 46
20 23 27
21 24 28
26 30 35
24 27 32
19 22 26
32 37 43
34 39 45
25 28 33
22 25 29
43 49 56
76 86 99
90 102 117
97 111 128
131 149 173
142 162 188
161 183 211
176 200 232
185 211 244
184 210 243
182 207 241
173 197 228
153 174 201
143 162 187
126 143 166
112 128 148
99 113 130
90 102 118
83 94 108
68 77 89
59 66 77
41 46 53
32 36 42
28 32 37
25 28 32
33 37 44
43 49 56
52 59 69
42 48 56
32 36 42
29 33 38
25 28 33
17 20 23
36 40 47
67 77 89
96 109 126
98 111 129
89 101 117
82 93 108
82 93 108
14 16 18
9 11 12
17 19 22
20 23 26
28 32 36
39 44 51
37 43 50
34 39 45
35 40 46
34 39 46
50 57 66
68 78 90
81 92 107
101 114 132
93 106 122
83 94 108
73 83 96
74 84 98
80 90 104
82 93 108
87 100 116
92 104 120
103 117 136
115 130 150
125 141 163
126 142 164
122 138 159
136 155 179
155 176 205
161 182 210
175 198 228
182 207 239
188 214 249
191 216 250
194 219 252
191 217 251
186 211 244
175 199 229
158 179 208
142 161 186
135 154 178
145 166 193
152 173 201
165 188 217
172 195 226
173 196 225
170 193 223
173 196 226
182 206 238
181 206 238
190 215 249
180 205 237
178 202 234
153 174 201
122 139 160
108 123 142
121 138 160
123 140 161
128 144 166
116 132 152
122 138 159
124 141 163
111 125 145
109 124 144
97 110 128
91 103 119
81 92 107
72 81 93
49 56 64
31 35 40
30 34 39
32 36 42
35 40 46
36 41 48
49 56 64
43 49 57
46 52 61
50 56 65
64 73 84
64 73 85
78 89 103
83 94 108
94 107 123
104 118 137
99 112 130
93 105 121
73 83 96
53 60 68
48 54 62
48 54 62
75 86 99
100 114 132
124 141 163
144 163 188
169 191 220
183 208 240
177 202 234
169 191 221
171 194 224
168 192 223
178 202 233
182 207 241
185 210 243
183 208 240
181 206 239
177 202 234
177 201 232
177 200 231
179 203 235
176 199 229
177 201 233
170 193 223
163 186 216
165 186 214
156 177 204
158 178 205
145 165 191
132 151 175
126 142 163
108 122 141
95 107 124
89 101 117
82 94 109
69 79 91
64 72 84
56 64 74
37 42 48
28 32 37
24 27 31
23 26 31
32 36 41
42 47 55
54 61 70
82 93 107
105 119 137
115 129 148
117 133 154
127 144 165
129 145 167
141 161 186
144 164 189
167 189 219
175 198 229
172 195 225
180 203 233
186 211 243
175 199 231
162 184 212
122 138 158
73 80 90
52 58 66
24 27 30
7 8 9
10 12 13
12 13 14
20 22 25
30 34 38
48 54 62
76 84 94
96 106 120
100 110 124
110 122 138
107 119 136
100 110 125
91 101 114
95 105 118
93 104 118
88 98 112
91 101 114
87 97 110
68 75 85
62 68 77
46 51 58
24 27 31
8 9 10
27 30 34
65 72 81
81 90 102
99 112 128
93 104 119
88 97 110
85 95 107
62 68 77
51 57 64
49 54 61
35 40 45
21 24 27
11 12 14
8 9 10
4 5 5
13 15 16
25 27 31
20 22 25
11 12 14
2 2 3
4 5 5
16 18 21
32 35 40
40 45 51
49 54 62
57 63 71
67 74 84
82 90 102
89 99 114
100 111 126
121 134 151
128 142 161
132 146 166
137 152 173
136 151 172
137 152 172
143 158 179
139 156 177
137 152 173
128 144 164
136 152 172
135 150 169
122 136 154
109 122 138
117 130 147
118 131 148
114 126 142
116 129 146
110 122 139
102 114 128
90 100 113
82 92 104
93 103 117
106 118 133
125 140 159
132 147 166
131 145 164
113 125 142
115 127 144
86 96 109
59 66 75
20 22 26
16 18 21
25 28 31
27 30 33
10 11 12
12 14 16
29 32 36
39 43 49
26 29 33
34 38 44
41 45 51
28 32 36
20 22 25
32 35 40
26 29 33
81 92 105
150 170 195
162 184 213
160 182 210
151 171 197
146 165 191
117 132 153
84 96 111
46 52 60
17 19 23
47 54 63
63 72 83
65 73 85
55 63 72
43 49 57
33 38 43
40 45 52
45 52 60
32 36 41
16 18 21
13 15 18
23 26 31
28 32 37
46 52 61
64 73 84
90 102 116
106 121 139
122 138 159
130 148 171
135 152 175
132 150 173
132 149 173
133 151 175
151 171 196
166 188 217
163 184 212
162 184 213
147 166 192
131 149 173
102 116 133
92 103 119
63 72 83
66 75 86
66 75 87
63 70 81
75 84 97
82 92 106
94 107 124
99 112 129
103 117 136
105 120 140
107 122 141
107 122 141
118 134 154
135 152 175
151 170 196
167 190 220
176 199 229
174 197 227
166 190 220
167 189 217
158 179 206
134 151 175
121 138 159
100 113 131
88 99 113
91 104 120
79 91 105
71 80 93
61 69 81
52 59 68
36 41 47
36 41 48
33 38 44
26 29 33
22 25 29
14 16 19
22 25 29
36 41 47
48 54 63
59 67 77
65 73 85
53 61 70
44 50 58
45 50 58
39 44 51
36 41 48
36 41 48
39 45 52
35 40 46
46 52 60
61 70 81
82 93 108
91 104 120
97 109 125
97 110 128
91 104 120
71 80 93
60 68 79
58 66 76
59 67 77
69 79 91
68 76 88
55 63 73
49 55 64
41 47 55
45 51 58
50 57 66
57 64 74
85 96 110
104 118 136
112 127 146
109 123 141
110 124 144
113 129 148
119 135 156
140 159 184
159 180 209
168 192 222
180 205 236
187 212 245
191 215 248
180 204 235
158 179 207
141 160 185
133 152 175
123 139 161
112 128 149
104 118 136
103 117 134
100 114 132
97 110 127
79 90 104
84 95 109
90 103 119
68 78 90
58 66 76
38 43 50
32 37 43
51 58 67
57 65 75
54 61 71
52 59 68
64 73 84
54 62 72
51 58 67
47 53 60
44 50 58
51 58 67
72 81 93
49 56 65
34 38 45
22 25 29
24 27 31
33 37 43
34 39 45
39 44 51
48 54 63
56 63 74
53 60 70
49 56 64
55 62 72
62 71 82
65 73 84
85 97 112
90 102 117
104 119 138
90 102 118
84 96 111
81 92 106
82 92 106
63 71 82
51 58 67
50 57 66
44 51 59
36 41 47
54 61 70
74 84 97
100 113 131
135 153 177
160 181 209
176 199 229
182 208 241
191 216 249
189 215 249
190 215 249
178 202 234
162 184 213
152 172 199
143 163 189
145 165 191
141 161 186
142 162 187
154 175 202
170 193 223
182 208 241
186 212 247
189 215 248
185 210 244
178 202 233
167 190 220
147 166 192
112 128 148
108 123 142
104 118 136
104 118 137
104 118 137
108 123 143
117 132 153
99 112 130
81 91 105
67 76 87
57 64 74
56 63 73
48 54 62
35 40 46
36 41 47
34 39 45
43 49 57
33 37 43
38 43 49
52 60 69
60 68 78
56 64 74
40 45 52
41 47 54
47 53 61
59 67 77
59 66 76
55 63 72
40 46 53
38 44 50
43 49 56
42 48 55
29 32 38
17 19 22
37 43 49
57 65 75
82 93 108
95 108 124
105 120 139
108 123 141
106 121 140
111 126 145
116 131 152
134 152 177
152 173 200
159 181 210
172 196 226
177 201 233
186 211 244
185 210 242
182 206 238
187 212 245
182 207 240
186 210 242
188 212 244
183 207 239
178 202 233
178 202 233
166 189 219
162 184 213
149 169 195
145 164 190
147 167 192
148 168 194
141 159 183
132 151 174
134 152 176
140 159 185
127 144 166
118 134 155
111 125 144
90 102 118
75 85 98
59 67 77
48 55 64
43 48 56
29 33 39
27 30 35
36 41 47
43 49 56
56 63 73
89 101 116
89 101 117
96 109 127
108 122 141
124 141 162
130 148 170
145 163 188
146 165 191
153 173 199
155 175 202
159 180 208
169 191 221
175 198 229
173 196 227
170 193 223
120 135 155
76 85 97
55 61 69
33 37 43
29 32 36
15 17 19
10 11 13
19 21 23
24 26 30
20 23 26
46 51 58
70 77 87
92 102 114
99 110 125
102 113 128
81 90 102
62 69 79
56 63 72
74 81 92
69 77 88
86 95 107
79 87 98
60 67 77
32 35 40
17 19 22
8 9 10
25 28 32
42 47 53
69 77 88
85 94 106
87 97 110
86 96 108
78 87 97
49 55 62
30 33 38
22 24 27
28 31 34
26 28 32
21 23 26
11 13 14
7 8 9
18 20 23
20 23 26
17 19 22
13 15 17
14 15 17
11 12 14
6 7 8
15 17 20
30 34 39
41 45 51
48 54 61
56 63 71
67 75 85
75 84 95
93 104 118
102 113 129
121 135 154
127 142 161
144 160 182
126 140 158
135 150 168
130 145 165
137 152 173
139 154 174
138 154 175
138 154 175
143 159 179
140 155 174
134 148 167
128 142 161
115 128 145
126 139 157
124 138 155
114 126 143
98 110 125
92 102 116
101 112 127
112 124 140
126 140 159
122 134 151
131 145 164
125 138 155
112 125 142
87 96 109
56 63 71
26 28 32
4 5 6
20 22 24
31 35 40
16 18 20
8 9 10
15 17 19
28 31 35
36 41 47
42 46 52
45 50 57
24 27 30
10 12 13
23 25 28
34 38 43
120 136 157
146 165 191
146 165 189
130 147 170
111 125 144
103 117 134
94 106 122
73 83 96
67 76 88
60 68 78
45 51 59
35 40 46
31 35 40
21 24 28
20 23 27
33 37 43
36 40 47
26 29 34
22 25 29
22 24 28
23 26 30
22 25 29
37 42 49
55 63 72
72 82 95
96 108 125
111 126 146
107 122 141
99 113 130
91 103 119
88 99 115
108 122 141
110 125 144
123 140 162
116 131 151
118 135 157
118 134 155
133 150 173
125 142 164
119 135 156
94 107 124
82 94 109
74 84 97
78 88 102
72 82 94
65 74 86
69 78 90
60 68 79
46 52 60
42 48 55
49 55 63
55 62 72
57 65 75
61 70 80
76 86 99
97 110 128
123 141 164
154 174 200
172 194 224
185 210 242
184 209 242
175 199 231
166 189 219
145 164 190
131 148 171
123 138 159
118 134 156
116 132 153
107 121 141
95 108 125
85 96 111
85 97 112
84 95 110
78 88 102
63 71 82
67 76 87
61 69 80
50 57 66
38 44 51
46 53 61
39 44 51
30 34 40
21 24 28
34 38 44
50 57 66
79 90 104
92 105 122
102 116 133
98 111 128
106 121 141
103 116 133
95 109 126
96 109 127
106 120 139
99 112 130
117 133 154
137 156 181
154 175 203
162 184 213
165 188 218
163 186 215
161 182 211
161 183 212
159 181 209
158 180 208
147 168 194
126 143 166
103 117 135
80 92 106
63 72 83
61 69 79
76 86 100
108 123 143
116 131 151
134 151 174
137 154 177
151 171 198
152 172 199
148 169 196
155 176 204
164 187 217
172 195 226
177 201 233
185 211 244
187 212 244
185 209 241
166 189 219
156 176 202
134 152 176
121 137 158
109 123 142
111 126 145
111 127 147
95 108 125
78 88 101
75 85 98
64 73 85
65 74 86
72 82 95
88 100 116
103 117 136
101 114 132
98 112 130
95 107 124
102 115 132
96 109 126
101 116 134
112 127 146
108 123 142
100 113 131
97 111 128
96 108 125
75 86 99
66 75 87
53 60 70
43 48 56
38 43 49
41 47 54
54 61 71
64 72 84
69 78 90
66 75 87
69 78 90
82 94 109
90 103 120
92 104 119
96 108 125
89 101 117
91 103 119
86 98 114
83 93 107
73 83 96
76 86 99
85 96 111
95 107 124
107 122 142
116 132 152
124 140 161
141 161 186
164 186 215
182 206 237
186 210 242
192 217 250
186 213 247
186 211 244
190 215 247
185 210 243
183 207 240
173 196 226
172 196 227
172 196 227
175 198 228
170 192 222
167 190 219
176 199 229
177 200 231
175 198 229
177 201 231
171 194 224
170 192 221
163 185 213
140 159 184
121 137 158
114 129 150
114 130 150
117 133 154
110 125 145
111 126 146
102 115 133
96 109 126
107 123 143
130 147 171
137 156 181
154 175 201
149 170 196
150 170 196
142 162 188
156 178 206
164 187 217
163 186 216
165 187 216
174 197 228
180 203 234
172 196 226
165 187 216
152 173 200
139 157 181
130 147 170
129 147 169
125 142 165
112 127 147
107 122 140
117 134 156
124 140 162
122 139 161
101 114 132
85 96 111
76 87 101
63 71 83
62 70 81
71 81 94
79 90 104
79 89 102
69 78 91
39 44 51
40 45 52
84 96 111
138 156 180
163 185 214
175 199 230
177 201 233
188 212 244
187 210 241
182 206 238
183 207 239
181 205 237
175 198 229
179 204 236
177 202 235
178 203 235
170 193 223
175 198 229
171 193 223
166 189 219
160 182 210
146 165 191
140 160 185
126 143 165
129 147 170
120 136 157
96 108 125
91 104 120
99 111 128
90 102 117
97 110 127
108 122 141
107 122 140
88 100 116
82 93 106
66 74 85
48 54 63
40 45 52
40 45 52
31 35 41
40 46 53
42 48 55
45 51 59
51 58 66
57 65 75
67 76 87
71 80 91
65 73 84
74 83 96
95 108 124
116 130 149
123 139 159
130 147 170
135 152 175
132 149 172
134 150 172
127 143 165
94 107 123
48 54 61
58 65 73
59 65 74
40 44 50
40 45 52
33 36 42
23 25 29
29 32 36
24 27 30
27 30 34
58 64 73
65 72 81
56 62 70
35 39 45
24 27 31
40 44 50
43 48 55
38 43 48
44 49 56
45 50 57
24 26 30
5 6 7
8 8 10
18 20 23
44 49 55
58 65 74
78 86 98
96 106 120
88 98 112
66 73 83
55 62 70
32 35 40
26 28 32
17 19 22
24 27 31
21 23 26
16 18 20
9 10 11
17 19 22
22 25 29
25 27 31
18 20 23
14 16 18
9 10 11
8 9 10
20 22 25
33 37 42
37 41 47
54 60 67
45 50 56
52 57 65
68 76 86
82 91 102
101 113 128
114 126 142
132 146 166
136 152 173
147 164 185
137 152 172
129 143 162
141 156 177
135 151 172
147 164 185
134 149 170
146 162 183
126 140 158
130 144 164
128 142 161
118 130 147
115 128 146
117 131 148
115 127 142
107 119 135
112 123 138
109 121 137
121 134 151
126 140 158
139 153 173
116 130 148
95 105 118
80 88 100
48 54 61
33 37 42
13 14 16
12 13 15
23 26 30
23 26 29
10 11 13
17 19 21
26 29 33
47 53 60
59 65 73
57 64 72
45 50 56
21 23 27
31 36 41
113 127 146
127 144 167
118 133 153
114 129 148
103 117 135
102 115 132
103 117 134
98 111 128
96 109 125
89 101 116
74 83 96
68 77 89
75 85 98
79 90 103
87 99 114
89 101 117
89 100 116
82 93 108
46 53 61
33 37 43
20 23 27
25 28 33
38 43 50
47 53 60
57 64 74
65 73 85
54 61 71
38 43 49
38 43 50
65 74 85
84 95 110
90 102 119
96 108 125
109 124 144
95 107 122
83 94 108
76 85 98
68 77 89
51 58 67
37 42 48
21 24 28
44 50 57
60 67 77
79 90 104
92 104 119
99 112 129
87 99 115
75 85 97
63 72 83
51 58 67
54 61 71
59 67 77
42 48 56
51 57 66
76 86 99
71 80 92
73 83 96
91 103 118
114 130 150
129 146 168
156 176 203
173 195 225
181 206 239
180 204 235
170 193 224
158 179 206
152 172 197
146 165 190
132 149 172
124 141 163
124 140 162
109 123 142
98 112 129
105 119 138
105 120 138
100 113 130
94 107 124
91 103 119
76 86 100
71 80 93
72 81 94
68 78 91
42 47 55
18 20 24
13 14 17
19 21 24
24 27 32
33 37 43
41 46 54
55 62 71
64 72 83
71 81 95
77 87 101
69 79 91
79 89 103
73 84 98
68 76 88
83 94 109
91 104 120
101 115 132
111 126 146
111 127 147
120 137 158
113 128 148
113 127 147
107 122 140
107 121 140
103 117 136
97 109 126
96 109 126
96 108 125
93 105 121
88 100 116
80 91 105
64 73 84
50 57 66
38 43 49
35 40 46
50 57 66
64 73 85
78 88 102
92 104 120
112 127 146
121 138 161
142 161 187
163 184 213
167 190 220
176 199 229
178 202 233
172 195 226
175 198 228
173 196 227
174 198 229
170 193 223
165 186 214
165 186 214
160 181 210
162 184 213
149 169 195
135 154 178
121 138 160
112 127 146
93 106 122
85 96 111
79 90 103
64 73 85
44 50 58
36 40 47
51 58 67
46 53 61
36 42 48
38 43 50
152 173 201
135 153 177
126 143 166
111 126 146
103 117 135
97 111 128
95 108 125
83 94 109
52 59 69
30 34 39
23 26 30
23 26 30
39 44 51
60 68 79
80 91 105
103 117 135
117 134 155
114 130 150
116 131 151
120 137 159
133 151 175
142 161 186
150 170 197
157 178 206
169 192 222
178 203 234
178 203 235
184 210 243
186 211 243
184 210 243
188 213 246
186 211 244
188 213 246
179 203 235
182 206 237
182 207 240
181 205 236
181 205 237
178 203 235
176 200 230
173 197 229
174 197 227
169 193 223
174 198 229
180 204 235
182 208 242
182 208 241
178 203 235
173 196 226
152 173 201
136 154 178
126 143 165
117 133 155
115 131 151
123 140 162
138 156 179
135 153 177
139 158 183
150 170 196
155 176 203
159 181 210
173 198 230
181 205 236
179 204 236
164 186 215
161 183 212
140 159 184
119 135 155
111 126 146
121 138 159
140 159 184
154 175 202
167 190 220
179 204 237
188 213 247
185 209 242
186 211 243
183 208 241
181 205 237
182 208 241
183 207 238
179 202 232
182 206 238
185 209 241
178 202 234
175 199 230
157 177 204
143 161 186
129 146 168
110 124 143
97 110 128
76 87 100
46 52 59
39 44 51
40 45 52
52 59 67
87 99 114
137 155 178
163 185 213
176 200 231
181 206 238
187 212 245
182 206 237
180 205 236
179 203 234
179 203 236
181 205 236
173 196 226
167 190 220
172 195 224
169 192 222
170 192 222
171 193 223
166 188 217
168 191 221
165 185 212
154 175 203
160 181 208
153 173 199
148 168 194
131 148 170
131 148 170
124 140 162
141 158 181
124 141 163
112 126 145
89 101 116
62 70 80
44 50 58
37 42 48
40 45 52
42 48 55
51 58 67
58 66 76
68 77 88
65 73 84
46 52 60
36 41 48
30 34 39
31 35 40
34 38 44
40 45 52
51 57 66
64 72 84
70 79 91
82 92 105
92 104 120
88 99 115
89 100 115
93 106 122
99 111 128
91 103 119
57 65 74
29 33 38
56 63 71
78 86 97
68 76 86
69 77 87
58 64 72
31 35 39
31 34 39
44 49 55
32 36 41
25 28 32
21 24 27
14 15 17
8 9 11
9 10 12
12 14 16
18 20 23
14 16 18
9 10 11
16 17 20
22 24 27
18 20 23
29 32 37
44 49 55
67 75 85
68 75 85
89 99 112
102 114 129
88 98 112
81 91 103
64 71 80
49 55 62
34 38 43
29 33 37
16 18 21
9 10 11
11 12 14
16 18 21
18 20 22
9 10 12
7 8 9
9 10 12
15 16 19
20 22 26
28 31 36
36 40 45
49 54 61
64 71 80
68 76 86
73 80 90
83 91 103
96 107 121
109 121 137
122 134 151
124 138 156
135 149 169
149 165 187
139 154 175
144 160 181
148 163 185
134 149 169
130 146 166
132 147 166
137 152 173
126 141 161
124 137 155
115 127 144
113 125 141
122 135 152
110 122 138
117 129 145
137 151 170
122 136 155
127 140 159
133 148 169
128 142 161
126 139 157
92 103 118
80 88 99
43 47 54
17 19 21
11 12 13
13 14 16
17 18 21
17 19 22
23 26 29
39 43 49
54 60 68
69 75 84
71 79 89
65 72 81
71 79 89
37 41 46
88 101 117
142 160 184
154 173 199
151 170 196
151 171 197
140 158 181
140 159 183
126 142 164
111 125 144
108 122 140
105 118 135
101 114 131
98 110 127
79 90 103
74 84 96
68 77 89
63 71 82
56 63 73
50 57 65
50 56 65
29 33 38
11 12 14
13 14 17
33 37 44
45 51 59
31 35 40
29 33 38
38 42 49
23 26 30
52 58 67
75 85 98
96 108 125
118 133 154
133 151 175
137 155 178
145 163 188
140 160 185
145 164 189
136 154 178
134 152 176
132 149 172
134 152 176
143 162 187
143 162 187
151 171 197
153 174 202
156 175 201
138 157 181
133 150 174
114 129 149
83 95 110
57 64 75
29 33 38
25 28 32
41 46 54
55 62 72
59 66 77
65 73 85
68 77 89
74 84 97
88 99 114
102 116 134
136 154 178
160 181 209
169 192 221
182 207 239
184 209 242
180 206 239
179 203 234
173 196 226
171 194 224
168 191 221
169 191 220
166 189 218
164 186 215
160 181 209
142 161 186
120 136 157
95 108 124
81 92 106
70 79 92
68 78 90
61 69 80
49 56 66
39 44 52
44 50 57
43 49 57
49 55 64
42 47 55
28 32 37
14 16 19
23 26 31
32 37 42
39 44 51
43 49 56
48 54 62
52 59 68
48 55 63
62 71 82
71 81 94
75 84 97
93 105 122
87 100 115
80 91 105
89 102 118
103 116 134
110 125 145
121 137 158
122 139 161
115 131 151
105 118 137
106 120 138
101 114 132
109 124 143
108 123 141
93 106 123
95 108 125
89 101 116
81 91 105
86 97 113
83 94 109
79 89 103
75 86 99
60 69 80
49 56 65
45 51 59
48 54 63
64 73 85
84 95 110
98 112 129
105 119 137
118 135 156
137 156 180
158 180 208
163 185 215
173 196 226
175 198 229
171 193 223
167 190 221
168 192 222
167 191 221
173 196 227
180 204 236
184 209 242
187 212 245
182 208 241
180 204 235
177 201 233
177 201 231
172 195 226
165 187 215
150 171 198
148 169 196
148 168 194
103 116 135
97 111 129
88 100 116
66 75 86
61 69 80
54 61 70
45 52 60
39 44 51
33 38 44
29 33 38
39 45 52
55 63 72
44 50 58
39 44 51
38 43 49
38 43 49
39 45 52
54 61 71
82 94 109
107 122 141
134 151 173
147 166 192
157 178 205
158 180 208
162 184 213
153 173 199
147 168 194
148 168 194
147 166 192
140 159 184
131 149 172
113 128 148
108 122 141
99 113 130
84 94 108
78 89 103
76 86 100
76 87 101
78 88 101
69 78 90
62 71 82
61 70 81
70 79 92
87 99 114
106 121 140
136 154 178
163 185 214
174 198 230
188 213 245
184 209 242
174 197 227
142 162 187
138 156 179
128 145 167
128 146 168
146 166 192
162 185 214
173 197 228
182 207 240
186 211 245
189 214 246
184 209 242
170 194 224
163 185 213
154 175 202
148 167 193
148 169 196
157 178 206
167 189 219
170 193 223
174 198 229
180 204 236
180 204 236
178 202 233
179 203 235
180 204 236
174 197 227
177 201 233
181 206 239
180 204 236
181 204 236
174 198 229
179 204 236
176 198 228
161 182 210
139 157 181
110 125 144
87 99 114
74 84 97
65 74 86
47 53 61
20 22 26
46 53 61
75 85 98
103 116 133
130 147 171
158 179 206
174 197 228
183 207 239
181 206 238
168 190 219
174 198 229
174 197 227
177 200 230
181 205 236
179 202 233
178 201 232
180 204 235
177 201 233
180 204 236
179 203 234
177 201 233
179 202 232
172 194 222
161 183 211
156 175 201
151 170 196
147 167 192
156 176 204
156 177 205
163 183 210
155 175 201
153 173 200
154 174 200
136 155 180
131 147 169
110 125 145
79 90 104
67 76 89
87 99 115
105 118 135
112 127 147
125 142 163
138 157 181
125 142 165
108 122 141
86 97 111
61 68 78
43 49 56
17 19 22
33 37 42
48 54 62
42 47 53
40 45 52
46 52 60
50 57 65
46 52 60
54 61 69
59 67 77
62 70 80
50 55 63
51 57 65
54 60 69
73 83 96
90 102 118
76 85 97
57 64 73
66 73 83
49 55 63
52 57 64
55 60 68
28 30 34
30 34 39
56 62 69
47 52 59
47 52 59
33 36 41
21 23 26
16 18 20
21 23 26
24 27 31
25 28 32
44 48 54
55 61 69
56 63 71
66 73 82
70 78 88
74 82 93
82 90 102
91 100 112
103 113 128
93 103 117
97 108 121
81 89 101
75 84 96
63 69 79
33 37 42
18 20 22
7 7 8
9 10 11
12 14 15
11 13 15
8 9 10
13 14 16
19 21 24
32 35 40
48 54 60
59 66 75
59 66 75
61 68 77
65 72 82
74 82 93
91 101 114
103 115 131
107 119 136
114 127 144
118 131 148
120 135 154
128 143 163
139 154 174
150 165 186
149 165 186
142 157 178
152 168 190
136 150 169
122 137 156
128 142 161
128 142 161
112 125 142
115 128 144
126 139 157
122 136 155
121 134 152
131 147 167
125 139 157
138 152 171
133 146 165
116 129 147
125 139 156
106 117 132
81 89 101
66 74 84
23 26 30
9 10 12
27 29 33
42 47 53
47 52 59
38 42 47
49 55 63
72 80 91
69 77 88
70 78 88
71 78 88
54 60 68
69 79 91
139 158 183
163 184 212
164 186 214
171 193 222
167 188 216
165 186 214
156 177 203
164 185 212
152 171 197
152 172 199
149 169 195
143 162 187
143 161 184
131 148 169
125 142 163
112 126 144
87 98 112
69 78 90
57 65 74
69 78 90
82 93 107
85 95 109
87 98 113
105 119 137
106 120 138
101 113 129
94 108 126
90 101 116
53 59 68
41 47 54
23 26 30
16 18 21
21 23 27
28 31 36
27 31 36
24 27 32
28 32 37
37 42 49
40 45 52
53 61 70
62 71 82
73 83 97
78 89 103
109 123 142
97 110 126
96 109 126
84 95 110
59 67 78
57 64 74
67 76 88
95 108 124
113 128 147
121 138 160
121 138 160
137 156 180
142 162 187
147 167 193
147 166 191
159 180 207
164 186 215
164 187 217
174 196 225
175 198 229
174 197 226
186 210 242
181 205 238
180 203 234
179 203 234
172 196 226
176 199 229
173 196 226
166 189 219
171 194 224
162 184 213
167 190 219
153 174 201
158 180 207
149 169 195
135 153 176
119 135 156
105 119 138
106 120 139
101 115 134
95 108 124
94 106 122
97 110 128
87 99 115
72 82 94
57 64 74
65 73 84
57 64 74
53 60 70
50 56 65
48 55 63
28 32 37
15 17 20
27 30 35
55 63 73
77 88 102
98 112 130
124 140 162
136 154 178
142 161 187
145 165 190
146 165 191
146 167 193
138 157 182
125 142 164
113 129 149
115 132 153
110 126 146
106 121 140
102 115 131
108 123 143
111 125 145
101 115 133
107 122 141
114 131 152
117 133 154
132 149 173
142 161 186
164 186 213
161 184 213
149 169 196
136 154 178
124 140 161
122 138 159
121 137 158
122 139 160
127 144 167
126 143 165
135 153 177
143 161 185
146 166 191
149 170 197
154 176 203
168 190 220
162 185 214
155 176 204
151 172 199
144 164 190
142 161 185
125 142 164
138 157 182
148 168 194
151 172 199
149 169 195
165 187 215
177 202 234
185 210 243
191 216 249
194 219 253
190 216 250
190 216 251
189 215 248
32 37 43
24 28 32
24 27 32
26 29 34
33 37 43
31 35 40
45 52 60
47 53 62
54 61 71
55 63 73
75 86 99
82 93 108
99 113 131
118 135 156
126 143 164
119 135 156
122 138 160
116 132 153
124 141 164
134 152 175
126 144 167
130 148 171
121 137 158
105 118 136
100 112 129
73 83 96
62 71 82
60 68 79
39 45 51
35 40 46
40 46 54
58 66 76
58 66 77
76 86 99
72 82 95
84 95 110
89 101 116
88 99 115
66 75 86
34 39 45
23 26 30
36 41 48
58 65 75
88 99 115
100 113 131
122 139 161
149 169 195
171 193 223
186 209 240
185 210 243
180 205 237
164 186 215
142 161 186
125 142 164
107 121 140
102 116 134
124 140 161
141 160 184
155 176 202
163 186 215
176 199 230
183 206 236
180 205 237
183 209 242
175 200 232
168 192 223
167 190 220
168 191 221
170 192 222
160 182 211
166 187 214
168 191 220
176 199 229
175 198 230
174 196 227
182 207 239
185 210 243
189 214 247
182 208 240
177 200 231
172 195 225
148 167 193
129 146 169
104 118 137
82 92 107
70 79 91
58 66 76
53 61 71
44 50 57
28 32 37
32 37 43
55 63 73
65 74 85
83 94 109
121 137 158
145 165 191
165 186 214
172 194 224
180 203 233
183 206 236
177 201 232
177 200 231
182 206 237
180 205 237
185 209 241
178 202 234
180 205 236
180 205 237
180 204 235
177 201 233
173 196 226
179 204 235
169 192 223
163 185 214
161 182 210
158 179 208
159 179 207
145 163 187
138 155 178
129 146 169
118 134 155
115 129 148
96 108 124
94 106 123
96 108 124
102 115 132
97 110 127
102 115 133
115 130 149
117 133 153
112 127 147
89 101 117
73 82 95
53 60 69
36 41 48
20 23 26
18 20 23
17 19 22
16 18 21
12 13 15
12 14 16
20 23 26
42 48 55
50 56 64
60 67 77
67 76 87
81 90 103
86 97 111
91 103 118
96 108 123
109 123 142
107 120 138
115 128 146
114 129 148
119 134 153
127 143 164
110 124 142
81 90 103
57 63 71
31 35 39
24 27 31
27 30 34
18 19 22
29 32 36
45 49 56
59 65 73
68 75 85
57 63 71
40 44 49
37 41 47
33 37 43
47 51 58
61 67 76
58 64 73
69 77 88
75 84 95
72 80 91
78 86 97
85 94 106
97 107 121
92 101 113
100 112 126
98 108 121
85 94 106
68 76 86
55 61 69
35 39 44
14 16 18
11 12 14
15 17 19
20 22 25
10 11 12
14 15 17
22 24 27
34 38 43
50 55 62
60 67 75
75 84 95
71 79 90
84 93 107
85 95 107
101 112 127
100 112 128
105 117 133
123 137 155
138 152 171
119 132 149
114 126 143
135 150 169
137 152 171
140 156 177
144 160 181
150 166 187
145 161 182
126 139 157
113 125 141
119 132 149
123 138 156
124 138 156
135 150 170
131 145 163
126 140 160
134 148 167
132 147 166
134 149 168
123 136 154
114 127 145
104 116 131
107 119 134
80 89 100
55 61 69
24 27 30
28 31 35
48 53 59
52 58 65
48 53 60
51 56 62
52 59 67
77 85 96
79 88 99
79 87 98
64 71 80
75 84 96
140 157 179
153 171 196
153 172 197
138 155 178
129 146 168
127 143 164
130 146 168
148 166 190
136 152 174
139 156 179
137 154 177
148 167 193
150 168 192
160 180 206
164 184 211
155 174 199
151 170 195
129 145 167
118 132 152
106 120 138
95 107 123
103 116 134
106 119 137
93 105 121
98 111 128
112 126 146
101 113 130
92 105 121
90 101 116
73 82 94
51 57 66
48 55 63
38 42 49
51 58 66
40 46 53
48 54 62
38 43 50
48 54 63
51 58 67
55 63 72
68 77 90
70 79 90
73 83 96
72 81 94
72 81 93
77 86 99
72 81 93
87 99 114
96 109 126
97 110 126
93 104 119
95 107 123
115 130 150
140 158 182
158 180 208
167 189 218
171 194 223
165 188 217
164 184 212
160 181 208
166 188 217
173 195 224
174 198 228
180 205 238
182 205 236
182 207 239
173 196 227
175 198 228
178 202 233
180 204 236
182 207 240
182 206 237
187 211 243
184 209 242
183 208 240
188 213 245
179 203 235
176 199 228
178 200 230
168 191 221
163 184 213
164 187 217
161 184 214
159 180 209
147 166 192
128 145 167
108 122 141
99 112 130
91 104 120
90 103 119
99 112 130
114 129 149
111 126 145
104 117 135
94 106 122
79 90 104
83 94 109
67 76 87
88 99 115
97 110 127
80 92 107
89 101 117
109 124 143
130 147 170
145 164 189
141 161 186
148 168 194
152 172 200
147 167 194
153 174 202
152 172 199
161 183 211
168 191 221
176 200 231
178 203 235
172 195 226
165 187 217
156 175 201
126 143 165
105 119 138
82 93 108
42 48 55
32 37 43
70 79 91
108 123 142
152 173 201
174 198 228
180 204 235
180 203 234
176 199 229
173 196 226
168 191 221
153 174 201
147 167 193
154 174 201
156 177 205
156 177 205
157 179 206
158 180 208
148 168 195
142 161 186
119 135 157
131 149 172
122 139 161
127 145 168
134 152 176
141 161 186
148 168 195
158 180 208
166 188 217
176 199 229
182 207 239
185 211 244
191 217 251
192 218 251
192 217 250
191 217 251
59 67 78
40 46 54
30 34 39
42 48 56
44 50 58
45 51 59
45 51 59
41 46 54
47 53 62
50 56 65
50 57 66
68 77 88
76 86 100
90 102 119
109 125 144
120 137 158
121 137 158
110 125 144
103 117 135
83 94 109
61 69 79
57 65 75
49 55 64
38 44 51
30 34 40
25 28 33
26 30 35
23 26 30
18 21 25
13 15 18
8 9 11
13 15 18
22 25 29
34 38 44
29 33 38
33 38 44
39 44 51
33 37 43
37 42 48
60 69 79
81 92 107
111 126 146
140 160 185
167 190 219
184 208 240
187 213 247
185 210 244
177 201 232
161 183 213
139 158 183
123 140 162
121 138 160
124 141 163
121 137 159
119 136 158
114 129 148
106 121 139
101 115 133
114 129 148
121 137 159
151 172 199
171 194 224
181 204 235
190 215 247
183 208 240
171 195 225
157 178 206
138 156 179
131 148 171
126 143 165
142 161 185
141 159 184
148 167 192
148 168 194
155 175 202
173 195 225
174 198 229
186 211 243
186 210 241
168 191 221
154 176 204
132 150 173
111 126 146
76 86 99
32 36 42
25 29 33
46 52 60
56 63 73
68 77 88
92 104 120
117 133 153
133 151 174
151 171 198
159 180 208
167 190 220
169 192 221
167 188 217
168 190 218
163 185 213
166 188 217
165 187 216
166 188 217
173 196 227
174 198 229
174 197 228
177 200 230
166 188 217
172 195 225
174 196 224
180 203 234
171 194 224
175 197 226
165 186 215
167 189 217
159 181 209
157 177 204
159 178 204
160 181 209
159 180 207
153 173 198
148 167 192
131 149 173
124 141 163
121 136 156
121 136 157
113 127 146
107 121 140
110 124 143
111 125 144
112 126 144
110 124 144
93 104 119
78 88 102
58 66 76
54 60 69
46 52 60
60 68 78
68 76 87
75 85 99
85 95 109
73 83 95
49 55 63
30 34 39
47 53 61
45 51 58
39 44 51
47 53 61
61 68 78
75 85 97
84 95 108
90 101 116
100 113 129
101 113 129
104 117 134
111 124 141
120 135 155
110 124 142
124 138 157
101 113 128
76 85 96
40 45 50
22 24 27
11 12 14
18 20 23
15 16 18
36 40 44
46 51 58
63 70 79
70 77 87
68 75 84
53 58 66
50 55 63
66 72 80
60 66 75
76 84 95
91 100 112
76 84 96
87 96 108
68 75 84
79 87 97
99 110 123
96 105 118
76 84 96
79 87 98
74 82 93
61 68 77
41 46 52
29 32 37
26 28 32
18 20 23
6 7 8
5 6 7
18 20 22
33 37 42
53 59 67
74 81 92
87 96 109
107 118 133
101 112 126
95 105 119
114 126 142
114 127 145
122 136 154
143 158 178
128 142 160
122 135 153
130 144 162
136 151 171
136 151 171
127 141 159
136 151 171
141 155 174
123 138 157
115 128 145
111 123 139
113 126 143
131 146 164
115 127 144
136 152 173
132 146 165
116 128 146
140 156 178
140 155 175
129 143 161
112 124 140
118 131 148
103 114 129
92 101 113
63 70 80
34 38 43
28 31 34
48 53 60
71 79 90
62 68 77
61 67 76
72 79 88
83 92 104
88 97 110
84 93 104
66 74 83
64 71 82
101 114 131
129 144 165
128 145 166
124 138 158
128 144 166
144 162 185
149 167 191
162 182 208
163 183 210
150 167 190
158 178 205
156 175 200
173 194 221
155 175 201
170 190 217
164 184 211
158 179 205
167 188 216
163 183 210
166 187 214
173 195 224
170 192 221
154 174 200
153 171 196
154 173 198
154 173 198
152 170 195
148 167 191
144 162 186
129 146 168
144 163 188
133 151 173
142 161 185
146 165 189
155 176 202
150 169 195
156 176 202
163 183 211
165 186 213
161 183 211
162 183 211
160 180 206
163 184 212
163 184 211
171 193 222
159 180 208
156 176 203
150 170 195
143 161 184
122 138 158
111 126 145
86 97 112
63 72 84
57 64 75
70 79 91
71 80 92
69 78 90
89 101 117
81 92 106
87 98 112
80 90 104
94 106 123
102 115 133
111 125 144
123 140 163
143 162 186
165 187 216
171 193 221
177 200 230
171 195 226
172 196 227
182 206 237
181 205 236
179 202 233
181 205 237
181 205 236
179 203 234
176 199 230
181 205 236
182 208 241
185 209 241
186 211 244
184 209 241
185 210 244
186 211 244
187 212 246
182 206 238
174 197 226
152 173 200
126 142 164
119 135 156
145 164 189
167 188 217
173 195 224
177 200 231
170 192 222
174 197 228
172 196 227
176 200 231
174 197 227
180 204 235
186 211 245
182 207 239
192 218 252
185 211 244
187 212 244
184 209 241
179 204 236
174 197 228
172 194 224
178 202 234
182 206 237
181 205 237
181 205 237
173 197 228
162 184 212
152 174 202
143 161 186
126 142 164
107 121 138
91 103 119
80 90 104
47 54 63
28 32 37
60 68 79
103 117 135
148 168 194
150 170 197
146 165 191
147 167 193
138 155 179
133 151 174
116 132 153
106 120 139
93 106 122
97 110 127
94 108 125
114 129 148
128 145 167
142 161 187
154 175 202
163 185 215
165 187 216
169 192 222
175 199 230
180 205 237
187 213 247
188 214 249
183 210 244
183 207 239
177 201 233
182 207 240
187 213 246
185 210 242
190 215 248
189 215 249
193 219 253
191 217 251
187 213 247
132 150 173
108 122 141
77 87 101
35 39 45
34 39 44
66 76 88
74 84 97
74 84 97
72 81 94
70 79 91
61 70 81
55 63 72
71 81 93
81 92 106
95 108 125
102 116 135
95 108 125
79 89 103
65 73 85
48 54 63
45 51 60
54 61 70
49 56 65
34 39 46
31 35 41
31 35 40
24 28 32
20 23 26
19 22 25
17 20 23
12 14 16
10 11 13
15 18 20
26 30 34
35 40 46
56 64 74
65 75 86
93 105 121
106 121 141
120 136 157
126 142 163
133 150 173
150 170 195
175 199 230
182 208 240
183 208 240
183 207 238
167 190 220
150 171 197
135 153 177
146 166 192
159 180 208
169 192 221
169 192 221
172 195 225
170 194 224
172 194 224
170 193 223
170 193 223
176 199 230
185 209 239
184 209 241
182 207 240
184 209 241
182 207 238
186 210 242
192 217 249
177 200 231
175 199 229
180 205 237
172 196 227
169 192 222
162 184 213
151 171 199
135 153 176
131 149 173
116 132 152
103 116 135
93 106 122
84 95 110
85 96 110
73 83 96
63 71 82
62 70 81
60 69 79
58 65 75
68 78 91
91 103 119
97 110 128
106 120 138
128 145 168
150 171 198
162 184 211
151 172 198
144 163 188
130 147 169
108 123 141
97 110 127
95 107 123
99 112 129
108 123 141
116 130 150
116 132 153
118 134 155
118 135 156
116 131 151
122 138 159
144 162 186
156 177 205
173 195 224
167 189 218
159 180 208
172 195 225
170 191 219
168 190 220
171 193 222
162 182 210
162 183 211
169 191 220
176 199 229
178 201 231
163 184 211
165 186 212
154 175 202
162 183 210
148 167 191
155 176 203
162 182 208
161 181 208
161 182 210
160 181 210
158 177 203
154 173 199
151 171 198
145 164 188
144 162 185
142 159 181
143 160 183
134 151 173
112 125 143
81 91 104
69 77 88
52 58 67
33 36 42
26 29 33
41 47 53
61 68 78
66 74 85
69 78 90
72 82 94
78 89 102
72 80 91
75 84 96
68 76 87
64 72 83
62 70 79
69 77 88
71 80 91
79 89 101
81 91 104
87 98 112
71 79 89
30 34 39
18 20 23
30 33 37
30 33 38
40 44 49
48 53 59
61 67 75
67 74 83
67 74 84
72 80 90
61 68 77
71 78 87
63 71 80
77 84 94
78 85 96
83 92 104
82 90 100
79 88 100
101 111 125
90 100 112
77 86 98
85 94 106
78 85 96
68 76 86
54 60 67
54 60 68
57 63 72
56 62 70
61 68 76
51 57 65
55 61 68
55 61 69
76 84 94
89 99 112
110 121 136
120 133 150
127 141 160
129 143 161
130 144 163
133 148 168
129 142 161
140 155 175
134 148 167
130 144 164
139 154 174
138 153 173
140 156 176
136 151 170
140 154 173
129 141 159
125 139 157
115 128 145
117 130 146
123 136 153
133 146 165
134 148 167
138 152 170
127 140 158
129 143 160
106 117 133
118 131 147
122 135 153
105 116 132
83 91 102
56 62 70
34 38 43
44 48 54
51 57 64
66 73 83
85 94 107
88 98 110
85 93 105
94 104 118
88 98 110
103 114 128
74 82 94
64 72 82
62 69 79
77 87 99
97 109 124
99 111 126
101 113 129
96 107 123
89 99 114
98 110 127
111 125 144
119 135 155
138 156 179
156 175 201
151 171 196
151 170 195
155 175 200
160 180 206
146 164 188
157 177 203
160 179 205
153 173 198
153 171 195
138 155 177
148 166 189
145 163 188
141 158 181
153 173 199
155 175 201
154 174 200
170 190 217
167 188 216
157 177 202
166 188 217
166 188 216
162 183 211
163 184 212
163 184 211
163 185 214
168 189 217
166 187 216
154 175 202
143 161 186
141 160 184
138 155 177
130 147 170
137 155 178
143 162 186
159 180 207
161 182 209
161 181 209
167 188 216
171 194 224
170 193 223
168 189 217
179 202 233
167 188 217
152 173 200
138 156 180
126 142 163
118 134 154
111 125 143
113 128 148
90 103 119
79 89 103
88 99 114
83 93 108
72 81 94
74 84 97
76 86 99
77 87 101
100 113 130
98 111 129
98 111 129
112 127 146
125 142 163
132 149 172
136 154 178
140 159 184
145 164 190
149 169 194
149 169 195
158 179 206
167 189 219
177 200 230
179 204 235
182 206 238
183 207 239
179 203 234
179 203 236
181 205 237
181 206 238
173 197 228
146 165 190
147 167 194
174 196 225
185 210 242
186 211 245
184 207 238
172 194 224
164 186 215
160 181 209
155 177 205
154 174 200
156 177 205
154 175 202
159 181 210
156 176 203
150 170 197
154 174 201
152 173 200
137 155 180
141 160 184
149 170 196
161 183 212
169 192 223
178 203 235
187 211 244
187 212 245
183 208 241
175 199 229
173 196 227
162 185 214
159 180 208
134 153 177
109 124 143
91 103 120
61 70 81
29 32 37
59 67 77
113 128 148
146 166 193
130 148 171
105 120 140
88 100 115
85 97 112
89 102 118
100 112 129
93 105 122
107 121 140
110 125 145
111 126 146
113 127 146
118 134 155
127 145 167
131 149 173
140 159 183
152 172 198
163 185 213
178 202 233
183 209 242
188 213 245
187 212 246
185 211 245
188 213 246
187 212 245
189 215 249
190 216 249
188 213 247
187 213 246
188 214 248
189 214 247
179 203 235
118 134 155
86 97 112
53 60 69
31 35 41
32 36 42
41 47 54
44 50 58
43 49 57
45 51 59
53 60 70
62 71 82
78 89 102
99 112 130
121 137 158
134 153 177
113 128 148
105 119 137
99 112 130
109 123 141
97 110 127
104 119 139
106 120 138
107 122 141
110 124 144
98 111 128
100 114 131
103 116 134
115 130 150
110 125 145
103 117 136
105 120 139
104 119 138
96 109 126
106 121 140
127 144 167
143 163 188
152 173 200
171 193 222
170 194 224
178 201 232
185 209 241
184 209 241
183 208 240
179 202 232
178 202 233
172 197 228
167 188 217
155 175 203
143 162 187
142 162 188
146 166 192
149 169 195
148 168 194
155 175 203
162 183 211
163 186 216
174 197 228
179 202 233
178 202 233
173 197 227
174 196 226
170 193 223
173 196 226
173 196 226
171 194 224
178 202 232
172 195 224
159 181 211
144 163 187
139 158 182
125 142 164
101 114 131
85 96 111
55 63 72
26 29 34
50 56 65
67 76 88
82 93 107
84 96 111
76 86 99
74 84 97
64 73 84
68 77 89
60 68 78
82 93 107
93 104 120
103 116 134
114 129 148
115 130 149
125 142 164
142 160 183
148 168 194
158 179 207
151 170 195
149 169 195
149 168 194
156 176 203
162 182 209
162 183 211
164 186 214
161 182 209
160 180 207
165 186 215
167 189 218
171 194 224
169 191 221
174 196 226
174 196 225
169 192 221
171 194 224
171 192 220
176 199 229
176 198 227
166 187 215
173 195 223
176 199 229
178 200 229
166 187 214
171 194 223
169 190 218
160 180 206
157 178 204
150 169 195
154 174 200
134 151 173
133 150 172
117 131 151
94 105 120
83 94 108
58 65 74
74 83 95
90 102 117
112 126 145
134 152 174
147 166 190
151 170 196
158 178 204
156 174 199
157 176 201
139 158 182
136 153 175
116 131 149
108 120 137
74 83 95
38 42 48
30 34 39
45 51 58
34 39 44
26 30 34
26 29 33
32 35 40
42 47 54
39 44 50
39 44 50
47 53 61
41 46 52
39 44 50
51 57 64
58 64 73
58 65 74
60 67 77
79 88 101
97 109 124
94 105 119
43 48 53
28 31 35
49 54 61
46 51 57
39 43 48
50 55 62
53 58 65
64 71 80
73 80 90
66 73 82
64 70 79
56 62 69
71 78 88
73 81 91
70 77 86
84 93 105
91 100 113
97 107 121
82 90 101
77 85 97
86 95 106
76 84 95
58 64 72
52 58 65
78 87 98
87 96 107
84 93 106
90 100 113
94 102 114
103 113 126
117 129 146
108 120 135
123 135 151
123 137 155
135 150 170
133 147 166
125 138 156
136 150 170
113 125 141
132 145 163
128 141 159
123 137 156
121 134 152
128 142 161
135 149 169
133 148 167
137 150 169
137 152 172
136 151 170
127 142 161
122 134 151
126 140 158
132 146 165
115 128 145
114 126 142
113 124 139
107 118 134
99 110 125
90 100 113
81 90 101
59 65 74
42 47 53
43 48 54
46 51 57
60 66 74
73 80 90
83 91 102
96 106 120
83 92 104
91 99 111
85 94 106
86 94 106
51 57 64
33 37 42
22 25 28
40 45 52
60 67 76
88 98 112
94 106 121
110 123 140
105 117 134
112 125 142
115 129 147
125 139 159
116 130 148
135 151 173
121 136 155
122 137 156
133 150 171
128 143 162
135 152 174
143 160 182
138 155 177
130 146 168
117 131 151
112 125 144
122 137 156
120 135 155
133 149 171
141 158 181
139 156 179
137 155 177
145 163 187
150 169 193
154 172 195
156 176 203
169 189 215
161 182 210
175 198 227
170 192 221
174 196 225
167 187 215
154 173 198
160 180 205
151 171 197
149 169 195
155 173 198
158 179 206
163 183 211
157 176 203
160 181 208
160 181 208
155 175 202
155 175 202
153 174 201
166 188 216
157 177 203
156 177 204
156 176 202
166 188 217
162 183 211
168 192 222
177 200 230
171 194 223
167 189 217
165 187 216
172 196 226
171 192 220
166 189 218
171 193 223
163 185 214
164 186 215
171 193 222
160 181 209
133 150 173
120 136 157
112 127 146
103 117 134
94 106 123
99 112 129
98 111 128
87 99 115
77 87 101
68 77 88
59 67 77
51 58 67
52 58 67
70 79 91
90 102 117
108 123 143
128 145 167
132 150 173
148 167 193
156 178 206
169 192 221
173 197 228
181 205 237
179 202 234
166 188 217
149 168 193
149 169 196
163 185 213
182 206 238
181 206 239
171 194 224
169 191 219
156 177 205
146 165 191
135 153 177
125 143 165
116 132 153
109 123 142
92 105 121
89 100 116
95 109 127
116 132 152
136 154 179
151 171 197
167 190 219
176 200 231
185 210 242
184 209 241
184 209 240
175 198 228
160 181 209
144 164 190
135 154 179
129 147 169
117 132 153
99 112 129
77 87 100
42 48 56
46 52 60
77 88 101
96 108 125
112 127 147
112 128 148
118 134 155
120 136 158
116 132 153
111 125 144
92 105 122
72 81 94
65 74 85
56 63 73
54 62 71
88 100 116
84 96 111
92 105 121
105 119 138
122 138 159
140 159 184
145 165 191
155 175 202
155 176 203
152 173 200
152 172 199
151 172 198
160 182 210
170 193 223
170 193 223
180 204 236
177 201 232
181 205 236
180 204 235
183 207 239
97 110 128
110 124 143
110 125 145
102 116 134
87 99 114
78 89 102
64 72 84
42 47 55
26 30 35
28 32 37
26 30 34
48 54 63
67 76 88
87 99 114
107 121 139
126 144 166
132 150 173
143 163 189
156 178 206
156 177 205
152 173 201
156 177 204
152 172 199
156 178 206
161 183 212
169 193 223
169 192 221
172 194 224
167 191 221
162 184 213
160 182 211
165 188 217
167 189 217
167 189 218
173 197 227
178 202 232
183 208 241
184 209 241
188 212 245
185 211 244
181 206 237
177 202 235
175 199 229
176 201 233
172 195 226
170 193 223
167 190 219
172 195 225
172 195 224
169 191 220
172 196 227
176 199 230
179 202 232
176 200 231
170 192 221
159 182 211
153 174 201
140 159 185
135 154 177
123 140 161
118 134 155
96 109 125
76 86 100
80 91 106
72 82 94
45 51 59
54 61 71
52 59 69
53 60 70
53 61 70
49 56 65
39 44 51
36 41 48
33 38 44
44 50 57
64 73 84
55 63 73
46 52 60
35 40 47
33 38 44
37 41 48
46 51 59
50 57 65
47 53 61
49 55 64
52 59 69
50 56 65
39 45 52
29 33 38
29 32 38
45 51 60
69 78 90
78 88 101
86 97 112
100 112 129
104 118 135
112 127 147
123 140 161
138 157 181
146 165 190
160 181 208
178 201 230
184 208 240
175 197 227
181 204 235
180 205 237
174 196 225
176 199 230
167 188 216
172 195 224
169 191 220
167 189 218
160 180 208
160 181 208
157 178 205
157 178 205
164 185 212
161 181 208
166 186 214
158 179 206
156 175 200
141 160 185
119 135 155
106 119 136
89 100 115
68 77 88
56 63 72
35 40 46
22 25 29
30 33 38
44 50 58
58 65 75
72 80 91
84 95 109
96 108 123
115 129 147
121 137 157
148 166 189
163 183 209
158 178 203
140 157 179
122 137 156
97 109 124
65 73 84
32 36 41
29 32 37
38 42 48
34 38 44
36 41 47
43 48 55
45 50 57
42 46 53
33 36 41
39 44 49
52 58 66
59 66 76
73 81 91
62 69 79
72 80 91
86 96 108
93 103 117
96 107 122
99 110 124
99 110 125
101 112 126
87 97 110
62 69 78
46 51 58
52 57 64
49 55 62
49 54 60
50 55 62
63 69 77
82 90 100
59 65 74
80 88 98
85 93 105
80 88 100
72 80 90
81 90 102
85 94 105
98 108 121
77 86 96
75 82 92
66 73 82
66 73 83
67 73 82
69 77 88
70 78 89
79 88 100
88 96 108
99 109 122
107 119 134
106 118 133
116 128 144
111 123 139
117 129 146
125 138 156
141 154 173
126 140 157
139 155 176
125 138 156
122 136 154
128 142 160
122 135 152
118 131 147
120 133 150
118 131 148
121 133 149
115 128 144
121 134 152
133 147 165
131 145 163
119 132 150
123 136 153
123 136 154
124 136 152
106 117 131
106 116 130
99 109 122
85 94 106
81 90 101
62 69 78
45 50 57
47 52 58
62 68 76
72 80 90
75 83 92
76 84 95
85 93 105
80 88 100
101 110 124
78 85 95
61 67 76
28 31 36
29 32 36
43 48 54
37 41 47
27 30 35
20 23 26
20 23 26
25 28 31
41 45 51
43 49 56
51 56 63
55 62 70
49 55 63
59 66 75
58 64 73
45 50 57
32 36 41
30 34 39
28 31 35
32 36 41
36 40 45
40 45 51
47 53 60
53 60 69
57 64 73
60 67 76
70 78 90
80 90 104
91 103 118
104 117 134
129 145 166
129 145 166
134 149 170
147 166 191
148 167 193
159 179 205
158 178 204
165 186 212
155 174 199
155 176 203
164 184 211
152 171 195
128 144 166
93 105 121
84 94 107
73 82 95
58 65 75
55 62 71
47 53 61
42 47 54
52 58 66
72 82 96
87 98 113
111 125 144
151 169 194
153 173 199
164 185 213
166 188 218
174 195 223
179 201 230
173 197 228
171 192 221
173 196 225
160 182 210
161 182 211
145 164 188
157 177 203
160 181 208
169 191 220
167 189 218
175 198 229
176 200 231
172 195 224
180 203 233
183 207 238
167 189 218
160 181 208
146 165 189
134 151 174
110 124 143
91 104 120
73 83 95
45 51 58
32 37 43
32 36 41
33 37 43
47 53 61
68 77 89
93 105 121
128 145 168
151 173 200
164 186 215
168 191 220
176 200 231
173 197 228
183 206 238
183 207 238
183 206 237
172 196 226
173 197 228
150 170 196
160 181 208
164 186 214
185 209 240
181 205 237
166 188 216
143 163 189
124 141 163
101 115 133
83 95 110
64 73 85
50 56 66
45 50 58
55 63 72
64 73 85
77 87 100
96 108 124
112 128 148
126 143 166
142 161 186
158 180 208
167 190 220
186 210 242
184 209 242
181 205 236
180 204 236
167 191 222
149 169 195
120 136 158
103 117 136
97 110 127
94 107 123
77 88 102
50 57 66
29 33 38
23 26 30
34 39 44
67 76 87
92 104 120
109 124 143
125 143 165
138 157 182
153 174 201
152 173 199
157 177 203
141 160 186
123 140 162
114 129 149
107 121 140
94 108 125
84 96 112
63 71 82
50 57 66
40 46 52
35 40 46
52 59 68
63 72 84
79 90 104
94 106 123
106 121 141
129 145 166
143 163 189
165 186 214
179 203 234
185 210 243
188 214 247
76 86 99
84 95 110
103 117 135
102 116 134
87 99 115
71 81 94
58 65 75
48 54 63
55 62 72
53 60 69
47 53 61
32 36 42
32 36 41
37 42 48
33 37 42
42 48 55
62 71 82
69 77 89
70 79 92
70 79 91
76 86 99
78 89 102
75 86 100
82 94 109
96 109 126
114 129 150
126 144 166
145 164 189
152 173 200
163 186 216
164 186 215
167 190 220
175 199 231
177 202 234
177 200 231
180 205 238
183 209 243
189 214 247
190 215 249
183 209 244
189 215 250
187 212 243
187 212 244
186 211 243
185 210 242
186 211 244
185 211 244
186 211 244
188 214 248
181 205 237
182 208 241
180 206 240
173 197 228
174 196 225
159 180 207
141 160 185
119 135 156
107 121 139
81 93 107
72 82 94
68 77 90
70 80 93
89 100 115
102 116 134
117 133 154
117 133 154
104 118 137
119 134 155
128 145 167
136 154 178
142 161 185
152 173 200
149 169 195
152 172 198
154 175 203
154 175 203
151 172 199
152 172 199
141 160 183
143 161 185
120 136 157
117 132 151
120 136 156
115 130 150
108 122 141
89 100 115
68 77 88
46 52 60
26 29 33
17 19 22
34 38 44
45 51 59
70 80 92
96 109 126
120 135 156
141 159 182
148 168 193
154 173 199
148 167 192
152 172 199
166 187 214
172 193 222
182 205 235
169 191 220
172 195 225
176 199 229
179 202 232
171 193 221
181 204 234
181 204 233
173 194 222
176 199 229
170 191 220
170 192 220
165 185 210
163 184 211
161 182 210
147 166 190
125 140 161
106 119 136
84 95 110
64 72 84
59 67 77
60 68 78
48 54 61
56 63 71
44 50 57
34 38 44
18 20 23
12 13 15
17 19 22
22 25 28
30 34 39
37 42 47
66 74 85
89 100 115
125 140 159
139 156 179
157 177 203
150 168 192
145 162 184
135 152 173
121 135 154
97 109 125
62 69 79
30 33 38
12 13 15
32 36 41
43 48 55
50 56 64
61 68 78
69 77 87
67 75 85
56 63 71
53 59 67
52 58 66
41 45 51
43 48 55
46 51 58
55 62 70
46 52 58
46 52 59
44 49 55
45 50 57
47 52 59
52 57 64
48 54 61
46 51 58
30 33 37
35 38 42
37 42 48
70 77 87
66 73 81
73 81 90
77 85 95
75 83 93
67 74 83
72 80 90
78 85 95
98 108 122
91 101 114
88 97 109
95 104 116
59 66 74
60 67 75
57 63 71
65 71 80
62 69 78
84 93 105
83 92 103
88 97 109
99 109 122
115 127 144
108 119 134
140 154 173
117 129 144
129 141 158
116 129 146
124 139 158
114 126 142
122 135 153
123 135 153
122 135 152
130 143 161
129 143 160
124 137 156
102 113 127
110 121 137
109 120 134
100 111 126
91 101 114
108 119 135
119 131 148
119 130 145
118 130 146
111 123 138
111 123 139
105 116 131
90 99 112
77 85 95
58 63 70
41 45 51
43 47 52
70 77 87
73 81 91
81 89 100
76 84 94
86 95 107
89 98 110
86 94 105
60 67 75
41 46 51
48 53 60
38 43 48
44 49 56
49 55 63
51 57 64
57 63 71
74 82 92
87 96 109
84 93 105
98 109 124
112 125 142
111 124 141
124 137 155
111 123 139
106 118 134
95 106 120
81 90 103
56 62 71
56 62 70
39 44 50
33 37 43
19 21 24
10 11 13
27 30 35
44 50 57
58 65 74
66 73 83
73 82 93
90 100 114
92 102 117
97 109 124
119 135 155
126 141 160
132 147 168
153 172 197
144 163 187
165 186 213
133 149 171
118 134 153
118 133 152
127 143 164
123 139 160
124 140 161
120 137 158
121 136 155
132 148 169
133 150 172
137 154 177
121 136 156
117 131 151
86 98 112
82 91 104
57 64 74
36 41 47
39 44 51
69 79 91
98 111 129
120 135 155
130 147 170
148 167 192
150 169 195
158 179 206
156 177 204
161 181 209
158 178 206
154 174 200
160 180 208
169 190 218
167 190 219
172 195 225
172 194 223
174 196 225
178 201 232
168 191 221
174 196 225
162 184 213
161 182 210
152 172 198
141 160 185
139 158 183
128 144 165
128 145 168
127 145 167
113 128 148
79 89 102
57 64 74
43 49 57
38 44 51
39 44 51
74 84 96
101 114 132
126 143 165
160 181 209
170 193 222
174 197 228
178 202 233
181 204 234
175 200 232
179 202 231
172 196 228
187 211 243
178 201 232
172 194 222
178 202 233
176 201 233
182 206 238
178 202 235
180 205 238
181 206 239
172 194 224
159 181 211
141 160 185
131 149 172
119 135 157
97 110 127
82 93 108
75 84 97
88 100 115
89 101 117
95 108 124
97 110 127
113 129 149
126 143 166
144 164 189
157 178 206
173 197 227
186 211 244
179 204 236
184 208 240
170 192 221
159 180 207
139 157 181
106 120 138
73 84 97
48 54 63
30 34 39
19 22 25
29 32 37
44 50 58
68 77 89
96 109 127
107 122 142
114 130 151
121 137 159
118 133 154
114 130 150
109 124 144
112 127 147
120 137 159
118 134 155
111 126 147
98 111 128
67 76 88
41 47 54
19 22 25
14 16 18
20 23 27
26 29 34
35 40 46
33 38 44
35 40 46
34 38 45
56 63 73
81 93 107
114 129 149
149 169 196
167 190 221
188 212 243
27 31 36
34 38 44
45 51 59
57 64 74
70 80 92
79 90 104
76 86 99
76 87 101
81 91 106
97 110 127
101 115 132
103 116 134
93 105 121
77 87 101
69 78 91
75 85 99
83 94 109
81 92 106
85 97 112
78 88 101
75 85 99
64 72 84
78 89 103
85 96 112
88 100 116
89 102 117
92 104 120
90 102 118
97 109 126
107 121 140
114 130 151
112 127 147
116 133 154
138 156 180
152 173 200
160 182 210
167 188 217
176 200 231
183 207 238
178 202 234
183 207 238
182 207 239
184 209 242
185 209 242
184 210 243
182 206 237
181 205 236
188 212 244
171 195 225
170 193 223
158 178 206
149 169 196
138 156 180
120 136 157
115 130 149
121 137 158
130 149 174
142 161 185
149 169 196
139 158 183
136 154 178
137 155 179
141 160 186
147 167 193
149 168 194
156 176 203
158 179 207
160 182 210
167 190 219
168 191 222
178 203 235
180 204 235
179 203 234
178 202 232
177 201 232
176 199 229
178 201 232
184 209 241
179 203 233
181 205 237
175 198 229
178 201 232
179 203 233
179 202 233
162 184 213
154 174 200
146 165 190
136 153 175
124 140 161
101 114 131
67 76 87
43 48 55
51 58 66
89 100 115
112 126 146
141 159 184
160 181 208
167 187 214
171 192 221
168 190 220
154 174 200
159 179 206
154 174 200
164 185 213
157 178 205
166 186 213
157 177 204
158 179 206
153 173 199
141 159 184
145 162 186
148 167 191
143 160 183
138 156 179
129 144 165
115 131 150
94 106 122
78 88 101
64 72 83
49 55 63
45 51 59
34 38 44
17 19 23
15 17 19
19 21 24
13 15 17
19 22 25
16 18 21
23 26 30
30 34 39
48 54 61
51 57 66
68 76 87
85 95 109
107 119 137
132 148 169
139 156 178
151 170 195
150 167 191
158 177 201
135 151 172
143 159 181
133 148 168
125 139 157
114 127 144
97 108 122
84 94 108
78 87 98
72 80 91
60 67 76
74 83 94
77 86 97
61 68 77
57 63 72
67 75 85
75 84 95
71 78 88
72 80 91
83 92 105
92 102 116
106 116 130
108 120 135
115 127 143
107 118 134
118 130 147
119 132 148
107 118 133
94 104 117
92 101 114
76 84 94
64 71 80
42 47 53
49 54 60
49 54 60
53 59 66
64 70 78
58 63 70
65 70 78
67 73 83
67 73 82
94 102 114
85 94 106
96 106 119
88 96 108
72 79 89
76 84 95
78 86 96
77 85 95
86 95 106
93 103 117
104 115 129
107 118 133
111 123 138
118 130 147
116 127 143
118 130 147
118 130 146
141 156 176
125 138 156
125 139 156
121 133 149
110 122 138
119 131 147
126 140 158
116 129 145
121 134 151
109 120 134
111 123 138
113 124 139
111 123 140
118 130 146
124 138 156
110 121 136
113 125 142
116 128 143
96 106 119
92 102 114
81 90 101
68 75 85
34 38 42
42 46 52
51 55 62
56 62 70
73 81 90
72 80 91
82 90 101
84 92 103
65 71 79
50 55 61
34 38 42
48 53 59
46 50 57
37 41 46
40 44 49
44 49 55
45 50 56
33 36 41
31 35 39
36 40 45
44 49 55
53 59 67
64 71 80
70 77 87
75 83 94
74 83 94
82 91 103
91 101 115
82 91 104
86 96 109
82 92 104
76 84 96
81 91 104
82 91 104
66 73 84
49 55 62
38 42 48
13 14 16
17 19 22
33 37 42
50 55 63
71 80 91
89 99 113
116 130 149
127 143 163
138 155 176
148 166 190
149 167 190
155 173 198
152 171 196
117 131 150
138 156 178
156 175 200
164 185 213
163 183 209
156 175 200
156 176 201
153 173 198
165 185 212
161 181 208
156 176 203
158 178 205
162 183 210
139 155 178
135 152 174
117 131 150
109 122 139
84 95 109
74 84 97
44 50 57
38 43 49
49 55 64
74 83 96
89 101 116
94 107 123
111 125 143
122 138 159
132 148 170
142 162 187
144 164 190
153 173 199
155 175 201
157 178 205
161 181 208
151 170 195
147 167 193
130 147 169
149 168 193
152 172 198
152 171 197
150 170 196
149 168 194
145 164 189
139 158 181
129 146 167
125 141 163
103 117 134
91 103 118
69 78 90
46 52 60
28 32 37
15 17 20
13 15 17
46 52 59
81 92 106
114 129 149
136 155 180
158 178 204
165 187 216
177 201 233
177 200 231
181 206 238
183 208 240
178 201 232
177 201 232
184 208 239
181 206 238
177 200 230
177 201 234
179 204 236
174 198 229
178 201 232
176 198 228
172 195 224
180 204 235
173 196 227
164 187 216
162 184 212
163 184 212
157 179 207
164 186 214
171 194 224
171 195 225
178 204 237
181 205 237
181 207 239
177 202 233
174 198 230
160 182 210
149 170 196
140 159 183
137 155 178
129 146 169
105 119 138
95 108 125
95 108 124
83 95 109
60 68 79
43 49 56
38 44 51
33 37 43
25 28 33
28 32 37
36 41 47
58 66 76
77 88 102
104 118 136
77 87 100
49 55 64
36 41 48
32 37 43
26 30 35
33 38 44
30 34 39
22 25 29
24 27 31
23 26 31
21 24 28
23 26 31
18 21 24
23 26 30
23 26 30
25 28 32
31 36 42
33 37 43
33 37 43
42 47 55
67 75 87
98 111 128
140 160 185
165 188 217
38 43 50
40 45 52
46 52 60
43 49 56
43 49 56
59 67 78
79 90 105
87 99 114
88 100 115
76 86 100
62 71 82
42 48 56
33 37 43
29 33 38
26 30 35
26 29 33
23 27 31
20 23 27
29 33 38
31 36 41
43 49 57
61 69 80
82 94 108
101 115 133
109 123 142
113 128 148
129 147 171
153 173 199
164 186 215
173 196 226
175 198 228
176 201 232
177 200 231
179 204 236
183 208 241
180 204 237
183 207 239
185 209 241
186 211 244
185 210 243
185 209 241
182 206 239
189 214 247
182 208 241
185 210 243
188 214 247
183 209 242
177 201 232
176 198 227
163 186 215
152 171 197
140 158 183
123 140 162
112 127 147
116 132 153
120 136 156
131 149 172
136 154 177
147 168 194
155 176 203
166 188 217
172 195 225
181 205 235
182 207 239
179 203 235
186 211 244
183 206 238
187 212 246
174 198 229
175 199 230
182 207 240
175 199 229
174 197 227
170 192 222
164 186 214
165 187 216
164 184 212
165 187 216
173 196 226
171 195 226
175 197 226
176 199 231
177 199 230
180 202 232
165 187 216
151 171 197
150 170 196
128 145 168
107 121 139
76 86 99
33 37 43
25 28 32
51 58 67
74 85 98
103 117 134
132 150 174
159 180 208
170 192 221
157 177 203
146 165 190
146 165 189
141 158 181
122 138 160
120 136 156
121 137 158
99 113 131
96 109 125
86 96 110
63 72 83
49 55 62
48 54 63
45 51 59
47 52 60
44 49 56
39 45 52
35 40 46
28 32 37
15 17 20
9 10 12
16 18 21
17 19 22
23 26 29
20 22 26
19 22 25
21 24 28
36 41 47
57 64 74
75 84 97
84 94 107
104 116 133
117 132 151
127 142 162
144 162 184
139 156 178
149 168 192
151 169 193
144 162 184
147 164 187
143 160 183
130 146 166
116 130 148
120 134 153
124 139 158
121 135 154
122 136 155
120 134 152
124 138 156
116 130 148
110 123 139
110 123 140
114 127 145
111 123 140
99 110 125
109 121 137
112 125 142
122 135 152
117 130 147
132 146 165
109 121 138
127 140 159
118 130 147
141 156 175
123 136 154
131 145 163
130 143 160
117 130 147
121 133 150
121 134 150
117 128 143
90 99 110
87 96 107
71 78 88
58 63 71
41 45 51
35 38 43
54 59 66
66 72 79
47 51 57
37 41 46
39 43 48
51 57 63
68 75 84
91 99 111
104 115 129
93 103 115
104 114 128
104 115 130
118 130 145
106 115 129
113 124 139
103 113 127
106 118 134
106 117 132
128 141 158
124 136 153
107 119 134
133 146 164
113 125 140
129 142 159
133 146 164
126 139 157
110 121 137
103 114 129
110 121 137
109 119 134
109 120 135
115 127 143
133 147 164
114 126 143
125 138 155
116 128 144
106 117 131
97 107 121
98 109 123
94 103 115
87 96 108
66 73 82
52 57 64
46 51 57
44 48 54
59 64 72
81 88 99
73 79 88
59 65 73
58 64 71
59 65 72
39 42 48
47 52 58
35 38 43
26 28 32
22 24 27
17 19 22
14 15 17
19 21 24
40 44 50
61 67 76
54 59 67
57 62 70
67 75 84
67 74 83
68 76 86
76 84 95
90 100 113
105 116 132
99 110 124
78 86 97
70 78 88
50 55 63
46 51 57
48 54 61
39 44 50
37 41 47
36 40 45
39 43 50
38 42 48
45 50 57
53 60 68
63 70 79
77 86 98
96 107 122
111 124 143
125 140 160
138 153 174
147 165 189
138 155 178
138 155 179
134 150 171
143 160 183
153 171 195
147 164 188
156 176 202
157 176 201
159 178 204
162 183 210
149 167 192
141 159 182
142 159 181
152 171 196
149 167 191
161 181 209
157 176 202
172 194 222
155 175 202
152 172 199
146 165 189
133 150 172
116 131 150
100 113 130
70 79 92
40 45 52
14 15 18
28 32 37
45 51 59
50 57 67
72 81 93
103 116 134
120 136 157
135 152 174
143 161 185
142 160 185
132 149 172
118 132 152
100 113 130
97 110 126
104 118 135
102 115 132
102 115 133
112 127 147
102 116 134
91 103 120
97 110 126
80 90 105
87 98 113
92 104 121
95 108 124
97 110 128
95 107 124
83 94 109
63 71 82
36 41 47
30 34 39
37 42 48
50 56 65
74 84 97
103 117 135
136 154 178
152 173 200
162 185 214
171 194 225
175 199 229
180 204 235
178 200 230
183 208 241
187 211 243
185 210 243
178 202 233
184 209 242
184 208 240
176 200 231
181 205 237
178 203 234
181 205 237
181 206 238
176 201 232
180 204 236
183 208 241
180 204 235
185 211 244
179 203 234
180 203 233
183 207 238
182 206 238
187 212 245
179 203 234
180 204 234
170 192 221
166 189 218
154 175 202
131 149 172
103 117 135
63 72 83
36 41 47
25 29 33
23 26 30
28 32 37
36 41 47
45 51 59
53 61 71
61 70 81
55 62 71
52 59 68
48 54 63
51 57 66
47 54 62
51 58 67
67 75 87
72 82 95
84 95 110
88 100 115
84 95 110
80 90 104
78 89 103
86 98 113
83 94 108
88 100 116
90 103 119
102 116 133
108 123 142
96 108 125
87 99 115
100 113 130
97 110 127
105 119 138
107 120 138
125 142 164
152 173 200
151 172 198
145 164 190
141 160 184
150 170 197
38 44 50
40 45 52
33 37 43
32 36 42
40 46 53
53 60 69
64 73 84
70 80 92
77 87 101
84 95 110
75 85 99
68 77 90
60 68 79
60 68 79
54 61 71
35 40 46
31 35 41
27 31 36
23 26 30
21 24 27
30 35 40
40 45 52
43 49 57
59 67 78
75 85 98
108 123 142
120 136 157
122 138 158
122 139 161
139 158 183
145 165 191
153 174 201
164 187 216
177 200 231
182 208 240
187 213 245
187 212 245
188 214 248
190 215 248
181 206 238
178 204 237
182 206 237
180 204 237
178 201 232
176 201 233
174 197 228
169 192 222
172 194 223
167 190 220
162 184 212
154 175 202
153 173 198
138 157 181
119 135 156
107 121 140
96 109 126
96 109 125
112 127 146
136 154 178
161 181 209
179 203 234
185 211 245
188 212 244
185 210 241
181 205 236
172 196 226
166 189 219
167 189 217
168 190 219
164 187 216
155 175 201
156 176 203
162 183 211
170 192 222
167 189 218
166 187 215
164 186 215
171 193 222
171 193 222
167 189 219
176 200 231
179 203 234
175 198 228
174 197 227
160 180 208
135 153 176
112 127 146
83 95 109
50 57 66
21 24 27
36 40 46
61 69 80
79 90 103
96 109 126
126 141 162
140 159 183
160 181 209
169 191 219
167 189 218
164 186 216
150 169 195
145 164 190
140 157 179
118 134 154
108 122 140
86 97 112
74 84 96
60 67 77
52 58 66
48 54 62
51 58 66
50 56 64
59 67 76
62 70 80
65 73 84
65 73 84
70 79 90
75 83 95
76 86 99
73 82 94
63 71 81
62 70 80
64 72 81
71 79 90
81 92 105
99 111 128
110 123 140
119 134 153
137 153 174
147 164 186
152 169 192
161 181 207
139 156 178
135 151 173
127 143 163
118 133 152
111 125 143
100 111 126
91 102 116
81 90 103
79 89 102
87 97 111
84 93 106
89 99 113
104 115 131
114 127 145
117 130 148
120 134 152
129 143 162
134 149 169
112 125 141
121 134 152
136 151 170
113 126 142
117 130 147
118 131 148
113 125 141
116 127 142
124 137 154
124 137 154
122 135 153
110 121 135
114 125 140
124 137 155
108 118 132
106 116 130
93 103 116
101 111 124
88 98 110
79 87 98
72 79 88
71 77 86
67 73 82
84 91 101
70 77 86
69 75 84
77 83 93
62 67 75
61 66 73
78 86 95
73 80 88
80 87 97
64 70 78
80 87 97
87 95 105
87 96 107
104 114 128
132 144 161
119 130 146
120 131 147
120 132 147
125 137 153
121 133 150
120 132 148
123 136 152
128 141 158
132 144 161
128 140 156
113 123 138
118 130 147
126 138 153
116 128 144
112 123 138
122 135 152
118 130 146
105 115 129
115 127 143
98 108 121
105 115 129
91 101 114
93 102 115
91 100 112
81 89 99
70 77 86
51 57 64
42 46 51
46 50 56
58 63 69
53 58 65
58 64 72
62 67 74
23 25 28
14 16 17
24 26 29
29 31 35
35 39 44
25 27 30
24 27 30
9 9 11
14 15 17
15 16 18
31 34 38
37 41 45
38 42 48
34 38 43
28 31 35
15 16 18
12 13 15
14 16 18
12 14 16
12 13 14
27 30 34
44 49 56
58 64 72
63 70 79
87 97 110
115 128 144
118 131 149
93 103 117
85 94 107
86 96 109
89 99 112
96 106 121
95 106 122
99 110 125
102 114 130
108 121 137
100 111 127
93 104 119
122 135 153
135 150 171
148 166 190
136 152 173
151 168 190
138 154 176
147 165 188
136 152 174
144 161 183
150 168 191
151 170 194
155 174 199
155 175 201
153 170 193
159 179 205
165 185 213
157 176 202
150 168 193
157 177 203
154 174 200
156 176 201
150 168 192
129 145 167
125 141 162
108 122 139
98 110 127
82 93 107
71 80 92
79 88 100
72 81 94
61 69 80
38 43 50
29 33 38
35 39 45
31 36 41
31 35 41
44 49 57
55 63 72
63 71 81
70 79 91
61 70 81
82 94 108
73 83 95
56 63 72
46 52 61
49 56 64
42 48 56
50 56 65
57 64 74
63 71 81
74 84 97
67 75 86
67 76 88
71 81 93
61 69 79
48 55 63
48 55 63
39 45 51
33 37 43
29 33 38
25 28 33
35 39 46
43 48 56
65 74 85
93 105 121
117 133 153
136 155 180
160 181 209
167 190 219
179 203 236
188 211 242
183 206 236
171 195 227
181 205 236
185 210 243
178 203 234
173 196 226
177 200 231
178 201 231
177 200 232
174 198 228
173 196 226
183 207 240
183 208 241
184 206 237
183 208 240
179 204 236
181 204 235
172 195 225
168 192 223
161 182 211
157 177 204
140 159 183
132 151 175
131 149 173
137 156 180
133 152 175
124 141 164
114 130 151
117 133 153
120 136 158
109 123 142
96 109 126
88 100 116
81 92 106
84 95 110
93 106 122
88 100 116
83 94 108
83 94 109
94 107 124
108 123 141
116 131 151
116 132 153
118 134 155
130 148 171
131 150 173
126 144 167
106 120 139
96 109 126
76 86 100
72 82 94
60 69 80
53 60 70
47 53 62
54 61 71
59 67 77
66 75 87
76 86 100
95 107 123
115 131 151
123 139 161
129 147 170
142 162 188
154 175 203
161 183 211
167 189 218
172 194 224
173 195 224
170 192 222
171 194 224
54 62 71
60 68 79
63 71 82
67 76 88
76 87 100
91 103 119
103 118 137
113 127 147
109 124 142
113 128 148
122 139 161
130 147 170
138 157 181
127 144 166
114 129 150
104 118 137
94 107 124
72 82 96
57 65 75
47 54 62
29 32 37
20 23 26
20 22 26
36 41 47
49 55 63
61 69 80
75 85 98
82 94 108
94 107 124
103 117 135
117 133 153
134 151 175
151 172 198
170 192 222
170 193 223
186 211 243
186 211 243
186 210 241
183 207 240
181 205 238
170 193 223
171 193 223
171 195 226
169 192 222
157 178 205
148 168 195
146 165 191
147 167 193
157 178 206
158 179 207
166 188 216
165 186 215
167 190 220
175 198 229
172 194 224
165 187 215
175 198 229
181 205 237
184 207 238
174 199 231
171 194 224
157 177 204
144 163 188
138 157 182
123 139 161
108 123 142
115 130 150
127 144 165
143 162 187
154 175 202
163 184 211
165 187 216
170 193 222
171 193 223
168 191 221
177 201 233
167 190 220
179 203 233
182 205 235
176 198 227
174 197 227
175 199 230
151 172 198
146 165 189
113 128 148
86 97 112
50 57 65
23 27 31
43 49 57
61 70 80
90 101 115
120 135 155
138 156 180
150 169 194
156 175 200
155 175 201
135 152 175
135 152 176
135 151 173
123 138 158
116 131 151
115 131 151
128 144 165
122 138 158
132 148 170
123 139 159
119 134 154
109 123 141
92 103 118
73 82 94
72 81 92
74 83 96
86 97 112
92 103 118
92 103 118
103 115 132
112 127 147
129 145 166
129 146 167
142 159 182
142 160 184
148 166 190
151 169 194
147 165 189
148 166 190
145 163 187
149 167 192
130 146 167
139 155 177
132 146 165
125 140 160
107 120 137
93 105 120
77 86 98
66 74 85
60 67 77
58 65 74
52 58 66
49 55 62
46 52 60
49 55 63
56 62 71
64 71 81
82 91 103
95 105 120
105 116 132
102 114 130
101 112 127
116 130 148
99 109 124
110 121 136
95 105 119
101 113 129
109 121 137
99 110 124
100 110 124
93 103 115
91 101 114
74 82 93
85 94 106
76 84 94
70 78 88
67 74 83
60 66 74
46 50 56
47 52 58
36 40 45
31 34 38
24 27 30
15 16 19
20 22 25
27 29 32
37 41 46
36 40 45
29 32 35
36 39 43
40 44 49
28 31 34
27 30 33
39 43 48
23 25 28
32 34 38
33 36 40
43 46 51
61 66 74
80 88 99
91 100 111
95 104 115
115 126 141
128 140 156
128 140 157
121 132 147
126 138 154
131 144 161
127 139 156
121 132 147
129 141 157
110 120 133
112 122 136
105 115 128
102 112 127
98 107 119
94 103 115
97 106 118
90 99 111
87 95 106
92 101 113
89 98 109
75 82 91
62 69 78
59 64 72
42 46 51
48 51 57
30 33 36
29 31 35
26 28 32
25 28 31
20 21 23
5 6 6
6 6 7
3 3 3
2 3 3
5 6 6
2 2 2
12 13 14
13 14 16
14 15 17
15 16 18
10 10 11
20 22 24
15 17 19
22 24 27
11 12 14
14 15 17
4 4 4
4 4 5
9 10 11
17 18 21
25 27 31
35 39 44
42 46 52
62 69 77
77 85 96
71 78 88
71 78 88
104 115 129
88 98 111
95 106 120
106 117 132
101 113 129
121 134 152
121 134 152
105 116 132
134 148 168
135 150 171
136 151 172
129 144 164
136 151 172
148 166 189
141 157 179
137 153 174
129 145 166
147 165 188
131 146 167
153 170 193
144 161 184
149 168 192
158 177 202
161 179 204
149 167 192
149 168 194
158 178 205
155 173 197
135 151 173
139 156 178
124 139 160
128 143 164
119 134 153
118 133 154
111 125 143
117 132 152
127 142 162
132 148 169
118 132 151
128 145 166
119 134 152
121 137 157
120 134 154
126 141 162
111 126 145
100 113 130
94 106 121
78 87 101
62 69 80
48 53 61
46 52 59
36 41 48
35 40 46
28 32 37
34 38 44
40 46 53
42 48 55
23 26 30
33 38 43
53 60 69
67 76 88
75 84 97
73 82 94
82 92 105
81 91 106
81 92 106
88 99 113
99 112 129
117 132 151
123 139 160
123 140 161
120 135 156
116 131 151
120 135 155
123 139 160
136 154 176
135 153 176
148 167 193
147 166 191
148 168 194
156 176 202
166 188 217
166 190 220
172 197 229
178 203 236
169 193 223
176 200 231
174 198 228
164 186 215
158 179 207
159 179 206
156 177 203
161 181 208
168 191 221
167 190 220
167 190 220
174 198 229
182 205 237
175 199 230
184 208 239
179 203 234
183 207 238
173 196 226
162 184 213
152 172 199
147 167 193
149 168 194
145 165 191
156 176 203
165 188 217
174 197 226
172 195 225
174 197 228
170 193 222
176 199 230
175 198 228
176 199 230
181 206 239
184 208 240
181 205 236
175 199 231
178 203 234
175 198 229
176 200 232
173 196 226
178 202 234
172 196 227
176 201 232
172 195 225
169 192 222
171 194 224
163 185 214
157 178 207
150 169 196
131 149 171
113 128 148
89 101 118
79 89 103
73 83 96
56 64 74
33 37 43
24 27 32
37 42 49
50 57 66
71 80 93
84 95 109
92 104 121
103 117 135
120 135 156
128 145 168
146 166 192
153 173 200
156 178 206
155 177 205
168 190 219
50 57 66
61 70 81
74 84 97
71 81 94
78 88 102
81 93 107
85 97 112
87 99 114
96 108 124
105 120 139
99 112 131
89 101 117
70 80 93
68 77 89
73 82 94
70 79 92
62 70 81
56 63 73
62 71 82
49 56 65
45 51 59
54 61 70
63 71 82
70 79 91
100 113 129
113 129 149
133 150 173
157 178 206
159 181 209
168 192 223
176 198 228
177 201 232
183 207 240
182 208 241
190 215 248
187 212 245
189 215 249
188 213 247
186 212 246
189 213 246
183 208 241
183 207 240
186 209 240
181 205 236
169 191 221
159 180 208
152 173 200
165 187 217
176 199 229
185 209 242
184 209 242
178 202 233
170 193 223
163 185 214
163 184 212
155 175 202
144 162 187
137 155 178
113 127 146
101 115 133
106 120 139
118 134 155
115 130 150
109 123 142
112 127 148
120 136 158
132 150 173
146 165 190
167 189 217
174 198 230
184 208 240
184 208 239
182 207 238
177 199 229
165 188 218
150 169 195
133 151 175
130 146 167
95 107 124
94 106 123
83 94 108
70 79 92
72 81 93
68 78 90
69 77 88
63 71 81
73 82 94
89 100 115
108 122 141
121 136 156
122 138 159
105 119 138
99 111 128
79 89 102
68 77 88
58 66 76
61 68 79
62 70 81
56 64 73
62 70 81
65 74 85
68 77 90
59 67 77
68 77 88
78 87 100
71 81 93
90 101 116
83 93 106
75 84 97
80 91 104
86 97 111
101 114 130
110 124 142
124 139 160
146 165 189
160 180 207
156 175 199
164 184 210
163 184 212
162 181 207
161 180 206
155 175 201
154 174 199
144 161 183
140 157 180
126 141 160
117 131 150
123 138 158
125 141 161
125 140 159
141 158 181
140 155 176
126 141 160
128 143 163
101 113 129
99 111 127
74 83 94
52 58 67
64 71 81
69 77 87
72 81 93
66 74 84
77 86 97
78 86 98
89 99 112
86 97 110
81 90 101
88 98 111
90 100 113
80 89 101
75 83 93
69 77 88
61 68 77
58 64 73
50 55 62
48 53 61
39 43 49
32 36 41
26 29 33
21 23 27
34 37 43
42 46 51
46 52 59
59 64 72
71 78 88
63 69 78
63 68 76
57 62 69
49 54 61
70 77 87
62 68 76
68 74 83
65 71 79
53 57 64
63 68 76
55 60 68
55 61 68
46 50 55
77 84 92
81 88 98
90 98 108
80 87 97
72 79 87
86 93 102
90 98 108
85 92 102
72 79 88
94 102 112
88 95 105
97 104 115
103 112 125
97 105 116
105 113 125
126 136 151
104 113 126
97 105 117
98 107 119
92 100 111
95 103 115
87 95 105
94 102 114
88 95 105
73 79 87
81 88 98
63 68 76
59 64 71
51 55 61
17 18 20
24 26 28
16 17 19
16 17 19
29 32 35
12 13 15
14 15 16
15 17 19
16 17 19
8 9 9
11 11 13
13 14 16
18 20 22
10 11 12
13 14 16
17 18 21
26 28 31
16 18 20
12 13 14
11 12 13
11 12 14
8 9 10
7 8 9
5 5 6
7 7 8
14 15 17
12 13 15
14 15 17
13 14 16
14 16 18
19 21 24
39 43 48
41 45 51
69 76 87
81 90 101
84 93 104
88 98 111
94 105 118
85 95 107
91 101 115
107 119 135
97 108 122
103 115 130
108 120 136
116 128 145
129 144 163
125 139 158
135 150 170
130 145 164
131 146 166
130 144 164
135 150 169
139 155 176
135 151 171
158 178 203
133 149 170
143 160 183
138 156 179
147 164 188
143 159 181
150 168 193
149 167 191
148 166 189
142 159 180
137 153 174
144 161 183
141 158 181
138 154 176
142 158 180
135 152 175
137 154 176
149 167 191
141 159 182
153 171 196
155 174 200
167 187 214
173 194 223
168 189 217
166 186 214
162 182 209
177 198 226
172 194 223
160 179 206
163 184 211
157 178 205
144 162 186
132 149 172
110 124 142
94 105 120
74 84 96
55 62 72
35 40 46
33 37 43
30 33 38
23 26 30
23 26 30
24 27 31
33 37 42
42 48 55
48 55 63
59 67 77
63 71 81
69 78 90
79 89 103
75 85 98
78 88 102
87 98 114
96 109 126
102 115 132
107 121 140
113 127 146
118 133 152
119 135 155
116 130 150
122 138 159
129 145 167
128 145 167
126 143 166
126 143 165
133 150 173
144 164 189
153 172 198
164 185 213
160 181 208
159 180 209
165 186 213
160 181 210
162 183 211
166 188 217
167 190 219
171 193 223
169 191 220
174 197 228
176 199 229
169 191 221
174 197 228
181 205 237
177 201 232
183 207 239
182 206 238
172 195 224
169 192 222
174 197 227
178 202 234
177 202 235
179 203 235
171 194 224
182 207 239
182 207 239
182 206 238
185 210 242
185 210 244
182 207 238
182 208 240
187 213 246
184 209 242
181 204 236
180 205 237
164 186 216
154 175 203
153 174 201
153 173 199
155 176 203
153 173 200
152 173 201
156 177 205
164 186 215
171 194 223
171 194 224
173 197 228
172 195 226
174 198 229
177 200 231
173 198 230
169 193 223
163 185 214
149 170 197
136 155 180
112 127 147
79 89 103
59 68 79
54 62 72
68 77 90
89 100 115
100 114 131
110 125 144
122 138 159
134 153 176
132 150 174
131 148 171
125 142 163
132 150 174
142 161 186
54 61 71
65 74 85
87 98 114
100 114 132
106 121 140
87 99 115
63 72 83
63 72 84
68 77 89
74 83 96
67 76 87
65 74 86
67 76 88
80 91 105
88 99 115
95 108 124
96 109 126
103 116 133
100 114 131
79 90 104
54 61 71
33 38 44
23 26 29
21 24 28
39 45 52
62 70 81
102 116 135
126 143 164
148 168 195
164 185 212
169 192 222
172 195 225
178 202 234
188 213 245
185 210 243
186 211 245
184 208 240
186 211 244
186 211 244
178 202 234
182 206 237
183 206 237
185 208 239
182 207 239
180 203 234
166 188 217
150 170 197
148 167 192
161 182 210
167 189 219
176 198 227
180 204 236
183 208 241
183 208 240
180 204 235
181 205 237
174 197 228
166 189 219
170 193 222
168 191 220
167 189 218
170 192 221
162 184 213
150 170 197
155 175 201
158 179 207
166 187 216
176 199 229
172 195 225
177 201 232
175 199 231
164 184 212
136 155 178
100 114 132
78 87 101
42 48 55
38 43 49
55 62 71
57 65 75
56 64 74
60 68 78
59 66 76
59 67 78
69 77 88
72 81 93
72 81 93
80 91 105
74 84 96
60 68 78
44 50 58
49 55 64
55 62 71
49 56 65
43 48 55
40 45 53
41 46 53
38 42 48
42 47 54
47 53 61
62 70 80
67 76 87
82 92 105
84 95 109
94 106 121
109 123 141
121 137 157
131 148 170
130 147 168
126 142 164
133 149 171
126 141 162
134 150 172
140 157 179
150 169 195
148 165 189
163 183 211
146 164 188
163 184 211
165 185 211
163 182 209
148 166 191
142 159 182
135 153 175
125 141 161
143 159 181
144 162 185
146 164 188
162 182 207
144 161 184
160 180 206
152 171 196
142 159 182
144 161 184
130 146 167
138 154 174
116 130 150
106 118 134
97 107 121
90 100 114
68 77 87
53 59 67
49 55 63
48 54 62
51 57 65
44 49 56
41 46 52
48 54 61
32 35 40
26 29 33
23 26 29
21 23 26
28 31 36
32 36 41
30 34 38
33 36 41
29 32 36
27 30 34
27 30 34
32 35 40
21 24 27
17 18 21
30 33 36
46 50 57
33 36 41
54 60 67
50 55 62
33 37 41
48 52 59
41 45 51
47 52 58
53 58 65
60 66 73
80 87 97
84 92 103
87 94 105
82 90 100
89 96 107
89 97 108
81 88 98
86 93 103
96 105 117
107 117 130
109 118 132
107 116 129
120 130 144
108 117 130
119 130 145
106 114 126
105 114 126
104 113 125
105 114 127
121 131 145
111 120 133
115 125 138
116 126 140
108 117 129
102 111 123
89 96 107
88 95 105
64 69 77
75 81 89
66 71 78
52 57 63
33 35 39
35 38 42
40 44 48
35 38 42
27 29 32
23 26 29
29 31 34
35 39 43
35 38 42
23 25 28
34 37 41
32 34 38
36 39 43
38 41 46
54 59 65
56 61 68
68 75 83
51 55 62
69 75 84
71 78 87
71 77 86
68 75 84
65 71 79
49 53 59
31 34 39
21 23 26
7 7 8
5 6 7
3 3 4
8 9 10
12 13 14
16 17 19
18 20 22
15 17 19
14 16 18
20 22 25
25 28 31
32 35 40
49 54 61
60 66 75
53 59 67
63 70 79
44 49 55
42 47 54
37 41 45
36 40 45
41 45 52
64 71 81
91 101 113
110 122 139
115 128 145
114 127 145
118 130 148
109 122 139
120 133 151
131 147 168
141 158 180
128 143 163
143 160 182
154 172 195
132 148 168
133 149 171
145 163 187
153 172 196
149 167 190
160 178 203
147 166 190
149 167 191
159 178 204
148 165 189
143 161 185
148 167 192
158 177 202
149 169 194
145 162 185
162 182 209
171 192 219
158 176 201
158 177 203
155 175 200
160 180 207
159 179 206
166 187 215
169 191 219
168 188 216
171 192 220
173 195 224
171 192 219
165 186 215
168 189 218
159 179 206
148 166 191
134 152 174
122 138 158
112 126 145
96 109 125
83 93 107
70 79 91
57 64 74
61 69 79
59 66 76
50 56 65
45 51 59
38 42 49
41 47 54
46 53 61
51 57 65
39 44 51
55 62 72
73 83 96
79 90 104
88 99 114
98 111 127
100 113 130
93 105 121
107 120 138
120 135 155
120 135 155
121 138 159
132 149 171
131 148 170
138 155 177
126 142 164
131 148 171
157 177 203
161 182 211
167 189 218
167 189 217
171 193 221
166 187 215
166 188 217
178 201 231
176 200 231
183 206 237
180 204 236
178 202 233
178 202 234
175 198 228
172 196 227
170 193 223
181 206 239
175 200 232
177 200 231
180 204 236
183 207 239
180 205 237
179 203 234
179 204 236
182 206 239
179 201 231
185 210 241
182 207 239
181 206 238
186 212 245
186 211 245
186 211 245
182 207 239
181 206 238
176 200 231
170 193 224
164 187 216
155 176 204
140 159 183
122 140 162
118 134 155
126 142 164
131 148 170
113 128 147
108 121 139
110 124 144
107 121 138
97 110 127
95 108 125
100 113 130
104 118 138
122 138 158
146 166 192
169 192 222
170 193 223
176 200 231
183 208 240
190 215 249
186 212 246
186 211 243
176 200 231
150 170 196
107 121 140
76 86 99
57 65 75
40 45 53
63 72 83
90 102 118
105 119 138
104 118 136
104 118 137
99 112 129
95 108 124
152 172 199
147 167 193
133 151 175
122 138 159
110 125 144
91 104 120
73 83 97
76 86 100
78 89 103
74 84 97
70 80 92
68 78 90
59 66 76
67 76 88
77 87 100
88 100 116
88 100 116
91 104 120
94 106 122
94 106 122
90 103 119
85 96 111
82 92 106
82 93 107
69 78 90
54 61 71
40 45 51
53 61 70
66 75 87
64 73 84
71 81 94
78 90 104
91 103 119
113 128 148
135 154 178
148 168 195
168 190 220
176 200 230
180 203 234
187 212 244
179 203 235
177 200 230
169 191 221
158 179 206
158 179 206
155 176 204
149 168 194
153 173 199
164 185 213
171 195 225
178 202 233
178 202 234
183 207 239
183 208 240
185 209 242
182 205 236
185 209 241
182 206 237
186 211 243
187 212 244
187 211 243
187 212 244
180 204 235
184 208 240
180 205 238
173 197 228
170 191 220
162 183 211
163 184 211
146 166 192
136 154 177
110 125 144
94 106 122
60 67 78
21 24 28
17 19 22
28 32 37
40 45 52
56 63 73
67 77 89
84 95 110
76 86 99
75 85 98
81 91 106
69 78 91
90 101 117
95 107 123
100 112 129
104 117 134
117 133 153
112 127 146
103 117 134
108 122 141
106 120 138
96 109 125
85 97 112
94 106 122
109 124 143
119 134 153
136 154 177
144 163 187
154 173 198
154 174 201
160 180 207
172 193 222
171 192 220
169 191 219
157 177 202
159 179 205
158 178 205
164 186 214
169 190 218
173 195 224
165 186 212
158 178 204
157 176 201
166 186 213
163 183 209
164 185 212
158 178 204
154 172 197
148 166 190
139 155 177
130 146 167
136 152 174
126 142 163
135 150 170
132 148 169
136 152 174
129 144 165
139 155 177
125 141 161
127 143 163
133 149 170
130 145 166
131 146 166
133 149 170
134 150 170
117 131 149
110 124 142
100 111 127
92 103 117
86 95 108
78 87 99
71 80 91
70 77 88
61 68 78
53 59 67
53 60 68
54 60 67
57 63 72
65 73 82
74 82 94
69 77 87
87 97 110
87 97 110
67 74 84
70 78 89
64 72 81
63 70 79
48 53 60
43 47 53
48 53 59
36 40 46
28 30 33
22 24 27
17 18 21
11 12 14
18 20 22
33 36 40
44 49 54
52 57 64
70 77 86
86 94 105
72 79 89
99 108 121
84 92 103
87 94 105
83 91 101
75 81 90
87 94 105
113 123 138
121 132 147
117 127 142
123 134 150
105 114 127
131 143 159
127 138 153
128 140 156
126 138 154
123 134 149
137 149 165
130 142 157
124 135 150
116 127 141
114 124 138
117 127 140
115 125 139
117 127 141
127 138 153
116 126 140
101 110 122
107 116 129
104 113 125
91 100 111
88 96 107
82 90 100
51 56 62
64 70 77
44 48 53
51 56 62
50 54 60
45 49 54
31 34 38
32 35 39
55 60 67
53 58 65
65 71 80
78 86 96
92 101 113
88 96 108
103 112 125
108 118 132
85 93 105
95 103 115
88 97 109
82 90 101
67 74 82
64 70 79
44 48 53
38 42 47
29 32 36
19 21 24
23 26 29
32 36 41
48 53 59
34 37 42
35 39 44
41 45 51
44 49 55
44 48 54
43 48 53
37 41 46
35 38 43
32 36 40
26 29 34
22 25 29
16 17 19
10 11 13
22 24 28
43 48 55
59 66 74
70 78 88
72 80 91
92 102 115
119 132 149
125 139 157
124 138 157
135 151 171
131 147 167
141 158 180
140 157 180
151 169 192
136 152 174
140 156 178
135 152 174
133 149 170
138 155 176
132 149 171
148 165 188
142 159 182
151 169 193
157 176 202
165 185 211
153 172 197
161 181 207
159 178 203
160 179 204
160 179 205
160 179 205
159 178 203
159 179 205
163 183 210
155 174 200
156 176 203
155 175 201
169 189 217
168 188 215
166 186 213
169 190 218
157 177 202
138 155 178
134 152 175
121 137 158
101 114 132
102 115 132
83 93 107
74 83 96
65 73 84
62 71 82
64 73 84
57 65 74
38 43 50
24 28 32
33 37 43
46 52 60
59 67 77
70 80 93
84 95 110
76 86 99
65 73 84
51 58 67
44 50 58
33 37 43
33 37 43
44 50 57
67 76 88
89 101 117
89 101 116
88 100 115
84 96 110
85 96 111
92 104 120
96 109 125
100 113 130
113 128 147
116 131 150
125 141 163
126 143 166
132 150 173
135 152 175
145 165 191
154 175 202
165 186 214
170 193 222
173 197 228
170 194 225
174 197 226
178 203 235
179 202 231
179 203 234
180 204 236
177 200 230
182 207 240
175 199 229
181 204 234
181 205 236
184 207 238
179 204 235
177 201 232
182 207 240
182 207 240
180 204 236
171 195 226
166 188 217
161 182 210
165 187 216
169 191 220
175 198 229
183 207 240
187 212 245
181 206 238
167 190 220
154 175 203
147 167 194
140 159 185
141 160 185
132 150 172
126 142 165
120 136 158
112 127 147
96 109 126
89 101 117
94 107 124
94 107 124
92 105 121
103 117 135
116 132 152
114 131 152
116 131 152
118 133 154
128 146 170
151 172 199
169 191 220
177 200 230
181 205 237
187 212 245
188 213 247
185 210 243
177 201 232
162 184 213
131 149 173
113 128 149
98 111 129
93 105 121
80 91 105
48 54 63
52 59 68
80 90 104
94 107 124
102 115 133
86 98 113
79 90 104
67 76 88
54 62 72
41 47 55
24 28 32
18 21 24
20 22 26
21 24 28
26 29 34
46 52 59
45 51 59
47 53 61
53 61 70
70 79 91
85 97 112
104 117 135
107 122 141
98 112 130
93 106 122
92 105 121
82 93 108
79 89 103
71 81 94
71 81 93
65 74 85
57 64 74
50 56 65
49 56 65
47 54 63
33 37 43
19 21 24
32 37 43
72 82 94
89 100 115
113 128 148
133 152 175
151 170 196
164 186 214
173 197 228
177 201 232
185 210 242
184 209 242
176 200 231
161 183 211
157 178 205
156 176 203
159 179 206
163 184 212
160 182 209
171 194 224
180 205 237
184 209 241
175 198 228
182 206 238
171 194 223
177 201 232
173 196 226
176 199 231
164 185 213
159 180 208
153 172 199
147 166 191
142 160 184
134 152 176
137 155 179
123 140 161
110 125 144
100 113 131
87 99 115
69 78 90
54 61 70
30 34 39
18 21 24
28 32 37
38 43 50
56 63 73
70 79 91
72 82 95
67 76 87
59 66 76
43 49 57
33 38 43
34 39 44
47 53 62
65 73 85
85 96 110
101 115 132
105 118 136
108 122 141
118 133 153
113 129 149
125 141 162
134 152 176
140 158 181
147 167 192
146 165 190
138 155 178
141 159 182
147 165 190
142 161 186
146 165 189
155 174 200
162 181 207
158 178 205
157 177 204
147 165 190
150 168 192
154 175 201
169 190 217
171 192 220
174 196 226
172 194 224
169 191 220
169 190 218
172 193 220
168 189 216
167 188 216
167 188 215
165 187 215
160 180 207
159 179 204
154 172 197
154 173 199
158 177 202
143 160 183
138 155 177
141 157 179
129 145 166
129 146 167
130 146 166
127 143 163
135 151 173
143 160 183
142 159 182
153 171 195
129 144 164
140 156 178
125 139 158
124 138 157
118 132 150
110 123 140
113 126 142
104 116 132
97 108 123
86 96 109
82 91 103
96 107 122
88 97 111
98 110 125
87 98 111
92 103 117
97 108 123
95 105 119
108 120 135
107 119 135
112 124 140
100 111 125
94 105 120
106 118 134
84 93 106
63 70 79
49 54 61
26 29 33
15 17 19
13 14 16
24 27 30
43 47 53
42 47 53
64 70 80
72 79 89
82 90 100
79 87 97
73 80 89
69 76 86
64 70 79
68 75 84
68 74 83
76 83 93
87 95 106
103 113 127
94 104 116
109 119 134
120 132 147
118 129 145
112 123 137
115 126 140
128 141 157
138 151 168
121 133 149
122 133 148
146 159 177
125 136 152
131 144 160
123 135 150
131 143 160
133 145 162
127 139 155
125 137 153
123 134 149
117 127 141
110 120 134
114 125 140
97 106 118
83 91 101
75 82 92
88 96 107
80 88 98
83 91 102
80 88 99
73 80 89
62 68 76
56 62 69
42 45 50
66 72 81
66 73 82
68 74 82
81 89 99
84 93 105
78 85 96
88 97 109
86 95 107
90 99 112
71 78 87
68 75 84
72 79 88
68 75 84
58 64 72
60 66 75
59 65 73
59 65 73
56 62 70
65 72 81
76 84 95
75 83 94
86 96 108
104 116 131
110 122 138
127 141 160
111 123 139
119 132 149
105 117 132
92 103 117
82 90 102
76 85 97
68 76 86
63 71 81
60 66 75
49 55 62
44 49 56
26 29 33
22 24 28
14 16 18
28 32 36
68 77 87
90 99 112
103 115 130
124 140 161
124 138 158
123 137 155
120 133 151
127 143 163
140 157 179
135 152 173
138 155 177
131 147 169
142 160 183
148 167 192
147 165 189
153 171 195
152 170 194
154 173 198
151 169 193
150 169 195
144 161 183
152 170 195
159 178 204
160 179 205
153 172 197
157 178 206
163 183 209
156 177 203
154 173 199
158 177 204
168 188 215
168 190 217
168 190 219
170 191 218
169 189 216
156 175 201
154 174 200
130 148 171
112 127 146
98 110 126
94 106 122
111 125 142
129 145 167
143 159 181
144 163 188
145 163 187
143 162 187
130 147 170
108 122 140
83 93 107
69 77 88
46 52 60
41 46 52
57 65 74
69 78 90
83 95 110
79 90 103
74 84 98
64 72 83
49 55 64
24 27 31
19 22 25
45 51 59
64 73 84
74 84 96
69 78 91
68 76 88
53 60 69
41 47 55
41 47 54
47 53 61
56 64 74
55 62 72
57 65 75
54 61 71
61 69 79
72 81 93
83 95 110
103 117 135
118 133 152
135 153 177
147 167 192
161 182 210
171 194 224
172 195 225
169 192 221
178 201 231
181 204 235
182 208 241
175 199 231
184 210 244
178 202 233
186 211 243
192 217 251
180 204 236
184 209 241
183 207 240
178 202 233
182 206 238
183 208 240
180 204 235
172 195 225
173 197 227
178 203 235
178 203 236
182 206 238
176 199 229
166 189 218
156 177 205
131 149 173
121 138 159
110 125 144
89 101 117
71 81 93
56 64 74
46 53 61
53 59 68
44 50 58
52 60 69
62 70 81
80 91 105
81 92 106
75 86 99
73 83 96
78 89 103
81 92 106
89 101 116
95 108 125
106 121 139
124 140 161
134 152 176
143 163 189
162 184 213
178 201 232
183 207 238
187 211 244
181 206 239
167 189 218
152 172 199
140 159 184
114 130 151
101 115 133
89 101 117
78 88 102
49 56 64
66 75 87
65 74 86
65 74 86
67 76 87
60 68 79
50 57 66
48 54 63
49 56 65
58 65 75
75 85 99
93 106 123
108 122 142
116 133 154
109 125 145
109 124 144
117 133 154
124 140 162
129 147 170
124 142 165
120 136 157
108 122 141
97 110 128
88 99 115
83 93 108
76 86 99
61 69 80
54 61 71
43 49 57
41 46 53
41 46 54
31 36 41
23 26 30
17 19 22
30 34 39
59 67 78
89 101 116
114 130 151
139 158 183
150 171 198
163 183 211
173 196 226
176 200 232
180 205 236
173 197 229
177 201 232
183 207 239
182 206 238
176 201 233
167 191 221
164 187 216
149 168 193
123 140 161
118 134 155
120 135 156
111 126 146
107 121 139
114 128 147
112 127 146
112 127 147
112 127 146
109 124 143
109 123 141
104 117 135
101 115 133
108 122 141
116 131 151
116 132 153
115 130 150
104 118 136
92 104 120
73 83 97
55 62 72
42 48 55
31 34 39
18 20 23
35 39 46
55 63 73
40 44 51
32 36 41
47 54 62
64 73 84
85 96 110
90 101 116
78 88 102
73 82 94
72 81 94
70 80 92
69 78 90
70 79 91
71 81 93
78 88 102
93 106 122
108 123 142
119 134 155
122 138 159
124 141 162
120 135 155
118 133 153
118 133 153
117 132 151
110 124 142
114 129 148
116 131 150
116 131 150
118 133 152
108 122 141
103 116 132
109 123 141
127 143 165
132 149 171
144 163 188
162 182 210
173 194 222
173 194 223
173 195 223
159 180 207
166 186 213
163 184 211
163 183 209
169 189 216
167 187 213
167 187 214
166 187 214
164 184 211
164 183 208
162 183 211
168 190 218
158 178 203
158 176 201
159 179 205
163 183 209
158 178 203
141 158 181
151 169 194
153 172 197
146 164 189
146 164 188
136 152 173
142 160 183
124 139 159
137 153 173
135 151 172
118 132 151
110 123 139
101 113 128
82 91 104
68 76 87
62 68 77
68 77 88
64 71 80
62 70 80
62 69 79
66 73 83
60 66 75
48 54 61
63 70 79
56 62 71
59 66 74
71 78 88
58 64 72
62 69 78
60 66 74
48 53 60
43 47 54
17 19 22
10 11 13
16 18 20
32 35 40
34 37 42
41 45 51
41 45 51
54 59 67
49 54 62
71 78 88
86 95 107
85 94 106
80 88 98
79 87 98
88 96 107
101 111 125
94 103 116
110 121 136
101 111 124
103 113 126
102 112 125
115 126 141
111 122 137
118 130 145
128 141 158
141 155 174
129 142 159
138 152 171
148 162 181
133 147 165
124 136 152
128 141 159
125 137 153
135 148 165
126 138 155
121 133 148
119 131 146
122 133 149
134 147 165
119 131 147
113 125 140
111 122 136
105 115 129
105 115 129
112 123 138
103 113 126
84 92 103
83 91 102
80 88 99
71 79 88
71 78 88
66 73 81
56 61 69
58 64 72
65 72 81
62 69 77
45 50 57
42 46 52
34 38 43
38 42 48
44 48 54
41 45 51
32 36 41
28 31 35
21 23 26
29 33 37
43 47 53
42 46 52
69 76 86
75 83 94
74 81 92
94 105 120
98 108 122
106 119 135
126 140 158
126 140 160
112 126 144
123 137 156
127 141 160
121 133 150
117 130 147
98 108 123
114 127 144
102 114 129
109 121 138
96 108 123
79 88 101
48 54 62
18 20 23
11 13 15
26 29 33
54 60 68
73 82 93
96 107 122
124 139 158
132 149 171
117 131 150
120 136 156
117 131 149
121 136 156
108 121 139
127 142 162
115 129 148
124 139 159
129 144 165
129 145 166
135 151 172
147 164 187
144 162 186
146 163 186
154 173 199
160 179 205
159 180 207
168 189 216
156 175 199
162 182 208
166 187 215
166 186 213
157 177 203
157 176 201
155 175 201
153 174 200
151 171 196
146 164 188
144 162 186
144 161 185
131 148 171
120 135 156
122 138 159
128 144 166
148 167 193
158 178 204
167 187 214
157 178 205
169 191 219
175 197 226
171 193 222
166 187 215
156 177 205
150 169 195
135 152 175
126 143 165
108 123 142
90 102 117
67 75 86
56 63 73
40 45 52
40 46 52
32 36 41
17 20 23
18 21 24
25 28 33
35 40 46
47 53 61
47 53 62
51 58 67
55 62 72
72 81 93
80 91 105
84 95 110
86 97 112
85 96 111
93 106 122
99 112 129
92 104 120
107 121 140
113 128 148
119 136 158
122 139 160
126 143 166
134 151 174
142 161 187
157 177 203
163 185 213
153 173 199
162 185 214
157 178 205
168 190 220
172 195 225
178 201 232
173 195 224
182 207 239
189 214 246
182 206 238
182 206 238
180 204 234
184 208 241
184 208 241
184 209 241
187 213 247
183 208 242
184 208 239
172 195 226
162 183 212
158 180 208
155 176 204
146 166 192
145 164 189
135 153 177
122 139 161
110 126 146
82 93 108
56 63 73
48 54 63
36 41 47
22 25 28
18 21 25
28 32 37
55 63 72
70 80 92
82 93 107
96 110 127
111 125 145
129 146 168
130 148 171
137 156 181
135 153 177
139 159 185
149 169 194
152 173 199
156 177 204
154 175 203
166 188 217
170 192 221
181 205 236
181 205 237
187 212 245
183 208 240
182 206 237
169 191 220
155 177 205
138 157 182
131 148 171
106 121 141
80 91 105
61 70 80
52 59 69
62 71 82
77 87 100
81 92 106
77 88 102
82 94 109
88 99 114
68 77 89
37 41 48
37 41 48
61 69 80
78 89 103
89 101 116
101 114 132
103 118 137
103 117 136
97 111 128
91 103 118
77 88 102
68 77 89
54 61 71
42 48 56
30 34 40
33 38 44
34 38 44
44 50 58
51 58 67
54 61 71
55 62 71
54 61 71
57 65 75
71 81 94
84 96 111
103 117 135
125 143 165
137 156 180
152 171 197
160 181 210
161 182 211
153 174 202
150 170 196
148 169 195
130 148 171
130 147 170
141 161 186
143 161 186
145 164 189
163 185 213
166 188 217
177 201 232
178 201 230
179 202 233
177 200 231
165 187 216
145 165 190
139 158 183
135 153 175
126 143 166
115 131 151
106 120 139
120 136 157
101 114 132
94 106 121
77 87 101
64 73 85
47 54 62
50 57 66
59 67 78
52 60 69
40 45 52
30 34 39
16 18 21
16 18 21
23 27 31
33 38 43
44 50 58
53 60 69
58 66 76
58 66 76
71 80 93
73 82 95
75 85 98
76 86 100
86 98 113
88 99 115
83 94 108
86 98 112
86 98 113
91 103 119
103 117 135
114 130 150
131 147 168
136 154 177
137 154 177
130 146 167
130 147 169
119 134 155
111 125 143
112 125 143
113 127 145
103 116 133
95 107 123
87 98 113
66 75 86
61 69 80
57 64 74
55 62 71
60 67 77
77 87 100
89 101 116
99 111 127
117 132 152
118 133 153
142 160 184
135 152 175
142 160 184
152 171 196
154 174 200
155 175 201
163 183 210
139 156 180
156 176 202
156 174 199
148 167 191
149 166 190
149 168 193
155 174 199
151 169 193
158 178 204
168 188 215
152 171 196
155 175 200
154 172 196
153 171 195
151 169 192
137 153 174
134 150 172
136 152 173
133 150 171
123 138 158
126 141 160
117 132 151
113 127 145
101 113 129
78 87 98
62 69 79
54 61 70
46 52 59
25 28 32
24 27 31
36 40 45
56 62 70
52 58 67
56 62 70
52 57 65
42 47 53
43 48 54
39 44 50
36 40 46
34 38 44
29 32 37
27 30 34
45 50 57
54 61 69
57 64 72
59 66 75
58 64 73
53 59 66
65 71 80
65 71 81
72 80 90
60 67 75
53 59 66
59 65 74
56 62 69
50 55 62
48 53 60
46 50 57
50 56 63
55 60 67
60 66 75
80 88 99
68 75 85
60 66 75
71 79 88
78 86 97
84 92 104
83 91 103
95 104 117
108 119 134
115 126 141
115 127 142
118 130 146
127 140 157
135 149 168
135 148 166
124 137 154
142 157 176
136 151 170
133 147 165
122 134 150
134 147 166
136 149 168
126 139 157
137 151 170
131 144 162
135 149 168
133 146 165
144 159 178
138 151 169
127 141 159
119 131 148
121 133 150
107 118 133
101 111 125
76 84 95
78 86 97
70 78 87
62 68 77
70 77 87
75 83 94
81 89 101
84 93 104
95 105 118
86 95 108
86 96 109
71 79 89
52 58 66
32 35 40
15 17 19
14 15 17
26 29 33
40 44 50
57 64 72
53 58 66
55 61 69
72 81 92
79 88 100
80 89 101
99 111 126
104 116 132
106 117 132
130 145 164
139 155 176
138 153 174
127 141 159
125 139 158
121 135 153
97 109 124
100 112 129
78 88 101
69 77 87
34 38 43
13 15 17
14 15 17
27 30 34
45 51 59
70 78 89
93 105 121
117 130 148
135 151 173
132 148 169
135 151 172
133 150 172
147 164 188
141 158 181
145 162 185
143 160 182
142 159 181
145 163 186
154 173 198
159 179 205
163 184 211
164 184 211
158 178 203
155 174 200
162 181 207
163 182 208
169 189 216
156 175 201
174 197 226
165 186 214
161 183 211
157 177 204
157 176 202
170 193 222
165 186 213
176 197 226
177 200 230
163 185 213
168 189 216
170 192 221
177 198 226
169 190 218
167 189 218
173 195 225
174 196 226
177 199 228
166 188 217
165 186 213
170 192 221
170 192 221
159 180 207
148 167 191
143 161 186
132 150 173
126 142 163
121 137 157
118 134 154
120 136 158
117 131 151
116 131 150
101 114 131
95 108 125
83 94 108
70 79 91
56 63 73
44 50 58
23 26 29
12 13 15
15 16 19
22 25 28
27 30 35
31 36 42
33 37 43
31 35 41
45 51 59
67 76 88
86 97 112
95 107 124
91 103 118
109 124 142
119 135 156
127 145 168
127 144 165
125 142 163
125 141 163
124 141 163
125 142 163
134 152 175
128 146 169
132 151 175
140 159 183
151 171 198
155 176 203
160 182 211
167 189 218
173 197 227
176 200 232
181 205 236
184 207 237
182 206 238
186 211 244
183 208 241
183 209 242
182 207 239
176 199 230
176 200 231
169 191 219
161 182 209
152 172 198
146 166 192
139 158 182
134 152 177
124 140 162
118 133 153
95 107 123
81 92 106
80 91 105
86 97 112
89 101 117
84 96 112
63 71 82
43 49 57
46 52 60
55 62 71
75 85 98
84 96 111
107 121 140
132 150 173
146 166 193
161 182 209
172 195 225
176 199 230
184 210 243
185 209 242
181 205 238
182 206 237
178 202 234
176 199 230
169 191 221
152 172 198
145 165 190
145 165 191
140 159 183
127 144 167
105 119 137
87 99 115
54 61 71
28 32 37
76 87 100
90 102 118
101 115 133
106 120 138
107 121 140
120 136 157
117 133 154
89 101 117
58 66 77
37 43 49
17 20 23
21 23 27
31 35 40
40 45 53
32 36 42
28 32 37
35 40 46
50 56 65
57 65 74
69 78 90
75 85 98
80 91 105
84 95 109
80 91 105
86 98 114
91 103 118
98 112 130
107 122 141
121 138 160
135 153 177
151 172 199
161 183 211
164 187 217
165 187 216
160 182 210
146 166 192
131 149 173
115 131 152
92 105 122
75 85 98
69 78 90
59 67 77
58 66 77
65 74 84
82 92 106
92 104 120
111 126 145
121 138 160
133 151 175
147 166 192
159 180 208
159 181 210
161 182 210
160 181 208
167 189 219
167 189 219
157 179 207
160 181 208
171 194 224
175 197 227
184 208 240
183 207 238
181 206 238
168 191 221
158 178 205
140 159 184
129 147 170
106 121 140
82 93 107
57 64 74
27 30 35
16 18 21
12 13 15
16 18 21
17 20 23
14 16 19
26 29 34
40 45 51
46 52 60
60 69 80
67 76 88
70 80 93
73 82 95
78 88 102
86 97 112
82 93 107
91 103 119
98 111 128
109 123 141
123 139 160
126 143 165
135 152 175
139 157 182
141 160 185
149 169 194
144 163 188
147 166 191
138 156 180
131 148 170
121 138 159
116 131 151
105 119 137
93 105 121
76 86 98
60 67 77
47 53 62
33 38 43
17 19 22
8 9 11
14 16 18
19 22 25
29 32 37
40 46 52
44 50 57
43 49 56
42 48 55
54 62 72
71 79 91
91 103 118
93 105 121
90 101 115
83 93 107
89 101 116
99 111 126
104 118 135
125 141 162
133 149 171
143 161 185
144 161 185
148 167 192
152 170 195
159 178 203
145 163 185
160 180 205
150 170 196
147 166 191
144 162 185
131 148 170
131 147 168
110 123 141
96 108 123
73 82 94
56 64 73
63 70 80
59 66 75
65 73 83
66 74 85
63 71 81
68 77 88
80 90 103
91 101 114
109 121 137
98 109 125
101 113 129
98 110 125
90 101 115
90 99 112
98 110 125
76 85 96
62 69 78
42 47 54
21 23 26
11 12 14
25 28 31
44 50 56
58 64 73
63 70 80
71 79 91
70 78 89
82 91 103
80 89 100
63 70 80
45 49 56
40 44 49
39 43 49
39 44 50
35 39 44
37 41 46
35 39 44
21 23 27
19 21 24
18 20 22
19 20 23
13 14 16
17 19 22
19 21 24
16 18 21
14 15 17
15 16 19
44 49 55
64 70 79
89 99 112
115 127 144
120 133 150
129 142 159
137 151 170
138 153 173
145 161 182
137 152 171
131 145 163
141 155 175
146 160 179
141 156 176
142 157 178
137 151 169
139 154 174
149 166 188
140 155 175
149 164 184
141 156 176
140 155 175
125 138 155
115 127 143
114 126 142
99 110 125
94 104 118
100 112 128
109 122 138
99 110 125
116 129 147
108 119 135
113 125 141
120 132 149
110 121 136
118 131 148
99 111 126
113 125 142
100 112 127
84 93 105
73 81 92
44 49 55
23 26 29
24 26 30
31 34 39
45 50 57
62 68 78
71 79 90
77 86 97
79 89 101
79 88 99
99 110 125
100 112 127
103 116 132
117 130 149
124 139 158
116 130 148
116 130 148
100 112 128
103 116 133
90 100 114
73 82 93
55 62 71
46 51 59
24 26 30
16 18 20
21 23 27
34 38 44
57 64 73
79 89 102
101 112 128
120 134 154
136 152 173
123 138 158
133 149 170
127 143 164
123 138 157
131 148 170
132 148 170
142 159 182
151 170 194
155 174 199
143 161 184
138 155 178
137 155 178
140 158 182
143 160 184
143 160 184
144 162 186
149 169 195
146 165 189
134 151 175
130 147 169
133 150 173
131 148 170
128 144 166
116 131 151
125 141 161
136 153 175
147 166 191
147 166 191
147 166 190
150 170 196
148 168 193
150 170 196
157 177 204
161 182 210
162 183 211
165 185 212
163 184 210
170 193 222
175 198 227
175 197 226
179 202 232
171 192 221
164 185 213
166 189 218
160 181 208
162 183 211
160 180 207
165 186 214
162 182 208
157 179 207
159 179 205
147 168 194
146 164 189
118 134 154
98 111 128
70 79 91
48 54 63
25 29 33
10 12 14
12 13 16
24 27 31
34 38 44
38 43 50
37 42 48
29 33 38
27 30 35
33 37 43
49 56 65
63 72 83
66 75 86
64 73 84
71 80 93
76 86 100
93 105 122
111 125 144
118 134 155
136 153 176
147 165 190
148 168 194
148 168 194
149 169 196
155 176 203
157 177 204
151 171 198
158 178 205
157 178 205
161 182 211
169 192 221
173 195 225
174 197 227
176 199 230
177 200 230
183 209 242
177 202 233
182 207 240
183 208 240
185 210 242
187 212 245
185 210 244
183 208 240
190 215 248
181 206 237
183 208 242
181 206 238
179 203 234
173 196 227
170 193 223
166 187 215
161 182 209
146 166 192
156 176 202
149 169 195
132 149 172
114 129 148
104 119 137
116 130 150
123 139 162
133 152 176
142 161 186
147 167 192
156 178 206
166 187 216
174 198 229
176 200 233
183 209 243
180 205 237
176 199 230
164 187 216
148 169 195
133 150 173
111 126 145
84 95 110
61 70 81
44 50 58
30 34 39
17 19 23
19 22 25
32 36 42
76 86 100
93 106 123
102 116 135
111 127 148
115 130 149
109 123 143
101 114 132
98 111 128
91 103 119
94 107 123
99 111 128
100 113 129
99 112 130
97 110 128
86 97 111
77 87 100
68 77 89
57 65 75
50 57 66
42 48 56
28 32 37
30 34 39
30 34 40
31 36 41
40 45 51
53 60 69
72 81 94
110 125 144
134 153 178
155 176 202
163 185 213
166 188 216
170 192 222
168 190 219
162 184 213
162 183 210
158 180 208
151 171 198
143 162 187
133 151 175
125 142 164
126 143 165
122 139 160
120 137 158
118 133 154
112 128 148
107 121 140
102 115 133
98 111 128
89 101 116
84 95 110
79 89 103
89 101 116
98 112 129
116 131 151
135 153 176
150 169 195
160 182 211
176 199 230
184 209 241
182 207 239
178 201 231
172 194 224
149 169 196
139 158 183
130 147 168
98 112 129
71 80 92
61 69 80
42 47 55
28 31 36
22 25 29
18 20 23
18 20 24
23 26 30
22 25 29
29 33 38
46 52 59
56 64 73
66 76 88
74 83 95
73 83 95
72 82 95
87 98 112
93 105 122
96 108 124
101 115 132
110 124 143
113 127 146
120 135 155
112 127 146
103 117 135
85 96 111
72 81 93
68 76 88
67 76 88
69 78 90
64 73 83
60 68 79
45 51 58
35 40 46
36 41 47
38 43 49
39 44 52
55 61 70
58 65 74
51 57 66
33 37 42
28 32 37
36 41 47
55 62 71
60 68 79
53 60 70
50 57 66
52 59 67
45 51 59
26 29 33
9 11 12
25 29 33
48 54 62
71 80 91
92 104 120
113 126 144
135 151 172
153 172 198
164 184 211
157 177 204
163 183 209
151 170 194
160 180 206
160 179 204
142 160 183
138 156 180
135 152 173
136 153 174
130 146 167
126 141 160
110 124 143
96 108 125
98 109 124
112 126 144
134 151 173
132 148 169
128 144 165
140 156 178
138 154 176
136 153 175
141 157 180
150 168 192
145 163 186
139 155 177
146 163 186
144 160 182
138 155 177
128 144 164
140 156 178
119 133 151
115 128 146
100 112 127
64 71 81
29 32 37
12 13 15
24 27 31
45 50 57
49 54 62
51 57 64
67 75 85
62 69 79
51 57 65
53 59 67
45 50 57
45 50 57
48 53 61
41 46 53
35 39 45
34 37 42
31 34 39
31 34 39
29 32 36
30 33 38
35 39 44
55 61 69
75 83 93
69 77 87
81 90 102
71 79 89
68 75 85
69 76 86
64 71 81
72 80 91
83 93 106
90 100 112
92 103 116
100 111 125
122 135 152
128 142 161
131 145 165
135 150 170
151 168 190
142 157 178
141 157 178
138 153 173
151 168 191
153 170 192
134 149 169
127 141 160
149 166 188
147 163 184
141 157 178
143 159 181
140 155 175
139 156 178
140 155 175
150 166 187
150 166 188
146 162 183
147 164 186
138 154 175
155 172 195
143 158 179
147 163 186
148 165 188
146 163 185
136 151 170
135 151 173
142 157 178
136 150 170
133 149 169
118 132 151
119 132 150
89 99 113
58 65 73
40 45 51
22 25 28
9 11 12
16 18 20
26 29 33
31 34 39
40 44 50
55 61 70
62 69 78
61 68 77
56 63 71
62 69 79
64 71 80
58 65 73
52 58 67
42 48 55
34 38 44
16 18 20
21 23 26
40 45 51
51 58 66
74 83 96
78 88 101
93 105 120
94 106 121
97 110 126
97 109 125
103 115 132
108 121 137
116 130 149
124 139 159
138 154 175
133 150 172
130 146 167
132 147 168
144 161 183
141 159 182
143 161 184
139 156 178
140 157 180
127 143 163
126 142 162
120 136 156
106 119 137
95 107 124
80 90 103
60 68 78
49 55 63
37 42 48
50 56 65
62 70 80
45 51 59
50 56 65
46 52 59
45 51 58
56 63 72
36 41 47
46 52 60
72 81 94
93 106 122
113 127 147
126 142 164
132 149 171
128 145 166
133 150 173
138 156 180
146 166 191
150 170 196
139 157 181
131 149 172
128 145 167
132 150 173
149 168 193
162 183 210
165 187 214
169 190 218
171 192 220
168 188 215
163 184 213
164 185 212
161 181 208
159 180 208
175 197 227
179 203 234
163 185 214
141 159 183
102 116 134
73 82 94
57 64 74
31 35 40
32 37 43
41 47 54
45 50 58
56 63 73
61 69 79
66 74 86
82 93 107
81 92 106
72 82 94
63 72 83
70 79 90
83 93 107
92 104 120
92 105 121
85 96 111
90 101 116
101 114 132
116 132 153
118 134 156
122 138 158
131 148 171
139 159 185
146 166 191
155 176 204
162 183 211
168 190 218
174 197 227
173 196 227
173 196 227
169 191 221
165 188 218
156 177 205
162 184 213
162 184 212
171 194 223
176 201 232
175 199 230
186 210 241
183 207 239
186 211 243
189 214 248
190 215 249
181 206 238
184 209 241
189 214 246
178 203 235
186 210 243
183 208 240
186 210 241
181 206 238
184 209 241
181 206 238
180 204 236
170 194 226
161 183 212
155 177 206
149 169 195
144 164 190
147 167 194
154 175 203
154 175 203
149 169 195
147 167 193
147 167 193
162 184 212
170 194 225
180 204 235
175 199 229
186 211 243
191 216 249
176 200 232
164 185 213
154 175 202
138 156 181
90 103 119
43 49 57
18 20 24
16 18 21
21 24 28
35 40 47
54 61 70
80 91 105
97 110 127
115 130 151
123 139 161
131 150 174
138 156 180
139 158 182
135 153 176
128 144 166
117 132 153
102 116 134
88 100 115
74 83 96
64 73 84
56 64 74
47 54 62
39 44 51
35 39 46
24 27 32
22 24 28
25 29 33
36 41 47
51 58 67
66 75 86
79 90 104
85 97 112
89 101 117
90 102 118
97 110 127
100 112 128
106 121 140
99 113 131
85 96 112
69 79 91
62 70 81
61 69 79
60 68 79
64 74 86
73 83 96
95 108 125
115 130 150
122 139 161
125 141 162
126 144 166
134 153 176
128 145 167
133 151 174
135 153 177
147 166 190
142 160 185
157 178 206
165 186 213
174 197 227
186 210 242
187 211 243
172 195 224
156 177 205
138 156 180
127 144 165
101 115 133
82 93 106
62 71 81
42 48 55
32 37 42
25 29 33
22 25 29
24 27 31
19 21 25
15 17 19
13 15 18
15 16 19
20 22 26
21 23 27
15 17 20
14 16 19
28 32 36
30 34 39
41 46 53
52 59 67
49 55 63
47 54 62
45 52 60
51 58 67
66 74 86
79 89 103
87 99 114
82 93 108
65 74 86
58 66 76
38 43 49
17 20 23
13 14 17
12 14 16
19 21 24
27 30 35
17 19 21
11 12 14
15 17 20
20 22 25
26 29 34
36 40 47
37 41 48
43 48 55
58 66 76
64 73 84
69 78 89
83 93 107
91 102 118
101 113 130
102 114 131
98 110 127
90 101 116
70 79 91
42 48 55
30 33 38
19 21 24
26 30 35
60 68 78
76 86 99
108 121 139
137 154 177
148 167 192
165 184 209
159 178 204
167 189 218
164 185 213
161 182 209
151 171 196
130 146 167
109 122 140
107 120 138
92 104 119
102 115 132
98 110 125
103 116 133
119 134 153
128 144 165
131 147 167
138 154 176
143 159 181
155 175 200
144 163 187
161 181 207
160 179 204
158 177 203
149 168 194
152 171 197
141 158 180
142 158 179
146 164 188
133 148 169
127 143 164
135 151 172
111 124 141
94 106 121
80 89 102
52 57 65
23 26 29
29 32 37
37 41 47
40 45 51
32 36 41
25 28 32
24 27 31
18 20 23
21 23 27
27 30 34
27 30 34
21 23 27
24 27 31
27 30 34
27 31 35
32 36 41
28 31 35
22 24 27
39 43 49
59 65 74
81 90 102
97 108 123
106 118 135
115 129 146
109 122 140
102 114 129
111 124 141
110 122 139
112 125 142
118 131 148
114 128 145
106 117 133
104 116 132
105 117 132
102 114 130
104 116 132
114 127 144
115 129 147
129 143 163
131 145 163
131 146 165
136 152 172
146 162 184
154 172 195
131 147 168
140 156 178
148 164 186
155 172 196
151 167 190
164 182 206
152 169 192
157 174 197
144 160 180
151 167 190
143 159 181
131 146 166
125 138 157
116 129 146
129 144 164
135 150 171
133 148 169
144 161 183
155 172 195
150 166 189
158 176 200
152 170 194
158 175 199
141 156 176
136 152 174
134 149 170
116 130 148
99 111 127
86 96 110
53 59 67
33 37 42
19 21 24
10 11 12
9 10 11
11 13 14
16 18 20
13 15 17
22 24 28
27 30 34
24 27 31
26 30 34
34 38 43
35 40 45
42 47 54
41 46 53
42 48 55
48 54 62
55 61 70
58 66 76
57 65 74
56 63 73
57 64 73
68 76 86
65 74 84
69 78 89
77 87 100
97 109 125
107 121 139
118 133 152
138 155 177
139 157 182
138 155 178
142 159 183
143 160 183
129 144 165
122 138 158
132 149 170
126 142 164
122 138 158
121 137 157
116 132 152
101 113 130
73 82 94
42 48 55
19 22 25
34 39 45
57 63 73
70 79 92
98 111 127
109 123 141
129 145 167
125 141 162
113 127 146
108 123 142
81 91 105
60 68 79
39 45 52
30 34 39
31 35 40
44 49 57
56 64 74
62 70 81
71 80 92
72 81 94
71 80 93
66 74 86
70 79 92
72 82 94
64 72 83
72 81 94
81 92 106
83 94 108
98 110 127
118 133 153
125 141 162
125 142 164
146 165 190
151 170 195
155 176 204
164 185 213
183 207 239
181 204 235
171 194 224
170 192 222
162 183 211
153 173 198
127 144 166
96 109 126
59 67 77
23 26 30
26 30 35
34 39 44
36 41 47
44 51 59
56 63 73
55 63 73
63 71 83
67 76 89
83 93 107
92 105 122
98 112 130
98 111 128
102 116 134
104 118 136
106 120 138
100 114 132
101 115 133
112 127 147
122 137 158
127 145 168
131 149 172
127 145 168
128 144 166
140 158 181
155 176 203
157 178 206
164 187 216
166 189 218
163 185 214
167 190 219
165 188 217
175 198 229
181 205 237
180 205 236
182 206 238
188 212 243
190 215 248
188 213 246
184 209 242
187 213 246
186 210 242
184 208 240
185 210 242
189 214 246
183 206 238
186 210 242
180 205 237
186 211 243
186 211 243
185 209 241
186 211 244
186 211 243
178 202 233
172 196 228
176 199 229
169 192 221
165 187 216
162 183 212
161 183 212
154 175 202
147 167 193
148 168 194
154 174 201
154 175 202
157 178 206
169 192 221
179 203 234
186 212 246
183 207 240
178 202 234
154 174 200
115 131 152
74 84 98
50 57 66
35 40 47
32 36 42
39 44 51
49 56 65
54 62 71
64 73 84
77 88 102
94 108 125
113 128 148
118 134 155
122 138 159
122 139 162
114 129 149
95 107 124
76 86 99
63 72 83
45 51 59
35 40 46
53 61 70
63 72 84
68 78 91
60 67 78
48 55 64
43 49 56
37 42 49
26 30 34
22 25 29
26 29 34
33 37 43
21 24 28
12 14 16
16 18 21
19 22 25
15 17 20
10 12 13
12 13 15
22 25 29
32 36 42
37 42 48
32 36 42
24 27 32
14 16 19
26 29 34
49 56 64
75 85 98
103 117 134
116 131 151
124 140 162
140 158 183
145 164 189
151 172 198
156 177 204
167 188 217
166 188 216
173 196 225
182 206 238
185 209 239
185 209 241
181 205 237
165 187 217
148 168 194
128 145 167
106 121 140
88 100 115
64 72 83
52 59 68
47 53 61
34 39 45
25 29 33
22 25 29
14 17 19
9 10 11
7 8 10
14 16 19
21 24 27
14 16 18
7 9 10
9 11 12
14 16 19
25 28 33
29 33 39
35 39 45
33 38 44
28 32 37
29 33 38
53 60 69
86 97 112
105 117 134
109 123 142
114 129 149
112 126 145
119 134 154
117 133 153
114 129 149
114 129 148
113 128 148
98 112 129
96 108 123
80 90 103
72 82 94
63 71 81
63 72 83
70 80 92
85 97 113
89 101 118
88 100 115
82 93 107
88 100 116
76 86 99
68 77 89
73 82 93
66 75 87
68 77 89
63 71 81
71 81 93
65 73 84
62 70 80
63 71 82
68 77 88
61 69 79
67 76 86
67 76 87
85 96 110
102 116 134
122 138 158
153 172 198
155 175 201
169 191 219
167 187 215
159 179 205
149 167 191
144 162 185
135 151 173
126 142 163
123 139 160
128 145 166
119 134 153
120 134 154
107 120 138
103 115 132
105 118 135
98 110 125
90 102 118
95 107 122
88 99 113
88 99 113
98 110 125
93 105 121
107 120 137
98 110 125
89 100 114
91 103 118
73 82 94
62 69 79
66 74 85
61 68 78
49 55 63
42 47 54
27 30 34
20 23 26
18 20 23
22 25 29
30 33 38
16 18 21
14 16 18
37 42 48
48 54 61
51 58 66
57 64 73
60 67 76
54 60 69
47 53 61
42 47 54
34 38 44
23 26 30
24 27 32
30 33 38
39 44 51
37 42 47
28 32 37
18 21 24
14 16 18
33 37 42
58 65 74
59 66 75
74 83 94
79 88 99
81 91 104
114 128 146
107 120 137
114 127 145
119 133 151
110 123 140
103 114 129
89 99 113
88 98 112
87 97 110
85 95 108
85 95 108
94 105 120
101 112 127
107 120 137
124 138 156
121 136 155
134 149 168
128 141 160
139 154 175
137 153 174
139 156 178
139 155 176
136 152 173
132 147 168
134 149 169
140 156 178
139 155 176
126 141 160
122 136 154
123 138 156
102 114 130
96 107 123
110 122 140
113 126 143
119 133 151
138 153 174
147 165 188
154 172 196
158 175 199
151 169 192
152 171 196
158 177 202
147 165 189
143 160 183
127 142 162
112 126 144
116 130 148
117 131 150
104 117 134
101 114 132
76 85 98
66 74 85
60 67 77
62 70 80
60 67 77
73 81 92
75 84 95
79 88 101
89 100 115
77 86 99
77 87 99
87 98 112
89 100 115
91 102 116
99 110 125
107 120 137
105 118 134
108 121 138
110 123 140
113 126 145
94 106 122
91 102 117
69 78 90
55 62 71
42 47 53
38 43 49
56 63 72
83 94 108
111 124 141
125 141 163
130 146 168
133 150 173
130 147 169
123 139 160
118 133 153
102 116 133
110 123 142
90 102 117
78 87 100
66 75 86
44 50 58
21 24 27
16 18 20
40 46 53
69 78 90
89 100 114
105 119 137
114 128 147
117 133 153
120 135 154
107 121 139
104 117 134
90 102 118
71 81 93
61 70 80
50 57 65
37 41 48
26 29 34
22 25 28
23 27 31
28 31 36
28 32 38
13 14 16
6 6 8
9 11 12
10 12 14
18 21 24
23 27 31
26 29 34
23 26 31
40 45 52
69 78 90
108 122 140
134 152 175
153 172 198
169 191 221
169 192 222
186 210 241
173 196 227
180 203 234
174 197 227
169 191 220
165 187 215
165 187 216
153 173 199
120 136 157
75 85 98
38 43 50
27 30 35
28 31 36
27 31 35
32 37 42
36 41 47
47 53 61
58 66 76
55 62 71
50 57 66
57 64 74
69 78 91
73 82 95
73 82 95
68 77 89
63 71 82
61 69 80
59 67 77
74 84 97
74 84 97
70 79 91
59 67 77
60 68 79
77 87 101
81 91 105
96 110 127
95 108 124
96 109 126
106 121 139
115 131 152
123 139 160
116 132 153
121 137 159
133 151 174
146 166 193
158 178 205
172 196 226
177 200 232
179 204 236
188 214 247
184 209 242
183 207 239
181 205 237
169 192 223
172 195 226
169 192 222
169 192 222
175 199 231
177 201 232
179 203 235
185 210 243
184 209 242
184 208 239
181 206 238
181 205 237
188 214 248
185 210 242
187 211 243
181 204 235
176 200 230
181 205 237
181 205 237
182 205 234
184 208 240
182 206 236
181 207 240
183 207 239
192 217 251
189 215 248
177 202 235
174 197 227
168 190 219
141 160 186
105 119 138
73 83 97
54 61 71
66 75 87
92 104 121
100 113 131
109 124 144
114 129 148
109 124 143
104 119 138
97 110 127
83 94 109
77 87 101
59 67 77
50 56 65
41 46 53
45 51 60
64 73 85
90 102 118
114 130 150
126 143 165
130 148 170
133 151 175
132 150 174
129 147 171
119 134 154
103 117 136
88 100 116
66 75 86
47 53 61
31 35 41
37 42 48
37 42 49
41 47 54
39 44 51
44 50 57
50 57 66
55 62 72
54 61 71
44 50 57
32 37 42
17 20 23
23 26 30
32 36 42
38 43 50
42 47 54
48 55 63
52 59 68
60 68 79
70 79 92
75 85 98
79 90 105
86 98 114
103 116 134
116 132 152
135 152 175
151 171 198
172 195 225
188 212 245
184 209 242
176 201 232
163 184 212
138 156 180
120 136 156
103 117 135
88 100 116
81 92 107
74 85 98
68 77 89
69 78 90
78 87 100
76 86 99
63 72 83
47 53 61
35 39 45
14 15 18
17 19 22
28 31 36
32 36 42
38 43 49
44 50 58
46 52 61
43 49 57
50 56 65
53 60 70
59 67 77
64 73 84
69 79 90
69 78 90
75 85 98
81 92 107
99 111 128
106 120 138
122 138 160
118 134 154
127 145 167
132 150 172
137 156 180
130 148 171
141 161 186
135 153 176
133 150 173
129 145 166
121 138 160
137 156 180
145 165 190
150 171 197
159 179 206
159 180 208
166 188 217
174 196 225
171 193 221
167 188 215
176 198 226
175 198 228
172 193 221
168 190 219
170 192 222
162 184 212
173 195 224
170 192 221
165 187 215
159 180 208
167 188 216
161 182 210
160 181 208
170 192 222
161 182 210
163 184 212
163 184 211
159 180 207
171 192 220
163 184 212
154 175 202
150 169 194
155 175 201
142 160 184
146 164 188
139 157 180
138 156 180
151 170 194
135 152 173
135 152 174
124 140 160
123 137 157
117 132 151
110 123 141
91 103 118
87 98 113
63 71 82
49 55 64
47 54 62
44 50 57
40 45 52
31 35 40
21 23 27
24 27 31
29 33 38
39 44 50
42 48 54
44 49 56
47 53 61
39 43 50
34 38 44
29 33 38
24 27 30
39 44 51
59 66 75
74 83 96
85 96 110
93 105 119
89 100 114
75 85 97
62 69 79
37 42 47
22 24 28
19 21 24
18 20 23
20 22 26
18 21 24
15 16 19
9 10 12
19 22 25
32 37 42
46 52 59
53 59 68
50 55 63
52 58 66
53 60 68
61 69 78
64 71 82
71 80 92
76 85 97
70 79 90
65 74 85
51 57 65
46 52 59
41 47 54
52 59 67
58 66 75
77 86 98
91 102 116
86 96 111
80 90 102
96 106 120
97 108 124
116 131 150
120 134 153
133 149 171
146 163 185
143 159 182
153 172 197
145 163 186
143 159 181
142 159 182
139 155 176
159 177 200
148 166 190
144 162 185
147 164 187
143 160 182
129 145 167
136 153 175
148 166 190
141 157 179
152 170 193
151 170 194
157 176 200
156 174 197
152 171 195
148 166 190
144 161 185
142 159 181
141 158 181
136 153 175
146 163 186
143 161 184
139 156 179
141 158 180
144 162 185
132 148 169
132 148 169
120 135 155
109 122 139
108 121 139
108 121 139
107 121 138
101 114 131
110 123 141
118 133 153
121 135 154
144 162 186
138 155 178
156 175 200
147 166 190
155 174 200
162 181 206
150 169 195
149 168 193
150 170 195
152 172 197
150 169 193
147 164 188
143 160 183
117 133 152
89 100 115
65 73 84
44 50 57
33 37 43
40 46 53
65 73 84
90 101 116
117 131 150
131 149 172
127 144 166
133 150 172
141 159 183
124 139 160
104 117 135
92 104 120
71 80 91
65 74 85
47 54 62
34 39 45
41 46 53
44 49 57
56 63 73
62 70 81
60 68 79
64 72 83
54 62 71
50 56 65
36 41 47
23 26 30
16 18 20
17 19 22
14 16 18
18 20 23
22 25 29
33 38 44
34 38 44
39 44 50
36 40 47
27 31 36
27 31 35
22 25 29
24 27 32
23 26 30
18 21 24
22 26 30
44 50 57
74 83 96
117 133 153
143 162 187
151 171 197
166 187 215
169 190 218
169 192 222
174 198 228
179 201 230
177 201 231
175 198 228
167 189 217
156 177 204
139 157 182
109 124 144
93 105 121
69 78 91
33 38 44
17 19 22
8 9 11
27 30 35
36 41 47
39 44 51
28 31 36
25 28 33
24 27 31
24 27 31
29 34 39
22 26 30
22 24 28
20 22 25
22 25 29
24 27 31
20 22 26
27 31 35
18 20 23
15 17 20
43 48 56
79 89 103
108 122 140
121 137 159
115 130 149
108 123 143
116 132 153
107 122 141
102 115 132
95 108 125
90 102 118
93 105 122
107 122 141
110 125 145
120 137 159
137 155 179
156 178 206
178 202 232
185 209 242
183 208 241
173 197 227
170 192 221
159 180 207
145 165 190
127 145 168
130 148 171
136 154 178
150 171 199
169 191 220
172 195 224
183 207 238
185 210 243
183 207 238
180 203 234
174 198 229
179 204 236
180 203 235
180 204 235
180 205 238
182 208 241
184 208 241
178 202 233
183 207 240
183 207 240
172 195 226
181 205 237
179 203 234
180 206 239
177 200 231
168 190 218
159 181 210
143 162 187
119 135 155
87 99 115
67 76 88
66 75 86
78 89 103
81 92 107
99 113 131
122 138 159
117 133 154
96 109 126
68 77 88
34 39 45
22 26 30
41 47 54
73 83 96
92 104 121
107 121 140
111 126 146
123 139 160
125 142 164
121 138 160
117 133 153
109 124 143
98 112 130
95 108 124
88 100 115
78 89 103
74 85 98
74 85 98
80 91 105
88 99 113
94 106 122
101 115 133
108 123 142
108 123 142
98 112 130
83 94 109
69 78 91
61 69 80
43 49 57
37 43 50
54 61 70
73 83 96
83 95 110
88 99 114
94 107 124
108 123 142
123 140 162
133 150 172
133 151 175
144 163 188
146 167 193
155 176 203
156 177 203
165 187 217
176 198 227
184 208 240
185 208 240
181 205 237
172 194 224
163 185 214
156 176 202
148 167 192
143 162 187
136 153 177
118 134 155
114 129 149
104 119 139
108 122 140
101 115 133
94 107 124
81 92 107
66 75 86
51 57 66
26 29 34
10 11 13
16 18 21
27 30 35
35 40 46
39 44 51
42 48 56
50 57 66
57 65 75
65 74 86
70 79 91
73 82 95
71 80 93
68 77 90
72 81 93
79 89 102
83 94 109
98 111 129
113 128 148
120 137 158
122 137 158
117 133 153
122 139 161
115 130 150
109 123 142
83 95 110
60 69 80
42 47 55
32 36 42
42 47 55
40 45 52
40 46 53
55 63 72
66 75 86
87 98 113
101 115 132
121 137 157
143 161 184
150 171 197
164 185 213
164 185 212
166 189 218
162 183 211
157 178 206
156 178 206
157 177 204
159 180 207
163 184 212
155 176 204
166 188 217
158 179 206
167 187 215
170 192 222
166 187 215
160 181 208
154 173 199
153 174 201
149 169 195
155 175 201
149 167 191
147 164 188
145 164 188
141 159 181
141 160 184
139 156 179
141 159 182
154 174 200
148 167 192
148 167 192
156 176 202
142 160 183
130 146 168
119 135 155
108 123 141
101 114 131
90 101 117
87 98 113
80 90 103
84 95 109
72 81 93
87 98 112
102 116 133
96 109 125
93 105 121
94 106 122
84 94 107
77 87 99
89 101 117
96 108 124
95 107 123
96 108 123
89 99 114
93 105 120
108 121 139
127 143 164
132 149 171
127 143 163
121 136 156
103 117 134
79 89 103
55 62 72
53 60 68
46 51 59
35 40 46
37 41 47
23 26 30
13 14 16
21 23 27
31 35 40
35 39 45
39 44 50
37 42 49
30 33 38
32 36 41
32 36 41
36 40 45
40 45 51
36 41 47
45 51 59
46 51 58
35 40 46
36 41 47
42 47 53
55 62 71
69 77 89
80 90 103
96 108 123
103 115 132
99 111 126
104 116 132
104 117 135
125 140 160
127 142 163
134 151 173
150 168 192
152 171 196
146 164 189
155 174 199
156 175 201
160 178 203
144 162 186
152 170 194
149 167 190
153 171 195
156 175 200
157 175 200
135 150 171
146 164 187
139 155 177
148 166 190
141 159 183
148 165 189
138 155 178
131 147 168
142 159 181
125 140 160
124 139 159
118 134 154
129 145 166
129 144 164
132 148 171
137 153 175
137 154 175
143 161 185
135 152 174
152 172 197
147 165 189
148 166 189
149 167 192
155 173 198
144 162 186
146 165 190
158 178 205
158 177 202
155 175 201
155 175 200
152 170 194
165 186 213
151 171 197
153 173 199
155 175 201
157 177 202
149 168 193
158 178 204
169 189 216
168 189 217
172 194 222
170 192 221
161 183 210
158 178 205
158 178 203
139 156 179
125 141 163
100 113 129
83 93 107
48 54 62
20 23 26
22 25 28
53 60 68
82 92 106
109 122 140
124 140 162
133 150 173
147 166 192
148 166 190
148 168 193
134 152 175
125 143 165
105 119 137
102 117 136
93 105 122
76 86 100
62 70 81
39 44 51
21 24 27
18 20 24
28 31 36
20 22 26
16 18 21
17 19 23
21 24 28
34 39 44
37 42 49
42 48 56
35 39 45
34 38 45
27 30 35
24 27 31
16 19 22
13 14 16
15 17 20
19 22 25
27 30 35
40 45 52
64 72 83
77 87 100
97 109 125
125 140 160
143 163 188
157 178 205
169 192 223
165 187 215
160 182 210
170 193 223
170 193 223
175 199 229
171 195 226
176 199 229
174 196 227
176 200 231
168 191 221
154 175 202
141 160 185
119 135 155
82 93 107
50 57 66
19 21 25
9 10 12
11 13 15
14 16 19
15 17 19
21 25 29
30 34 40
28 32 37
31 36 42
39 45 52
48 55 63
60 69 79
56 63 73
42 48 55
42 47 54
39 44 51
50 57 65
61 69 80
71 81 94
90 101 117
107 122 142
125 142 164
126 143 165
133 152 175
127 144 167
123 140 162
129 146 168
135 153 177
140 159 183
142 162 187
153 174 200
160 182 210
161 184 213
170 193 223
169 191 221
173 197 228
173 196 226
168 191 220
164 186 215
161 181 208
151 171 198
149 169 195
155 175 202
158 180 208
167 190 220
166 189 219
177 200 231
182 206 238
180 204 236
181 206 238
189 214 247
180 204 235
191 216 250
180 205 236
179 204 237
179 203 235
176 199 229
168 192 222
166 188 217
166 188 218
160 182 211
154 174 201
147 168 194
145 164 190
143 163 188
139 157 180
139 158 182
137 156 181
131 148 172
122 139 161
114 130 150
101 116 134
86 98 114
87 100 116
105 119 138
114 130 150
113 129 149
105 119 138
95 108 125
89 101 116
78 88 102
69 78 90
67 76 88
67 76 88
77 87 101
75 85 98
67 76 87
62 71 82
71 80 92
66 75 87
69 78 90
57 65 76
57 64 75
49 56 64
41 47 55
39 45 52
36 41 48
43 49 57
50 57 66
51 58 67
54 62 71
54 61 70
61 69 80
57 65 76
71 80 93
91 102 117
87 98 113
107 122 141
123 140 162
132 150 174
142 162 188
148 166 191
155 175 202
161 183 211
171 194 225
171 194 223
179 204 237
177 200 230
179 203 234
180 204 236
182 207 240
180 205 238
178 202 234
175 199 230
165 188 217
153 174 202
146 166 191
128 146 169
124 141 162
116 132 152
122 138 159
112 128 148
111 126 145
116 132 153
120 137 158
121 137 158
119 135 155
122 138 160
124 141 163
117 133 154
109 124 143
76 86 98
48 55 63
21 24 27
8 10 11
13 15 17
20 22 26
14 16 19
15 17 19
24 28 32
22 25 29
21 24 28
30 34 39
40 45 52
52 58 67
52 59 69
54 61 70
60 68 79
56 63 73
66 74 85
74 84 97
88 100 115
108 122 140
110 124 142
84 95 110
58 65 74
36 41 47
28 32 37
41 46 53
48 54 62
52 59 69
61 70 80
60 69 79
57 65 75
49 56 64
51 58 66
37 42 49
27 31 35
21 24 28
20 23 26
33 37 43
32 36 42
33 38 44
45 51 60
57 65 75
54 60 69
46 53 61
44 49 57
40 46 53
48 54 62
54 60 69
74 84 97
105 118 136
114 128 146
136 155 179
151 171 197
163 183 210
171 193 222
172 193 222
160 181 210
165 187 215
163 184 213
166 187 215
165 187 215
165 185 211
156 176 202
152 172 198
156 176 202
154 174 200
150 168 193
147 167 192
139 157 182
131 149 171
116 130 149
100 112 129
98 111 127
108 122 141
112 126 144
125 140 160
134 151 174
145 163 186
144 164 189
144 163 188
152 172 197
147 166 190
156 175 200
149 167 191
158 177 203
141 160 184
138 157 181
145 164 190
131 148 170
131 148 170
118 133 152
118 133 153
119 135 155
107 120 137
102 116 133
98 110 127
113 127 145
124 140 160
129 145 167
131 147 169
132 149 172
137 154 177
120 135 153
134 150 172
122 138 158
112 127 146
108 121 139
89 101 116
78 88 100
84 95 109
90 101 115
100 113 130
103 116 132
96 108 123
87 97 111
79 89 102
77 87 99
63 70 80
48 54 62
41 47 54
38 43 49
29 33 37
19 21 24
9 10 12
15 17 19
39 44 50
61 68 78
77 87 100
86 98 112
101 114 130
114 128 146
120 135 154
127 142 163
137 153 176
152 171 197
158 176 201
153 172 198
153 172 196
153 173 199
158 177 202
155 174 198
147 166 190
153 172 198
150 167 191
164 184 211
162 183 211
161 181 207
168 188 216
162 182 209
156 176 201
155 174 200
163 183 208
162 183 210
157 176 201
147 166 190
142 159 182
126 141 162
122 137 157
109 123 141
98 110 125
97 109 125
95 106 122
94 106 122
129 145 167
115 129 147
138 154 176
147 165 190
143 162 186
151 170 195
163 183 209
155 175 200
160 180 206
146 165 191
160 180 206
164 185 211
166 187 215
164 184 211
161 181 207
166 187 215
163 184 211
155 174 200
158 178 204
160 180 207
157 176 203
161 181 208
163 183 210
165 188 217
159 180 209
152 171 196
163 184 212
138 157 181
136 153 176
119 134 154
88 99 114
72 81 93
48 54 63
30 34 39
28 31 36
52 59 67
74 83 96
99 112 128
118 133 152
126 143 165
142 161 186
142 160 185
146 164 189
149 169 196
146 165 189
157 178 206
159 179 206
155 175 202
147 166 191
133 150 173
122 137 158
105 118 135
91 103 118
58 65 75
33 37 42
22 25 29
38 43 50
64 73 84
83 93 107
102 115 133
102 116 133
112 127 146
99 112 129
108 121 139
94 106 123
82 93 107
82 93 107
76 86 99
72 82 95
61 70 81
44 50 58
40 46 53
51 57 66
56 63 73
81 92 106
95 107 124
123 139 160
140 158 182
147 167 193
161 182 209
175 198 228
172 195 225
187 212 244
172 194 224
176 200 232
174 198 229
173 195 225
174 198 229
158 181 209
154 174 201
145 164 189
143 162 186
134 152 175
105 119 138
87 99 114
76 86 99
63 71 82
31 36 41
17 19 22
5 6 7
13 15 17
20 23 27
18 20 23
26 29 34
50 56 65
53 60 70
58 66 77
58 66 76
62 70 81
66 75 87
58 67 78
53 60 69
47 54 62
47 54 62
57 65 75
63 72 83
77 87 100
87 98 113
93 106 123
100 113 131
108 124 144
125 143 165
142 160 185
143 163 188
142 160 185
159 180 208
162 183 211
162 184 213
170 193 224
168 191 220
165 188 218
161 182 210
160 181 210
160 182 210
165 187 217
165 188 217
164 185 212
164 186 214
172 195 224
172 194 224
175 198 228
187 213 247
187 212 244
187 212 245
184 209 242
187 212 244
186 211 244
187 212 245
181 206 238
186 211 245
183 208 240
185 209 241
182 206 238
179 202 232
166 188 217
166 189 218
165 187 216
156 178 207
157 178 205
154 176 203
147 167 193
139 158 181
132 150 173
128 145 167
124 141 164
124 141 163
120 137 158
114 130 150
109 125 145
119 135 156
120 135 156
115 131 152
110 125 144
115 131 151
122 138 160
124 141 163
119 134 155
129 146 168
120 136 158
118 134 155
125 142 164
128 145 168
134 152 175
139 158 182
127 145 167
113 128 148
102 115 133
88 100 116
69 78 91
62 71 82
80 92 107
71 80 93
77 87 100
84 97 112
113 129 149
131 149 173
154 174 201
168 190 220
179 203 235
183 208 240
177 201 232
179 203 235
184 209 241
183 209 242
182 206 237
183 207 239
179 202 232
183 207 238
175 199 230
172 196 227
168 189 217
167 190 221
166 189 218
161 182 211
150 171 199
152 173 200
156 177 204
148 167 194
145 164 190
133 151 174
135 153 176
128 146 168
125 142 163
116 132 152
111 126 145
105 119 138
91 104 120
71 80 93
62 70 81
67 76 88
66 75 86
63 72 82
60 69 79
49 55 64
40 45 52
32 36 42
22 25 29
14 16 18
10 11 13
9 10 12
16 18 21
16 18 21
17 19 22
18 20 24
22 25 28
27 31 36
36 41 47
40 46 53
47 53 62
67 75 86
67 77 88
64 72 83
57 65 75
61 70 81
79 90 104
90 101 116
99 113 130
110 125 144
104 118 137
90 102 118
65 74 85
49 56 64
39 44 51
39 45 51
55 62 71
68 77 90
77 87 100
88 100 115
91 103 118
88 100 116
93 104 120
88 99 114
87 98 113
87 99 115
99 112 130
97 109 126
101 114 131
93 106 122
89 100 116
80 91 105
66 74 85
48 55 63
29 33 38
21 24 27
12 13 15
18 20 24
38 42 48
55 62 71
75 85 97
95 108 124
115 130 150
132 149 172
150 170 196
152 172 199
160 181 209
157 178 205
150 169 194
153 173 200
150 170 197
165 187 216
153 173 199
172 194 223
174 197 226
173 196 227
158 179 207
160 181 208
134 151 174
108 122 140
102 115 132
117 132 151
127 142 163
127 144 165
136 153 177
144 162 186
152 172 197
149 168 192
161 182 209
150 169 194
145 164 189
159 179 206
160 180 207
166 187 215
154 175 201
157 177 203
162 183 211
152 171 197
145 163 188
153 172 197
146 165 190
160 179 204
156 176 202
154 174 200
156 177 205
161 183 212
150 170 195
161 181 208
157 177 204
156 175 200
157 176 201
150 169 193
164 185 213
157 177 202
163 183 210
164 185 212
150 169 193
151 170 195
125 140 161
118 134 154
119 134 154
117 133 152
98 111 127
89 101 116
74 84 96
53 60 69
38 43 49
33 37 42
33 37 42
34 38 44
43 49 56
54 61 70
62 69 80
67 75 86
72 81 94
85 95 109
95 107 123
98 110 127
119 134 154
127 142 163
146 164 188
150 169 193
156 175 200
162 182 208
162 182 209
161 181 207
147 167 192
170 190 218
154 174 200
163 184 212
175 196 224
163 183 210
161 181 208
152 171 196
162 182 209
156 176 202
159 179 205
159 180 208
168 190 218
157 177 203
156 176 203
161 180 205
161 181 208
158 177 204
140 157 180
130 145 166
129 146 168
118 133 153
120 135 156
114 129 148
98 110 127
84 95 109
70 78 90
64 72 83
70 79 91
79 88 101
90 102 117
95 106 121
113 127 146
129 144 165
140 157 179
154 174 199
152 171 196
160 180 206
157 178 206
167 188 217
166 187 214
158 179 205
171 192 220
169 191 220
170 193 224
167 188 217
178 200 230
161 182 210
166 188 216
159 178 203
170 192 222
166 187 214
161 182 210
163 184 211
148 169 196
140 158 182
123 139 159
86 97 112
55 63 72
24 27 32
28 31 36
50 56 64
74 84 97
96 108 124
123 139 160
133 150 172
144 163 188
137 155 179
138 156 180
154 174 199
150 169 195
140 158 182
155 176 203
145 164 189
157 178 204
154 174 201
156 177 204
150 170 197
134 151 175
128 145 167
94 106 122
72 82 95
54 61 71
39 44 50
35 40 46
53 60 69
71 80 92
82 94 109
108 122 141
102 116 135
98 110 127
97 110 126
90 103 120
85 96 111
81 92 106
80 91 105
74 84 96
55 63 73
43 49 56
23 26 30
13 15 17
44 50 59
71 81 94
88 100 115
122 139 160
144 163 189
164 184 212
170 194 224
176 201 233
183 207 239
173 197 228
170 193 223
160 181 210
159 179 205
152 172 199
135 153 177
121 137 158
111 125 144
95 109 126
73 83 96
60 68 78
44 50 58
34 39 45
28 32 37
23 26 31
17 19 22
28 31 35
47 53 61
41 47 55
36 41 48
28 32 38
22 26 30
29 33 39
36 41 47
50 57 66
63 71 82
56 64 74
40 45 52
22 25 30
11 12 14
9 10 11
16 18 21
39 44 51
67 76 88
96 109 126
114 130 150
118 135 156
117 133 153
112 127 146
108 122 142
107 122 141
115 131 151
116 132 153
120 137 158
131 148 171
148 168 194
144 164 190
149 170 197
155 175 202
152 173 201
159 181 209
162 183 211
169 191 219
163 185 214
164 186 215
166 188 216
168 191 220
178 202 233
179 204 237
181 205 236
179 205 238
189 214 248
190 215 249
191 215 248
182 207 240
190 215 248
187 212 246
185 210 244
186 211 244
187 211 244
182 207 240
178 201 232
168 190 219
162 185 215
175 199 230
167 190 220
162 184 212
153 174 202
144 164 190
139 157 182
140 159 183
138 157 181
139 158 182
131 149 172
88 100 115
76 87 100
74 84 98
83 94 109
92 104 121
91 104 120
102 116 134
113 129 150
127 144 167
142 161 186
140 159 184
137 156 181
141 160 185
150 170 197
156 176 203
159 180 208
153 173 200
159 180 208
160 182 210
169 191 221
167 190 220
163 185 214
160 182 210
154 175 203
150 171 197
147 166 191
158 179 207
167 190 220
181 207 240
181 206 239
190 214 246
183 209 242
183 208 240
181 206 239
182 207 239
181 205 238
186 210 242
183 208 240
180 205 237
177 201 232
168 190 219
163 186 215
160 181 209
158 179 206
154 174 201
142 161 186
141 160 184
146 165 190
149 169 194
146 166 191
144 164 189
142 160 184
139 157 182
133 150 173
126 143 164
126 143 165
111 125 143
95 108 125
87 99 115
75 85 98
66 75 86
58 66 76
57 65 75
50 57 65
42 47 55
40 46 53
38 44 50
35 39 45
25 28 33
25 28 32
18 20 23
17 19 22
23 26 30
29 33 39
27 30 35
27 30 35
35 40 46
41 46 54
33 38 44
22 25 29
14 16 18
36 41 47
58 66 76
65 73 84
66 76 88
60 69 80
60 69 79
64 72 83
63 71 83
47 53 61
38 43 49
48 54 63
51 58 67
50 57 66
50 57 65
51 58 67
58 65 75
57 65 76
47 54 62
33 38 44
43 49 56
54 62 71
71 80 91
89 100 115
108 122 140
125 141 162
128 144 166
127 145 168
124 140 161
115 130 150
90 102 118
65 74 86
40 45 52
20 23 26
15 18 20
35 39 45
55 63 72
81 92 106
96 108 125
101 114 131
112 127 148
115 129 149
132 149 171
139 158 182
150 170 197
162 182 209
162 183 210
167 188 216
167 189 218
175 198 228
169 192 222
173 195 224
162 183 211
170 191 220
163 185 213
158 178 204
152 172 198
125 141 163
114 129 149
137 154 177
138 155 178
148 167 192
154 174 200
145 164 188
152 172 198
157 176 202
148 166 191
161 180 207
148 167 192
141 160 184
142 160 185
147 167 193
145 164 188
146 165 190
162 183 212
161 181 208
160 180 207
163 184 211
171 194 224
167 189 217
168 189 217
167 188 217
172 194 222
162 183 211
164 184 212
156 175 201
144 163 187
138 156 179
126 142 163
126 142 164
125 141 162
133 150 173
147 165 190
158 179 206
162 182 210
157 178 204
159 178 204
166 188 217
138 156 179
144 163 187
123 139 160
109 123 141
79 89 103
57 64 73
27 30 35
12 13 15
32 36 41
48 54 62
65 74 86
83 93 107
94 106 122
113 127 146
119 134 154
133 150 172
136 153 177
139 156 180
128 145 167
135 151 172
142 160 184
157 177 203
164 185 211
159 179 205
167 188 216
153 173 198
164 184 212
162 182 209
165 186 215
152 172 198
168 189 217
157 178 204
149 168 193
143 161 186
149 168 193
154 173 198
150 170 195
160 180 207
160 180 206
155 174 200
155 175 202
167 189 218
157 177 203
168 189 216
167 188 216
157 178 205
149 167 192
141 159 183
136 152 174
135 152 174
129 145 166
124 140 161
113 127 147
101 114 132
83 94 108
81 91 105
90 101 117
100 113 131
109 123 141
105 118 136
119 135 155
132 148 169
140 158 183
157 178 205
161 181 208
166 188 217
165 188 217
169 190 218
171 192 219
164 184 210
164 184 212
165 187 215
168 189 218
158 179 206
164 186 213
157 178 205
165 185 212
161 182 209
165 186 214
166 187 216
166 188 217
161 182 211
161 182 210
158 179 206
153 173 199
150 170 195
126 143 165
121 137 157
97 110 128
56 64 74
23 26 31
29 32 37
56 63 73
77 87 100
109 123 142
139 157 181
149 169 194
134 151 173
115 130 150
115 129 149
116 131 151
117 132 153
111 125 144
120 136 156
122 138 159
121 136 157
106 120 138
101 115 132
95 107 124
79 90 104
68 77 88
66 75 87
65 74 86
64 72 83
51 58 67
39 44 50
41 47 54
39 44 51
52 58 68
53 60 69
41 47 54
34 38 44
32 36 42
37 42 49
50 57 65
62 71 81
65 74 86
70 80 93
81 92 106
99 113 130
121 137 159
134 151 175
151 171 197
145 165 190
153 173 199
167 189 219
170 192 221
178 201 233
185 211 245
175 199 230
173 196 227
161 183 211
158 180 209
147 167 193
135 154 177
126 144 167
109 124 142
85 97 112
57 65 75
51 57 66
45 50 58
49 56 65
71 81 93
91 104 120
107 121 140
109 124 143
110 125 146
102 116 134
95 108 126
85 97 112
77 87 101
74 84 97
74 85 99
81 93 108
88 99 114
89 100 116
106 120 138
98 111 128
74 84 97
60 68 79
33 37 43
41 46 53
75 85 99
97 110 127
83 94 108
65 74 85
65 74 85
62 70 81
48 55 63
33 38 43
34 39 45
43 49 57
54 62 72
72 82 95
97 110 127
118 133 154
137 156 181
138 157 182
147 167 193
147 166 192
145 165 190
138 156 181
150 170 196
143 162 187
141 159 184
130 148 170
123 140 162
127 145 167
139 158 183
152 173 200
160 181 208
169 192 221
169 192 221
167 188 217
157 179 206
153 172 198
148 168 194
149 170 198
160 182 211
171 193 223
183 207 240
179 204 237
180 206 238
177 202 234
179 203 234
169 191 221
164 186 216
159 180 209
160 182 211
152 174 201
151 171 198
141 161 188
99 112 130
90 102 118
85 96 111
83 94 108
80 91 105
88 100 115
88 99 115
89 101 117
80 90 104
72 82 95
70 80 92
60 68 78
55 63 73
59 68 78
71 81 94
94 107 124
113 127 146
125 141 163
141 161 186
157 178 205
169 192 223
178 203 236
185 209 241
183 207 239
177 202 234
186 210 242
188 214 247
190 214 246
189 215 249
188 213 246
187 211 243
186 211 243
186 211 243
184 209 242
181 205 237
175 200 232
174 198 228
173 197 228
176 199 230
173 196 225
168 191 221
170 193 223
161 183 212
152 173 200
157 178 206
153 172 199
154 174 201
148 169 196
146 166 191
147 166 191
143 162 186
128 146 168
124 141 163
112 127 147
103 116 134
93 106 123
86 98 113
81 92 107
80 91 105
72 81 94
70 80 93
74 84 98
76 87 100
52 59 69
39 44 51
39 45 52
34 39 45
27 30 35
28 32 37
37 42 48
42 48 55
54 61 70
63 72 83
84 96 111
87 99 113
87 98 113
87 98 113
83 94 109
76 87 101
73 83 96
75 85 99
72 82 95
79 90 104
84 95 109
89 101 116
91 103 119
87 99 114
101 114 131
111 125 145
114 129 149
118 134 154
126 143 165
139 157 182
148 168 194
151 171 198
156 176 203
139 156 179
116 131 151
102 115 133
83 94 108
76 87 100
77 87 101
67 76 88
57 64 74
58 65 75
53 60 69
44 50 58
38 43 49
34 39 45
24 28 32
15 17 19
19 21 25
30 34 39
33 38 44
47 53 61
68 77 89
76 86 99
99 111 127
116 131 151
136 155 179
149 169 195
165 188 217
166 188 218
172 194 224
175 198 228
178 200 228
176 199 230
174 195 224
171 192 221
172 195 225
170 193 223
168 191 221
166 187 215
159 180 207
147 166 190
139 157 180
132 149 172
122 139 160
115 129 149
118 133 153
135 153 176
133 151 174
131 148 170
119 134 154
117 132 152
117 132 152
123 140 161
122 139 160
122 138 159
124 141 162
138 157 181
134 151 174
148 168 195
150 170 197
160 179 205
164 185 213
172 194 223
158 180 208
169 191 220
168 189 217
161 181 208
159 180 207
171 193 223
171 194 225
155 175 201
144 164 189
161 182 209
159 180 207
154 174 200
162 183 209
149 169 195
159 178 204
152 171 197
158 178 204
153 173 199
157 177 203
153 173 199
160 181 208
161 181 208
140 157 180
134 151 172
107 121 140
88 100 115
65 72 83
32 36 41
22 25 29
45 50 58
57 64 74
67 75 87
74 83 96
82 93 107
110 124 143
120 135 154
137 153 174
131 148 171
131 148 170
134 151 173
138 155 179
136 153 176
134 151 173
150 169 193
137 155 178
158 177 203
163 183 210
158 178 205
161 182 209
157 178 205
164 185 212
172 193 222
172 194 222
168 189 217
160 181 207
166 188 216
164 185 212
157 178 206
164 185 214
167 188 217
161 180 207
161 181 208
159 178 204
161 182 209
151 170 195
146 164 188
138 156 180
127 144 166
125 140 160
125 141 162
127 142 163
136 153 176
135 153 175
136 154 178
132 149 172
139 158 181
139 158 182
150 168 193
159 180 207
166 186 214
172 193 222
164 184 212
166 187 215
170 191 220
169 191 219
162 182 210
180 203 234
170 192 221
164 185 213
163 184 213
157 177 202
163 184 211
162 183 211
154 174 201
151 171 198
158 179 207
159 179 204
166 188 216
169 191 220
168 191 222
170 194 225
171 193 221
167 189 218
165 187 216
158 178 206
156 177 205
149 169 195
131 148 170
111 126 145
73 82 95
43 49 57
25 29 33
14 16 19
28 31 36
50 57 66
78 89 102
95 107 123
123 139 159
132 149 171
134 152 176
116 132 152
102 116 134
104 117 135
96 110 127
87 99 114
66 75 86
71 80 92
68 77 89
74 84 97
74 83 96
69 78 90
68 77 89
63 72 83
64 72 83
57 64 74
41 47 54
32 37 43
32 36 41
29 32 37
28 32 36
34 39 45
59 66 77
78 88 102
92 104 119
98 111 128
113 128 148
122 138 159
137 156 181
151 171 197
171 194 223
175 199 230
174 198 229
165 187 217
172 196 226
171 195 226
177 201 233
171 193 223
160 181 210
156 177 205
161 182 210
152 172 197
153 174 202
145 164 189
150 170 196
147 167 193
141 160 185
126 143 166
125 142 164
126 143 165
118 134 154
98 111 128
60 68 78
71 81 94
94 107 123
107 121 140
111 126 146
129 147 170
141 160 185
152 172 199
155 176 204
151 173 201
146 166 192
144 163 189
142 161 184
136 153 177
133 150 174
130 148 170
132 150 173
123 139 160
110 125 145
90 102 118
63 72 83
23 27 31
23 27 31
56 63 73
90 102 118
92 104 121
57 65 75
27 30 35
18 21 24
27 31 36
31 35 40
28 33 38
22 25 29
21 23 27
21 24 28
36 42 48
52 58 67
59 67 77
72 82 95
76 87 101
82 94 109
92 104 120
87 98 113
70 79 91
67 76 88
63 72 83
60 68 78
58 66 76
63 71 82
61 70 81
60 68 79
64 72 84
79 89 103
79 90 104
85 96 111
93 107 124
105 118 136
108 123 142
135 153 178
151 172 199
168 190 220
178 203 235
188 214 248
184 208 239
187 212 246
187 212 245
180 205 237
179 203 235
166 189 218
157 178 207
152 172 199
151 171 198
98 111 127
82 94 108
70 79 92
57 65 76
50 57 66
46 53 61
39 44 51
31 36 41
23 26 30
22 25 29
14 16 18
11 13 15
11 12 14
16 18 21
25 28 32
26 30 34
50 57 66
73 83 95
92 105 121
109 123 143
127 144 166
139 158 183
149 168 194
157 179 207
164 186 215
172 195 225
175 199 229
182 207 239
179 203 234
184 209 241
189 214 247
188 213 246
184 209 242
187 212 245
182 206 237
180 204 236
184 209 242
182 206 238
190 216 249
189 213 245
189 216 251
192 217 251
190 215 249
187 212 245
184 209 242
185 210 243
183 207 238
178 203 235
177 200 230
169 192 222
159 180 208
152 173 200
147 166 192
141 160 185
135 154 178
121 137 158
104 118 136
97 110 127
79 90 104
67 76 88
64 73 84
60 68 78
53 60 69
46 52 61
45 51 59
45 51 59
60 68 79
78 89 103
91 104 120
109 124 143
138 157 182
158 179 206
158 179 207
157 179 207
155 176 204
158 179 207
162 184 212
159 180 208
155 175 202
146 166 193
134 151 173
127 144 166
133 150 172
133 152 176
140 159 183
136 155 180
144 164 189
148 166 191
158 179 205
162 183 212
162 184 214
169 191 220
179 203 234
169 193 223
172 193 222
164 186 214
162 183 210
160 181 207
145 164 189
140 159 184
127 144 166
120 136 157
105 119 137
103 116 134
85 96 111
84 95 109
77 87 101
65 74 85
49 55 63
26 29 34
21 24 28
49 55 64
59 67 78
81 91 105
104 118 136
120 135 156
136 153 177
146 165 190
155 175 201
162 184 211
164 186 215
160 181 208
160 181 208
164 185 213
159 180 208
172 194 223
177 200 230
176 198 228
174 197 227
169 192 222
158 180 208
144 163 188
145 165 190
141 160 185
141 160 185
131 148 171
133 151 174
127 145 167
131 147 169
125 142 164
125 142 164
129 146 168
141 160 183
138 156 179
151 171 197
140 158 182
136 154 177
133 150 172
145 164 189
139 157 180
154 173 198
145 164 189
144 163 189
146 166 192
150 168 193
150 170 196
148 168 194
142 160 185
143 161 185
123 140 161
124 140 160
115 130 149
113 128 147
111 125 144
95 108 125
79 90 104
72 82 94
63 71 81
58 66 76
71 80 92
88 100 116
105 117 135
108 121 139
112 126 146
111 126 146
106 120 138
93 106 122
102 115 133
83 94 108
76 86 98
61 69 80
45 51 59
30 33 38
28 31 36
47 53 60
71 80 92
93 106 122
113 127 146
122 137 157
130 147 169
137 155 178
144 163 189
147 167 192
152 172 198
153 173 199
151 171 197
156 176 203
157 177 205
155 175 202
162 183 211
149 169 194
143 162 186
144 162 185
151 170 196
157 177 203
161 182 210
164 185 213
170 191 219
169 192 221
161 182 210
160 181 209
173 194 221
173 195 223
173 194 223
167 187 215
162 184 212
165 185 213
162 183 210
163 184 211
172 193 222
171 193 222
160 181 208
159 180 208
160 181 208
164 187 216
161 182 210
157 177 205
158 180 207
161 182 210
165 186 214
163 184 212
161 182 210
171 192 219
157 178 205
175 197 227
176 197 225
164 186 215
172 195 225
177 200 229
175 198 228
177 199 228
173 195 224
172 194 223
175 198 227
171 194 223
171 193 222
166 188 217
161 182 210
161 183 211
167 188 217
165 186 214
169 190 218
165 187 216
166 187 215
170 192 221
168 191 220
172 194 224
169 191 220
174 197 227
165 186 215
162 184 213
160 181 208
152 172 199
136 153 176
118 133 153
112 127 147
88 99 114
60 68 78
29 33 39
15 18 21
26 29 33
32 37 42
46 52 61
73 83 96
105 118 135
124 141 162
145 164 189
148 168 195
138 156 179
135 152 175
127 143 165
133 150 173
132 150 174
122 138 159
120 136 157
107 121 140
92 104 119
82 94 109
81 92 107
84 96 110
96 109 126
93 105 120
95 108 126
86 97 112
75 86 99
81 91 105
76 87 100
78 88 102
79 90 104
100 113 130
111 125 144
124 140 161
136 154 178
148 168 194
152 171 197
161 183 211
170 192 221
180 204 235
176 199 230
175 198 228
167 190 220
154 174 200
143 162 187
145 164 189
148 169 196
152 172 199
150 171 198
155 176 202
148 167 192
148 168 194
145 165 192
141 160 186
138 157 182
127 144 166
106 121 141
110 125 144
108 123 142
90 103 119
78 88 102
74 85 98
63 72 83
55 63 73
54 61 71
68 76 88
75 84 97
80 91 106
69 79 91
66 75 87
68 77 89
77 88 102
65 74 85
70 80 92
74 84 97
72 81 94
70 80 92
54 62 72
47 53 61
37 42 48
22 25 29
26 29 34
48 54 62
66 75 86
82 93 108
74 84 98
58 66 77
45 51 60
32 37 42
27 30 35
24 27 31
15 17 19
18 20 23
14 16 19
13 15 18
11 13 15
16 18 21
16 18 21
23 27 31
28 32 37
34 39 45
40 45 52
39 45 52
42 48 55
46 52 60
48 55 64
70 80 93
88 100 115
104 119 138
118 135 157
121 137 159
112 128 149
100 114 132
78 89 104
53 60 70
33 38 44
34 39 45
56 64 74
58 66 76
69 79 91
81 91 104
102 116 135
124 140 162
133 151 175
143 162 187
154 174 201
164 186 215
175 200 232
179 204 236
179 203 234
168 191 221
165 187 215
51 58 67
46 52 60
55 63 72
65 75 87
68 77 88
67 76 88
58 66 77
41 47 54
25 28 33
14 16 18
19 22 25
22 25 29
14 16 18
10 11 13
13 14 17
20 23 26
23 26 30
34 39 45
66 75 87
95 108 124
109 124 143
124 140 162
136 154 178
147 167 193
156 177 205
161 183 212
174 197 228
183 208 240
188 213 246
190 215 248
189 214 248
190 215 247
183 208 241
189 213 246
188 213 245
188 213 246
184 209 242
183 207 240
183 208 241
183 207 240
182 207 239
186 211 243
183 208 240
178 202 234
182 206 238
185 209 241
181 204 234
184 208 240
191 216 250
191 216 249
186 211 245
181 205 237
180 205 237
175 198 229
164 186 214
154 175 201
137 155 178
119 136 158
108 122 142
97 110 127
90 102 117
88 100 115
84 95 110
85 96 111
93 105 121
111 126 146
126 143 165
147 166 191
160 181 209
176 199 229
180 205 237
184 208 240
184 209 242
184 209 242
186 211 243
191 215 248
183 208 240
187 212 244
182 205 235
176 199 230
186 210 243
181 205 236
171 194 224
165 187 216
169 190 218
162 184 213
165 188 218
177 201 232
182 205 235
179 203 234
184 209 241
178 203 234
178 202 233
181 204 234
179 203 234
173 196 225
175 197 227
168 191 221
171 193 222
166 188 216
165 188 217
159 180 208
158 179 206
162 183 211
154 174 201
140 159 184
133 150 172
122 138 159
102 115 133
84 96 111
47 54 62
20 22 26
69 78 90
109 124 144
127 144 167
150 170 196
162 183 211
161 182 210
171 193 222
172 195 225
175 198 228
177 201 233
174 197 226
170 192 222
172 194 223
179 202 233
174 196 224
173 195 226
163 185 213
158 179 205
149 169 195
145 164 190
152 172 198
150 170 196
154 173 199
148 167 193
147 166 192
141 160 184
131 149 172
135 153 176
130 147 170
131 148 171
133 151 175
138 156 179
131 148 171
129 146 169
125 141 163
122 138 158
117 133 154
117 132 152
108 122 141
101 114 132
113 127 146
103 117 135
91 102 118
86 97 112
81 92 106
62 70 80
54 61 69
40 45 52
49 57 66
54 60 69
45 51 59
34 39 45
29 33 38
25 29 33
25 28 33
34 39 45
41 46 53
40 45 52
42 48 56
48 55 63
35 40 47
37 42 49
46 52 59
42 47 55
35 41 47
46 51 59
45 50 58
52 59 68
46 52 60
32 37 42
31 35 40
28 32 37
34 39 44
43 49 56
53 60 70
66 74 85
88 100 115
96 107 123
100 113 130
111 126 146
125 141 161
141 160 184
154 175 202
150 170 197
147 166 191
139 157 181
144 162 185
153 174 200
167 189 218
162 183 212
166 188 217
160 181 209
161 182 209
164 184 210
157 178 205
159 179 206
158 180 209
159 179 206
168 189 217
161 182 209
175 197 225
168 189 217
172 195 224
171 193 221
171 193 223
168 190 218
173 195 224
175 196 225
176 198 227
169 191 220
176 198 227
180 203 234
180 203 233
167 190 220
176 198 227
171 193 221
174 198 229
172 195 226
176 198 227
177 200 230
174 196 226
171 194 225
183 206 237
175 197 227
167 189 219
170 192 222
173 195 225
160 181 208
161 182 210
161 181 209
156 177 204
160 182 211
165 186 214
165 186 214
159 179 206
162 182 209
168 190 219
168 190 220
164 185 213
165 186 214
163 184 211
167 190 219
162 183 211
163 185 213
168 191 221
170 193 222
157 177 204
169 192 222
180 204 234
163 185 214
165 186 214
149 168 192
138 157 181
111 126 145
88 100 116
53 61 70
28 31 36
9 10 12
19 21 24
47 54 62
69 77 89
82 93 107
92 103 119
101 115 133
123 140 162
132 149 172
133 150 173
131 148 170
125 142 164
120 136 157
112 127 146
81 92 107
63 72 83
67 76 88
76 86 99
79 90 104
79 90 104
87 98 113
97 110 127
104 118 136
116 132 154
125 141 163
138 156 181
142 161 186
143 162 187
144 163 189
139 158 183
146 166 191
156 176 202
164 187 216
167 189 219
164 187 216
169 192 223
174 198 229
177 200 231
179 203 235
182 207 240
172 196 228
174 198 229
157 177 204
156 176 203
153 173 200
156 176 202
159 180 208
163 185 213
164 186 215
177 201 231
172 195 226
169 192 223
172 195 224
164 185 214
171 193 223
175 198 229
177 201 233
173 196 227
158 180 209
165 186 214
147 167 193
144 163 188
131 148 171
115 130 150
101 115 133
106 120 138
108 123 142
96 109 126
92 105 121
77 87 101
71 81 94
62 70 81
48 54 63
41 47 55
30 35 40
11 13 15
16 18 21
26 30 35
32 37 42
28 32 37
36 41 48
45 51 59
47 53 61
51 58 67
57 64 74
53 60 70
56 63 73
60 68 78
66 75 86
70 79 90
67 76 88
61 70 82
64 73 84
66 75 86
62 70 81
51 58 67
41 46 54
23 27 31
26 29 33
47 53 61
66 75 87
88 99 115
104 118 136
107 122 141
117 133 154
128 144 166
148 169 195
163 185 213
172 196 226
178 202 233
182 205 237
178 203 236
164 186 215
146 166 191
123 140 162
104 119 138
84 96 111
70 79 92
64 72 84
53 60 69
42 48 55
37 42 49
44 49 57
70 80 92
109 124 144
140 159 184
162 184 213
177 200 231
185 210 243
186 212 247
182 207 239
100 113 131
107 122 141
119 136 157
132 149 172
135 153 177
137 155 179
139 157 180
126 143 166
120 137 159
111 126 145
113 129 149
108 122 141
107 121 140
93 105 121
78 89 102
55 62 72
30 34 39
14 16 18
30 35 40
52 59 69
65 74 86
78 89 103
96 108 124
109 123 142
127 145 168
141 161 187
155 176 204
171 194 223
175 198 230
189 214 247
190 217 251
186 211 244
181 206 238
188 214 248
189 214 246
189 214 247
185 210 243
184 210 243
185 211 244
176 200 232
177 201 232
178 201 231
173 197 229
171 194 225
183 207 238
181 205 237
180 204 235
179 204 235
179 203 234
182 206 237
184 209 241
179 204 236
188 212 244
183 209 241
180 205 237
174 198 229
157 178 204
134 152 176
120 136 157
117 132 152
113 128 149
124 140 162
139 157 180
151 171 198
166 189 219
173 196 226
180 204 236
183 209 242
185 210 241
185 211 244
182 206 237
186 212 245
188 213 246
182 206 237
182 206 239
189 214 247
186 210 241
186 210 241
181 205 237
190 214 246
180 206 240
182 206 237
186 211 243
181 206 240
173 196 227
174 199 230
172 194 224
170 193 224
171 194 223
176 200 232
179 203 235
178 202 232
181 205 237
180 203 234
184 209 241
174 198 228
173 196 226
176 198 229
172 195 225
164 186 214
160 181 209
152 172 198
145 165 190
136 154 178
124 141 163
118 134 155
107 121 140
95 108 124
67 76 88
37 42 49
28 32 37
53 60 70
95 107 124
125 142 165
139 157 182
154 175 203
163 184 212
167 190 219
169 193 224
176 200 230
178 202 234
179 203 234
179 203 234
178 202 233
172 196 226
170 193 223
182 205 235
172 195 226
175 199 230
181 205 235
166 188 217
179 202 232
177 199 229
176 200 231
167 189 218
170 193 223
159 180 208
148 167 193
141 159 183
123 140 161
127 144 166
125 142 163
114 129 149
108 122 141
108 121 139
102 116 133
101 113 130
98 111 129
93 106 123
82 93 108
76 85 98
71 80 92
70 80 92
67 76 88
70 79 92
78 88 102
104 118 136
128 145 167
131 149 172
135 153 177
135 153 176
139 158 182
145 164 189
135 153 176
129 146 169
106 120 138
94 107 123
89 100 115
68 77 89
50 57 66
37 41 48
46 52 60
50 57 66
48 55 64
56 63 73
61 70 81
72 82 95
77 87 101
79 89 103
87 98 113
85 96 110
92 104 120
96 108 124
93 105 121
81 92 106
75 85 98
78 88 101
88 99 113
100 112 129
110 125 144
113 128 148
128 144 167
138 156 180
144 162 187
153 173 200
158 178 204
156 177 204
154 174 200
160 180 208
168 191 221
167 190 219
169 191 220
169 192 221
173 195 225
171 193 221
171 193 222
169 192 222
172 194 223
167 189 217
172 194 224
169 191 220
178 201 232
173 195 223
173 196 227
171 194 225
170 193 223
175 198 227
167 189 218
170 193 222
169 190 218
171 195 225
169 191 220
176 200 231
170 192 221
166 187 216
175 198 228
173 196 226
175 197 227
168 191 221
169 192 221
164 186 215
164 186 214
167 188 216
164 186 215
176 199 229
167 189 218
164 185 213
154 174 201
149 168 194
151 171 198
152 172 199
141 159 182
158 178 205
157 179 207
172 194 223
168 189 218
176 199 230
171 192 220
176 199 230
174 197 226
172 194 224
177 201 231
171 194 224
184 209 241
166 187 216
174 197 227
179 202 233
175 198 228
170 193 222
179 203 234
172 195 224
167 189 218
154 175 202
141 160 184
120 135 156
100 113 130
79 90 104
43 48 55
11 12 14
30 34 40
55 62 71
66 75 87
89 102 118
109 123 141
114 128 147
113 128 149
117 133 153
117 132 152
104 118 136
87 99 115
88 99 114
81 92 106
80 91 105
78 88 101
76 86 99
84 95 109
102 116 134
109 124 143
120 135 155
132 149 172
137 155 179
154 175 203
160 182 210
167 189 219
160 181 209
168 190 219
170 193 223
182 206 237
183 207 239
183 208 240
177 201 232
180 204 236
179 204 236
183 207 238
178 202 233
182 206 237
180 204 236
179 203 234
178 202 234
178 202 233
180 203 234
175 198 229
171 194 224
164 186 214
176 198 229
180 204 235
179 203 235
177 200 231
172 196 226
182 206 237
180 205 238
178 203 236
178 203 235
177 200 232
180 204 236
179 203 235
175 198 229
177 201 231
182 205 237
186 211 244
187 213 246
190 216 250
179 204 236
166 190 221
170 193 224
163 185 213
150 170 196
147 166 191
141 159 184
141 160 185
137 156 180
123 140 162
113 128 148
93 104 120
87 98 113
72 82 95
43 50 58
26 29 34
11 13 15
20 23 26
21 24 28
25 28 33
29 33 39
40 45 52
49 55 63
51 58 68
55 63 72
56 64 74
63 71 82
62 71 83
73 84 97
83 94 109
91 103 119
90 103 119
76 86 100
62 70 82
47 54 62
31 36 42
15 18 21
31 36 41
54 62 72
80 91 105
95 109 126
116 132 152
128 145 168
146 165 190
156 178 206
168 190 220
169 192 222
174 197 227
177 201 232
173 196 226
169 191 221
162 183 212
161 183 211
150 170 197
145 165 191
137 156 181
124 140 161
105 120 139
88 100 116
52 60 69
20 23 26
56 63 73
92 104 121
115 131 152
130 147 170
143 162 187
173 197 227
185 209 241
170 194 224
175 199 231
179 203 235
180 205 238
186 210 241
186 211 245
187 212 245
185 210 243
182 206 239
181 206 238
176 199 230
180 204 235
171 194 224
156 177 205
140 158 182
140 159 184
115 130 151
106 120 139
95 109 127
83 94 108
66 75 86
39 44 51
29 32 37
43 49 57
68 78 91
90 101 117
108 124 143
126 143 165
141 160 185
150 171 198
163 185 214
178 201 232
181 207 240
188 213 246
180 205 237
183 207 240
182 207 239
182 206 237
177 201 233
180 203 235
173 197 228
167 190 219
154 176 203
161 183 211
162 183 211
167 190 220
169 192 222
170 193 223
171 194 225
176 199 229
174 196 226
176 200 232
175 198 229
169 192 222
166 188 217
154 176 203
151 171 197
143 162 188
134 152 176
127 145 167
117 132 152
110 125 145
111 126 146
115 131 151
124 141 163
126 144 167
134 152 176
135 153 177
153 174 201
164 187 216
171 193 223
168 190 220
166 189 218
173 196 226
177 201 233
181 205 236
185 210 242
182 206 238
182 207 240
191 217 250
185 209 241
187 212 245
184 209 241
176 200 231
181 205 236
177 202 234
181 206 238
183 207 239
180 203 234
182 206 238
180 204 235
178 203 235
172 196 227
175 199 230
164 187 217
165 187 214
156 177 204
147 165 190
137 155 179
137 155 178
125 142 164
123 140 162
116 132 152
113 129 151
95 108 125
77 87 99
56 64 74
30 34 40
17 19 22
43 49 56
82 93 107
109 123 141
136 153 176
154 175 202
169 192 222
173 196 226
177 201 232
179 202 232
172 195 226
179 202 233
179 203 234
178 202 234
172 194 223
183 207 239
180 205 237
182 206 237
176 200 231
182 207 239
176 200 232
181 205 236
177 200 231
171 194 224
172 196 227
177 201 233
179 202 233
171 193 222
176 199 229
169 192 221
170 192 221
166 188 217
149 169 196
147 167 193
136 155 179
131 148 170
131 148 171
127 144 166
130 146 168
119 134 155
95 108 125
90 103 119
73 82 95
88 100 115
113 127 147
136 154 178
154 173 199
150 169 196
153 174 201
162 183 209
167 188 217
176 200 232
169 191 220
170 193 223
165 187 215
162 185 215
169 192 221
155 174 200
158 178 205
155 176 203
142 161 186
138 157 181
134 152 176
126 143 165
118 134 154
99 112 129
106 120 139
96 108 125
103 116 134
95 107 124
95 109 126
78 88 101
67 75 87
54 61 70
55 62 72
55 62 72
84 95 109
88 100 116
97 110 127
111 126 145
115 130 150
115 130 150
126 143 164
136 154 177
148 168 193
145 164 188
151 171 197
155 175 202
156 177 204
158 179 206
166 187 215
165 186 214
170 191 220
170 193 222
168 190 219
170 192 221
164 186 215
170 192 220
170 192 220
166 188 216
176 200 231
169 190 218
175 199 230
174 196 224
178 201 231
179 202 233
177 200 231
170 192 220
168 190 219
168 190 219
170 192 221
179 203 233
177 200 230
176 199 229
172 195 225
165 187 217
171 195 225
173 196 227
168 190 220
154 173 199
166 189 219
161 183 211
165 187 216
161 182 210
143 163 188
136 155 178
132 149 173
116 131 151
102 116 134
95 107 123
105 118 136
121 137 158
127 144 167
142 161 186
149 168 194
162 183 211
166 188 217
169 192 222
175 199 230
171 193 223
173 196 226
168 191 220
179 201 231
171 194 224
169 192 221
161 182 210
157 177 204
162 183 211
160 180 206
152 171 196
139 159 183
125 141 162
122 138 159
107 122 141
98 111 128
93 105 120
91 102 118
75 85 98
67 76 88
43 49 57
21 24 28
15 17 19
39 43 50
62 70 81
90 102 118
104 118 137
99 112 129
86 97 113
81 92 106
64 72 83
53 60 70
41 47 54
37 42 49
49 56 65
64 72 83
60 69 79
62 70 82
79 89 103
93 105 121
102 116 134
97 111 128
104 117 135
117 133 154
134 152 176
145 165 191
151 172 200
161 183 211
173 197 229
178 203 236
178 202 233
176 200 230
173 197 227
168 191 221
170 194 225
159 181 209
166 188 218
167 191 221
170 193 223
166 189 218
162 184 213
165 187 216
159 180 208
159 180 207
157 178 206
149 169 194
141 160 186
145 164 190
150 170 197
159 181 210
155 176 204
154 173 198
152 173 200
165 187 217
166 188 217
173 196 226
169 192 223
168 191 222
171 195 225
169 191 220
171 194 225
178 202 233
178 202 234
181 207 240
182 205 236
186 211 244
183 208 242
176 200 231
182 205 236
173 196 226
170 192 222
163 185 213
149 169 195
138 157 181
127 144 166
117 133 154
111 126 145
106 120 139
101 114 131
78 89 102
55 62 72
35 40 46
30 33 39
20 23 26
23 26 31
29 33 38
35 40 46
48 55 63
48 54 63
48 54 63
36 41 48
36 40 46
40 46 53
40 46 53
46 52 61
55 63 73
41 47 54
45 51 59
35 40 47
20 23 27
20 23 27
40 46 53
64 72 84
81 92 107
107 122 141
126 142 165
138 157 181
149 170 196
153 174 202
150 171 198
154 175 202
152 173 200
154 174 200
163 185 214
170 193 223
179 203 235
184 209 242
183 208 241
189 214 246
189 214 247
184 209 241
178 201 233
169 192 223
159 181 209
137 156 181
114 130 150
71 81 94
52 60 69
46 52 60
71 80 93
109 123 141
133 151 174
153 173 199
188 213 247
191 215 248
189 215 248
188 213 246
190 217 251
191 216 250
191 218 252
188 214 248
188 214 248
189 214 247
180 204 235
180 203 234
172 195 225
158 179 207
151 172 200
135 153 177
125 143 165
126 143 166
123 140 162
116 132 152
102 116 134
85 96 111
63 71 83
44 50 59
21 24 28
12 14 16
27 31 35
53 60 69
86 98 113
122 139 160
148 168 194
173 197 228
181 205 237
186 211 243
188 213 247
180 204 236
185 210 243
179 204 236
180 205 239
180 205 236
175 199 230
171 194 225
167 189 218
163 185 213
157 177 205
159 181 209
167 191 221
173 196 227
174 196 226
175 199 229
170 193 223
168 191 221
160 182 210
154 174 200
140 158 183
132 150 173
116 131 152
108 122 141
101 116 135
102 116 134
105 119 138
97 110 127
99 112 129
93 106 122
90 102 118
90 102 118
90 103 120
87 98 113
83 95 110
64 73 85
61 70 81
50 57 66
55 63 73
74 84 97
89 102 118
114 129 149
131 149 172
157 178 206
169 191 221
172 195 225
179 203 233
175 199 229
177 200 231
177 201 232
173 196 226
163 186 216
147 167 194
138 157 182
138 157 181
122 138 159
113 129 149
117 133 154
94 106 121
84 95 110
93 106 122
93 106 123
92 104 120
84 95 110
77 87 101
68 77 89
53 60 70
52 59 68
53 60 69
46 52 61
62 70 81
71 81 93
83 94 109
100 114 132
109 123 142
126 143 165
137 155 179
157 179 206
171 194 225
179 202 232
171 194 224
161 183 210
154 173 199
148 167 192
145 165 190
152 172 199
154 174 201
159 180 207
172 194 223
175 199 229
168 190 220
176 199 230
175 198 229
175 200 231
185 210 242
183 208 242
184 209 242
180 204 235
184 208 240
172 195 225
176 199 230
168 190 220
167 188 216
158 179 206
160 182 211
146 166 192
144 163 189
146 165 190
137 156 180
147 166 192
140 159 183
152 172 198
153 173 200
142 161 186
132 150 175
112 128 147
100 113 130
87 98 113
98 112 129
110 125 144
137 155 179
150 171 199
164 185 214
169 190 219
173 197 228
170 192 222
175 198 228
178 201 232
171 193 223
179 202 233
174 197 228
170 192 222
175 198 229
167 189 218
174 198 228
175 198 228
172 194 224
166 188 217
174 198 229
172 194 223
176 199 230
176 199 230
169 191 220
163 184 213
155 175 202
132 149 173
115 130 149
97 110 127
77 87 99
61 69 80
43 48 56
40 46 53
26 29 34
26 29 34
46 53 61
69 78 90
90 102 118
110 125 144
125 143 165
132 149 172
130 147 169
129 146 168
133 151 175
136 154 179
140 159 183
148 168 194
155 176 203
163 185 214
170 192 221
167 191 222
169 191 220
169 192 221
171 192 221
171 194 224
168 190 219
176 199 230
175 197 227
178 201 232
173 195 225
171 194 225
179 204 236
173 195 225
176 198 229
175 198 229
170 193 223
173 197 228
174 198 229
170 192 222
174 197 227
180 204 235
176 198 228
178 201 233
175 198 228
175 198 228
169 190 219
171 194 224
158 179 208
153 175 202
150 171 197
141 159 183
123 138 159
98 111 128
80 91 105
85 96 111
90 102 118
113 127 146
118 133 153
119 135 156
115 130 151
118 134 154
129 147 170
132 149 171
143 162 187
154 175 202
148 168 195
171 194 224
180 204 235
169 191 220
182 206 237
172 196 227
166 187 214
145 165 191
130 147 170
105 119 138
84 95 109
67 76 87
55 62 72
47 54 62
37 42 49
27 31 36
25 28 32
21 24 27
27 30 35
36 40 46
44 50 58
56 63 73
62 70 81
79 89 103
88 99 114
88 99 114
78 88 102
64 73 85
56 63 73
56 64 74
52 59 69
46 52 59
46 53 61
49 56 64
60 69 80
58 66 76
55 63 73
49 56 65
60 69 80
67 76 87
75 85 98
96 109 125
122 139 161
136 153 177
155 175 202
170 193 222
165 188 217
170 193 223
175 198 227
167 189 219
173 195 225
178 201 231
172 194 223
167 190 219
161 182 210
150 171 198
148 168 194
147 167 193
141 161 187
137 155 178
134 152 176
121 136 157
109 124 143
96 109 126
85 97 112
91 104 120
90 102 118
85 96 111
72 82 94
59 68 78
63 72 83
76 86 100
89 102 118
104 118 135
99 113 130
110 125 144
123 140 161
129 147 171
133 151 175
139 156 180
142 160 184
150 170 196
153 173 200
168 190 220
174 198 229
182 206 238
178 202 234
180 204 236
182 207 239
174 198 229
160 182 211
154 173 199
133 151 174
120 136 158
98 111 128
67 76 87
49 56 65
44 50 58
49 56 65
54 61 70
47 53 61
36 41 48
22 25 29
10 12 14
22 26 30
19 22 25
13 15 18
10 12 14
9 10 12
14 16 18
14 16 19
15 17 20
17 19 22
11 12 14
8 10 11
5 5 6
7 9 10
11 13 15
13 15 18
29 33 38
51 58 67
64 72 83
73 83 96
91 103 119
108 123 143
126 144 166
142 161 186
156 178 206
167 190 220
174 197 228
175 199 230
180 204 236
174 197 227
174 198 230
179 204 237
183 207 240
182 207 241
182 207 239
183 208 242
186 210 242
185 210 243
176 201 233
170 193 224
162 185 214
143 162 188
122 140 162
96 110 128
59 67 78
27 31 36
29 33 38
63 71 82
95 108 125
173 196 227
173 196 226
177 201 232
171 195 225
174 198 228
167 190 219
170 192 222
170 192 221
167 190 221
163 185 214
163 187 218
158 180 208
156 177 203
155 175 202
154 175 202
150 171 198
140 159 184
121 137 159
102 116 135
100 114 132
79 90 103
56 64 75
45 52 60
34 39 45
30 35 40
18 21 24
13 15 17
39 45 52
86 98 113
119 135 155
143 163 189
155 175 202
159 182 210
178 203 235
191 216 249
186 212 245
179 204 236
175 200 231
180 204 235
177 201 233
186 211 243
178 202 233
173 197 228
169 192 223
168 191 220
172 196 227
174 197 228
176 200 231
178 202 234
177 201 233
178 203 235
176 200 233
175 199 230
168 191 221
154 175 203
147 167 193
149 169 196
135 154 178
121 137 159
114 130 150
103 116 134
105 118 137
91 103 119
83 94 108
69 78 91
62 70 81
55 63 72
52 59 68
40 45 53
23 26 30
22 25 29
11 13 15
7 8 10
19 21 24
40 46 53
56 63 73
70 79 91
78 88 102
72 82 96
66 75 86
78 88 102
80 91 106
74 84 98
68 77 89
60 68 79
51 58 67
50 57 66
49 55 63
50 56 65
46 53 61
42 48 55
44 50 58
50 57 66
69 79 92
74 85 99
79 90 104
77 88 101
82 93 107
92 104 120
102 115 133
122 138 160
121 138 161
124 141 164
123 140 162
123 139 160
118 134 155
123 139 159
140 159 182
157 178 206
164 185 213
169 192 222
175 198 230
180 203 234
179 203 235
178 203 236
165 187 216
166 187 216
168 192 223
177 200 231
173 196 226
170 193 222
167 189 219
167 190 219
165 187 216
172 196 227
169 191 221
167 189 219
171 194 224
175 198 228
179 203 234
178 202 233
181 205 236
175 199 230
166 188 218
157 178 205
154 174 199
152 172 198
145 164 190
144 164 189
140 158 183
150 170 195
149 168 193
133 151 174
124 140 162
135 153 177
136 155 179
136 155 179
133 151 174
118 133 153
109 124 144
101 115 132
94 107 123
99 112 130
107 121 139
114 129 150
120 136 157
136 154 178
150 169 194
159 180 207
155 176 204
162 184 212
163 185 213
163 184 211
173 196 227
172 194 224
173 197 229
175 199 230
171 195 225
180 204 235
171 195 226
167 189 218
159 181 209
176 199 229
176 199 230
181 203 233
162 185 214
179 202 232
163 186 214
159 179 206
152 171 196
126 142 164
105 118 137
78 89 103
46 52 60
27 31 35
25 28 33
33 38 44
56 64 74
81 92 106
91 103 119
110 125 144
118 134 154
121 137 158
122 139 160
122 138 158
130 148 171
134 152 176
135 154 178
147 166 191
157 177 204
163 184 212
173 196 225
164 186 214
168 190 218
173 196 226
171 193 221
178 201 231
180 204 236
174 197 226
172 196 227
177 201 232
170 191 220
180 204 235
177 202 233
175 198 229
184 208 241
175 198 228
176 199 229
162 182 208
167 188 217
161 183 211
154 174 201
156 176 202
160 181 210
154 175 202
145 164 190
148 167 192
150 170 195
151 172 198
162 184 212
155 176 203
164 186 215
167 190 219
155 174 201
137 156 180
117 132 152
103 116 134
85 97 113
83 94 108
77 87 100
80 91 105
97 110 127
105 119 137
118 134 155
114 129 149
124 140 161
134 152 175
158 179 207
171 194 225
178 201 232
178 202 232
181 204 235
178 200 229
169 193 223
167 190 220
159 180 207
128 146 169
123 140 162
91 104 120
59 67 77
37 42 49
17 20 23
19 22 26
23 26 30
32 36 42
30 34 39
34 39 45
47 53 62
52 59 69
63 72 83
70 80 92
70 80 92
81 92 106
84 96 110
76 86 99
74 84 97
77 87 100
85 97 112
94 105 121
92 104 120
90 102 118
86 98 112
89 101 117
86 97 112
84 97 112
91 104 120
98 111 128
108 123 143
136 154 177
142 162 188
152 172 199
160 181 209
164 186 214
162 184 212
156 177 204
148 168 194
142 160 184
126 143 166
124 140 162
121 137 159
140 159 185
143 163 189
140 159 184
131 149 173
130 147 169
141 160 185
134 153 177
129 145 167
122 138 160
114 130 151
113 128 148
103 117 135
89 101 117
64 72 83
37 42 48
20 23 27
12 14 16
11 12 14
12 14 16
16 19 21
18 21 24
25 29 33
25 28 33
31 35 41
40 45 52
47 53 62
61 69 80
61 70 81
63 71 82
69 78 91
75 85 99
95 108 125
120 136 157
126 142 163
142 161 187
152 173 200
154 175 202
171 193 221
180 203 234
181 204 235
175 198 228
165 187 216
148 167 193
131 149 172
113 127 147
92 105 121
71 80 92
47 53 61
27 31 36
18 20 24
28 32 37
48 54 63
49 56 65
51 58 67
50 57 66
38 44 50
24 27 32
17 19 22
15 18 20
25 29 33
34 39 45
35 40 47
40 45 53
40 45 52
46 52 60
55 63 73
63 71 83
60 68 78
59 68 79
78 88 102
97 110 128
104 119 137
118 133 154
129 146 168
140 159 185
153 174 202
154 174 200
161 182 210
169 191 220
171 193 222
177 201 233
176 200 231
177 200 231
179 203 234
179 203 235
180 203 235
177 202 234
176 201 233
173 196 227
174 198 229
161 184 213
147 167 193
136 155 180
106 121 140
73 82 95
32 37 43
25 29 34
54 61 70
85 97 112
110 125 145
104 119 137
99 113 131
103 117 136
103 117 135
97 111 129
95 108 124
95 108 125
86 99 114
81 92 105
67 77 89
68 77 89
69 78 90
60 68 78
63 71 82
70 80 93
66 75 86
61 69 80
51 58 67
43 49 57
39 45 52
38 44 50
45 51 59
42 48 55
40 45 52
35 40 47
41 47 54
58 65 76
91 103 120
110 125 144
139 158 182
152 173 200
160 182 210
174 196 226
180 205 238
188 213 246
186 213 247
184 208 240
173 196 227
172 195 225
170 195 226
169 192 223
169 193 223
164 186 215
155 177 205
155 176 204
159 180 208
161 181 209
160 181 208
154 175 203
158 180 208
159 179 206
143 162 187
137 155 180
134 151 174
126 143 166
120 136 158
116 132 151
109 122 141
108 123 142
100 114 132
89 101 117
87 99 115
84 96 111
88 101 117
80 91 105
65 74 85
47 53 62
37 42 49
28 31 36
18 20 23
16 19 22
16 18 21
12 13 15
15 17 20
15 17 19
17 19 21
18 21 24
21 24 28
29 33 38
42 48 56
51 58 66
51 58 67
62 70 81
64 72 84
61 69 80
57 65 75
59 67 78
60 68 79
74 85 98
75 85 99
91 104 120
101 115 132
113 128 148
120 137 159
110 126 146
95 108 125
92 104 120
82 93 107
69 79 91
72 82 94
79 89 103
102 116 135
116 131 151
132 150 172
143 162 186
148 168 195
154 174 201
163 184 212
172 194 224
170 193 223
164 185 214
168 191 221
171 194 225
174 197 227
173 197 228
185 209 241
185 210 243
182 206 237
178 202 233
170 193 222
176 200 232
172 195 225
179 203 235
176 199 230
184 208 238
180 204 235
177 201 233
183 207 238
181 205 237
181 206 238
176 200 230
163 184 212
171 194 224
161 184 213
159 179 205
157 178 206
158 180 208
166 189 218
167 190 219
174 198 229
171 194 224
170 194 224
161 183 211
160 181 208
153 175 203
154 174 201
151 171 198
153 174 201
147 167 193
156 177 204
146 165 190
145 166 193
156 178 206
168 190 218
172 196 227
171 193 222
175 198 229
176 200 231
176 200 230
172 194 224
175 198 228
178 201 233
179 203 233
166 189 219
174 197 227
176 200 231
177 200 231
175 198 228
179 204 236
178 202 232
173 196 225
172 195 224
165 188 218
173 195 224
172 194 224
161 182 210
144 163 188
132 150 173
115 130 150
84 96 111
64 72 83
38 43 50
19 22 25
25 29 33
49 55 64
65 74 86
80 91 106
95 108 125
114 128 148
115 130 151
116 131 152
122 138 159
121 136 157
124 140 162
138 155 179
140 158 182
136 154 178
137 155 178
126 142 164
133 150 173
141 160 185
146 166 192
152 172 198
163 185 213
154 174 201
158 179 205
160 182 210
166 188 217
165 187 216
157 178 204
166 188 216
164 186 215
167 189 218
175 198 229
176 201 232
173 196 225
168 190 220
161 184 213
155 175 201
141 159 184
129 146 169
127 143 165
131 148 171
134 153 177
131 149 172
128 145 168
132 149 173
123 140 163
124 141 163
117 133 154
119 135 155
118 134 155
127 144 166
113 128 147
101 115 132
88 100 116
80 90 104
67 77 89
72 82 95
86 98 113
97 109 126
102 115 133
109 124 143
112 126 145
122 137 158
141 159 184
147 167 193
161 183 210
169 192 222
177 200 229
179 202 233
166 187 215
170 193 223
174 197 227
165 187 216
163 185 212
151 171 197
125 143 165
106 120 138
91 102 118
83 94 108
76 85 98
63 71 82
53 60 70
46 52 60
41 46 53
29 33 39
12 14 16
20 23 27
38 44 50
55 62 72
54 62 71
57 64 74
55 63 72
64 72 84
74 84 96
81 92 106
81 92 107
83 94 109
105 119 138
111 126 145
103 117 135
88 100 117
80 91 105
80 91 104
89 101 117
102 115 133
112 127 146
125 141 164
141 160 185
149 169 195
149 169 195
142 160 185
148 168 194
148 169 196
145 164 190
138 156 181
130 148 171
122 138 160
116 132 153
118 133 154
112 126 146
99 113 131
101 115 133
109 124 143
104 118 136
97 110 127
87 98 113
73 83 95
70 79 91
69 77 89
58 66 76
32 37 42
12 13 16
24 27 31
35 40 46
37 42 48
29 33 39
32 36 42
36 41 48
44 50 57
42 48 55
45 51 58
45 51 59
59 67 77
53 60 69
50 57 66
52 59 69
49 56 65
34 38 45
18 20 23
42 48 55
65 73 84
76 87 100
81 91 105
92 104 121
110 126 146
123 139 162
130 147 169
144 164 190
162 184 213
176 200 231
185 209 240
185 211 244
171 194 223
156 177 205
143 162 187
115 130 150
79 90 104
52 59 69
37 42 49
37 43 49
47 53 62
54 62 72
52 59 68
58 66 76
59 67 77
54 62 72
62 70 80
54 62 71
60 69 79
61 69 80
68 76 88
78 89 103
99 111 128
98 111 128
101 114 132
88 100 115
91 104 121
93 106 123
91 103 120
95 108 125
104 118 137
122 138 160
135 154 178
152 172 199
154 176 203
161 183 211
160 181 209
163 186 215
168 189 218
171 193 223
175 198 229
173 196 227
170 193 224
165 187 216
170 192 222
156 176 203
142 162 187
136 154 178
121 137 158
104 118 137
90 102 118
79 90 104
59 68 79
39 44 51
28 32 37
39 45 52
65 74 86
87 99 114
94 106 123
95 108 124
80 91 105
92 104 119
78 89 104
82 94 108
83 94 109
85 96 111
80 91 105
75 85 98
92 104 121
88 101 117
82 94 109
79 90 104
86 97 112
80 91 106
91 104 121
88 101 117
108 122 141
119 135 156
108 123 142
117 133 154
119 136 158
126 143 167
132 149 173
141 159 183
144 163 188
149 169 194
152 173 200
162 184 213
168 192 222
168 190 219
177 200 231
180 204 235
185 211 244
187 212 245
186 211 245
184 209 241
184 210 243
173 196 226
176 200 231
179 203 235
181 205 237
181 204 236
181 205 236
176 199 230
173 197 229
171 194 224
163 186 215
166 188 217
165 186 215
167 189 219
166 188 217
169 192 222
167 190 221
169 193 223
161 183 212
166 188 217
152 173 200
143 162 186
137 155 179
140 159 183
142 161 186
138 156 180
127 144 166
109 125 145
105 119 137
100 113 130
91 103 119
82 93 107
83 93 108
87 99 115
92 104 120
87 99 114
75 86 99
63 71 82
52 59 68
35 40 46
16 19 22
13 15 18
22 24 28
27 30 34
31 35 40
36 41 48
41 47 54
33 38 44
41 46 54
37 42 49
39 44 51
61 69 80
92 104 120
110 125 144
112 128 148
116 131 152
103 117 136
93 105 121
80 90 104
85 97 113
92 105 122
96 109 126
117 132 153
135 153 177
143 163 189
145 165 192
148 169 196
146 166 193
145 165 190
147 166 192
151 171 198
162 184 213
161 183 212
163 185 214
171 194 224
171 193 222
179 203 235
174 197 228
184 208 239
176 200 232
176 199 229
171 194 225
172 195 225
180 205 237
180 205 236
180 205 236
177 202 234
187 212 245
187 212 244
181 205 237
179 204 235
177 201 233
177 201 231
175 199 230
173 196 226
179 203 233
181 205 237
181 205 237
179 202 233
180 205 237
179 203 234
178 202 234
176 200 232
170 193 223
176 199 229
179 203 233
181 204 235
184 209 242
186 211 244
181 205 237
181 206 237
180 203 234
169 192 223
177 201 232
174 197 227
176 199 229
171 194 224
168 190 219
158 180 208
159 180 208
155 176 203
171 193 223
175 197 226
183 207 238
180 203 235
177 200 231
170 194 224
175 198 227
166 188 216
168 190 219
168 191 222
171 195 225
170 193 222
163 184 211
159 181 209
154 175 202
153 173 199
152 172 198
136 153 175
121 137 158
95 108 124
60 69 80
30 34 40
9 10 12
26 29 34
48 55 63
66 75 86
90 103 119
105 120 139
115 130 149
113 129 149
121 136 156
126 144 166
126 143 166
124 140 160
133 151 174
140 159 183
144 163 189
153 174 200
145 165 193
136 155 180
133 150 172
125 142 164
132 150 173
134 153 177
138 156 179
142 162 187
142 161 187
144 164 190
148 169 196
152 172 198
152 173 200
169 191 220
175 198 228
176 198 228
179 202 233
181 204 235
175 199 230
175 198 228
173 196 226
170 193 223
158 179 206
155 176 204
150 170 197
148 168 194
143 161 186
133 150 172
139 157 181
140 159 184
140 158 182
135 153 175
136 155 178
133 150 173
135 153 178
130 148 171
117 132 152
108 123 143
98 111 129
88 100 115
88 100 116
80 92 106
73 82 94
83 94 109
95 107 123
99 113 130
103 116 133
118 135 156
139 157 181
160 182 209
174 196 226
180 204 237
175 198 228
182 206 237
165 187 215
170 192 220
158 178 205
144 163 188
130 148 171
130 147 169
121 137 158
113 128 147
96 108 125
76 86 99
64 73 84
61 69 80
66 75 87
68 78 90
55 63 73
32 36 42
9 10 11
8 9 10
14 16 18
20 22 26
26 29 34
30 34 40
24 27 31
34 38 44
54 61 70
66 74 86
73 83 95
85 96 109
94 106 123
87 98 113
78 88 102
77 88 102
81 92 106
78 88 102
74 84 97
69 78 90
60 68 78
58 66 76
72 82 95
79 91 106
95 107 124
105 119 137
118 133 154
143 162 188
157 178 205
161 183 211
167 189 218
169 192 222
166 187 216
158 179 206
155 176 203
146 166 193
132 149 172
122 139 161
116 131 151
97 110 126
79 90 103
62 70 81
49 56 65
39 44 51
28 32 37
22 25 29
22 25 29
24 28 32
23 26 30
16 18 21
7 8 9
10 11 13
29 33 38
45 52 60
49 56 64
49 56 65
56 64 74
73 83 96
75 85 99
65 74 86
53 60 69
38 43 50
27 31 35
15 18 21
10 11 13
10 12 14
27 31 35
58 66 76
79 89 102
91 104 120
96 109 126
105 119 138
126 142 164
148 168 194
168 193 224
176 200 232
178 201 233
182 206 237
186 211 243
175 199 230
174 196 226
165 187 217
153 174 201
138 157 182
115 130 150
73 82 95
56 63 73
43 49 57
39 44 51
39 44 52
46 52 60
52 59 68
49 56 65
41 46 54
52 59 68
69 79 91
75 85 99
76 86 100
84 95 109
102 116 135
108 122 142
117 133 154
118 134 154
121 138 159
133 150 172
139 158 182
134 152 176
140 160 185
138 157 182
138 157 181
141 161 186
145 164 190
158 179 208
161 183 212
162 184 212
170 193 223
162 185 215
159 181 210
155 176 203
148 169 196
148 167 193
129 146 169
106 120 138
76 87 101
60 69 79
38 44 51
12 14 16
20 23 27
42 48 56
67 76 87
87 98 114
117 133 153
134 152 176
102 116 135
118 133 154
133 151 175
145 165 191
148 168 194
156 177 205
158 179 207
157 178 206
159 179 205
157 178 207
159 181 210
157 178 207
158 179 207
160 181 209
156 178 205
166 188 217
173 196 225
179 203 236
181 206 238
187 212 245
181 206 239
184 209 241
181 206 239
183 207 240
179 203 234
171 196 227
178 200 230
179 203 235
182 207 240
187 211 243
183 207 239
183 207 239
180 205 238
181 206 239
183 209 242
187 212 246
183 209 242
186 210 243
191 216 249
186 213 247
188 212 245
184 209 240
190 215 247
185 210 243
186 212 245
183 208 240
180 204 236
181 205 237
179 204 237
183 207 239
183 208 241
177 202 233
187 211 242
185 210 243
187 212 245
187 212 245
187 213 246
181 205 236
173 197 227
178 203 235
177 201 232
169 192 222
170 193 223
165 188 218
159 181 210
160 182 210
159 180 209
157 179 207
152 172 199
146 166 192
145 164 189
135 154 178
115 131 151
94 106 122
77 88 102
66 76 88
44 50 58
24 27 31
8 9 11
17 20 23
42 47 55
45 51 59
33 37 43
36 41 48
41 46 53
53 61 70
58 66 77
54 61 71
71 81 94
81 93 108
93 105 121
96 109 127
97 110 127
112 126 145
129 145 167
132 149 171
127 144 166
128 146 169
135 153 177
140 159 183
147 165 189
148 167 193
141 160 185
149 169 195
147 167 193
154 175 203
162 183 211
159 181 209
163 184 212
158 179 207
153 174 201
148 168 194
147 166 192
133 152 176
135 154 178
144 163 189
148 168 194
160 181 210
173 198 229
180 204 237
185 209 242
183 208 240
187 212 244
177 201 233
187 212 245
183 208 239
180 205 237
175 199 229
176 200 231
180 204 235
184 207 238
182 207 239
172 196 226
156 178 206
150 170 196
147 166 190
148 167 192
153 173 201
146 166 192
148 168 195
148 168 194
160 181 209
169 193 223
164 186 216
175 198 229
181 205 237
168 191 220
179 203 234
183 207 239
174 197 227
176 200 230
173 195 225
163 185 213
161 181 208
146 166 192
146 165 191
134 152 176
143 161 186
149 168 193
156 177 204
158 179 207
164 186 214
161 184 213
175 197 227
172 194 224
176 200 231
184 209 242
175 198 229
171 194 225
176 201 233
176 198 228
180 203 233
170 193 224
176 199 229
167 191 221
154 175 202
136 154 177
128 145 167
115 130 150
87 98 114
54 62 72
29 33 38
13 15 17
30 34 39
53 60 69
69 78 91
74 84 97
82 94 109
97 109 126
104 118 136
112 127 147
110 124 143
120 136 157
128 145 168
138 156 180
141 160 184
133 151 175
127 144 167
133 151 175
140 160 185
139 158 183
141 160 184
153 173 200
155 176 204
160 182 211
163 186 215
159 180 208
156 176 202
158 180 208
167 190 220
171 194 223
173 197 228
181 206 238
180 204 236
182 206 239
180 205 237
171 195 226
176 200 231
177 200 231
179 203 235
185 211 244
174 198 228
176 200 231
174 197 227
174 197 227
171 195 226
175 198 229
174 197 227
177 200 231
180 203 234
183 206 238
178 203 234
178 201 231
178 203 235
175 199 230
176 199 229
177 200 231
170 192 221
164 186 215
173 196 226
164 186 216
168 191 220
169 191 221
169 192 222
176 200 232
180 204 236
176 199 230
177 201 232
171 194 224
167 190 220
156 177 204
144 164 190
139 158 182
121 137 157
99 112 129
75 85 99
78 89 103
70 80 92
67 77 89
67 76 87
65 74 86
63 72 83
54 61 70
60 69 81
45 50 58
48 54 63
46 52 60
44 49 57
36 41 47
30 34 39
29 33 38
35 40 47
40 46 53
57 64 74
65 74 86
68 77 89
73 83 95
74 84 96
82 93 107
90 102 119
99 112 130
89 101 117
95 107 124
108 122 141
113 128 148
94 106 123
81 93 107
76 86 100
83 94 109
92 105 121
93 105 121
89 100 116
79 89 103
82 94 108
100 114 131
120 136 156
127 145 167
129 146 168
144 164 190
161 183 212
160 182 211
168 192 224
177 201 232
177 200 231
167 190 220
146 166 191
125 142 165
106 119 137
79 90 105
53 60 69
36 41 48
22 25 29
18 21 24
15 17 20
11 13 15
10 11 13
23 27 31
24 27 31
27 30 35
38 44 51
50 57 67
56 64 73
52 59 68
47 53 61
52 59 68
53 60 69
40 45 52
30 34 39
37 42 49
49 56 64
53 61 71
53 60 69
37 42 48
30 34 39
36 41 48
52 59 69
64 74 85
78 89 103
99 113 130
109 123 143
117 133 154
129 147 170
139 159 184
163 185 213
176 199 230
187 212 245
183 208 241
182 206 238
186 210 243
189 214 247
181 206 239
165 188 218
160 181 209
145 165 190
133 151 175
127 144 166
117 131 151
95 108 125
83 94 109
72 82 94
54 61 71
36 41 47
19 22 25
12 14 16
20 23 27
29 34 39
46 52 60
66 74 86
77 88 101
81 92 106
85 97 112
82 94 109
96 109 127
104 117 134
106 121 140
110 125 145
111 126 146
103 116 134
110 125 146
100 114 132
101 115 133
97 110 126
98 111 129
95 108 125
108 123 141
113 127 147
107 121 140
90 102 118
67 77 89
51 58 67
33 37 43
14 15 18
23 27 31
39 45 52
49 56 64
64 72 84
75 85 98
94 108 125
110 125 145
134 152 176
119 135 157
133 150 173
144 164 190
150 170 197
151 171 198
151 172 198
155 177 205
160 181 210
166 188 217
158 180 209
154 175 203
155 177 205
163 186 216
172 196 227
181 205 238
174 199 231
166 188 217
161 183 211
164 186 216
162 185 215
171 194 224
170 194 225
172 196 227
173 197 228
174 196 226
179 204 237
182 206 237
190 214 246
189 214 248
189 215 248
184 209 241
181 205 237
188 213 247
192 217 251
188 214 248
184 209 242
187 212 244
190 215 248
188 215 249
187 213 246
188 213 246
187 212 244
185 209 240
183 206 237
181 207 240
176 199 230
185 209 241
185 209 242
184 209 241
182 207 239
184 209 242
190 215 249
186 211 243
190 215 249
187 212 245
186 212 245
181 206 238
179 203 235
173 197 227
176 200 230
173 197 229
183 207 239
187 212 245
189 215 249
191 217 250
190 215 247
181 205 237
175 198 228
163 186 215
149 169 195
139 157 181
129 146 169
106 120 138
83 95 110
55 62 72
33 37 43
19 22 25
20 22 26
23 26 30
26 30 35
33 38 44
33 37 43
26 30 35
21 24 28
21 24 28
15 17 20
19 22 25
40 46 53
54 61 71
71 81 93
87 99 114
94 107 123
110 124 143
120 136 157
121 138 160
128 145 168
130 147 169
129 146 169
125 142 165
129 147 170
130 148 171
134 152 175
129 146 168
140 158 183
148 167 193
163 186 215
156 176 204
153 174 202
143 163 188
148 168 194
149 169 194
146 166 191
141 161 187
141 160 186
153 173 200
156 177 204
167 190 220
176 200 231
181 205 237
177 200 231
182 207 239
185 210 242
188 214 248
182 205 237
187 212 245
183 208 240
181 204 235
177 201 232
176 201 233
174 199 230
166 188 217
155 175 202
135 153 177
125 142 163
113 128 149
107 122 141
101 115 133
94 106 122
101 114 131
104 119 137
102 116 134
111 125 144
108 122 141
113 128 148
123 140 162
133 152 176
146 165 191
147 167 193
146 165 190
140 159 183
136 155 178
129 146 168
123 139 161
122 139 160
118 135 157
117 133 154
129 146 168
142 161 185
154 174 201
155 176 203
168 190 219
167 190 221
169 192 221
166 188 218
171 194 224
173 197 229
165 187 216
170 192 221
175 198 228
178 200 230
177 201 232
180 204 235
179 204 237
177 201 233
181 205 237
176 200 231
171 193 223
148 168 193
119 135 156
89 102 118
60 68 79
31 35 41
20 22 26
33 38 44
51 58 67
60 68 78
74 84 97
82 93 108
89 100 115
85 97 113
82 94 108
73 82 95
72 82 95
78 89 103
99 112 129
102 115 133
120 136 157
130 148 171
145 164 188
155 176 204
154 174 201
158 179 207
164 187 216
166 188 216
164 187 216
163 184 213
161 182 211
163 185 214
174 197 228
168 191 222
176 199 229
172 195 226
171 193 222
167 189 218
176 199 231
173 196 226
183 207 238
179 204 236
184 208 240
184 208 240
180 205 237
181 206 239
178 201 231
182 206 239
184 209 241
178 201 232
179 203 234
184 208 240
185 208 239
172 195 224
178 202 233
170 193 224
172 195 225
165 188 218
160 181 208
164 186 215
156 177 205
157 178 206
147 167 194
147 167 193
139 158 183
136 154 177
147 167 194
155 177 204
173 197 228
164 186 214
165 187 215
168 190 218
165 187 216
157 178 205
144 163 189
122 138 159
106 120 139
86 97 112
69 78 91
71 81 93
86 97 112
103 117 136
116 132 153
125 141 163
120 137 158
120 137 158
107 122 140
107 121 140
101 115 132
100 113 131
101 115 134
100 113 131
95 108 125
85 96 111
84 96 111
76 86 99
59 67 77
36 41 48
27 30 35
27 31 36
30 34 39
28 31 36
42 47 54
69 78 90
86 98 114
88 100 116
96 109 126
93 105 122
100 114 132
103 117 134
111 127 147
115 130 151
113 129 149
117 133 154
136 153 175
140 157 180
141 160 185
136 154 178
145 166 192
146 166 192
145 165 190
148 169 196
159 181 209
161 182 210
165 187 216
171 194 224
169 193 224
173 196 227
165 186 215
153 174 201
136 154 178
110 125 145
89 101 116
57 65 75
38 43 50
20 22 26
13 15 18
14 16 18
18 21 24
32 36 42
55 62 72
63 72 82
69 78 91
71 81 93
77 87 100
80 90 104
78 89 103
73 83 95
65 75 87
63 71 82
60 69 80
71 81 93
68 78 90
70 79 92
69 78 89
67 76 87
66 75 87
75 85 99
68 78 90
44 50 58
26 30 35
15 17 20
10 12 14
29 33 38
59 67 77
86 98 114
114 129 149
136 154 179
153 175 203
164 187 216
174 197 228
177 201 231
186 211 244
189 214 247
187 212 246
190 215 248
186 211 244
189 214 248
176 201 234
163 185 213
157 178 206
151 171 197
141 160 185
127 146 170
103 117 135
67 75 87
36 41 47
25 29 33
20 22 26
22 25 29
18 21 24
21 24 28
33 38 44
36 42 48
36 41 47
42 48 56
45 51 59
41 47 55
41 47 54
28 32 37
25 28 33
36 41 47
37 43 49
34 39 45
29 33 38
27 31 35
24 28 32
36 41 47
45 52 60
50 56 64
50 57 66
59 67 78
61 69 80
53 60 70
52 58 67
32 37 43
17 19 22
18 20 23
31 35 41
42 48 55
58 65 75
96 109 126
123 139 160
146 166 192
123 139 160
138 157 183
148 168 193
144 164 189
137 156 179
129 146 168
130 147 169
130 148 172
139 157 181
145 164 190
147 168 195
148 167 193
148 167 193
141 160 185
135 154 178
134 153 177
142 161 186
151 171 198
148 169 196
151 171 199
149 169 196
149 169 196
149 169 195
152 173 200
170 193 224
175 198 229
190 215 248
188 213 246
191 216 249
189 215 248
185 211 245
193 219 252
188 214 247
188 214 248
190 215 249
190 215 249
188 214 249
192 217 251
189 214 248
191 216 249
183 208 241
190 214 246
186 211 243
188 214 247
190 216 250
187 211 243
189 214 248
192 217 250
185 210 241
180 205 237
184 208 240
183 207 239
188 213 246
183 208 242
177 200 231
169 193 225
167 190 219
160 182 211
165 187 215
167 190 220
169 193 223
179 203 234
185 210 243
190 216 250
181 207 240
174 197 228
164 186 215
149 169 194
127 144 167
106 120 139
93 105 122
88 99 114
65 74 85
33 37 43
14 15 18
10 12 14
14 16 18
25 28 33
37 42 48
48 54 62
50 57 66
42 48 56
40 45 52
33 38 44
30 34 39
40 45 52
63 72 83
70 79 92
79 90 104
86 98 113
86 97 112
83 94 110
97 110 127
110 125 143
107 122 140
113 128 148
122 139 161
132 150 174
123 140 161
121 138 159
124 141 163
135 153 177
142 161 186
141 161 187
146 165 191
157 178 206
161 183 211
162 184 212
159 181 209
160 181 209
163 185 213
166 189 219
163 185 215
171 194 224
177 201 233
181 206 238
181 206 238
183 208 240
178 202 233
177 200 230
176 200 230
174 197 227
182 207 239
180 204 235
182 207 240
183 208 241
181 205 237
169 191 220
156 178 206
140 159 184
118 134 155
107 122 141
94 106 122
88 100 116
80 91 105
84 95 110
91 103 119
85 97 112
90 102 118
92 104 121
102 115 133
108 122 141
109 125 145
106 121 141
107 122 141
91 104 120
90 101 116
83 95 109
86 98 114
73 83 96
61 69 79
61 69 79
57 64 74
70 80 92
78 89 103
92 105 122
96 109 126
120 136 158
134 152 175
159 180 208
169 191 221
173 197 228
176 201 232
180 204 235
182 206 238
182 205 236
180 204 236
187 212 244
184 208 240
175 199 229
180 205 237
179 203 234
178 201 232
179 203 234
177 201 231
161 183 212
138 157 181
121 137 158
105 119 138
85 97 111
62 70 82
41 47 54
32 36 42
22 25 29
27 30 35
32 37 43
45 51 58
47 54 62
59 66 77
55 63 73
48 54 63
56 64 74
64 72 83
77 87 100
80 91 106
91 103 119
106 121 139
123 139 160
138 157 181
145 165 190
154 174 201
158 178 205
164 186 215
157 178 205
163 184 213
165 187 215
168 190 220
174 198 228
170 192 221
171 194 225
166 190 220
174 198 230
169 191 220
173 195 225
176 200 231
179 202 233
182 206 237
182 208 241
184 209 241
177 202 234
180 206 239
184 208 240
180 204 235
180 204 235
184 208 240
179 203 235
177 201 232
166 189 218
166 187 216
158 178 206
160 181 209
161 183 212
161 183 211
165 187 216
164 187 218
176 199 228
176 199 229
168 191 222
170 192 221
169 192 222
164 186 215
145 165 190
129 146 169
138 157 182
137 155 178
137 156 180
137 156 180
130 147 169
128 145 167
120 135 156
110 125 145
106 120 139
101 114 132
98 110 127
87 99 114
82 93 107
96 109 126
99 112 129
102 115 134
112 127 147
127 144 166
139 157 180
142 161 186
124 142 164
126 144 167
128 144 166
114 131 151
118 134 155
114 130 150
107 122 141
105 119 138
95 108 125
87 99 114
86 98 114
74 84 97
53 61 70
32 36 42
13 15 17
29 33 38
35 40 47
39 44 51
30 34 39
48 54 63
60 67 78
77 88 101
89 101 116
100 113 131
102 116 135
100 114 132
102 116 134
111 126 145
115 130 151
123 140 162
133 151 174
142 160 184
141 160 185
141 159 184
142 162 187
141 161 187
142 161 187
139 157 181
133 151 174
116 133 154
109 124 143
111 125 144
111 127 147
101 114 131
85 97 112
80 91 105
75 85 98
60 68 79
29 33 38
16 18 20
30 34 39
46 52 60
62 70 82
83 94 109
96 109 126
98 111 128
95 108 125
82 94 108
70 79 92
50 57 66
34 39 45
30 34 40
32 37 43
39 44 51
40 46 53
38 43 49
38 43 50
45 51 59
43 48 56
33 37 43
21 24 28
16 18 21
10 12 14
8 9 11
11 12 14
19 22 25
36 41 48
64 73 85
86 97 112
104 118 137
118 134 154
138 157 181
153 174 201
167 189 217
175 199 230
180 203 234
185 209 242
184 210 244
187 212 246
182 207 240
182 207 240
185 208 240
178 202 233
173 197 228
168 191 221
165 188 218
153 174 201
136 154 178
111 126 145
96 109 126
85 97 113
88 100 117
83 94 109
76 87 101
69 79 91
57 65 76
42 47 55
22 25 29
24 28 32
31 36 42
40 46 54
44 50 58
37 42 48
32 36 42
35 39 45
36 41 48
31 35 40
31 35 41
20 23 26
13 15 17
13 15 18
18 20 24
20 22 26
26 29 33
34 38 44
34 38 44
29 33 39
29 33 38
23 27 31
29 33 38
35 39 45
31 36 42
35 39 46
51 58 67
69 78 90
94 107 123
122 138 159
112 128 148
96 110 127
77 88 101
64 74 86
67 76 88
57 65 76
64 73 84
63 71 82
55 62 72
50 57 66
50 57 66
48 55 64
45 50 58
36 41 47
31 35 41
42 47 55
65 73 84
78 88 101
101 114 132
118 133 154
125 143 165
136 155 179
145 164 188
159 181 208
174 198 229
182 207 240
189 215 248
190 215 248
191 215 247
187 212 246
185 212 246
189 213 245
187 213 247
185 211 244
188 213 246
189 215 248
185 210 242
186 210 242
186 212 245
189 214 247
182 207 239
179 203 235
170 193 223
171 194 224
173 197 228
172 195 225
168 191 221
174 197 228
181 205 236
180 204 236
180 204 235
179 203 234
182 205 236
181 205 236
180 204 235
179 204 235
177 201 233
178 203 236
183 206 237
174 198 229
177 201 232
177 201 233
177 200 231
180 205 237
176 200 230
164 187 216
140 159 184
129 145 167
113 129 150
98 112 130
95 108 125
85 96 111
68 78 90
58 67 78
44 50 58
38 43 50
29 33 39
18 20 24
19 22 25
24 27 32
28 32 38
43 49 57
51 58 68
52 58 67
53 61 71
56 63 73
46 53 61
36 40 46
34 38 44
31 35 40
39 45 52
58 65 75
71 80 92
75 86 100
78 89 102
93 106 123
109 124 144
132 149 173
136 155 178
141 161 186
133 151 174
136 154 177
141 160 184
149 169 196
150 170 197
155 176 203
163 185 214
166 188 216
174 196 225
167 190 220
168 192 222
172 195 225
166 188 216
171 194 225
178 203 235
178 204 237
175 199 230
180 204 236
174 198 228
174 197 228
168 191 220
179 202 233
180 203 233
185 210 243
182 207 239
184 208 240
189 214 247
188 213 246
180 204 234
174 198 230
169 192 222
152 173 200
152 172 198
130 148 171
119 136 158
112 128 148
102 115 133
98 112 129
102 115 132
104 118 136
107 121 140
104 118 137
104 119 138
106 121 139
107 122 141
100 113 131
87 100 115
83 94 109
81 91 105
78 88 102
84 95 110
99 113 131
112 127 146
124 141 162
137 155 179
150 171 198
166 188 218
168 189 218
172 194 224
180 205 236
183 207 238
185 210 243
181 205 237
173 197 228
170 193 222
171 195 226
169 192 223
169 191 221
164 186 214
160 181 209
160 181 209
154 173 199
137 155 177
134 152 175
106 120 138
85 97 112
76 86 99
60 68 79
46 52 60
36 41 48
30 34 39
26 30 35
25 28 33
31 35 41
26 29 34
24 27 32
20 23 27
14 16 19
12 13 16
9 11 12
10 12 14
13 15 17
15 17 20
19 21 25
42 47 55
75 86 100
95 109 126
119 134 154
134 151 175
140 158 181
144 163 188
146 166 192
151 170 196
151 172 199
158 179 206
164 186 215
156 177 205
153 173 199
159 182 211
163 185 214
168 190 220
173 197 227
174 198 230
175 199 231
175 199 230
171 194 224
173 196 227
182 207 239
183 208 241
187 212 245
184 208 240
175 198 228
179 203 234
175 199 231
167 189 219
162 182 209
150 171 197
148 168 193
138 156 180
123 139 160
117 132 153
123 140 162
130 148 171
144 162 186
146 166 191
137 155 179
137 154 178
143 163 189
155 176 203
161 183 211
166 188 217
167 189 217
164 187 217
167 190 221
162 184 213
171 195 225
166 188 217
173 196 226
170 193 223
166 188 217
164 187 217
166 187 215
164 186 215
164 186 213
158 179 207
148 168 194
147 166 192
146 165 191
142 163 190
145 164 189
146 166 191
146 167 193
140 159 184
142 162 187
137 156 180
134 152 175
130 148 171
119 135 157
98 112 130
92 104 121
84 96 111
76 86 100
70 79 92
58 66 76
48 55 63
39 44 51
32 37 42
32 36 42
35 40 46
30 35 40
13 15 17
9 10 12
6 7 8
16 18 21
17 19 22
29 33 38
44 50 58
54 62 72
52 59 69
58 66 76
61 68 79
64 72 84
75 84 97
87 99 115
109 124 142
124 141 162
132 149 172
143 162 188
150 170 197
129 146 169
104 118 136
89 101 117
84 95 110
75 85 99
64 73 84
66 75 87
59 67 77
47 53 61
48 54 63
39 44 51
28 32 36
27 31 36
47 53 62
62 71 82
64 72 84
69 79 91
83 94 109
87 99 114
70 79 91
52 59 68
30 34 39
25 28 33
21 23 27
12 14 16
14 16 19
30 34 40
50 57 67
61 70 81
66 76 88
69 78 90
66 75 87
73 83 95
63 72 83
64 73 84
63 72 83
64 73 85
71 81 94
69 79 91
76 86 100
87 99 114
86 97 112
81 92 106
92 105 121
103 117 136
118 134 155
139 159 184
157 179 207
165 187 216
173 196 226
181 206 239
189 214 246
186 212 245
188 214 247
186 210 243
182 206 238
180 204 236
171 194 223
158 179 206
132 150 174
122 139 161
130 148 171
127 144 166
116 132 152
110 125 145
101 114 131
106 120 138
100 114 132
90 102 118
75 85 98
59 67 77
46 52 60
20 23 26
9 11 12
25 29 34
43 49 57
43 49 56
39 44 51
37 41 48
51 58 67
59 67 78
65 74 85
68 77 89
69 78 89
71 81 93
73 82 95
71 81 94
73 83 96
73 82 95
67 76 87
68 77 89
54 61 70
47 53 62
42 48 55
39 45 52
50 57 66
73 83 97
88 100 115
99 113 130
108 122 142
120 136 158
73 84 97
90 102 118
85 97 113
85 97 112
88 100 115
77 87 101
82 94 109
84 95 110
94 107 125
94 107 124
94 107 123
80 91 106
68 77 90
38 43 50
12 14 16
12 14 16
27 30 35
44 49 57
57 65 76
73 83 96
89 102 119
109 124 143
129 147 171
156 177 205
175 198 228
183 207 239
182 207 239
189 215 249
186 212 245
185 210 243
188 212 244
184 209 241
183 209 242
179 203 234
176 200 230
178 201 232
171 195 225
170 193 224
170 193 224
164 187 216
164 186 215
163 185 214
158 179 206
150 171 198
156 177 205
154 175 202
151 171 198
157 177 205
155 176 204
152 172 199
152 173 201
145 165 191
131 149 171
127 144 167
124 141 163
129 147 170
131 149 173
127 145 167
125 142 164
121 138 160
117 132 152
106 121 140
100 113 131
103 117 136
112 129 151
123 140 162
122 138 160
119 135 156
110 125 144
112 128 149
116 132 152
122 138 159
116 131 151
104 119 137
86 98 114
73 83 96
51 58 68
34 39 45
38 42 49
41 47 55
43 48 56
35 40 46
27 31 36
28 32 37
29 33 38
26 30 35
29 33 38
37 42 48
33 37 43
20 22 26
32 36 42
54 61 71
65 74 86
72 81 94
83 94 109
100 113 129
110 125 145
112 127 146
117 133 154
125 141 162
131 149 171
137 156 180
137 154 177
140 159 183
149 169 195
159 181 209
162 184 213
165 188 217
171 194 224
167 190 220
162 183 211
156 177 205
154 176 204
148 169 196
143 163 189
144 163 188
138 157 182
156 176 204
162 184 213
174 198 228
174 198 229
176 200 232
184 208 241
177 201 232
179 202 234
182 207 239
177 202 234
181 206 239
182 206 238
184 209 242
183 207 238
178 202 234
178 201 231
180 203 234
179 203 234
179 202 233
174 198 230
174 197 228
173 198 229
167 190 220
162 184 212
159 180 208
148 168 194
133 152 176
123 140 161
114 131 152
118 134 155
124 141 164
139 158 183
157 177 205
158 180 209
165 187 216
174 198 229
178 202 233
178 202 234
175 199 231
174 199 231
172 196 227
170 192 220
162 183 210
159 180 208
152 172 199
148 167 193
148 168 193
138 157 181
127 144 166
116 132 153
124 141 163
119 135 155
123 140 162
105 119 138
93 106 122
85 97 113
79 89 103
70 79 91
46 52 60
23 26 30
22 25 28
28 31 36
38 43 50
49 56 64
52 59 69
48 55 63
45 51 59
54 62 71
67 76 88
69 79 91
75 84 97
75 85 98
66 75 87
58 65 76
48 55 64
56 64 74
73 82 94
85 97 112
107 121 140
116 131 151
124 140 161
135 153 177
138 157 182
135 153 177
144 164 190
143 161 185
132 150 173
133 151 175
127 145 169
141 160 184
148 168 194
160 181 208
160 181 210
164 186 214
153 174 202
157 179 207
158 179 207
158 180 208
155 176 204
160 181 208
163 186 215
171 194 224
178 202 234
180 204 236
180 204 235
172 195 225
170 193 224
155 175 202
141 160 184
125 142 164
103 116 135
90 102 118
85 96 112
81 92 107
84 95 110
81 92 107
81 93 108
78 89 103
95 108 125
104 118 137
116 131 152
121 137 158
121 137 159
117 132 153
117 131 151
120 136 157
122 138 159
111 126 146
126 142 163
119 136 157
118 133 154
133 151 175
135 153 176
146 165 190
156 177 205
161 182 211
170 192 222
176 200 232
175 199 231
172 195 225
178 202 234
177 202 234
176 200 231
179 203 235
179 204 236
178 203 235
176 199 230
166 189 220
160 182 211
153 174 202
159 179 206
149 169 195
131 149 172
127 144 166
104 118 137
71 81 93
56 63 73
38 43 49
30 35 40
27 31 35
19 22 25
18 20 24
11 13 15
16 19 22
28 32 37
29 33 39
29 33 38
19 22 26
23 26 29
29 33 38
23 26 30
19 22 25
20 23 27
30 34 39
32 36 42
35 39 46
27 30 35
35 40 46
48 55 63
76 86 100
121 137 159
135 153 177
131 149 173
127 145 167
120 137 158
103 116 133
79 89 103
54 61 71
46 52 60
41 46 54
36 41 47
39 44 51
37 42 48
37 42 48
35 40 47
46 52 60
58 66 76
54 62 71
38 43 50
24 27 31
24 28 32
22 25 29
27 30 35
44 50 57
56 63 73
49 55 64
31 35 41
24 27 31
24 28 32
35 40 47
47 53 61
62 71 82
72 82 95
83 94 108
102 116 134
109 124 144
123 140 163
131 149 172
146 165 190
158 179 206
169 191 220
166 188 218
166 188 218
169 192 222
172 194 223
176 200 231
175 199 230
178 203 235
177 200 231
181 205 237
182 206 238
181 206 239
187 211 243
185 209 241
185 209 241
172 194 224
161 183 212
147 166 191
131 149 172
114 130 151
104 118 136
90 103 119
80 91 106
74 83 96
69 79 91
60 68 79
53 61 70
51 58 66
57 65 75
55 63 73
40 45 52
24 27 31
18 21 24
12 14 16
9 10 12
15 17 20
25 28 33
34 39 45
38 43 50
38 44 50
35 40 47
42 48 56
46 52 61
58 66 77
74 84 97
77 87 101
74 84 97
64 73 84
61 69 80
66 75 86
77 88 102
89 101 117
99 113 131
105 120 138
106 121 140
93 106 123
81 92 106
73 82 95
64 73 84
57 65 75
63 71 82
68 78 90
67 76 88
129 147 169
135 153 176
136 155 180
140 159 184
143 162 188
141 161 186
136 155 180
127 144 167
107 121 140
90 102 118
66 75 87
42 47 55
30 34 40
27 31 36
31 36 42
53 61 70
69 78 90
73 83 96
106 120 139
121 138 160
151 170 195
164 187 217
176 199 229
177 201 232
188 214 247
185 211 244
187 213 246
184 210 243
184 208 240
183 208 242
188 214 247
187 213 246
189 214 247
186 210 243
186 210 243
177 201 233
180 204 236
176 200 231
170 193 223
169 191 220
162 184 213
160 182 210
160 181 208
158 179 207
168 191 221
181 206 238
183 208 240
187 212 245
187 213 246
185 211 245
181 206 238
181 204 236
178 202 235
176 200 231
169 191 221
162 185 214
163 185 213
156 177 203
150 170 197
135 154 178
114 129 149
92 105 121
72 82 96
72 81 94
62 70 81
59 67 77
56 64 74
56 63 73
52 59 69
37 42 49
38 43 50
46 52 60
58 65 76
73 82 95
82 92 107
93 106 123
102 116 135
105 119 137
114 129 148
116 132 152
107 123 142
102 116 134
86 98 113
79 90 104
62 71 82
54 61 71
59 67 77
68 77 90
78 89 104
71 81 94
68 77 89
70 79 92
53 60 69
41 46 54
33 38 44
24 27 32
20 22 26
31 36 41
43 50 57
58 66 77
69 78 90
85 97 113
101 114 132
117 133 154
142 161 185
160 181 209
166 187 216
164 186 215
151 172 199
151 172 199
146 166 192
152 172 198
144 163 187
128 145 167
112 128 149
107 121 140
103 117 136
100 114 131
102 116 134
115 131 152
132 149 172
151 171 197
163 184 213
174 196 226
176 201 234
184 209 242
182 206 238
179 202 233
175 199 230
176 199 231
175 198 229
175 199 231
177 202 234
178 201 231
176 200 232
184 209 241
179 203 235
186 210 243
185 210 243
183 207 238
183 207 239
178 202 234
170 193 222
167 190 220
170 194 226
170 193 223
165 187 217
170 192 220
174 197 227
181 206 238
186 211 243
176 199 230
174 197 227
152 173 199
134 151 174
118 134 154
110 124 144
103 117 135
94 106 123
91 102 118
86 98 114
86 98 113
84 95 109
77 88 102
74 84 97
61 69 80
56 64 74
48 55 64
42 47 54
39 45 51
31 35 41
16 18 21
11 13 15
18 21 24
28 32 37
29 33 38
25 28 33
22 25 29
12 14 16
14 16 19
22 25 29
22 25 29
28 32 37
29 33 39
36 41 47
45 51 60
57 65 75
76 87 100
84 96 111
90 103 119
95 108 125
99 112 130
105 119 138
101 114 132
108 122 141
113 128 147
114 129 150
119 136 157
132 151 174
137 156 181
141 161 187
147 168 195
150 169 193
155 175 202
149 169 195
147 166 193
140 159 184
151 171 197
155 176 205
163 185 214
155 177 205
169 191 220
174 197 227
174 197 227
167 190 219
162 185 214
160 183 212
165 187 215
169 191 220
177 201 233
176 201 234
181 205 237
181 206 237
181 205 236
188 213 246
185 210 243
178 202 232
171 195 225
161 182 211
137 156 180
116 132 153
103 117 135
90 102 118
82 93 108
75 85 98
64 72 84
62 71 82
56 64 74
57 65 75
58 66 77
55 63 72
54 61 71
46 53 62
38 43 50
34 39 45
32 36 42
33 38 44
46 52 61
65 74 85
79 90 103
87 99 114
98 112 130
114 129 148
127 144 167
141 159 184
153 173 200
159 181 210
167 190 219
166 188 217
168 190 220
177 201 233
178 202 233
175 198 228
177 201 233
185 210 243
182 207 239
182 206 237
187 213 246
185 210 241
178 201 232
173 195 225
168 192 222
161 182 211
141 160 186
115 131 152
102 115 133
89 102 118
82 93 108
60 68 79
43 49 56
45 51 58
34 39 45
27 31 35
22 25 28
27 30 35
30 35 40
28 33 38
35 40 46
35 40 47
33 37 43
40 45 52
36 41 47
19 21 25
14 16 19
16 19 22
21 24 28
32 36 42
41 47 54
52 59 68
76 87 100
102 116 135
118 134 155
133 151 174
146 165 190
148 168 193
145 165 191
153 174 201
150 170 195
138 157 182
129 147 170
123 140 161
103 117 135
83 94 109
91 103 119
96 110 128
100 113 130
99 113 131
87 98 113
83 94 108
77 87 100
73 84 97
69 78 91
50 56 65
36 41 48
39 44 51
50 57 65
70 79 92
107 122 142
117 133 153
119 135 156
129 147 170
140 159 185
152 172 198
164 186 215
178 202 234
183 207 238
189 215 248
189 213 244
184 208 241
182 208 241
184 209 240
185 210 242
177 201 232
167 190 220
171 194 225
170 192 221
166 188 217
162 183 211
158 179 207
152 172 199
146 166 193
136 155 179
123 140 162
113 128 147
122 138 160
119 136 158
114 130 150
113 128 148
113 128 147
110 126 146
112 126 145
105 119 138
94 106 123
97 111 128
106 119 138
105 119 137
104 118 137
100 113 131
87 99 114
59 67 77
27 31 36
10 11 13
6 6 7
10 12 14
21 23 27
30 34 40
29 33 39
22 25 29
28 32 37
29 33 38
30 34 40
41 47 54
49 56 65
48 54 63
55 63 72
54 61 71
59 67 77
72 82 95
76 86 100
97 110 127
109 124 143
111 126 145
119 135 156
127 144 166
127 144 166
125 141 163
116 131 151
97 110 127
83 94 108
80 91 105
153 175 203
153 174 201
154 175 202
142 161 186
138 156 180
136 154 177
122 139 161
102 116 134
68 77 90
35 40 46
10 11 13
23 26 30
47 53 61
67 76 88
82 93 108
97 111 129
113 128 147
130 148 172
145 165 191
163 185 214
174 197 228
172 196 227
183 207 238
184 209 241
185 209 240
180 205 237
183 208 240
182 206 238
186 211 244
183 209 242
191 217 251
191 217 250
194 219 252
189 215 249
187 213 248
184 210 243
185 211 244
188 213 247
191 215 247
185 210 242
179 204 237
182 206 239
178 202 235
178 202 233
180 204 236
189 213 245
185 211 244
191 216 248
191 217 250
183 209 243
189 216 252
191 217 250
188 213 246
187 213 246
191 217 250
191 216 250
187 212 244
174 197 228
163 187 217
150 170 197
141 161 186
122 139 161
106 121 140
84 95 109
69 78 90
66 76 88
61 70 81
56 64 73
46 52 60
40 45 52
52 59 69
79 89 103
96 109 126
102 116 133
105 119 137
111 126 145
111 126 146
107 120 139
102 115 133
104 118 137
117 133 153
121 138 161
129 147 170
131 149 171
132 150 174
138 156 180
144 164 191
149 169 196
159 180 208
155 176 203
146 166 192
136 154 179
121 137 158
91 104 120
68 77 89
43 49 57
17 20 23
22 26 30
59 67 77
79 90 104
100 113 130
121 136 157
135 153 177
144 164 190
144 163 189
157 179 206
157 178 206
147 167 192
132 150 173
129 146 169
129 147 170
124 141 163
113 129 149
104 118 136
107 122 141
113 128 148
117 133 155
123 140 161
137 154 177
148 168 195
170 192 222
175 199 230
182 206 238
185 211 245
185 209 240
181 205 236
187 213 247
188 214 247
186 210 243
178 203 236
185 210 242
182 206 238
185 209 241
183 208 242
182 207 240
180 206 239
171 194 224
178 203 235
180 203 233
173 196 226
177 201 233
175 199 229
168 191 220
171 193 222
169 191 219
172 195 226
176 200 231
178 201 232
179 203 235
187 212 246
185 209 241
179 202 232
171 194 223
165 187 215
145 165 191
121 137 159
97 110 127
87 99 114
82 94 109
77 87 101
76 86 100
80 91 106
83 94 109
86 98 113
82 93 108
69 79 91
47 54 62
36 41 48
34 38 44
26 30 35
22 25 29
24 27 31
16 18 21
7 8 9
11 12 14
19 22 25
18 20 23
16 18 21
13 15 17
11 13 15
19 21 25
22 25 29
21 23 27
19 21 25
21 24 28
38 43 49
51 58 67
64 73 84
76 86 99
85 96 111
91 103 119
98 112 129
96 109 125
103 117 136
108 123 142
106 120 138
98 111 128
100 113 130
105 120 139
120 136 156
134 151 175
141 160 186
138 156 181
145 165 191
142 162 187
135 154 179
145 165 191
146 165 191
147 167 194
147 167 193
147 167 193
156 176 204
163 185 213
175 197 227
179 203 235
176 199 230
173 196 226
165 187 216
169 191 220
176 199 229
178 202 234
181 205 237
185 210 242
182 206 238
182 207 239
176 199 230
172 194 224
162 184 213
150 170 197
148 166 191
148 169 196
149 170 197
150 170 196
149 170 197
137 156 180
125 142 164
117 133 154
105 118 136
82 94 109
63 72 83
34 38 44
9 10 12
14 16 18
22 25 29
29 33 38
22 25 29
8 9 10
12 14 16
29 34 39
51 58 67
64 73 85
73 83 96
82 92 107
97 110 127
119 135 156
135 154 178
141 159 183
145 164 189
161 183 211
170 194 224
168 191 221
172 195 225
172 196 226
173 196 226
176 200 230
180 205 237
178 203 234
183 207 240
189 214 248
185 210 242
186 210 242
182 205 235
188 213 246
179 204 237
179 203 235
175 198 229
170 192 222
152 173 201
140 158 183
136 154 177
132 150 173
129 147 170
119 135 156
98 112 130
81 91 106
70 79 92
54 61 70
51 57 66
37 42 48
36 40 47
37 42 48
22 25 28
18 21 24
27 31 36
30 34 40
22 25 29
21 24 28
27 31 35
32 37 42
37 42 48
49 55 64
65 74 85
81 92 106
105 119 137
123 140 163
133 151 174
145 164 188
151 171 199
161 183 211
160 182 211
163 185 215
169 192 223
173 196 226
162 185 215
162 183 211
163 185 213
158 179 207
160 182 211
158 180 209
162 184 213
159 182 211
153 175 203
144 163 188
135 153 176
137 156 181
145 165 191
159 181 210
160 182 211
162 184 214
166 188 217
174 197 227
171 195 226
176 199 230
179 202 233
181 205 238
187 212 246
186 211 244
190 215 249
181 206 238
175 198 229
166 188 218
167 189 219
163 185 213
163 184 213
169 192 222
167 190 220
166 189 218
162 183 211
159 181 208
151 173 201
161 183 212
160 181 208
159 180 208
161 182 211
160 182 210
162 185 215
157 179 206
151 173 202
154 174 201
146 166 191
152 172 199
152 173 200
149 168 194
144 163 188
142 161 186
142 160 185
132 150 173
107 122 141
82 93 107
53 60 69
35 40 46
17 20 23
25 28 33
30 35 40
23 27 31
23 26 30
26 29 34
38 43 50
38 43 50
32 37 43
32 37 42
32 37 42
32 36 42
26 30 35
23 26 31
21 24 28
25 28 32
27 30 36
23 26 30
31 35 40
38 43 50
51 58 67
74 84 97
92 104 120
102 116 133
108 122 141
109 124 143
109 124 144
110 126 145
101 115 132
126 143 164
127 144 166
120 137 158
120 136 157
115 130 150
113 129 149
106 121 140
91 103 120
76 87 100
49 56 64
21 24 28
12 13 16
23 26 30
34 39 45
48 54 63
67 76 88
79 90 105
103 116 134
119 135 156
121 138 159
139 158 183
147 167 193
156 177 204
162 184 213
169 192 222
174 198 228
174 198 230
179 204 236
181 206 239
180 204 235
180 205 237
175 199 230
171 195 225
162 185 214
164 186 215
167 190 220
169 192 222
170 193 223
168 192 222
169 192 222
169 193 224
169 192 222
164 186 215
167 189 218
160 182 211
160 181 209
160 182 211
168 190 218
182 206 238
186 210 243
188 213 246
191 216 248
191 217 251
188 213 246
188 214 248
179 204 236
178 202 234
166 189 218
148 167 193
135 154 178
110 125 144
94 106 123
76 86 100
64 72 83
56 64 74
57 65 76
59 67 78
66 75 87
76 86 100
76 86 100
74 85 98
85 96 111
95 108 125
96 109 126
92 105 122
94 106 123
96 109 127
103 117 135
118 133 154
129 147 170
133 151 174
135 153 177
133 151 174
128 145 168
124 141 162
114 129 149
120 136 157
121 138 159
125 142 164
135 154 178
131 149 172
128 146 168
115 131 151
97 109 126
77 87 100
48 55 63
20 23 26
31 35 40
58 66 76
74 85 98
91 104 120
108 122 140
118 134 155
122 139 160
124 141 163
123 140 161
133 151 175
146 165 190
151 171 197
159 180 207
162 184 213
157 178 206
161 182 211
155 176 202
160 181 209
169 191 219
167 190 220
170 193 223
177 200 231
179 203 234
180 204 236
181 204 234
176 200 231
168 190 219
173 195 225
175 198 228
177 200 231
180 204 235
173 197 228
176 200 231
180 205 236
170 193 224
175 198 228
168 191 221
163 185 214
161 182 210
162 184 213
159 181 209
170 192 221
177 202 235
180 204 236
182 207 241
180 204 236
178 203 235
173 196 227
162 183 211
148 168 195
150 170 196
154 175 201
160 182 211
165 187 216
157 179 207
157 178 205
146 166 192
136 155 179
120 136 157
107 121 140
96 110 127
85 97 112
83 94 108
85 96 112
82 93 108
79 90 105
74 84 97
65 74 86
57 65 75
48 54 63
40 46 53
41 47 54
41 46 53
34 39 45
26 30 35
13 14 17
13 15 17
9 10 12
7 8 9
10 11 13
9 10 12
16 18 21
23 26 30
29 33 39
35 40 47
36 41 48
42 48 55
52 58 67
58 66 77
61 70 81
69 79 92
71 80 93
77 88 101
86 97 112
86 98 113
87 99 115
95 108 125
104 118 137
102 116 133
99 113 130
103 118 136
115 131 151
124 140 162
125 142 165
133 151 174
139 159 184
140 160 186
146 166 192
143 162 187
141 160 184
138 156 181
130 147 170
127 144 166
132 149 172
136 154 177
145 164 190
150 170 196
155 176 203
156 177 204
159 180 208
161 182 211
158 180 208
157 179 206
158 180 208
165 187 215
168 189 218
159 181 209
151 171 198
133 151 175
127 143 166
117 132 153
108 123 142
99 112 130
87 99 114
82 92 106
74 84 98
85 97 112
92 105 122
116 131 151
112 126 145
104 118 136
96 108 125
90 102 118
91 104 120
87 99 114
82 93 107
72 81 94
69 79 91
58 66 76
75 86 100
70 79 92
83 94 109
98 111 129
113 129 149
128 145 168
137 155 179
144 163 188
161 182 211
165 188 217
172 196 227
177 202 234
183 209 242
185 210 242
185 208 239
182 207 240
185 211 244
188 214 247
186 211 243
188 213 246
186 211 244
176 201 232
181 205 236
182 206 237
181 206 238
179 204 236
187 212 244
178 202 233
174 198 228
183 207 240
181 206 238
182 207 240
186 211 244
178 201 231
179 203 234
178 202 234
178 202 233
180 204 236
171 195 226
168 190 220
161 182 211
152 173 200
144 163 188
129 147 170
112 127 146
97 111 129
82 93 107
65 74 86
36 41 47
18 21 24
17 19 22
30 34 39
32 36 42
35 40 46
31 35 40
24 28 32
27 31 36
45 51 59
66 75 87
76 86 99
88 101 117
104 118 136
117 133 153
128 146 170
138 157 182
146 166 192
155 176 203
156 176 204
159 180 209
165 188 219
167 190 219
159 180 209
165 188 218
167 189 219
176 200 231
181 206 238
183 207 238
184 209 241
183 208 240
188 214 247
191 216 249
180 205 238
188 212 244
187 211 244
187 211 242
187 212 245
187 212 246
187 213 247
186 212 245
186 211 243
187 211 243
186 211 243
185 211 244
179 204 237
178 203 234
179 203 234
168 190 220
164 186 215
160 182 211
161 182 211
170 193 222
172 196 228
180 204 236
179 204 235
184 209 242
192 217 250
188 214 248
188 213 245
184 210 244
182 206 238
187 213 247
182 207 240
184 209 242
181 205 237
177 202 234
180 205 236
179 204 236
181 206 239
182 207 238
182 208 240
169 192 222
145 165 191
130 147 171
108 122 141
74 84 97
50 57 66
34 38 45
34 39 45
40 46 53
36 41 47
39 45 52
41 46 53
44 50 59
48 54 63
48 55 63
41 47 54
38 43 50
41 46 53
42 47 55
47 54 62
48 55 64
50 57 66
56 64 74
64 73 84
53 60 70
39 44 51
29 33 38
29 33 39
44 50 58
45 51 59
50 57 65
57 65 76
66 75 87
85 96 111
117 133 153
114 129 149
116 131 151
117 132 153
109 124 143
94 106 123
80 91 105
72 82 95
68 78 91
59 68 78
52 59 69
39 45 52
38 43 50
27 30 35
13 15 17
12 14 16
27 30 35
44 50 58
60 69 80
87 99 114
99 112 129
116 132 153
131 148 171
148 168 194
158 179 206
164 186 216
166 189 218
169 191 220
165 189 219
158 178 205
139 159 185
123 139 161
111 126 146
103 117 135
104 118 137
102 116 134
111 126 146
121 137 159
133 151 174
137 156 181
132 151 174
125 142 165
115 131 152
109 124 143
116 132 153
123 140 162
134 152 177
147 167 192
151 172 198
159 180 207
166 189 218
173 196 227
182 206 237
183 208 241
185 210 242
182 206 238
161 183 211
139 158 183
117 132 152
100 114 132
90 103 119
86 98 114
80 91 106
73 83 96
83 94 109
85 97 112
90 103 119
93 105 122
98 112 130
95 107 124
95 109 126
96 109 126
111 126 145
113 129 149
114 130 150
117 134 155
115 130 150
116 131 151
112 127 148
108 123 143
101 115 133
88 100 115
65 74 86
53 61 70
50 57 65
39 45 52
38 44 50
39 45 52
49 56 64
59 67 78
58 66 76
61 69 81
52 60 69
46 53 61
39 45 52
34 38 44
33 37 43
32 36 41
34 39 45
38 43 49
55 63 72
79 90 104
101 115 133
112 127 148
114 130 151
110 126 145
99 113 130
100 113 130
99 113 131
100 113 130
106 120 139
113 128 148
121 137 158
125 142 164
131 149 172
124 141 163
124 141 163
114 129 149
118 134 155
120 137 158
117 133 153
108 123 142
105 119 138
110 125 144
105 118 136
99 113 130
92 105 122
93 107 124
104 119 137
105 119 138
102 116 134
97 111 129
98 111 128
97 110 126
97 111 128
83 95 109
83 94 108
96 110 127
116 132 152
135 153 177
139 158 183
155 177 205
174 198 229
179 204 236
188 212 245
188 213 246
184 208 241
176 201 233
165 186 214
157 178 206
143 163 189
144 163 188
133 151 174
124 141 163
124 140 162
119 135 155
111 126 146
104 117 135
100 114 131
102 116 134
98 111 128
85 96 111
75 85 98
69 79 92
63 71 83
70 79 91
86 98 113
97 110 127
99 113 131
93 106 122
90 103 119
90 102 118
84 95 109
74 84 97
65 74 85
51 58 67
54 61 71
49 56 65
44 50 58
34 38 45
21 24 28
9 10 12
24 28 32
40 46 53
45 52 60
47 54 62
55 62 72
61 70 80
65 75 87
74 84 97
85 97 112
79 90 104
72 82 95
66 75 87
73 83 95
90 102 118
99 111 128
108 123 143
110 125 145
117 133 153
123 139 160
125 141 163
126 142 164
118 135 157
108 122 141
108 122 141
94 106 123
97 110 127
100 114 132
99 112 130
106 121 140
110 125 145
115 130 149
130 147 171
134 152 175
133 150 173
133 152 176
124 141 163
115 130 151
115 131 152
115 130 150
120 135 156
107 121 140
95 108 126
87 98 113
86 98 112
86 98 113
73 84 97
61 70 81
43 49 57
31 35 41
29 32 37
41 47 54
65 74 87
84 95 110
101 115 133
115 131 151
121 137 159
128 145 167
128 146 169
124 141 162
121 137 158
115 131 152
115 131 151
118 133 154
124 142 164
127 144 166
121 137 158
120 136 157
115 130 151
123 139 161
144 162 186
148 168 195
165 187 216
172 196 226
184 209 241
186 211 244
181 206 238
188 213 247
185 210 243
184 209 242
186 211 245
188 213 246
182 206 237
186 213 247
188 212 244
188 212 245
183 208 240
185 209 240
178 203 236
180 204 237
183 208 240
185 210 243
186 212 246
188 213 245
182 207 240
183 208 241
183 208 240
179 204 236
182 207 240
183 208 241
185 210 243
182 206 238
185 209 241
183 207 239
183 209 242
182 208 241
183 209 242
181 206 237
169 192 222
165 186 215
157 179 207
148 168 193
130 148 171
106 121 139
88 100 116
75 85 99
81 92 107
71 81 94
61 69 79
47 54 62
47 54 63
42 47 54
39 44 52
57 65 76
66 75 87
77 87 101
98 111 128
118 135 157
134 152 176
137 155 178
139 158 183
151 171 198
156 178 207
163 185 213
166 189 218
162 185 214
158 179 207
166 186 214
161 182 209
168 191 220
174 198 229
184 209 241
186 212 245
186 212 245
187 213 246
190 215 248
187 212 245
188 213 246
190 216 249
184 210 244
188 214 247
184 208 241
189 214 247
191 216 249
185 210 243
190 215 248
185 211 245
190 216 249
190 216 249
183 208 241
175 199 229
172 195 225
166 190 220
166 189 218
167 189 217
172 195 225
180 204 235
190 215 249
184 209 241
187 213 247
187 211 243
187 213 247
190 215 248
191 215 248
189 215 250
191 216 250
193 219 253
189 215 249
186 211 244
186 212 245
188 214 248
189 215 249
194 220 254
185 210 242
185 209 240
179 204 236
180 205 237
180 205 236
173 196 226
159 181 209
136 154 179
115 131 151
97 111 128
79 90 104
63 71 82
52 59 68
46 53 61
43 49 57
44 50 58
46 52 61
41 47 55
34 38 44
29 33 39
21 24 28
19 22 25
26 29 34
30 35 40
49 56 64
50 57 66
52 59 69
47 54 63
53 60 69
60 68 79
57 65 76
57 65 75
44 50 58
29 33 38
14 16 19
15 17 20
97 110 128
88 100 115
86 98 112
71 81 93
65 73 84
59 67 78
48 55 64
44 50 57
43 49 57
33 37 43
31 35 40
28 32 37
36 41 48
57 64 75
77 87 101
85 96 111
91 104 121
100 114 132
104 118 138
112 128 148
111 126 145
112 127 146
120 137 159
139 159 184
156 177 204
158 180 209
161 183 212
149 168 193
135 153 177
116 132 154
106 121 140
94 106 122
87 99 114
88 100 116
88 100 116
92 104 120
94 107 123
86 98 113
76 86 100
69 78 91
75 85 98
77 88 101
87 99 115
99 112 129
115 131 152
124 141 164
144 163 187
156 177 204
158 180 208
168 190 218
176 200 231
180 206 239
189 214 247
181 206 238
174 197 227
149 169 194
125 142 164
108 122 141
100 113 131
99 113 130
110 126 145
114 129 149
115 130 150
120 137 158
138 157 182
141 160 186
145 165 191
142 161 186
138 156 181
130 147 170
118 134 156
111 125 144
114 130 150
120 136 157
116 132 152
117 133 154
110 125 145
100 115 133
85 96 111
62 70 81
35 40 46
11 13 15
6 7 9
11 13 15
15 17 20
18 20 23
18 21 24
24 28 32
41 46 53
41 47 54
38 43 50
33 38 44
23 26 30
18 21 24
23 26 30
34 39 46
39 44 51
35 40 46
28 32 37
19 21 25
16 18 21
19 22 25
34 39 45
40 46 53
46 53 61
54 61 71
53 60 70
49 55 64
42 48 55
46 53 61
54 62 71
65 74 85
67 76 88
68 77 90
60 68 79
56 64 73
52 59 68
53 60 69
44 50 58
36 41 48
24 28 33
27 30 35
36 40 47
40 46 53
36 41 47
27 31 36
24 27 31
22 25 29
18 21 25
21 24 28
23 26 30
16 18 21
14 16 19
15 17 20
17 20 23
20 22 26
28 31 36
38 44 50
46 52 59
52 59 69
65 74 85
86 98 114
117 133 155
140 158 183
152 174 202
170 194 225
184 208 240
188 212 245
184 209 241
184 210 243
182 207 239
173 197 227
175 199 230
167 189 219
156 177 205
158 179 206
156 176 203
145 164 188
128 146 169
116 131 151
106 121 141
97 111 129
86 98 113
77 88 102
88 100 115
110 125 144
119 134 155
124 141 164
129 146 169
133 151 175
138 157 181
136 154 178
137 155 179
122 138 159
116 132 152
116 131 151
109 123 142
101 114 133
86 98 113
64 74 85
58 65 76
47 53 61
38 43 50
31 36 41
18 21 24
13 15 17
17 20 23
29 33 38
55 63 72
66 75 87
76 87 100
78 88 101
77 88 101
82 93 107
81 92 106
89 101 117
89 101 117
94 107 124
106 121 140
118 134 155
117 133 155
112 127 146
100 114 132
86 97 112
57 64 75
36 41 47
29 33 38
30 34 39
33 37 43
42 48 55
50 57 66
57 64 74
60 68 78
60 68 79
81 92 106
101 115 133
116 131 151
122 138 158
115 131 152
116 132 153
119 135 157
124 140 162
121 137 159
116 132 152
112 127 147
104 118 135
92 104 119
70 79 92
55 62 72
43 48 55
40 45 52
43 49 57
51 58 67
62 70 81
61 69 79
66 75 86
67 77 89
82 92 107
84 96 112
82 93 108
92 104 119
106 120 138
109 124 143
122 139 160
117 133 154
108 123 142
106 120 138
106 121 140
110 125 145
123 140 162
138 157 181
145 164 190
151 172 199
163 185 213
169 192 222
177 200 231
185 210 242
190 215 247
188 213 246
187 213 247
189 214 247
182 208 241
185 209 241
192 217 250
185 210 243
184 210 243
188 213 246
187 212 244
184 209 241
182 207 240
183 207 239
185 209 241
186 210 242
182 206 238
183 208 240
183 207 239
185 209 240
185 211 246
183 208 241
188 214 248
191 216 249
189 215 248
186 212 245
186 212 245
185 210 243
188 213 247
185 210 243
185 211 245
189 215 249
185 210 243
187 211 244
185 209 242
176 199 230
173 197 228
167 189 217
156 178 207
154 174 201
149 168 193
135 154 178
119 135 156
103 117 135
95 108 125
81 92 106
58 66 77
27 31 37
17 19 22
36 41 47
39 45 52
45 51 59
54 61 71
70 80 92
82 94 108
102 116 134
122 139 162
134 153 177
141 160 185
147 167 193
149 170 196
152 173 201
155 175 203
161 182 210
157 178 206
170 192 221
175 198 229
179 204 236
181 206 238
186 211 244
188 214 249
186 212 245
180 205 238
183 207 238
177 201 232
183 207 239
184 209 241
183 207 239
189 214 247
191 216 250
189 215 248
187 212 245
181 206 239
181 206 239
183 207 238
181 206 239
181 206 238
184 209 242
180 205 237
171 194 223
177 201 233
174 198 230
172 196 227
167 190 220
176 200 231
179 205 238
180 204 236
181 205 236
187 211 243
183 209 242
188 214 248
185 211 244
189 215 249
190 214 246
189 214 248
187 212 245
185 210 243
182 207 240
183 208 241
180 205 237
176 201 233
180 205 236
176 200 232
168 190 219
162 185 214
150 171 197
136 155 178
113 128 148
107 122 142
100 113 132
105 120 140
120 136 157
124 141 163
120 136 158
120 136 158
117 133 153
107 121 140
104 118 136
84 96 111
68 78 90
37 42 49
24 27 31
26 30 35
46 53 61
32 36 42
23 26 30
18 21 24
27 31 35
33 37 43
41 47 54
50 57 65
56 63 72
57 65 74
36 41 48
41 46 53
57 65 75
67 76 88
62 71 82
67 76 87
73 83 96
78 89 103
71 81 93
70 79 92
75 85 98
82 93 108
100 113 130
113 128 149
125 142 164
131 149 173
136 154 179
136 154 178
138 156 181
139 158 182
149 170 196
158 179 207
164 186 216
170 192 221
172 196 226
178 201 232
174 197 227
172 195 225
173 196 227
173 196 227
171 194 225
166 190 220
169 192 223
159 180 209
151 172 198
130 148 172
122 139 161
115 131 151
125 142 165
142 162 188
147 167 194
158 180 209
164 186 213
168 191 222
168 191 221
172 196 228
174 198 229
179 203 234
180 205 237
184 209 241
180 206 238
172 195 225
163 185 214
143 162 188
125 142 163
118 135 157
140 159 184
152 173 201
155 176 203
157 178 206
154 176 204
155 177 205
158 179 207
156 178 207
164 185 213
166 189 218
172 194 223
164 186 215
160 182 210
154 175 202
153 174 201
155 175 202
158 180 209
162 184 213
157 179 208
154 174 201
136 155 179
122 138 159
91 103 119
67 76 88
35 40 47
17 20 23
7 9 10
9 10 11
10 11 13
14 16 18
26 29 34
36 41 48
44 49 57
51 58 67
50 56 65
48 55 64
32 37 42
24 28 32
21 24 28
17 19 22
18 20 24
25 28 33
36 41 47
37 43 50
32 36 42
24 27 32
25 29 34
30 34 40
32 37 43
26 29 34
26 29 34
19 22 25
18 20 24
16 18 21
22 25 29
25 28 33
25 29 33
26 30 35
28 32 37
30 34 39
36 40 47
48 54 62
47 53 61
53 60 69
64 73 84
83 95 109
105 119 138
122 137 158
126 143 164
117 133 154
115 130 151
114 129 149
123 140 161
117 133 154
106 121 140
94 107 125
80 91 106
60 67 77
34 39 45
18 21 24
33 37 43
47 54 62
52 59 69
56 63 73
62 70 81
72 82 95
89 101 116
101 115 133
127 143 165
152 172 198
171 194 225
181 206 239
187 213 246
187 212 244
192 218 251
182 206 238
182 208 241
171 195 226
174 198 229
162 185 213
143 162 188
128 144 166
106 121 141
100 113 131
111 126 146
117 132 152
126 142 164
127 144 166
129 146 170
135 152 176
140 159 184
146 166 191
151 171 197
153 174 202
152 172 198
153 174 201
153 174 201
153 173 199
149 169 196
153 173 199
152 173 200
149 169 196
145 165 191
140 159 184
132 148 170
127 143 165
112 127 147
97 110 127
74 84 97
54 62 72
40 45 53
26 30 34
22 25 29
28 32 37
50 57 66
69 79 91
72 82 95
80 91 106
83 94 108
95 109 126
100 114 131
104 118 136
109 124 144
110 124 143
98 112 129
79 91 105
63 72 83
42 48 55
23 26 31
16 18 21
9 10 12
7 8 10
7 8 9
13 15 18
17 19 23
17 19 22
18 21 24
32 36 42
45 51 59
57 65 75
60 69 79
75 85 99
96 109 126
116 132 152
132 149 172
135 153 177
135 154 179
120 136 157
111 126 146
94 106 122
78 88 102
63 72 83
57 65 75
62 70 81
69 78 90
81 92 106
79 90 105
82 94 108
86 97 112
91 104 120
94 106 123
85 97 112
83 95 110
88 100 115
86 98 113
86 97 113
79 90 104
66 75 87
61 69 80
65 73 85
67 76 87
74 83 96
78 89 103
84 96 110
94 107 123
115 131 151
133 152 177
159 180 208
168 190 220
180 204 236
179 203 234
189 213 245
188 213 246
190 215 247
188 214 247
183 208 241
185 210 243
185 210 242
186 211 243
184 208 241
185 211 244
181 206 240
183 208 241
183 208 242
181 206 239
185 209 240
182 207 239
180 204 236
185 210 243
185 210 243
183 208 241
191 217 251
186 211 244
182 206 237
189 214 248
184 209 241
186 211 244
185 211 244
188 213 246
188 213 246
188 214 248
188 214 248
190 217 251
188 214 247
189 215 250
185 209 242
179 203 235
183 207 239
170 192 221
157 177 204
143 163 189
132 149 172
119 135 156
110 125 145
92 105 122
78 89 103
68 77 90
51 58 67
32 37 42
11 13 15
22 26 30
42 47 55
60 68 79
64 72 83
80 91 105
80 90 104
78 89 103
88 100 116
105 118 136
128 146 169
144 164 189
158 181 210
160 182 210
168 190 219
171 194 224
172 196 226
174 198 229
173 195 224
180 205 238
179 203 235
182 207 239
184 208 239
181 205 237
173 196 226
167 190 220
163 186 215
164 187 216
169 192 223
179 202 233
182 207 239
190 216 250
189 215 249
187 212 245
184 209 243
184 210 245
185 209 242
183 208 240
176 200 231
177 201 233
180 204 236
182 206 239
188 212 244
188 213 246
182 207 240
180 204 236
169 192 223
169 192 222
164 187 216
161 183 212
161 184 213
161 183 211
156 178 206
153 174 202
152 172 199
153 175 203
164 187 217
166 189 219
165 189 220
164 186 215
155 174 200
150 169 195
151 171 197
150 170 196
146 166 192
155 176 203
162 184 212
164 187 217
166 189 219
170 194 224
171 194 225
166 188 217
163 185 214
163 185 214
162 184 213
160 182 210
156 177 205
150 171 199
146 166 191
134 152 176
115 132 153
98 111 129
88 99 114
65 73 84
49 56 65
32 36 42
21 24 28
41 47 54
45 51 59
51 58 68
61 69 81
67 76 88
76 86 100
77 87 100
72 82 95
104 118 137
114 129 149
119 135 156
133 151 174
142 162 187
151 171 198
152 172 199
146 166 193
143 163 189
148 168 195
142 162 187
138 156 180
130 148 170
133 150 173
140 159 183
150 171 197
153 173 201
159 180 208
156 177 205
162 184 213
163 184 212
176 200 232
180 205 237
177 202 234
179 203 235
182 207 239
181 206 238
185 210 243
188 213 246
189 215 248
189 214 248
192 217 250
190 216 249
188 214 247
183 208 241
186 211 243
187 212 244
187 212 245
186 212 245
187 213 246
185 210 242
181 206 238
182 207 239
176 199 229
176 201 232
177 201 233
174 198 230
163 185 214
155 177 205
147 168 194
140 158 183
128 145 168
117 133 154
112 127 146
116 132 153
129 147 170
146 165 189
150 169 194
156 177 204
160 181 210
168 189 218
171 193 222
172 195 226
167 190 219
163 186 215
161 183 211
156 178 206
148 168 193
146 166 191
139 158 183
138 158 183
145 165 191
151 172 198
157 177 204
153 173 200
145 165 191
132 149 171
109 124 144
98 112 129
82 93 108
76 87 100
73 82 95
58 65 75
40 46 54
21 24 28
22 25 29
30 34 40
38 43 50
37 42 49
35 40 46
35 40 46
44 50 58
54 60 69
66 74 86
78 89 102
88 99 114
97 110 128
99 112 130
98 111 129
96 110 128
97 111 129
99 113 132
105 119 137
103 117 135
99 113 131
93 105 122
94 107 125
90 102 119
85 97 112
85 96 111
77 87 100
84 95 110
107 121 140
126 143 165
127 144 167
127 145 168
131 149 173
139 158 183
139 158 184
141 161 186
135 154 179
148 169 195
165 187 215
170 193 224
176 201 234
179 203 235
180 205 237
177 200 230
175 198 230
173 197 228
161 183 212
154 175 202
145 165 190
131 149 172
110 124 143
76 87 101
58 66 78
49 56 64
36 42 49
32 37 42
25 29 34
32 37 43
43 49 57
66 75 87
94 106 123
124 141 164
140 159 184
164 185 214
175 198 228
180 205 237
184 208 241
189 214 247
180 204 235
190 215 249
182 207 239
177 200 230
165 188 218
152 173 201
139 158 183
123 141 163
109 124 144
95 108 125
104 119 137
119 135 156
127 144 167
130 147 171
140 158 181
139 158 182
136 154 179
130 147 170
120 137 158
117 133 153
120 137 158
127 144 166
118 135 157
120 136 158
126 143 164
122 139 160
111 125 145
91 103 118
91 103 119
86 98 113
90 102 118
89 101 117
90 102 118
98 110 127
99 112 129
89 101 117
70 79 91
39 45 52
16 18 21
43 49 56
66 75 86
78 88 102
80 91 105
82 93 108
97 110 128
97 110 126
84 95 110
66 74 85
53 60 69
44 50 58
34 39 45
32 36 42
31 35 41
23 27 31
17 19 22
18 21 24
28 32 37
42 48 55
54 61 70
66 75 87
64 73 84
61 70 81
72 81 94
89 101 117
96 109 125
98 110 127
101 114 131
91 104 120
87 100 116
84 94 109
82 94 108
85 96 111
73 83 96
61 69 79
61 69 80
65 74 85
65 74 85
69 78 90
73 82 95
70 79 92
84 95 110
96 109 126
111 126 146
120 136 157
132 150 174
133 151 175
128 145 168
128 145 166
120 137 158
123 140 162
124 141 164
109 124 144
118 134 155
118 134 156
130 148 173
127 145 167
127 143 166
129 146 168
135 154 178
142 161 186
166 188 217
176 200 232
184 208 240
182 206 238
189 214 247
188 214 247
185 210 242
180 204 237
174 198 229
172 195 226
177 200 230
181 206 239
185 211 245
185 210 242
186 211 244
185 211 245
186 211 243
183 207 239
179 204 236
181 206 239
181 206 239
182 207 239
179 203 235
180 205 237
178 202 233
179 203 235
178 201 233
183 207 240
184 208 239
186 211 243
185 211 244
185 210 243
187 211 242
182 207 239
176 201 232
172 196 227
174 198 230
175 199 231
172 195 226
170 195 226
172 195 226
167 189 218
160 181 208
145 165 190
127 144 166
107 122 141
92 103 119
59 67 78
44 51 59
40 46 53
35 40 46
24 27 31
32 36 41
51 58 67
73 83 96
84 95 109
101 115 133
109 124 144
120 137 159
122 139 160
121 137 159
126 143 166
131 150 174
133 152 176
142 162 187
148 168 194
148 169 195
159 181 210
170 192 222
175 198 228
171 194 225
174 197 228
175 198 229
172 195 226
169 192 222
165 187 216
157 178 206
154 174 201
152 173 199
158 179 208
167 190 219
171 196 228
185 209 241
188 213 247
190 216 250
185 210 243
189 215 249
191 216 248
188 213 246
184 208 239
187 212 244
185 211 244
184 210 243
189 213 245
188 213 246
183 207 239
180 205 237
183 207 239
181 206 239
182 207 240
188 212 245
185 210 243
179 203 235
175 199 231
178 202 234
178 203 235
164 187 217
154 174 201
137 156 181
139 158 184
148 168 193
156 177 205
157 178 206
165 187 216
163 184 212
158 179 207
151 172 199
147 167 194
148 168 194
153 174 201
159 181 210
161 183 212
163 185 215
168 192 223
171 193 223
169 193 223
171 194 225
175 198 229
169 192 222
167 190 219
164 187 216
161 183 211
152 173 200
145 164 190
133 150 173
127 144 165
121 137 159
117 132 152
102 115 133
81 93 107
48 54 63
27 31 36
21 24 28
25 28 33
31 35 41
48 55 64
52 59 69
47 53 61
121 137 158
130 148 171
136 155 179
146 167 193
160 180 208
165 187 216
172 195 226
171 195 225
171 194 225
173 196 226
173 197 228
177 202 234
177 202 234
180 204 235
182 207 240
185 210 244
184 209 242
184 210 244
188 214 247
185 211 245
189 215 249
188 214 247
186 211 243
194 220 254
189 215 248
191 218 252
191 217 251
189 214 246
187 212 245
187 213 246
188 214 247
186 211 244
182 206 239
179 204 236
178 201 232
180 206 239
178 204 236
179 202 233
173 196 225
168 190 220
168 190 219
156 178 206
160 184 214
160 181 210
164 187 217
163 186 216
159 180 208
146 166 192
136 154 179
128 146 168
124 141 163
121 137 158
116 131 151
116 131 152
117 133 154
130 148 171
151 171 198
159 181 209
165 186 215
164 186 216
167 189 218
161 184 213
162 183 212
154 175 202
141 160 185
125 142 165
115 130 151
115 130 150
112 128 148
117 133 153
117 133 153
113 129 149
107 122 141
95 109 126
89 102 118
79 90 104
63 72 84
50 57 66
35 39 45
30 34 39
36 41 47
48 54 63
56 63 73
55 63 73
58 66 76
56 64 74
52 59 68
51 58 67
56 63 73
65 74 84
77 87 100
101 115 134
114 130 150
128 146 169
138 156 179
139 158 183
137 156 181
134 153 177
131 150 173
130 148 172
140 158 182
142 161 186
142 161 187
136 155 179
135 154 178
132 150 174
131 148 171
119 135 157
106 121 140
100 114 131
100 114 132
106 121 139
121 136 157
125 142 164
137 155 179
146 165 190
150 169 195
152 172 198
155 176 204
155 175 202
165 187 216
173 196 227
177 201 232
183 208 241
183 207 239
184 209 242
181 206 239
182 206 237
178 203 234
179 204 236
174 196 226
176 200 231
175 198 228
164 186 215
149 170 196
134 153 177
119 135 155
103 116 134
84 96 111
69 78 91
48 55 64
30 34 39
23 26 31
47 53 61
69 78 90
82 93 108
93 106 123
108 123 142
130 148 171
145 165 190
158 179 206
164 186 215
174 197 228
187 213 247
188 214 246
191 216 248
183 207 239
180 204 236
173 197 228
159 181 210
146 166 192
131 150 174
114 130 150
94 108 125
91 103 120
96 109 126
95 108 124
93 105 122
81 93 107
75 84 97
64 73 84
49 56 65
38 43 50
38 43 50
30 34 39
25 29 33
32 36 42
40 45 52
37 42 48
32 36 42
35 39 45
42 47 55
45 51 59
42 48 56
41 46 53
47 53 61
56 64 74
47 54 62
30 34 39
25 29 33
43 49 56
65 74 85
60 69 79
55 63 73
52 60 69
61 69 80
70 79 91
81 92 107
80 91 105
79 91 105
84 96 111
78 89 103
83 94 108
85 96 111
86 99 114
82 93 108
83 95 109
83 94 109
86 97 113
85 97 112
93 105 121
98 111 128
108 123 142
117 133 154
127 144 168
131 148 170
132 150 174
134 152 175
137 155 180
129 146 168
123 140 161
115 130 150
104 117 136
89 101 116
75 86 99
71 81 93
74 84 97
87 99 114
88 100 115
96 109 126
95 108 126
101 114 131
106 120 139
124 141 162
142 160 184
148 168 195
153 174 201
154 174 201
147 167 193
155 176 203
156 178 207
161 183 212
160 182 211
167 189 218
170 193 223
173 197 227
175 198 227
170 194 224
178 202 233
176 201 232
181 206 239
181 206 239
175 198 229
185 211 243
180 204 235
175 199 231
169 192 221
164 187 216
166 188 217
164 187 216
151 172 199
146 166 193
139 158 183
140 159 184
150 171 198
155 175 202
161 183 211
165 188 217
168 190 219
174 198 229
171 195 227
178 202 233
179 203 234
185 210 244
183 209 241
188 213 246
190 215 248
183 208 242
180 205 238
179 204 235
176 200 232
179 205 237
179 203 235
178 202 234
168 190 219
159 181 209
140 159 185
127 144 166
123 140 162
123 140 161
119 135 156
118 134 155
114 129 149
114 129 149
106 119 137
86 98 114
74 84 98
50 57 66
23 26 30
23 26 30
29 33 38
30 34 39
32 36 42
31 35 40
25 29 34
26 30 34
34 39 45
47 54 62
70 80 92
92 104 121
104 118 137
124 141 163
126 143 165
135 153 176
137 155 180
145 166 192
146 166 192
148 167 193
152 172 199
151 171 197
141 160 184
134 151 174
139 157 182
146 165 190
153 173 199
145 165 191
147 167 193
144 164 189
146 165 190
147 167 193
155 176 203
167 190 220
181 205 237
182 206 237
188 213 246
186 212 245
182 208 240
180 204 235
184 209 242
187 213 246
191 216 250
189 215 248
185 210 242
186 210 243
188 213 247
186 212 245
185 210 244
184 208 240
185 210 242
185 210 242
183 209 242
185 210 243
184 209 242
181 205 238
181 206 239
179 203 234
173 196 226
162 185 213
158 180 208
163 185 214
172 195 226
178 203 235
175 198 227
171 194 224
173 196 225
171 195 226
175 198 230
171 195 226
166 189 219
164 186 215
167 189 218
165 188 218
171 194 224
171 195 228
168 192 223
165 187 217
169 192 221
168 192 222
170 193 223
176 200 232
177 201 232
178 203 235
178 203 236
177 201 233
175 198 229
170 193 223
157 179 208
148 169 196
138 156 180
124 140 161
125 142 165
130 147 169
122 140 163
117 133 154
98 112 129
82 94 109
73 83 96
57 65 75
47 53 61
33 38 44
127 145 168
127 144 167
136 154 177
145 165 190
148 169 196
159 181 210
167 190 219
170 193 223
177 202 233
177 200 231
173 196 227
174 197 228
170 194 224
169 191 221
169 192 222
174 197 228
174 197 227
175 198 229
177 200 232
174 199 230
177 201 232
173 197 228
167 190 220
167 189 219
168 191 220
178 202 232
180 204 237
181 206 237
188 214 247
189 215 249
191 216 249
191 216 250
186 211 242
178 202 234
183 207 238
181 205 237
186 212 246
190 215 248
187 213 247
183 207 239
172 197 229
163 186 216
155 177 205
149 168 194
146 166 192
146 166 191
143 162 187
146 165 190
147 167 193
139 158 182
126 144 166
117 133 154
113 128 148
112 127 147
113 128 148
120 137 158
132 150 174
144 164 189
146 166 193
154 174 200
151 172 199
141 160 185
130 146 168
107 121 140
82 93 108
64 73 85
57 65 76
51 58 67
54 62 71
55 63 72
65 74 86
67 76 88
75 85 99
75 85 98
59 67 78
35 40 46
21 24 28
11 13 15
16 19 22
24 27 32
28 32 37
27 31 36
27 30 35
25 28 33
27 31 35
28 32 36
30 35 40
39 44 50
52 59 69
75 86 100
97 111 129
116 131 152
133 151 174
140 158 182
140 159 183
140 159 184
134 152 177
128 145 168
131 149 173
136 155 179
142 161 186
136 154 178
135 154 179
132 151 175
133 151 175
130 147 170
120 136 157
108 122 141
95 109 126
95 107 124
103 117 135
105 120 139
106 121 139
102 116 134
103 117 135
99 112 129
97 109 126
94 107 125
97 110 128
95 108 125
95 108 126
106 121 140
109 123 142
113 128 149
123 139 161
140 159 184
155 177 205
167 189 219
163 186 216
164 187 216
161 182 211
159 181 209
150 171 198
152 172 199
141 161 186
131 148 171
124 140 162
117 133 154
112 127 147
105 118 136
90 102 118
73 83 97
57 64 74
34 39 45
20 23 26
27 31 36
43 49 56
51 59 68
60 68 79
76 86 100
97 111 129
122 140 162
145 165 190
157 178 206
169 191 220
179 202 233
185 210 243
188 213 246
188 213 246
187 212 244
180 204 236
173 196 227
166 188 216
145 166 192
121 138 160
100 114 132
81 92 106
73 82 95
65 73 85
58 66 77
53 60 70
52 59 68
62 71 82
58 66 77
50 56 65
35 40 46
32 36 41
31 35 41
26 29 34
21 24 28
15 17 19
8 10 11
6 6 7
11 12 14
21 24 28
27 30 35
27 31 36
27 31 36
32 37 43
41 46 53
46 52 60
46 53 61
47 54 62
44 50 58
43 49 57
42 48 56
30 34 40
14 16 18
9 10 12
9 10 12
14 16 19
27 31 36
40 45 52
45 51 59
50 57 66
55 63 73
73 82 95
89 101 117
96 109 126
103 117 135
102 117 135
119 136 157
124 142 164
134 152 175
149 170 196
153 174 201
154 175 202
162 184 213
165 188 218
158 179 206
146 165 191
138 156 180
137 156 181
138 156 180
133 151 175
143 161 185
146 166 192
144 165 192
146 166 193
156 176 203
162 183 211
165 187 216
168 191 220
170 193 224
166 188 218
168 190 219
171 194 224
167 189 217
177 201 233
184 208 240
180 204 236
180 205 237
185 210 241
174 198 229
183 208 242
186 211 244
180 205 238
187 212 246
184 211 245
187 212 244
178 202 234
176 199 230
171 195 226
162 184 212
153 174 200
148 168 195
143 163 189
144 165 191
140 160 186
139 158 183
136 155 179
129 146 169
124 140 162
116 132 153
117 132 153
115 131 152
109 124 143
104 119 137
95 108 125
101 114 132
107 122 141
113 128 148
124 141 163
131 149 173
134 152 175
148 167 193
155 176 203
162 184 213
168 190 219
164 186 215
160 183 212
160 182 211
158 179 207
139 158 182
137 156 180
119 136 157
104 117 136
100 114 131
96 108 125
91 104 120
86 99 115
79 90 104
67 76 87
61 69 80
51 58 67
31 35 41
14 16 18
12 14 16
27 30 35
35 40 46
40 46 53
38 43 50
24 28 32
16 18 21
15 17 20
21 24 28
31 35 40
26 30 35
10 11 13
37 42 48
76 87 100
101 115 133
113 128 148
120 136 157
125 142 164
138 157 181
141 161 186
142 162 189
151 171 197
147 168 194
143 161 186
129 147 170
128 145 167
136 154 178
142 161 187
155 175 202
151 171 197
154 175 201
155 175 202
158 180 208
170 194 225
178 201 232
181 205 237
182 207 240
185 210 243
189 215 249
188 213 247
187 212 244
188 212 244
189 214 248
187 214 248
185 211 243
193 218 252
191 216 249
187 212 245
187 214 248
190 216 251
191 216 249
181 206 238
184 209 241
181 206 240
184 208 239
185 211 245
188 213 247
190 216 250
185 209 240
177 201 233
166 188 217
167 190 220
174 198 229
182 207 240
183 208 241
183 208 241
179 203 234
178 203 236
176 201 234
167 189 219
158 179 206
152 173 200
152 173 200
155 175 202
159 180 208
161 182 210
164 186 216
161 183 212
168 191 221
167 190 219
168 190 220
166 189 219
162 184 211
155 175 202
155 176 204
162 183 211
167 189 219
173 196 227
174 198 229
173 197 228
167 190 220
162 183 211
157 179 208
157 178 206
156 177 204
151 171 197
151 171 198
153 172 198
154 174 200
153 174 202
152 172 199
133 151 174
111 125 144
160 180 208
161 183 212
157 178 206
162 184 212
165 186 215
161 183 211
156 178 207
150 170 196
146 167 193
148 168 195
147 167 193
150 170 196
155 176 202
159 180 208
164 187 216
171 195 226
170 192 222
170 192 222
165 187 216
162 184 213
161 183 212
152 173 199
146 166 192
152 173 200
158 179 207
169 192 222
179 203 235
187 212 245
196 221 253
185 211 244
190 215 247
184 209 242
180 205 237
187 211 244
186 210 242
185 209 241
183 207 239
179 203 235
168 190 219
166 189 219
166 188 217
160 183 213
156 177 205
154 175 202
144 164 191
141 160 185
145 164 189
138 157 182
133 151 174
132 150 172
135 153 177
137 155 179
132 150 175
135 153 177
139 157 180
146 166 192
160 182 210
159 182 210
159 181 210
154 175 202
134 152 176
115 130 150
92 104 121
68 78 90
55 62 72
46 53 61
40 46 53
37 41 48
33 37 43
34 39 45
30 34 39
18 20 24
12 14 16
12 14 16
12 13 15
16 19 22
24 27 32
36 41 47
36 41 48
47 53 62
58 66 76
63 72 83
64 72 84
67 75 87
66 74 86
67 76 88
79 90 104
93 105 122
110 125 144
116 132 153
126 142 165
129 146 168
125 142 164
122 138 158
118 133 154
111 126 146
108 122 141
108 122 141
114 130 150
124 141 163
129 146 169
131 149 171
131 148 171
125 142 164
121 138 159
119 134 155
111 126 145
103 117 135
104 118 136
99 112 130
102 116 134
95 109 126
96 109 127
77 87 100
57 64 75
31 36 41
24 27 31
23 26 30
26 29 34
31 36 41
34 39 45
39 44 51
40 46 53
56 64 74
73 83 96
70 79 92
63 72 83
76 86 98
78 88 102
87 98 114
96 109 125
90 102 117
96 108 125
94 107 124
99 113 131
101 115 133
101 114 132
93 106 123
77 88 102
54 61 70
34 38 44
29 33 38
26 29 34
35 40 47
53 60 69
71 80 93
87 98 113
93 105 121
100 113 130
102 116 134
111 126 146
119 135 156
136 155 181
152 172 198
162 184 213
172 195 224
184 209 241
188 213 246
194 220 254
191 216 248
187 213 246
177 201 233
154 176 204
131 149 172
102 115 133
94 107 124
87 98 114
81 92 107
76 86 99
73 82 95
67 76 88
60 69 79
53 61 70
52 59 68
47 54 62
41 47 55
41 47 54
44 50 57
40 45 52
20 23 26
3 4 4
5 6 7
8 9 11
13 15 17
19 22 25
25 29 33
29 33 38
25 29 34
13 15 18
6 7 8
15 17 20
30 34 40
45 51 58
48 55 63
54 61 71
55 62 72
55 62 72
45 51 59
50 57 66
59 67 78
65 73 85
68 77 89
72 82 95
63 71 83
47 53 62
40 46 53
48 54 63
54 62 71
53 60 70
49 56 65
48 54 63
40 45 52
29 33 38
34 39 45
49 55 64
69 79 91
97 110 128
126 142 164
154 175 203
160 181 209
163 185 213
170 192 222
167 188 217
172 194 224
176 200 231
175 198 230
180 204 235
174 198 229
173 197 229
185 210 244
184 210 242
186 210 243
186 212 245
181 206 238
181 205 236
185 210 242
187 213 246
189 215 248
188 213 245
188 213 246
184 209 242
188 213 247
186 212 246
186 212 245
187 211 244
186 211 243
181 206 238
180 204 236
178 203 235
180 205 238
176 199 229
179 203 234
169 192 222
166 188 218
165 188 217
161 183 211
151 171 198
148 168 195
144 164 189
141 161 186
146 165 190
145 164 188
142 161 186
136 154 177
122 139 161
115 130 149
114 129 149
115 131 152
116 131 152
111 125 144
100 114 132
97 110 127
98 111 128
95 108 126
87 99 114
87 99 115
87 98 114
94 107 123
92 105 121
89 101 116
94 106 122
86 98 114
89 102 118
96 109 126
93 106 122
83 94 108
82 93 107
86 97 113
87 99 115
90 102 118
87 99 115
73 84 97
69 79 91
66 75 87
60 68 79
56 64 74
61 69 80
62 70 81
64 73 84
59 67 77
61 69 80
58 65 76
58 66 76
54 62 71
49 56 65
51 58 67
38 44 51
13 15 17
11 12 15
36 41 47
65 73 84
81 92 107
94 106 123
100 113 131
98 112 129
105 119 138
116 133 154
124 140 161
131 149 173
144 164 190
155 177 205
149 170 196
145 165 190
146 165 190
145 166 192
148 169 195
155 176 203
157 178 205
163 186 215
171 195 226
180 205 237
177 201 233
184 209 241
187 212 246
186 212 245
192 218 252
190 216 249
189 215 248
185 211 245
186 212 245
187 212 245
188 213 246
193 219 254
190 215 249
188 213 245
192 219 254
189 215 248
186 212 246
188 213 246
188 213 245
184 209 242
185 209 241
181 206 238
183 208 240
174 198 230
174 198 230
175 198 229
180 204 236
181 205 237
178 202 233
180 205 237
178 202 233
174 199 231
174 198 229
172 194 224
170 192 222
170 193 224
167 190 219
164 186 216
159 181 209
150 170 197
143 162 188
134 152 176
127 143 165
122 139 160
112 128 149
114 129 149
112 127 147
110 124 144
99 113 131
100 113 131
108 122 141
123 140 161
133 151 174
142 160 185
140 159 185
149 168 194
156 177 204
157 179 206
149 170 197
137 156 182
125 141 163
115 130 150
110 125 144
118 134 155
128 145 167
135 153 178
142 161 187
147 167 193
138 157 181
145 164 189
146 166 191
150 170 197
145 164 190
131 149 172
130 148 171
131 148 171
136 155 180
144 165 191
150 169 195
155 176 204
164 186 216
170 194 225
181 204 235
175 199 229
183 207 239
185 210 242
190 215 249
186 211 245
187 213 246
189 215 248
191 216 249
186 211 245
187 213 246
189 214 248
186 213 249
194 219 253
188 214 248
191 217 252
192 217 251
191 216 250
188 214 248
188 213 247
188 212 244
182 208 242
186 210 242
180 205 238
183 207 239
178 201 233
183 208 240
178 202 233
168 192 223
165 187 216
159 181 210
156 177 205
153 174 201
153 174 201
151 172 199
143 163 189
136 155 179
123 140 162
119 134 155
113 129 149
118 134 155
120 136 157
118 134 154
122 138 159
126 143 165
124 141 163
123 140 161
117 134 155
118 133 154
109 124 144
103 117 135
105 118 136
105 119 138
92 104 120
78 89 103
56 63 73
40 46 52
34 39 45
34 38 44
46 52 60
62 70 81
86 98 113
98 112 129
105 119 137
112 126 146
111 127 147
120 136 157
113 128 148
118 134 156
119 135 156
115 132 153
122 139 161
133 151 175
144 162 187
150 171 197
154 175 203
156 176 203
156 177 205
156 176 204
147 167 193
139 157 181
124 141 163
113 129 149
108 122 142
110 125 144
119 134 155
126 143 165
128 146 170
128 145 167
129 146 169
121 137 158
115 131 151
114 129 149
114 130 151
113 129 150
121 136 157
114 130 150
102 116 134
83 95 110
52 60 69
22 25 29
23 26 30
43 49 57
65 74 86
78 89 103
86 98 113
92 104 120
95 108 124
92 105 122
101 115 133
115 130 150
120 136 157
113 128 148
110 125 145
103 117 135
89 101 117
78 89 103
65 74 85
44 50 58
32 37 43
40 46 54
48 54 62
49 56 65
42 48 55
40 45 53
28 33 38
36 40 46
43 48 56
60 69 80
68 77 89
79 89 103
84 95 110
85 97 112
85 96 111
88 101 117
102 116 134
119 135 156
136 154 178
147 168 194
151 172 199
169 191 221
178 202 234
187 211 244
188 213 246
193 219 253
190 216 250
185 211 245
183 207 239
169 193 223
153 174 200
123 140 162
101 115 134
92 105 121
83 94 109
80 90 104
86 98 113
97 109 126
102 115 133
108 122 140
116 131 151
118 134 155
114 130 151
101 114 131
88 100 116
79 89 103
56 64 73
44 50 57
28 31 36
17 19 22
13 15 18
16 18 20
17 20 23
7 8 9
15 17 19
28 32 38
32 36 42
29 33 38
23 27 31
12 14 16
27 31 36
32 37 42
37 42 49
52 58 67
68 78 90
85 97 113
109 124 143
120 136 157
120 137 158
113 129 149
108 122 141
113 129 149
105 120 139
106 119 138
94 107 124
75 85 98
61 70 80
49 55 64
48 54 63
50 57 66
53 61 70
42 48 55
21 24 28
9 10 12
25 29 33
49 55 64
65 73 85
82 94 109
99 113 132
108 122 141
118 134 156
128 146 169
138 156 180
136 155 179
141 160 186
132 151 176
134 152 176
133 151 174
137 156 181
153 173 200
157 179 207
165 187 215
167 190 220
175 198 228
173 195 224
170 192 222
164 185 214
159 182 211
164 187 216
167 189 219
178 201 232
180 204 235
185 209 241
183 208 241
182 207 239
185 210 243
183 208 242
188 213 246
189 215 248
186 211 245
184 210 244
186 210 243
185 210 242
180 204 235
176 200 230
169 192 222
159 181 209
152 173 200
146 167 194
145 165 191
139 157 181
131 149 173
126 144 167
127 145 169
128 145 168
125 141 163
119 136 157
115 131 151
123 139 160
129 146 168
127 144 166
125 142 163
125 142 164
120 136 158
117 133 154
104 119 138
97 109 126
92 104 120
79 89 102
62 70 81
53 60 69
50 57 66
55 63 72
62 70 81
62 71 81
60 68 78
62 71 83
70 79 92
67 76 88
77 88 102
80 91 105
87 98 113
91 103 120
96 109 126
95 109 126
98 112 129
95 108 125
92 104 121
89 102 118
81 92 106
77 87 101
71 81 94
58 66 77
46 52 61
33 37 43
28 32 37
17 20 23
16 18 21
30 34 39
51 58 67
71 81 94
79 89 103
86 98 113
97 111 128
105 119 137
120 136 157
135 154 178
144 164 189
132 150 173
125 142 164
125 142 164
140 159 183
149 169 196
159 180 208
167 189 218
166 189 219
153 174 201
158 180 208
165 187 216
175 198 228
178 203 235
178 202 233
179 204 236
178 201 232
181 204 236
181 206 238
185 211 245
187 212 246
184 210 243
181 206 239
180 205 237
187 211 244
188 214 247
188 213 245
187 212 245
189 214 248
189 214 247
188 214 248
192 217 250
185 211 245
189 214 247
181 205 237
184 208 240
182 207 240
187 210 242
182 206 237
186 210 242
185 209 242
180 206 238
171 194 225
166 187 216
156 177 204
154 175 203
151 172 200
154 175 201
155 176 204
158 180 208
157 179 207
150 171 197
139 157 182
126 143 166
131 149 172
140 160 186
145 164 190
151 171 198
147 167 194
138 156 180
130 148 170
112 127 146
100 114 131
97 110 127
116 131 151
123 139 160
116 132 153
107 122 141
105 120 139
104 118 137
99 112 129
91 103 119
80 91 105
59 67 78
36 41 47
29 33 38
35 40 46
47 54 62
54 62 72
58 65 75
59 67 77
87 98 114
87 99 115
83 94 109
88 100 116
97 110 128
116 132 153
137 155 179
145 165 191
158 179 206
163 185 215
175 198 229
180 203 235
180 206 239
183 207 240
185 210 243
188 213 245
185 210 243
181 205 236
178 203 234
178 202 233
176 200 232
180 204 236
185 210 243
190 216 249
192 218 252
190 217 251
191 216 249
187 212 245
190 215 247
187 212 244
189 215 249
189 215 248
189 215 250
192 217 251
193 219 253
193 218 252
191 217 251
190 216 249
194 219 252
191 217 250
190 216 249
187 213 246
188 213 244
182 206 237
171 194 225
163 185 214
148 167 193
140 159 183
130 148 171
131 150 173
134 152 175
131 150 173
134 153 178
132 150 174
124 141 164
119 136 157
111 126 146
113 129 149
118 135 156
117 133 154
121 138 159
127 144 167
130 148 172
135 154 178
137 156 180
138 157 181
122 138 160
117 133 154
114 130 149
106 121 139
96 109 126
83 94 108
82 94 109
96 110 127
114 130 150
130 147 170
141 160 184
144 163 189
146 166 191
152 173 200
152 173 201
146 167 193
151 171 197
147 166 192
150 171 198
155 177 205
160 181 208
157 179 207
161 183 211
163 186 215
159 180 209
153 174 201
139 158 183
132 150 173
129 147 170
128 145 168
128 146 169
132 150 174
127 143 164
116 132 152
107 121 140
91 103 119
81 91 105
73 83 97
65 74 85
55 63 72
61 69 80
76 86 99
75 85 99
71 81 94
60 68 79
46 52 61
35 40 47
42 48 56
56 64 74
72 82 94
81 92 106
93 106 123
112 127 146
129 146 168
145 164 190
166 187 216
168 191 221
173 196 227
172 194 223
167 190 221
165 187 216
165 187 216
154 175 203
140 160 185
128 145 168
115 131 151
104 119 138
101 115 132
102 116 134
102 116 134
96 109 126
95 108 125
107 122 141
123 140 163
132 150 174
128 146 169
133 150 173
129 146 169
126 144 168
132 150 173
136 154 177
142 161 187
148 168 195
159 180 209
166 189 219
178 202 232
181 206 239
183 208 241
184 209 242
185 210 243
187 213 247
186 212 245
190 216 249
182 207 240
178 202 233
165 188 217
148 168 194
121 138 161
99 113 132
93 106 122
95 108 125
103 116 134
114 130 150
116 131 151
114 129 149
118 135 157
130 148 171
135 153 177
136 155 179
122 138 159
116 131 151
99 112 130
85 97 112
72 82 95
52 59 68
35 39 46
23 26 30
20 23 27
16 18 22
15 17 20
11 13 15
15 18 21
31 35 40
35 40 47
36 41 48
29 33 39
28 31 36
30 34 39
28 32 36
21 24 28
24 27 32
41 47 54
44 50 58
56 64 74
74 84 97
97 111 128
120 136 157
127 145 167
124 141 163
109 124 143
90 102 118
74 84 97
66 76 88
58 66 77
57 64 74
57 65 75
48 55 63
41 47 54
30 34 39
18 21 24
16 19 21
15 17 20
34 39 45
48 55 63
52 59 68
61 69 81
66 75 86
74 84 97
72 81 94
70 79 92
61 70 80
59 66 76
55 63 73
53 61 70
64 73 85
69 78 91
73 83 96
76 86 99
79 89 103
85 96 111
91 103 119
103 117 135
110 125 145
125 141 163
137 155 179
143 162 187
149 170 197
148 168 194
137 156 180
133 151 175
134 153 177
143 162 188
155 175 201
157 178 205
167 189 218
175 199 229
175 199 232
188 214 247
185 211 244
187 212 245
184 210 243
188 214 247
183 208 241
185 209 241
173 198 229
171 194 225
162 184 214
156 178 207
160 181 209
153 174 200
140 159 183
130 147 170
123 141 164
120 136 158
109 124 144
103 117 135
104 119 138
105 120 138
100 114 131
96 109 126
100 114 132
92 105 121
84 96 111
75 86 99
69 79 91
69 78 91
67 77 89
61 69 80
60 69 79
56 63 73
47 54 63
34 38 44
23 26 30
16 19 22
8 9 10
9 10 12
11 12 14
23 27 31
35 40 47
40 46 53
47 53 62
57 65 75
62 71 81
58 66 76
51 58 67
35 41 47
31 36 41
38 43 50
40 45 52
47 54 62
39 44 51
25 28 33
16 18 21
13 15 17
23 26 31
49 56 65
68 77 89
79 90 104
85 97 112
82 93 107
89 101 117
105 119 138
119 135 157
119 136 158
123 141 163
127 143 165
133 150 172
139 157 182
145 165 190
153 173 201
151 171 198
148 168 194
140 159 183
143 163 188
155 177 205
170 193 223
175 199 231
173 196 228
167 190 220
163 184 212
163 185 213
169 191 221
181 206 239
184 210 243
189 214 246
187 212 245
182 206 239
185 210 242
180 204 236
185 210 242
182 207 239
184 209 241
189 215 248
189 214 247
191 217 251
193 219 253
191 217 251
191 218 252
190 217 252
188 215 250
187 212 245
186 211 244
177 201 233
176 201 232
176 200 231
176 200 232
169 192 222
166 189 218
166 189 218
167 188 217
167 190 219
159 182 210
156 176 203
150 171 198
146 166 191
138 156 180
133 151 175
136 154 177
146 166 192
155 176 203
161 184 214
166 187 216
168 190 220
158 180 208
144 163 189
121 137 159
102 116 135
90 102 117
79 90 104
78 88 102
80 91 106
78 89 104
78 88 101
73 83 96
68 76 87
55 62 72
58 66 77
48 55 64
30 34 39
17 19 23
14 16 19
17 20 23
26 29 34
27 31 36
118 134 155
128 145 167
133 151 175
137 156 181
138 157 182
147 166 192
155 176 203
167 190 220
173 197 228
173 197 228
175 199 230
178 201 232
170 193 223
166 189 219
160 182 211
157 178 206
155 175 202
159 181 210
165 187 216
169 192 223
178 201 232
182 208 242
187 213 247
189 215 250
187 213 246
192 218 252
188 213 247
188 213 247
192 219 253
186 212 245
188 214 247
190 215 248
190 216 249
189 214 246
193 219 253
184 209 242
189 214 247
184 209 243
185 209 241
188 213 247
188 213 246
187 211 243
185 209 241
175 199 229
167 189 218
152 173 200
143 163 188
145 163 188
144 164 189
140 158 183
137 155 179
138 157 182
136 154 178
139 159 184
147 166 191
150 170 197
156 176 204
157 177 205
158 179 207
164 186 215
162 183 211
170 194 224
175 199 231
177 201 233
178 203 235
178 203 235
174 197 227
165 187 215
153 174 202
142 162 188
131 148 172
116 132 153
113 128 148
113 128 149
115 131 152
122 139 160
135 153 177
140 159 184
139 157 182
138 157 182
137 155 179
132 149 172
135 153 177
142 161 186
144 163 188
138 158 183
139 158 181
137 154 177
140 158 182
140 160 185
140 160 185
141 161 186
138 157 181
134 152 176
134 152 176
128 145 168
122 139 160
110 126 147
101 115 133
90 102 118
64 73 85
45 51 59
34 38 44
23 26 30
21 24 28
24 28 32
28 32 37
50 57 66
67 76 88
83 93 107
88 100 116
112 128 149
121 137 159
134 153 178
157 179 207
160 181 209
162 185 215
161 183 213
161 183 211
161 184 213
167 189 219
171 194 224
175 198 229
174 198 230
181 204 235
174 198 229
172 195 225
162 184 212
155 175 202
144 163 189
138 156 180
132 150 174
130 148 171
128 145 167
121 138 159
122 138 159
128 144 167
136 155 179
145 165 191
153 174 201
161 182 211
162 184 212
170 193 223
168 191 222
176 199 230
176 199 229
174 198 230
175 198 228
176 200 232
180 205 238
181 206 238
184 209 241
188 214 247
187 212 246
192 217 250
188 213 246
189 215 248
184 210 243
179 203 235
168 191 220
157 179 207
135 154 178
114 130 150
116 132 152
122 139 161
129 147 170
128 145 167
130 148 170
128 146 169
128 146 169
117 134 155
113 128 148
115 131 151
118 134 155
106 120 139
95 109 127
82 93 108
78 89 103
78 89 102
75 86 99
77 87 101
70 79 92
68 78 90
63 72 83
64 73 84
49 56 66
37 41 48
23 27 31
19 22 25
21 24 28
25 28 32
26 30 34
34 38 44
35 40 47
44 51 59
46 53 61
45 51 59
34 39 45
16 18 21
19 22 26
34 39 45
53 60 69
75 85 98
86 97 112
91 104 121
94 107 124
94 107 124
84 95 110
75 85 98
62 71 82
58 66 77
54 61 71
46 52 61
39 44 51
29 33 39
23 26 31
20 23 27
18 21 24
13 15 18
14 16 18
18 21 24
23 26 30
23 27 31
23 26 31
23 26 30
19 21 25
17 19 23
13 15 17
12 14 16
24 28 32
27 31 36
30 34 39
41 46 54
48 55 63
55 62 71
77 87 101
93 105 122
109 123 142
128 145 167
142 162 188
154 174 200
150 171 198
153 173 200
147 167 192
143 162 187
143 162 188
134 152 175
134 152 176
136 154 178
140 159 184
152 172 198
160 181 209
162 184 213
175 200 231
179 204 237
187 212 246
185 210 242
184 209 242
182 207 240
187 212 246
190 216 249
188 213 246
187 212 245
187 212 245
181 207 240
172 196 228
160 182 212
144 164 190
128 145 168
119 136 158
114 129 150
111 126 145
106 120 139
105 119 138
102 115 133
98 111 129
95 108 125
90 103 118
81 92 106
73 83 97
73 83 96
71 80 92
63 72 83
57 65 75
50 57 66
44 50 58
41 47 54
45 51 59
46 52 60
49 56 65
55 63 73
56 64 74
57 65 76
59 67 78
65 74 86
71 81 94
61 70 80
63 71 83
59 68 78
62 70 80
57 64 74
43 48 56
30 35 40
28 33 38
31 36 41
34 38 44
27 31 36
22 25 29
19 21 25
12 13 15
20 23 27
36 41 48
57 64 74
68 77 89
67 76 87
66 75 87
69 78 90
54 62 71
46 53 61
43 49 57
51 59 68
62 71 83
79 90 104
88 99 115
96 109 127
107 122 142
117 133 154
130 147 169
145 165 191
164 186 216
163 185 215
158 180 208
153 173 200
149 169 196
143 163 188
137 156 181
136 155 180
145 164 190
153 174 201
162 184 213
170 193 224
176 201 233
180 204 236
188 213 246
187 212 245
184 210 243
185 211 245
189 215 248
187 212 245
190 216 249
188 214 248
190 216 250
187 213 246
189 214 248
190 216 250
185 210 243
183 208 241
182 208 242
182 207 239
183 208 241
191 216 249
185 211 245
180 204 235
175 197 227
178 201 231
183 207 240
185 210 242
181 205 237
181 205 237
178 202 233
168 191 220
163 186 215
153 173 200
137 155 179
138 157 182
143 162 188
142 161 187
136 154 177
126 142 165
120 136 157
116 132 153
117 133 154
114 129 150
108 123 141
93 106 122
86 99 114
81 92 107
77 87 101
82 93 107
93 106 122
100 113 131
101 114 132
82 93 109
66 75 86
56 63 73
47 54 63
49 56 65
55 62 73
50 57 66
43 49 57
130 147 169
139 158 183
149 170 196
154 173 200
153 173 199
164 185 214
176 200 232
175 199 231
166 189 218
161 183 212
155 176 203
145 164 190
144 164 189
142 162 187
144 164 190
149 170 197
154 176 204
160 183 212
167 190 219
183 208 241
186 212 245
187 212 245
186 211 244
193 218 252
189 214 248
191 218 253
186 212 246
194 220 253
193 219 252
188 214 248
186 212 246
188 214 247
185 210 242
181 205 236
172 195 226
172 195 225
171 194 224
173 197 228
172 195 226
173 196 226
168 189 218
167 190 220
167 190 220
174 198 229
166 188 218
167 189 218
164 186 215
159 181 210
159 180 208
157 178 207
154 175 203
150 171 198
152 173 201
153 174 201
153 174 202
161 183 211
171 194 223
173 196 226
172 195 226
174 197 228
175 198 230
174 199 232
172 195 224
174 196 226
172 194 223
169 193 223
168 192 222
161 183 212
155 176 203
144 163 189
133 151 175
131 148 171
131 149 172
132 150 173
130 148 170
128 145 168
120 136 157
117 132 152
116 132 153
101 115 134
98 111 129
95 108 125
91 104 120
92 105 122
100 114 132
93 106 122
99 113 131
107 120 138
111 126 146
109 124 143
113 127 146
120 136 157
121 137 159
122 138 160
114 130 151
103 118 137
99 112 130
78 88 102
48 54 62
32 37 43
46 52 60
70 80 92
85 97 112
98 112 130
107 121 141
112 127 147
109 124 143
116 132 153
122 137 158
128 145 168
142 161 186
159 180 207
159 181 209
162 183 211
158 181 210
166 189 220
167 191 221
173 196 227
174 198 229
176 200 231
174 197 228
176 200 231
179 203 234
181 207 240
184 209 242
185 210 243
183 208 241
182 207 239
174 198 228
170 193 223
167 190 220
170 193 223
172 196 228
171 193 223
173 195 225
168 191 220
165 188 218
172 195 226
173 197 228
172 195 225
174 197 228
172 194 224
179 203 234
182 206 239
185 210 243
186 212 244
187 212 245
191 216 248
189 215 248
188 213 245
188 214 247
185 210 243
189 216 250
189 215 249
187 212 245
186 211 244
185 210 242
184 210 243
180 204 237
177 201 233
175 198 229
164 187 218
156 177 204
141 160 185
134 152 176
123 139 161
115 130 151
109 124 143
108 123 142
107 122 141
103 117 135
89 100 116
81 92 107
72 82 95
65 74 85
64 73 84
60 69 79
60 68 78
56 63 73
51 57 66
37 42 48
37 42 49
46 52 60
48 54 62
55 63 73
60 68 79
58 65 76
60 69 79
62 71 82
59 67 78
62 71 82
54 62 71
55 63 74
37 43 50
34 38 44
32 36 42
43 49 57
56 64 74
63 72 83
67 76 88
61 69 80
55 63 73
45 51 59
36 41 47
38 43 49
38 43 50
38 43 50
54 62 72
57 65 75
51 58 66
41 47 54
38 43 49
35 39 46
40 45 52
33 38 44
24 28 32
26 29 34
27 31 35
25 28 32
29 34 39
33 37 43
38 44 50
43 49 57
46 53 61
35 40 47
24 28 32
20 23 26
12 14 16
29 32 38
51 58 67
70 80 92
82 93 108
80 92 106
89 101 117
111 126 146
124 141 163
136 154 178
151 171 197
153 173 200
159 181 208
165 187 217
176 200 231
183 207 238
179 203 236
181 203 234
176 201 232
172 195 226
166 188 217
169 191 219
161 182 210
165 187 216
162 185 215
168 190 220
170 194 226
176 200 231
181 206 238
187 212 245
188 213 246
186 212 246
183 208 241
179 203 235
188 214 248
190 217 251
188 213 246
183 208 242
180 204 236
174 197 228
163 184 212
147 167 194
146 165 191
139 157 182
132 150 174
132 149 172
128 144 166
123 140 162
123 139 161
108 123 142
94 107 124
81 92 107
81 92 107
80 90 104
76 86 100
69 79 91
64 73 84
62 70 81
55 62 72
47 54 62
40 45 52
40 45 52
45 52 60
49 55 64
58 65 76
71 80 93
85 97 112
94 106 122
98 112 129
98 112 130
98 112 129
95 108 126
83 94 109
74 84 97
65 74 86
54 62 72
46 52 61
38 43 50
36 41 48
27 30 35
21 24 28
13 15 17
9 10 12
12 14 16
20 23 26
44 50 58
59 67 78
61 68 79
60 69 79
61 69 80
61 69 80
67 75 87
60 68 79
58 66 76
62 71 82
67 77 89
76 86 99
89 101 117
106 121 140
117 133 154
136 155 179
155 176 203
148 169 196
140 159 184
122 139 161
120 137 158
118 135 156
126 143 166
121 138 160
114 130 150
108 123 142
107 121 141
109 124 144
113 128 148
113 129 150
114 130 150
132 149 172
137 156 180
153 174 202
156 178 206
163 185 213
170 193 224
170 193 224
169 191 221
170 193 223
172 195 226
178 202 233
176 201 233
184 209 242
190 216 250
186 212 246
189 215 249
186 211 243
184 210 243
185 211 244
181 207 240
174 198 230
177 200 231
179 204 236
180 204 236
180 205 238
181 206 238
178 202 234
179 202 233
173 196 226
161 182 210
149 169 195
150 170 197
151 172 199
146 166 192
135 152 176
134 151 175
131 149 172
132 150 173
128 145 168
123 140 162
125 142 164
121 136 157
124 140 162
124 141 164
122 138 160
114 129 150
109 124 143
95 107 124
78 89 103
63 72 83
59 67 77
57 65 75
47 53 62
59 67 78
67 75 87
74 84 98
77 88 102
130 148 171
134 153 177
131 148 172
138 157 182
151 171 197
158 179 206
165 187 217
170 193 222
173 197 228
173 197 228
179 203 233
180 204 235
182 206 239
182 207 239
186 212 246
191 216 250
191 217 251
189 215 249
190 216 250
191 218 253
191 216 249
188 213 245
187 214 248
187 213 248
188 213 247
192 218 252
192 219 254
188 214 248
188 214 248
192 219 253
193 218 251
189 215 249
187 212 245
182 207 239
179 203 234
172 195 225
172 195 225
174 197 228
170 193 223
168 191 220
166 189 219
170 193 224
168 191 222
169 192 222
169 193 224
171 195 226
168 191 221
167 189 219
157 179 208
149 169 196
152 173 199
158 179 207
162 183 211
162 183 212
163 184 212
165 187 216
171 195 226
182 207 239
179 204 236
181 204 235
177 202 234
172 196 227
163 184 212
153 174 201
151 172 198
146 165 191
141 160 185
136 154 179
128 146 169
122 139 161
124 141 163
124 142 164
123 140 162
120 136 157
115 130 150
107 121 140
103 116 134
96 109 126
90 102 118
87 99 115
88 100 116
96 109 126
103 116 135
105 119 138
103 117 136
98 112 130
101 115 133
91 103 119
81 92 107
66 75 87
61 69 80
66 75 87
79 90 104
73 83 96
59 68 78
44 50 58
24 27 31
42 47 54
76 86 99
97 110 128
111 126 145
126 143 165
125 143 165
130 148 172
134 152 175
143 161 186
145 164 190
142 161 187
138 156 181
139 158 183
133 151 175
127 144 168
136 154 178
139 158 182
148 168 194
163 185 213
167 190 220
171 193 223
173 196 226
171 194 223
171 194 224
173 196 226
171 194 224
172 196 227
178 201 231
185 210 242
188 213 246
187 212 246
188 213 247
186 212 246
191 217 251
189 215 249
187 212 245
189 214 246
190 216 249
185 210 244
185 209 241
191 216 249
188 213 246
187 213 247
185 212 246
185 211 244
192 218 252
187 211 242
185 211 245
185 211 244
190 215 248
184 208 241
184 208 240
187 213 246
186 211 243
187 210 241
182 206 237
186 211 244
186 211 244
186 211 244
187 212 245
188 214 247
189 214 247
187 213 246
186 209 241
181 205 236
174 198 230
167 190 219
167 190 219
170 193 223
165 187 216
165 187 216
161 183 212
144 164 189
136 153 177
119 135 156
108 123 142
114 130 150
126 143 165
127 144 166
128 145 168
121 137 159
121 138 159
115 131 152
105 119 138
86 97 113
67 76 88
44 50 57
17 19 22
3 3 4
6 7 8
17 19 22
40 46 53
60 67 78
78 89 103
88 101 117
97 110 128
98 111 129
101 115 133
92 104 120
71 80 92
44 50 58
38 43 50
41 47 54
51 57 66
69 78 90
81 92 107
73 83 96
42 48 55
23 26 31
11 13 15
13 15 18
22 25 29
29 33 39
34 39 45
33 38 44
37 42 49
33 37 43
33 37 43
33 37 43
31 35 41
46 52 60
49 56 65
50 56 65
44 50 58
46 52 60
43 49 57
48 55 64
43 49 57
28 32 37
11 12 14
23 26 31
52 59 68
73 83 97
98 111 129
106 121 140
114 129 149
126 143 167
136 155 180
145 165 190
149 169 195
156 177 204
165 187 216
175 199 230
180 205 237
182 207 239
183 208 241
184 210 243
186 212 245
184 209 242
181 205 236
182 207 239
183 207 238
178 203 234
181 204 235
180 204 235
178 202 234
178 203 235
184 208 240
183 207 239
181 205 237
183 209 243
188 213 245
185 210 243
187 213 247
188 213 246
187 212 244
181 206 238
177 201 232
178 203 235
182 206 237
170 193 224
169 192 222
169 192 221
168 190 219
164 187 217
162 184 212
149 170 197
133 151 176
115 130 151
107 121 139
104 118 137
118 133 152
122 139 161
122 138 160
112 128 148
111 126 145
101 114 132
84 96 111
76 86 99
60 68 79
52 59 68
44 50 58
45 50 58
44 50 58
46 52 60
55 63 72
67 76 87
81 92 107
86 98 114
79 90 105
80 91 105
81 92 106
76 86 100
59 67 77
39 44 51
22 25 29
14 16 18
11 12 14
14 16 18
12 14 16
12 13 16
21 24 28
30 34 40
46 52 61
62 70 81
77 88 103
89 102 118
94 106 123
97 110 126
99 112 130
103 118 137
109 124 143
112 127 147
111 126 146
112 127 147
108 123 142
110 125 145
123 140 162
132 150 174
136 155 179
142 161 186
138 156 181
127 145 167
116 132 153
117 132 153
117 132 153
112 127 146
108 123 141
107 121 141
97 111 128
90 103 119
91 103 119
81 92 107
64 72 83
53 60 70
49 56 65
58 66 76
74 83 96
90 102 118
107 122 142
121 138 159
125 143 166
129 146 169
134 152 176
141 160 185
147 167 193
153 174 202
159 180 208
165 189 219
177 200 230
184 209 241
186 212 247
190 216 249
190 216 250
187 212 244
184 208 241
181 205 238
184 209 241
180 204 236
180 204 235
175 198 228
172 195 225
169 192 222
166 188 218
160 183 213
157 179 208
152 173 201
153 173 200
153 173 199
150 170 196
143 163 189
138 157 182
145 164 190
150 170 196
155 175 202
157 179 207
158 179 207
158 180 209
163 185 214
170 192 222
167 190 219
158 179 207
142 161 186
121 136 157
105 119 138
94 107 123
84 95 110
74 83 96
73 82 95
81 92 106
92 105 122
95 108 125
96 109 126
91 103 118
92 105 121
99 113 131
98 111 129
107 121 140
114 129 150
129 146 169
144 162 187
155 177 207
173 196 228
181 206 238
183 208 241
183 208 240
184 209 241
185 211 244
187 213 247
190 217 251
189 215 249
192 218 252
193 219 253
192 218 253
191 218 252
187 212 245
188 214 248
191 217 251
191 216 250
187 213 247
192 217 249
190 216 251
186 212 246
187 213 246
183 207 239
178 202 234
177 201 233
175 198 229
171 194 224
167 190 221
168 191 220
173 196 227
177 201 232
181 206 238
178 201 232
179 203 236
171 194 224
168 191 221
157 179 207
148 168 194
136 155 180
134 153 178
127 144 167
126 144 166
127 145 168
131 149 172
128 146 169
125 142 165
123 140 162
126 142 165
139 158 183
148 169 196
145 165 191
141 160 185
148 168 194
147 167 193
147 167 194
143 162 187
142 162 187
137 156 180
140 158 183
139 158 183
144 163 188
142 161 186
138 157 181
139 157 182
136 155 180
139 158 182
132 151 175
128 145 168
126 142 164
116 132 153
123 140 161
130 147 170
138 157 182
147 167 192
144 163 189
134 153 177
128 146 169
120 137 158
107 122 142
100 113 132
83 95 110
74 84 97
61 70 81
49 55 64
33 37 43
20 23 26
27 31 36
46 53 61
70 80 92
101 114 133
114 130 150
106 120 139
100 113 129
94 107 124
95 108 124
96 109 126
97 110 127
101 115 133
100 114 132
106 120 139
108 123 143
121 137 158
128 145 168
134 152 176
138 157 182
145 164 190
154 175 203
160 182 211
168 191 220
172 195 226
174 198 229
174 198 230
184 208 240
184 209 241
181 206 238
181 205 236
184 208 240
189 214 247
187 213 245
184 210 243
189 215 248
187 213 247
194 220 253
188 213 246
192 217 250
190 216 249
190 216 249
187 212 245
189 214 248
184 209 241
185 210 242
189 214 247
190 216 250
190 215 249
190 216 249
190 216 250
189 215 249
186 212 245
191 216 249
183 208 241
184 209 241
180 204 236
181 205 237
184 209 242
184 209 242
190 216 250
188 214 249
183 209 242
192 218 252
191 216 250
190 214 246
187 211 244
184 208 240
187 212 245
187 213 246
189 215 249
186 211 244
186 211 243
189 214 247
190 216 250
189 214 247
178 202 234
174 197 227
165 187 216
161 183 212
156 177 204
156 177 205
153 174 201
154 174 201
149 170 196
141 160 186
132 150 174
119 135 156
96 109 126
79 89 104
55 62 72
38 43 49
16 19 22
11 13 15
23 27 31
43 50 58
69 79 91
85 96 111
92 105 122
95 107 124
88 99 115
77 87 100
62 71 82
53 60 69
37 42 48
20 22 26
10 12 13
46 52 60
78 88 102
80 91 106
57 64 74
31 35 41
29 32 37
22 25 29
23 27 31
26 29 34
24 28 32
26 30 35
26 30 34
22 25 29
16 18 21
13 14 17
21 24 28
34 39 45
37 43 50
35 39 45
35 40 46
26 29 34
19 22 25
13 15 17
13 15 18
16 19 22
32 36 41
48 55 63
64 72 83
81 92 106
100 114 131
110 125 145
128 145 168
132 150 173
141 161 186
151 171 198
159 181 210
169 191 221
177 200 231
177 201 233
180 205 238
177 201 233
174 198 229
176 200 231
174 198 229
175 199 230
175 198 229
173 197 228
175 199 230
172 196 227
179 204 236
185 209 241
183 208 241
186 212 245
185 211 244
179 205 238
187 212 245
190 216 251
187 213 247
189 215 249
184 209 241
178 203 234
170 193 223
164 185 214
166 190 220
168 190 219
170 192 221
165 186 215
165 188 217
157 178 206
150 170 197
142 161 186
133 151 175
127 144 167
134 152 176
133 152 175
134 151 175
126 143 165
117 132 152
106 121 139
105 120 139
105 119 138
101 114 132
102 116 133
108 123 142
109 123 142
97 110 127
86 98 113
79 90 105
73 83 97
71 81 94
62 70 81
57 65 75
66 76 88
73 83 96
73 83 96
68 77 90
61 69 79
53 61 70
41 47 54
34 39 45
22 25 29
16 18 21
18 21 24
27 30 35
29 33 39
32 37 42
32 37 43
38 44 51
40 45 52
40 46 53
48 55 64
51 58 67
56 64 74
58 66 77
60 68 78
63 72 83
67 76 88
73 83 95
79 89 103
91 103 119
100 114 133
110 125 145
119 135 156
124 141 163
121 137 158
108 123 142
105 119 138
111 127 147
117 132 153
121 138 160
122 138 160
121 138 160
132 151 175
137 156 180
137 155 179
133 151 175
134 152 175
137 156 181
128 146 170
116 132 153
112 128 148
110 124 144
113 128 149
125 143 165
129 146 169
129 147 170
130 148 171
135 154 179
147 167 193
156 177 204
159 181 210
159 180 208
159 180 207
154 174 201
160 182 210
167 190 220
173 196 226
178 202 233
184 209 242
187 212 244
188 213 246
189 215 249
192 217 250
189 214 247
181 206 239
180 204 236
177 202 234
172 196 227
170 193 223
168 192 223
166 188 217
166 188 217
164 187 218
164 186 215
158 180 208
160 181 210
153 173 200
145 165 191
146 166 193
145 165 190
146 166 193
146 166 191
157 179 207
161 183 213
169 192 222
170 193 223
159 181 210
155 175 202
140 159 184
127 144 167
124 141 163
125 142 165
122 138 160
123 140 162
125 142 165
123 140 162
119 135 156
114 130 150
105 119 138
128 145 167
124 140 162
120 136 157
120 137 159
125 142 164
136 154 178
148 168 193
150 171 199
165 187 216
167 190 220
174 197 228
172 195 224
177 201 233
180 204 236
186 211 244
188 213 246
190 216 250
188 215 250
188 214 247
190 216 250
190 216 249
190 215 248
189 215 250
192 219 253
194 219 253
192 217 250
187 213 247
187 212 245
188 212 244
184 209 243
186 212 246
188 213 247
189 214 247
187 212 244
189 214 247
183 208 240
186 212 245
191 217 250
188 215 249
188 213 246
178 202 234
169 193 223
163 186 215
162 184 213
151 172 199
141 161 186
135 153 178
134 153 177
135 153 177
139 157 181
152 172 198
159 180 208
165 188 217
164 186 215
165 187 216
152 173 200
143 163 189
132 150 174
107 121 140
87 99 114
98 112 130
114 129 150
122 139 161
125 142 165
124 141 163
126 144 167
134 152 176
141 160 184
145 164 189
147 166 192
147 168 194
148 168 194
143 163 188
145 165 191
145 164 190
137 155 179
124 141 163
118 135 156
119 136 157
119 135 156
119 135 155
118 135 156
115 131 151
114 130 150
118 134 155
121 136 157
104 118 137
89 101 117
73 82 95
61 70 81
53 60 69
40 45 53
31 35 40
51 58 67
68 77 88
72 83 96
72 82 95
57 65 76
39 44 51
47 53 62
48 55 64
43 49 57
39 44 51
43 48 56
42 47 55
42 47 55
48 55 64
58 65 75
67 77 89
87 100 115
94 107 123
98 112 130
103 117 135
101 114 132
115 130 151
127 144 166
141 161 186
164 186 214
174 198 229
179 203 235
175 199 230
173 197 228
164 188 218
170 193 224
178 202 234
186 211 243
190 217 251
189 215 249
192 216 248
185 211 245
188 214 247
184 210 244
189 215 249
192 219 253
190 215 248
190 216 250
187 212 246
189 216 251
190 215 248
187 213 247
188 213 245
188 214 248
186 211 242
182 207 240
178 202 234
179 204 237
181 205 236
174 198 229
172 195 225
164 187 217
169 193 223
179 203 234
180 205 238
186 212 245
183 209 242
184 209 242
188 213 246
192 217 251
188 215 250
187 213 247
188 214 247
185 210 244
183 208 241
188 213 247
188 213 246
188 214 247
189 214 248
188 213 246
188 214 247
189 215 248
193 218 250
188 213 245
188 213 247
182 208 241
176 201 233
174 197 228
173 196 227
166 189 219
153 174 201
137 155 179
118 134 154
103 117 136
83 95 110
69 78 89
52 59 68
35 40 46
23 26 31
9 10 11
7 8 9
9 10 12
23 26 30
39 44 50
43 49 57
47 53 61
48 54 62
32 36 42
15 17 20
8 9 11
17 20 23
31 35 40
41 46 53
52 60 69
68 77 89
81 92 107
78 89 103
79 90 104
76 87 100
73 82 95
66 75 86
61 70 82
62 71 82
64 72 83
54 61 71
47 53 62
43 49 57
41 46 54
41 47 55
39 45 52
38 43 50
45 51 59
59 67 77
79 90 105
85 96 111
83 94 108
90 102 118
88 100 116
85 96 112
82 92 106
81 92 106
86 98 114
100 114 132
117 132 153
127 144 167
140 158 182
141 160 185
151 172 200
153 174 201
165 187 214
163 185 213
164 186 214
163 184 212
166 188 216
167 191 221
167 189 218
158 179 207
152 173 199
150 170 197
152 172 199
161 183 211
171 194 225
180 204 236
190 215 248
185 211 244
185 211 244
184 210 242
186 212 245
190 216 250
189 214 247
185 210 242
184 207 238
187 212 244
179 203 235
174 198 229
166 188 218
158 180 207
159 180 208
153 174 202
151 171 197
151 171 198
144 164 189
134 152 176
134 153 177
134 152 176
132 150 174
129 147 171
135 154 178
134 152 176
125 142 165
114 130 150
102 116 135
103 116 134
105 119 137
110 124 144
114 129 150
120 136 157
125 143 165
139 158 183
140 159 184
140 160 185
121 138 160
101 115 133
80 91 105
62 70 81
50 57 65
42 48 56
36 41 47
26 30 35
20 23 27
14 16 19
6 7 8
9 10 12
9 10 12
8 10 11
13 15 17
7 8 9
16 18 21
26 30 35
28 32 37
38 44 50
49 56 65
43 49 56
37 42 48
38 43 50
45 51 59
41 46 54
28 32 37
19 22 25
14 16 19
12 14 16
16 18 21
22 25 28
31 36 41
51 57 66
65 74 86
86 98 113
106 119 137
118 134 154
119 136 158
127 144 166
130 148 171
133 151 175
134 152 176
123 139 161
114 129 150
108 123 142
110 125 145
120 137 159
127 143 165
135 153 177
148 168 194
154 175 202
151 173 201
160 181 209
156 178 206
159 181 210
163 185 215
160 182 211
153 173 200
144 163 189
143 162 187
141 160 186
141 161 186
144 164 190
143 162 187
151 172 198
163 185 214
173 196 226
185 209 242
189 213 245
191 217 251
188 213 246
190 216 250
189 215 249
190 216 250
187 212 245
189 214 248
187 211 244
186 210 242
183 207 239
183 208 240
179 203 236
180 204 235
174 198 229
170 194 225
170 194 226
170 193 223
163 186 216
160 182 211
155 176 203
150 171 197
150 170 197
153 173 199
160 180 207
168 190 219
174 198 229
168 192 222
159 181 209
142 161 187
126 142 164
118 134 155
116 132 153
119 136 158
113 129 149
112 128 148
105 119 138
107 121 140
116 132 152
121 137 159
127 144 166
124 141 163
163 185 213
167 189 219
171 194 223
163 186 215
161 183 211
157 179 208
155 176 204
152 172 198
158 179 207
159 180 209
161 183 212
164 186 215
167 189 218
170 193 222
179 205 238
188 212 245
185 211 245
192 217 249
187 212 244
191 216 250
188 213 246
185 210 244
181 206 239
181 206 238
180 205 237
181 207 240
186 211 244
191 216 250
190 215 249
194 219 253
190 216 250
186 213 248
192 219 253
188 215 249
190 217 251
188 213 247
194 220 255
189 215 249
191 217 252
189 215 248
181 206 238
183 207 239
175 198 229
166 188 217
155 176 204
147 167 193
143 162 187
137 156 181
132 149 172
134 153 177
144 164 189
149 169 195
150 170 197
157 179 207
159 179 206
157 179 207
150 170 197
132 150 174
111 125 144
87 100 116
87 98 114
94 107 125
97 111 128
101 114 132
97 110 127
103 117 136
115 131 151
120 136 157
126 143 165
126 143 165
126 143 165
132 150 173
132 149 172
122 138 160
114 129 149
98 111 129
94 107 123
95 109 127
97 110 127
101 114 132
100 113 130
95 108 125
92 106 123
89 101 116
77 88 102
67 76 88
53 60 70
33 37 43
29 33 38
36 41 48
56 63 73
66 75 87
68 77 89
44 50 58
26 30 35
32 37 42
36 41 48
43 48 56
53 60 70
57 65 75
54 61 71
44 50 58
33 37 43
35 39 46
35 39 46
37 42 49
39 44 51
32 37 43
30 34 39
33 38 44
34 39 45
35 40 46
33 37 43
48 54 62
67 76 88
97 110 128
122 139 162
142 161 187
158 179 208
162 184 214
165 188 219
174 198 229
174 197 228
176 200 232
184 209 242
190 215 248
184 209 243
184 209 240
180 204 235
176 201 233
176 201 233
173 197 228
175 199 231
173 196 226
171 195 226
177 201 233
179 205 238
182 207 239
184 209 242
190 217 251
187 213 247
186 213 247
189 213 245
187 212 246
183 207 240
180 204 236
173 197 227
173 196 226
169 192 222
166 189 218
166 188 217
160 181 208
166 189 218
171 196 228
180 203 233
172 196 226
180 204 236
181 205 236
181 205 237
179 204 238
187 213 246
185 210 244
189 215 249
188 214 248
191 216 250
192 217 250
191 218 252
188 214 248
190 215 248
188 214 247
178 202 234
168 191 222
164 186 216
162 184 213
161 183 213
162 184 212
158 178 205
148 168 195
139 157 182
127 144 166
117 133 153
103 117 135
88 100 116
72 82 95
62 70 81
57 65 75
50 57 66
40 45 52
24 27 31
9 10 11
8 9 11
25 29 33
34 38 45
28 32 38
15 17 20
12 13 15
18 20 23
22 25 29
29 33 38
41 46 53
53 60 69
55 63 73
53 60 70
55 62 72
69 78 90
78 88 102
79 90 104
89 101 116
91 104 121
86 97 112
82 93 107
82 94 109
86 98 114
90 102 118
84 96 111
89 101 116
99 112 130
107 122 141
104 118 137
104 118 136
104 118 137
117 133 154
127 143 166
130 147 170
133 150 174
125 142 163
124 140 161
133 150 173
133 151 174
142 161 186
144 164 190
155 176 204
158 180 208
157 179 207
163 185 215
164 186 215
162 185 214
167 189 218
166 189 220
160 182 211
163 185 215
165 187 216
161 183 212
164 186 216
158 179 206
156 177 203
152 173 200
167 188 217
175 199 231
183 208 241
187 211 244
185 210 243
191 217 250
190 215 249
188 214 247
185 211 244
183 209 242
185 210 242
180 204 235
175 199 229
174 198 229
182 207 240
182 205 236
172 196 227
171 194 225
167 190 221
165 188 218
161 184 213
159 180 209
158 179 207
157 178 205
157 178 206
158 180 208
150 171 198
141 160 184
139 157 181
133 150 173
130 146 169
123 140 162
118 135 157
112 127 146
106 120 138
107 122 141
119 135 156
133 151 175
137 155 179
147 167 193
153 173 200
144 163 188
133 151 174
105 120 140
80 91 105
60 68 79
51 58 67
50 57 66
51 58 67
45 51 59
37 42 49
36 40 47
27 30 35
18 21 24
13 14 17
10 11 13
13 15 17
9 11 12
14 16 19
26 29 34
28 32 37
29 33 38
35 40 46
35 40 46
26 30 35
15 17 20
16 19 22
18 21 24
28 33 38
32 37 43
42 48 56
45 51 59
29 33 38
20 22 26
10 11 13
15 17 20
36 41 47
49 56 65
60 69 80
73 83 96
82 94 108
96 108 125
105 119 138
112 128 149
125 142 164
135 153 177
138 157 181
137 155 179
134 152 175
124 141 163
123 140 162
120 136 157
125 142 165
130 147 170
127 144 167
125 141 163
126 143 165
132 150 173
138 156 181
135 154 178
134 153 177
135 153 177
142 161 186
143 162 188
137 155 179
138 156 181
137 157 182
148 168 195
159 182 211
171 195 226
178 203 235
185 209 241
190 214 247
186 211 244
193 219 252
190 216 250
192 218 251
190 216 251
191 217 251
190 215 248
186 211 244
185 210 243
184 209 241
183 208 239
191 216 249
187 212 245
187 212 244
179 203 234
178 202 233
176 200 231
174 198 229
170 193 224
167 189 218
170 192 221
163 185 214
156 177 204
148 169 196
148 168 194
145 165 191
148 168 194
141 161 187
134 152 176
128 145 168
126 144 166
114 130 150
109 124 143
106 121 140
101 115 133
100 114 132
110 124 143
117 132 152
120 137 159
113 128 148
164 186 215
158 179 207
149 169 195
150 170 196
155 176 203
162 184 213
164 186 215
170 193 224
177 201 232
183 207 239
183 209 242
184 209 243
185 209 241
182 207 239
174 199 232
183 208 240
181 206 238
183 208 240
183 208 241
181 206 239
175 198 229
174 197 227
168 191 220
173 197 229
180 204 235
180 204 235
181 206 239
181 206 239
180 205 238
186 211 243
185 211 245
188 213 246
190 215 249
192 218 252
193 219 253
194 219 251
192 218 252
185 211 244
192 219 253
190 216 250
188 213 245
184 209 240
171 193 222
159 180 208
149 169 196
144 163 188
137 156 181
139 158 183
144 164 189
149 170 198
149 169 195
143 163 188
141 160 186
135 154 178
128 146 168
120 136 158
101 114 131
95 107 124
95 108 125
85 96 112
83 94 109
79 90 104
74 84 97
71 81 93
69 78 91
74 85 98
80 91 105
85 97 113
85 98 113
85 96 111
88 100 115
84 95 110
80 91 105
78 89 103
77 88 102
78 88 102
81 92 106
79 90 104
78 88 102
78 89 104
81 92 107
73 83 96
69 78 90
54 62 71
39 44 51
23 26 30
20 23 27
38 43 50
63 71 82
59 67 78
45 51 59
24 27 31
17 19 22
37 42 49
50 57 65
62 70 81
59 67 77
50 57 66
46 52 60
41 47 54
40 46 53
35 40 46
43 49 57
69 78 90
88 100 116
95 108 125
91 103 120
87 98 113
88 99 114
80 91 105
62 70 81
43 49 56
16 19 22
24 27 31
50 57 66
75 85 99
100 114 133
117 133 155
123 139 159
116 133 154
127 144 167
128 146 168
143 162 187
154 175 202
166 189 219
181 206 240
187 213 247
178 201 232
169 193 224
171 195 226
167 190 220
167 189 219
165 188 218
173 197 227
177 201 232
185 210 243
184 209 241
185 210 242
186 212 245
186 209 241
189 214 248
187 213 247
190 216 249
186 211 244
182 207 239
180 204 235
177 201 232
182 207 240
174 199 230
176 200 231
174 197 227
170 192 221
170 193 224
173 197 227
172 196 228
175 199 229
168 191 222
167 190 220
171 194 223
177 201 232
186 211 244
187 212 244
187 213 246
188 214 248
191 217 250
192 217 251
189 216 251
185 211 245
186 211 243
181 206 239
181 206 238
171 194 225
170 191 220
162 183 211
153 174 200
148 167 194
131 149 172
127 145 168
126 143 165
123 140 163
125 142 163
119 136 158
113 129 150
109 123 142
100 113 131
95 108 124
90 102 118
77 88 102
62 70 81
43 49 57
33 37 43
17 20 23
13 15 18
15 17 20
11 13 15
12 14 16
18 21 24
24 27 32
37 42 48
45 51 59
52 59 69
56 64 74
47 54 62
40 45 52
35 40 46
35 40 46
50 57 66
62 70 81
71 80 93
84 96 111
102 115 133
108 123 142
114 130 151
108 122 142
97 111 128
89 101 117
92 104 121
90 102 118
93 106 123
92 105 121
95 109 126
115 131 151
122 139 161
125 142 164
125 142 165
124 141 163
122 138 159
124 141 163
138 156 180
151 171 198
164 186 214
175 198 228
174 198 229
177 201 232
177 200 229
178 202 233
176 200 231
173 196 227
176 200 231
178 202 232
177 201 233
178 203 234
178 202 234
182 207 239
180 205 237
187 212 245
186 211 243
186 213 247
188 214 248
191 216 248
190 216 249
190 217 251
191 217 251
189 214 246
187 212 245
181 205 237
184 209 241
183 208 241
183 207 239
180 206 239
175 199 231
175 200 231
179 203 235
175 199 230
171 194 224
170 194 224
174 198 229
178 201 232
179 203 234
179 202 233
177 201 233
174 197 229
166 188 218
159 181 209
155 176 203
140 159 183
130 147 171
133 151 174
133 151 175
136 154 179
138 158 184
142 162 188
144 163 189
139 158 182
138 157 182
138 157 182
140 159 183
121 137 159
109 123 142
96 108 125
87 99 115
72 81 94
63 72 83
59 67 78
48 55 63
48 54 63
50 56 65
43 49 57
44 50 57
43 49 57
38 44 51
29 33 39
20 22 26
7 8 9
11 13 15
14 16 18
15 17 20
17 20 23
22 25 29
30 34 39
27 31 35
32 36 42
40 46 54
60 68 78
74 84 97
72 82 94
78 88 102
86 98 113
75 85 98
60 69 80
49 56 65
34 39 45
29 33 39
29 33 38
23 26 30
18 21 24
20 23 26
30 34 40
46 52 60
60 69 80
75 86 99
87 99 114
98 111 129
105 119 138
117 133 154
131 148 171
142 161 186
152 172 198
152 173 200
156 177 204
149 170 197
148 168 195
143 162 188
141 159 184
129 147 170
123 140 162
120 137 158
128 146 169
134 152 176
131 149 173
136 154 178
150 171 197
158 179 207
161 183 212
172 194 223
169 191 221
172 195 226
172 197 230
178 202 233
181 205 237
183 207 239
189 214 246
187 213 246
187 212 246
191 217 251
189 215 250
190 215 248
193 219 253
192 217 249
185 210 242
184 209 241
185 210 241
184 209 241
184 209 242
188 214 248
190 215 247
185 210 243
176 199 230
166 189 219
162 184 212
160 182 210
156 177 205
157 178 205
159 180 207
162 184 212
161 183 213
153 174 201
156 176 203
147 166 192
137 155 180
132 148 169
138 156 180
140 159 183
130 147 170
122 140 162
115 130 150
105 118 136
98 111 129
97 111 128
99 113 131
161 184 215
164 185 214
162 184 214
172 195 225
171 195 226
173 197 229
178 203 236
180 205 237
185 210 242
187 212 245
187 212 244
188 213 246
189 215 249
185 210 243
189 215 249
191 216 249
190 216 250
190 216 250
186 212 245
189 215 250
188 212 243
176 201 234
180 205 237
180 204 236
178 203 237
176 200 232
178 201 232
181 206 238
183 207 240
186 211 245
190 215 247
190 216 250
189 214 247
189 215 248
189 214 246
190 215 249
187 213 247
188 214 248
191 217 251
191 218 253
191 216 249
178 203 235
174 197 228
163 185 214
153 175 203
142 162 188
143 163 189
143 162 188
143 162 187
135 153 177
129 147 170
123 139 161
116 132 153
110 125 146
106 121 139
99 112 130
102 116 134
106 121 139
101 115 133
97 110 127
96 110 128
88 99 115
81 92 106
76 86 99
72 82 95
65 74 85
52 60 69
50 56 65
55 62 72
67 77 89
78 89 103
84 95 110
87 99 115
85 96 111
80 91 105
79 90 104
75 85 98
73 83 96
79 89 103
74 84 97
76 86 100
65 73 84
49 56 65
30 34 40
27 31 35
35 40 46
41 47 54
50 56 64
49 55 64
36 41 47
17 19 22
9 10 12
15 17 20
24 28 32
24 27 31
31 35 41
41 46 54
52 59 68
64 73 85
77 87 101
80 91 105
82 93 107
94 106 122
96 109 126
93 106 122
89 101 117
77 87 101
65 74 86
54 61 71
48 55 63
37 42 49
18 20 24
7 8 10
23 26 30
30 35 40
26 29 34
27 31 36
30 34 40
27 31 36
49 56 65
71 80 93
91 103 119
120 136 157
142 160 185
155 177 205
165 188 218
177 202 234
176 201 233
178 203 235
187 212 244
185 210 242
187 212 245
187 212 246
189 215 249
188 213 247
188 213 246
190 215 249
190 216 251
188 213 245
188 213 246
188 214 247
189 214 246
186 212 246
186 210 242
184 208 240
189 213 246
190 216 249
188 215 249
191 216 249
189 215 248
187 213 248
186 211 244
181 206 238
175 200 233
172 195 226
164 188 219
163 185 214
160 181 209
163 185 214
168 191 221
173 195 225
183 208 241
185 210 242
180 205 237
182 206 238
182 207 240
182 206 238
180 205 238
181 207 240
183 208 241
185 210 242
185 211 244
186 210 242
182 206 239
176 199 229
177 200 230
164 186 216
155 176 203
143 162 187
132 151 174
119 135 156
104 118 136
94 106 123
82 93 107
71 80 92
65 73 85
65 74 85
68 78 91
68 78 90
60 68 79
52 59 68
41 46 54
29 33 38
26 30 35
21 24 27
19 22 25
17 19 22
17 19 22
17 19 22
24 27 31
40 45 52
49 56 65
52 59 69
58 67 77
60 68 79
61 69 80
67 76 88
69 78 90
79 90 104
85 97 113
90 103 119
101 115 133
94 106 123
76 86 99
65 74 86
52 59 68
47 53 62
51 58 68
60 68 78
74 84 97
87 99 114
98 112 129
104 118 137
109 123 142
108 122 141
115 130 149
126 143 165
142 160 185
154 175 203
161 183 211
164 187 217
171 193 221
161 182 211
153 173 199
150 171 197
138 157 182
135 154 177
131 149 173
145 164 189
144 164 190
149 169 196
149 169 196
146 166 192
146 166 193
150 171 198
168 191 220
173 197 228
178 202 233
180 205 237
186 211 244
185 211 244
187 212 245
191 217 251
190 215 248
191 217 251
191 217 250
191 216 249
191 215 247
185 210 244
186 211 243
185 211 245
181 206 239
177 200 232
174 198 229
175 198 228
175 199 230
180 204 235
181 205 237
179 203 236
182 205 236
173 197 229
173 196 227
160 182 211
153 175 203
143 164 190
138 157 183
135 154 178
130 147 171
125 142 163
124 140 162
125 142 163
129 147 170
132 150 173
134 151 174
131 148 172
118 135 157
106 120 139
100 113 131
93 105 121
83 94 109
76 86 100
78 89 103
87 99 114
87 98 114
75 85 98
67 76 88
66 75 86
59 67 77
47 53 61
49 56 65
53 60 70
52 58 67
56 64 74
48 55 64
30 34 39
13 15 17
12 13 16
28 32 37
51 58 67
75 86 99
93 105 122
103 116 134
97 110 128
91 103 119
91 103 119
97 110 127
97 110 128
95 108 125
97 110 128
100 114 132
97 111 128
88 99 115
89 101 117
90 103 119
88 100 115
84 96 111
82 93 108
62 71 82
52 60 69
50 57 67
40 46 54
42 48 56
47 53 62
60 68 79
70 80 93
92 104 121
102 115 133
121 138 159
134 152 175
139 158 183
146 165 191
155 175 203
160 182 210
163 185 214
163 186 216
164 187 215
157 178 205
155 176 204
153 174 201
149 170 196
151 172 199
157 178 206
162 185 215
171 194 225
173 196 226
168 191 221
165 186 214
160 182 211
148 168 195
151 173 200
153 173 199
159 181 210
166 189 219
177 202 234
182 207 239
183 207 239
188 215 249
190 215 248
192 218 252
193 218 252
188 214 248
185 210 242
185 210 244
184 209 241
185 209 241
182 205 237
178 203 235
175 199 230
177 201 231
181 205 236
176 201 233
168 191 221
162 184 214
161 182 209
158 180 209
152 172 198
150 171 198
148 169 196
149 169 196
155 176 203
159 180 208
157 178 205
155 176 204
160 182 210
157 177 204
137 156 180
117 133 155
110 125 144
118 133 154
140 159 183
155 176 203
157 177 205
159 181 209
168 191 220
177 201 232
179 204 236
183 207 239
187 211 243
186 211 245
187 211 243
185 210 243
188 213 246
188 213 246
185 211 244
185 212 246
192 217 250
190 215 248
189 216 250
192 218 253
194 220 253
193 219 254
187 213 246
182 207 239
181 204 235
174 197 227
174 197 228
181 204 235
185 210 242
186 211 244
188 214 247
190 216 250
192 218 252
188 214 247
193 217 249
190 215 249
188 214 249
189 214 247
192 217 250
185 210 243
186 212 246
184 209 242
180 205 238
180 204 236
177 200 232
176 200 231
173 197 229
172 196 227
173 196 225
170 194 224
160 182 211
152 173 200
135 153 176
116 132 152
115 130 150
109 123 142
105 119 137
102 116 134
105 119 137
102 116 134
91 104 120
87 100 116
90 102 118
94 107 124
92 105 122
96 109 127
105 120 139
99 112 129
88 101 117
91 103 120
85 97 112
85 96 111
88 100 116
96 108 125
104 119 137
106 120 139
110 125 144
98 112 130
83 95 110
69 78 90
48 54 63
24 27 31
18 21 24
26 30 34
30 34 39
27 30 35
24 27 31
21 24 27
17 19 22
15 18 20
16 18 21
17 19 22
25 29 33
40 45 53
52 60 69
69 79 92
87 99 114
93 106 122
96 109 125
91 104 120
83 95 110
83 94 109
79 90 104
80 90 104
78 89 103
62 70 81
44 50 59
27 31 36
24 27 31
16 18 21
12 14 16
12 14 16
24 27 32
42 48 55
51 58 67
48 54 63
34 39 45
17 19 22
11 13 15
16 19 22
34 38 45
47 53 61
75 84 97
90 102 118
100 113 131
107 122 141
113 128 147
119 134 155
121 137 159
125 142 165
127 144 166
128 146 169
139 158 182
148 168 193
158 179 206
162 183 212
169 192 222
169 192 223
179 204 236
179 203 236
183 207 239
179 203 233
177 200 231
174 197 228
169 193 223
167 189 218
177 199 229
180 206 238
180 204 236
182 207 240
184 209 241
181 206 238
182 208 242
189 215 249
190 216 250
187 211 244
180 204 236
178 202 233
168 190 218
153 174 201
144 164 190
150 170 196
156 177 205
161 183 212
170 193 223
173 197 228
176 200 232
181 204 234
176 200 232
178 202 234
184 209 241
181 206 238
186 211 244
183 209 242
186 211 243
188 213 247
182 206 238
170 194 225
158 180 209
141 160 185
131 148 171
130 147 170
125 143 165
124 141 163
116 131 151
103 116 134
86 97 112
75 86 99
68 78 90
59 67 77
55 63 73
45 52 60
38 44 51
32 36 42
28 31 36
17 19 23
11 12 14
15 17 19
19 22 25
14 16 18
7 8 10
13 15 17
27 30 35
38 43 50
53 60 70
60 68 79
68 77 90
61 69 80
53 60 70
48 54 63
52 59 68
46 53 61
44 49 57
43 48 56
34 39 45
33 37 43
38 44 51
50 57 66
59 67 77
67 76 88
70 79 92
63 72 83
58 66 76
70 80 92
84 95 109
103 118 136
123 140 162
135 153 177
152 173 199
160 181 209
161 182 209
155 176 204
149 168 194
139 158 183
134 151 174
121 137 158
119 135 156
111 127 146
106 121 140
99 113 130
95 109 126
102 116 134
107 122 141
114 129 150
114 130 150
117 132 153
123 139 161
136 155 179
154 174 200
165 188 218
177 200 231
182 206 237
183 206 238
185 210 242
187 212 245
190 215 249
188 214 249
191 216 249
185 210 243
192 218 253
188 212 245
184 210 244
177 201 234
179 204 235
177 201 232
179 203 234
182 207 239
181 205 236
185 211 245
187 212 244
184 208 240
176 200 232
173 196 227
161 183 211
151 172 200
142 161 187
142 161 186
136 155 179
136 154 178
136 153 176
132 150 174
137 156 181
141 160 186
132 149 172
120 135 156
120 136 158
113 129 150
110 125 145
112 127 147
112 127 146
119 135 155
126 143 165
138 157 181
140 159 184
146 165 190
146 165 191
130 148 170
121 137 158
107 121 140
107 122 142
108 123 142
105 119 137
104 119 137
100 113 131
81 92 107
59 67 77
36 41 48
7 8 9
32 36 42
57 65 75
84 96 110
108 122 141
117 133 153
113 128 147
96 109 126
82 93 108
79 89 103
73 84 97
71 80 92
77 87 100
85 97 113
103 117 135
118 135 157
124 141 163
132 150 173
138 157 182
145 165 191
140 159 185
131 149 172
126 143 165
114 129 149
94 108 125
78 89 103
62 71 82
45 52 60
43 49 57
33 37 43
30 33 38
39 44 51
58 65 75
76 87 101
88 99 115
88 100 116
100 113 131
114 130 150
121 137 159
136 154 179
145 164 190
155 176 203
159 181 210
166 189 218
170 193 223
174 198 229
180 204 236
178 203 235
180 205 238
175 200 231
183 207 239
180 205 237
176 201 232
173 196 227
173 195 224
168 191 220
160 182 210
165 187 215
165 188 217
166 189 219
164 186 215
168 191 221
175 199 231
185 211 245
188 213 247
191 217 250
189 215 248
188 214 248
185 210 243
187 212 246
188 213 247
185 209 241
188 213 245
179 203 236
178 202 233
175 199 229
172 195 225
169 192 222
164 186 215
166 188 216
164 186 215
157 178 206
161 183 211
159 180 208
158 179 207
157 178 206
153 174 202
147 167 193
143 163 189
142 161 185
132 150 173
133 152 176
140 159 184
145 164 189
151 172 198
146 166 193
152 173 200
159 180 207
169 192 223
178 202 233
180 204 236
184 207 239
182 206 238
180 203 235
179 203 235
173 196 227
171 194 223
170 194 225
175 199 230
184 209 241
189 215 248
190 217 251
189 215 248
189 216 251
188 214 248
189 214 248
179 204 235
173 196 227
170 192 220
159 181 209
164 186 215
162 185 214
164 185 214
164 185 214
162 184 213
164 186 215
175 197 227
185 211 244
191 216 250
192 218 252
192 217 251
191 216 249
190 215 249
187 212 244
185 211 244
190 216 249
189 215 249
193 219 253
191 216 249
189 216 250
191 217 251
185 210 242
185 211 244
182 207 240
175 200 232
169 192 221
155 176 204
144 164 189
139 158 183
136 154 178
143 162 188
149 170 198
156 177 204
156 177 206
162 184 213
165 189 220
180 204 236
174 198 229
180 204 236
171 194 224
171 194 224
165 188 217
170 193 222
166 189 218
173 196 226
167 190 221
164 186 214
150 170 196
129 146 170
120 136 157
103 117 135
79 90 104
52 59 68
24 27 32
10 11 13
27 31 35
19 22 25
10 12 13
13 15 17
22 24 28
32 36 42
40 46 53
44 50 58
40 46 53
47 53 62
58 65 75
67 76 88
74 84 97
83 94 108
96 109 126
107 122 142
115 130 150
108 122 141
97 110 128
75 85 98
49 55 63
33 37 43
23 26 30
12 14 16
13 15 18
19 21 25
20 23 27
18 21 24
20 23 27
26 29 34
24 27 31
19 21 24
21 24 27
27 31 36
39 44 51
49 56 65
63 72 83
75 85 98
83 95 109
90 102 117
97 110 128
93 106 123
72 81 94
61 69 80
59 67 77
64 73 85
60 69 80
60 68 79
65 74 85
78 89 103
92 104 121
108 122 142
117 132 153
117 133 154
118 134 155
122 138 159
112 128 148
102 116 134
93 106 122
80 92 108
83 94 109
86 98 113
88 100 115
88 99 115
91 104 120
99 112 128
108 122 141
118 134 155
127 144 167
141 160 185
158 179 207
173 196 227
177 200 231
184 209 241
175 200 233
190 216 250
184 209 242
174 197 228
156 178 207
156 177 205
148 169 196
148 168 194
144 163 189
140 159 183
139 158 183
138 157 181
145 165 191
152 173 200
162 184 212
164 186 214
173 196 226
177 201 233
179 204 236
182 206 237
181 205 236
173 197 228
158 179 207
144 163 187
132 150 174
128 146 169
131 149 173
131 148 170
126 143 164
118 135 156
102 115 134
91 103 119
79 90 105
71 81 94
57 65 75
38 43 50
20 23 27
15 17 20
12 13 15
16 18 21
21 23 27
22 25 29
19 22 25
17 19 22
9 11 13
5 6 7
8 9 10
20 22 26
22 25 28
17 19 22
13 15 18
10 12 14
9 11 13
7 8 10
9 11 12
10 11 13
13 15 18
27 31 36
44 50 58
60 69 79
76 87 101
85 97 112
92 105 122
96 109 126
93 106 123
97 110 128
97 112 130
101 115 133
110 125 145
120 136 158
133 150 173
139 157 182
148 167 193
149 169 195
135 153 176
123 139 161
112 127 147
108 123 143
108 123 142
114 130 150
113 128 148
113 128 148
107 121 140
100 113 131
101 115 133
106 121 140
106 120 139
110 124 144
105 120 138
109 124 144
122 138 159
131 148 172
143 163 188
158 179 207
165 187 215
169 192 222
172 194 224
169 193 223
169 191 220
174 198 228
177 200 230
176 200 231
182 206 239
187 211 244
186 212 246
191 215 248
186 212 246
185 210 242
178 202 234
180 204 236
175 199 229
176 199 229
174 197 228
170 194 226
167 190 219
169 192 222
165 188 218
159 181 210
155 175 202
151 172 199
149 169 195
144 163 189
143 161 186
142 161 186
140 158 183
142 162 187
148 168 194
153 174 202
154 175 202
158 180 208
162 185 214
161 183 212
170 192 221
176 199 231
175 199 231
175 198 229
179 203 234
181 206 238
177 202 233
183 208 240
175 199 231
170 194 225
162 183 211
140 159 185
116 132 152
93 105 121
79 90 104
66 75 87
47 53 61
31 35 41
16 19 22
18 21 24
26 29 34
37 42 48
56 63 72
62 70 81
61 70 81
65 74 85
64 73 85
70 79 92
60 68 78
61 69 79
64 73 84
77 87 100
82 93 109
88 100 115
97 110 127
101 116 134
101 116 134
104 118 137
104 118 137
102 117 136
111 126 146
105 120 138
98 111 128
95 109 126
94 108 125
82 94 108
74 84 97
71 80 93
67 77 89
67 75 87
54 61 71
31 36 41
15 18 20
42 48 56
64 72 84
84 95 110
104 118 137
118 133 153
125 142 164
130 148 171
132 149 172
125 142 163
114 129 149
105 119 137
114 130 150
134 152 176
137 156 180
150 171 197
155 176 203
163 185 214
171 193 223
169 192 222
173 196 227
180 204 236
186 211 243
185 211 244
189 214 247
188 213 246
187 213 247
185 210 243
182 208 242
183 208 242
179 203 235
185 209 241
185 210 243
188 213 246
187 213 247
188 214 248
187 213 246
191 217 251
188 213 247
193 219 253
188 214 248
184 209 243
184 208 240
178 201 232
175 199 231
173 197 228
172 194 224
167 189 218
170 193 223
167 190 218
164 186 215
169 192 223
171 194 224
167 191 221
168 192 222
167 190 219
166 189 219
172 196 227
172 195 226
167 190 220
165 188 217
124 141 163
124 141 163
133 152 177
149 169 196
168 191 222
181 206 238
185 209 241
180 204 235
181 206 238
177 201 233
178 202 234
180 204 235
181 205 237
183 208 241
188 213 246
187 213 246
190 215 249
187 213 248
183 209 242
183 207 239
179 204 236
173 197 228
169 191 221
167 189 218
164 187 217
159 181 209
151 171 198
147 167 194
149 169 196
155 176 204
160 183 212
171 194 225
174 198 229
177 200 229
175 199 231
178 201 232
184 208 241
186 211 244
186 212 246
187 213 246
192 218 252
190 215 248
192 218 252
188 213 246
190 216 251
188 215 249
186 211 244
181 205 237
177 201 232
176 200 231
180 204 235
181 205 237
187 212 244
186 212 246
184 209 241
188 214 248
189 215 249
189 214 247
191 216 249
191 217 251
185 210 242
188 214 249
188 212 244
189 216 250
190 216 249
191 217 251
191 218 252
184 209 242
190 216 250
190 215 249
191 217 251
186 211 243
184 209 241
177 200 230
163 185 214
142 161 186
111 127 147
78 88 102
42 47 55
19 22 26
19 21 25
17 20 23
9 10 11
18 21 24
33 37 43
46 52 61
51 58 67
58 66 76
63 72 83
60 69 80
68 78 90
75 85 98
83 94 108
92 104 120
95 107 124
98 112 129
96 109 126
91 103 119
87 98 113
77 87 100
66 75 86
60 68 78
59 67 78
58 66 76
51 58 67
46 52 60
50 57 66
41 47 54
35 40 46
24 27 32
10 11 13
25 29 34
39 44 52
65 74 86
82 93 108
91 104 120
94 107 124
89 101 117
85 97 112
72 82 95
69 78 91
64 73 84
55 62 72
54 61 70
53 60 69
57 65 75
64 73 84
67 76 88
72 82 95
77 88 102
79 90 104
90 102 117
95 107 123
89 101 118
68 77 90
54 61 70
38 43 50
21 24 27
17 19 22
14 16 18
16 18 21
19 21 25
18 20 23
18 20 24
17 19 22
21 24 28
41 46 54
64 73 84
87 99 115
100 113 131
110 125 144
122 138 159
131 150 174
142 161 186
150 171 198
157 178 207
165 187 216
176 199 229
186 211 243
188 213 246
188 214 248
185 210 243
175 199 231
169 192 221
161 182 211
154 175 202
148 168 194
138 156 180
126 144 167
117 133 154
116 132 153
127 144 167
135 152 175
135 154 178
136 155 179
132 150 174
128 145 168
121 136 157
119 135 157
123 138 159
113 129 149
111 126 146
99 112 130
80 92 106
59 67 77
46 53 61
51 58 67
54 61 70
51 58 68
50 56 65
39 45 52
30 34 40
19 21 24
13 15 18
17 19 22
18 20 23
12 14 16
15 17 19
16 19 22
20 22 26
19 21 24
20 23 27
28 31 36
27 30 35
33 38 44
40 46 52
47 53 61
44 50 58
37 42 49
48 55 64
62 70 81
70 80 92
81 92 106
90 102 118
97 111 128
97 110 128
82 93 107
81 91 106
79 90 104
75 85 98
93 106 123
104 118 137
108 123 142
112 127 147
119 135 156
122 139 161
113 128 147
106 120 139
89 101 117
84 96 111
72 81 93
64 72 83
50 57 66
53 61 71
67 76 87
74 84 97
79 90 104
90 103 119
98 111 128
92 105 122
90 102 118
85 96 112
76 87 101
73 83 96
75 85 98
80 91 106
94 107 125
111 127 146
117 133 154
117 134 155
123 140 162
131 149 172
139 157 181
141 160 184
146 165 190
146 165 191
156 178 206
167 189 218
171 195 226
177 202 234
184 209 241
181 207 240
189 215 249
187 213 246
193 217 249
187 213 248
189 214 247
188 214 247
185 210 243
187 212 245
181 206 239
179 204 237
170 193 223
162 184 213
159 180 208
154 175 202
152 172 199
150 171 199
145 166 192
146 166 191
146 166 193
152 173 200
160 182 211
165 187 216
167 190 220
166 189 218
172 196 227
175 199 230
179 202 234
182 207 240
185 210 244
182 207 239
188 213 246
192 218 252
186 212 245
184 210 244
180 204 236
171 193 223
155 176 204
138 156 179
112 127 147
85 96 111
65 75 87
46 53 61
30 34 39
27 31 36
30 35 40
27 30 35
20 22 26
15 18 21
13 15 17
10 11 13
13 15 17
21 24 28
20 23 26
18 21 24
22 26 29
22 25 29
30 34 39
39 44 51
41 46 53
45 51 59
61 69 80
70 79 91
66 75 88
65 74 86
66 75 86
61 69 80
55 63 72
54 62 72
53 61 70
46 52 61
36 41 48
28 32 37
30 35 40
36 41 48
37 42 49
32 37 42
21 24 28
12 14 16
10 12 14
28 32 37
44 50 58
62 70 81
76 87 100
78 89 104
74 84 97
69 78 90
61 70 81
60 68 79
62 71 82
65 74 85
66 75 87
73 83 96
82 93 108
100 114 133
114 130 150
130 147 169
138 157 182
148 168 193
158 179 206
164 186 215
169 191 220
173 196 226
179 202 232
182 207 239
182 207 240
190 215 248
192 218 252
193 219 252
194 219 252
191 217 251
190 216 251
190 216 251
189 215 248
189 214 247
191 217 250
193 220 255
193 220 254
195 221 255
193 219 254
193 219 253
189 216 250
188 213 246
181 207 241
184 208 241
181 206 239
179 204 235
173 195 225
179 203 234
180 204 236
181 206 239
180 205 238
181 205 238
180 204 236
177 201 233
175 199 230
172 194 224
167 190 219
165 186 215
128 145 167
143 162 187
154 175 201
165 187 217
176 199 229
180 204 236
183 208 241
182 207 239
185 209 241
188 214 247
187 212 246
186 211 244
183 208 240
180 204 234
182 206 239
182 207 240
176 201 233
183 208 241
186 210 242
189 214 247
184 210 243
182 206 239
180 204 235
176 201 232
176 199 230
177 201 232
178 203 235
181 205 238
186 211 244
190 215 249
191 216 249
187 212 245
182 206 237
181 206 238
174 197 228
174 197 228
171 194 225
168 191 220
169 193 224
176 201 232
183 207 238
188 214 247
192 218 252
187 213 247
186 211 243
187 211 243
175 199 230
176 201 233
173 197 228
177 201 232
178 203 237
187 213 246
191 217 250
192 219 254
193 218 251
191 217 250
188 214 247
192 218 252
190 217 251
190 216 249
187 212 244
185 210 243
183 207 239
185 209 241
182 205 236
180 205 237
179 203 235
180 206 239
188 213 246
188 214 248
190 215 249
190 215 248
189 215 249
185 210 242
172 195 225
154 176 203
125 142 164
97 110 128
82 93 107
65 74 85
44 49 57
19 22 26
24 27 31
26 30 34
34 38 44
33 38 44
40 46 53
55 62 71
67 77 89
80 91 106
90 102 118
92 105 121
90 102 118
87 98 114
80 90 104
77 87 101
74 84 98
70 80 92
66 75 86
53 60 70
45 52 60
46 53 61
56 63 73
62 70 81
64 73 84
64 73 84
57 65 75
47 54 63
37 42 49
20 22 26
18 21 24
37 42 49
44 49 57
54 61 71
57 64 74
56 64 74
63 71 82
73 83 96
76 86 99
75 86 99
67 76 88
59 67 77
46 52 61
42 48 55
48 54 63
54 61 71
58 65 75
53 61 70
53 60 70
51 59 69
45 52 60
34 39 45
33 37 43
24 27 32
25 29 33
34 39 45
40 45 52
36 41 47
33 38 44
29 33 38
26 30 35
28 31 36
25 28 33
18 21 24
8 9 11
23 26 31
49 56 65
78 88 102
100 113 131
114 130 151
129 146 168
133 152 175
137 156 180
144 163 189
152 172 199
160 182 210
173 196 226
175 198 228
175 199 231
183 207 239
183 208 241
187 212 245
188 213 247
189 215 249
188 213 246
184 210 244
181 206 239
174 197 227
158 180 209
156 177 205
133 152 177
125 142 164
116 133 154
111 126 146
98 111 129
110 125 144
110 125 145
101 115 133
93 105 122
96 109 126
93 106 123
90 102 118
83 94 108
70 79 92
60 68 79
47 53 62
43 49 57
44 50 58
50 57 66
44 51 59
43 49 57
45 51 59
45 52 60
41 47 54
38 43 49
24 27 32
17 19 22
14 15 18
14 16 19
18 20 23
19 22 25
20 22 26
21 23 27
32 36 42
46 52 61
55 62 72
56 64 74
50 57 66
41 47 54
43 48 56
47 53 61
50 57 66
50 56 65
53 61 71
64 72 84
53 60 69
39 44 51
22 25 28
9 10 11
12 14 16
18 21 24
14 17 19
18 20 24
21 24 28
33 38 44
38 43 50
42 47 54
47 53 62
43 49 58
44 50 58
42 48 56
35 40 47
32 37 42
32 36 42
34 39 46
42 49 56
54 61 71
56 64 75
53 61 70
46 52 60
42 47 55
44 51 58
47 54 62
64 73 84
67 76 87
67 76 88
71 81 93
74 85 98
86 98 114
93 105 122
90 103 119
91 104 120
101 114 132
113 128 149
118 135 156
122 139 161
129 147 170
131 150 174
140 159 185
145 165 191
151 170 196
152 172 198
159 181 209
164 187 216
170 193 224
172 195 226
176 200 231
177 200 231
185 209 242
188 214 249
189 215 248
192 217 251
191 216 250
179 204 238
176 200 231
171 195 226
162 183 211
153 174 200
152 172 198
151 171 198
147 167 194
150 170 196
151 172 199
153 173 201
155 176 204
160 181 209
170 192 222
176 199 230
177 201 232
179 204 237
184 208 239
185 209 241
187 213 247
192 218 252
190 216 250
187 213 247
188 213 247
186 212 245
181 206 237
170 194 225
151 172 200
123 140 163
105 119 138
93 105 121
87 99 115
84 94 108
75 85 99
66 75 87
60 68 79
60 68 79
58 65 76
69 78 89
71 80 93
75 85 99
65 74 85
48 54 63
29 33 38
20 23 27
23 26 30
24 27 32
25 28 33
30 34 39
32 36 41
38 43 50
43 49 57
46 52 60
50 57 66
50 57 67
45 51 59
31 35 40
28 32 37
37 41 48
39 44 51
48 55 63
52 59 69
53 60 69
49 55 64
51 58 67
42 48 55
31 35 40
24 28 32
18 21 24
10 11 13
7 8 10
14 16 19
16 19 22
21 23 27
27 31 36
26 29 34
15 17 20
19 22 25
30 34 39
41 47 54
49 56 65
63 72 83
86 98 113
101 115 133
113 129 150
129 146 169
135 154 178
141 159 184
148 168 195
155 177 205
164 186 214
168 191 221
172 196 227
174 198 229
179 203 234
180 205 238
191 217 251
187 212 246
188 214 249
191 218 252
189 216 251
190 217 251
192 218 252
191 216 250
191 217 251
194 220 254
192 218 252
186 211 245
193 218 250
189 215 249
190 216 249
194 219 252
192 218 252
188 214 247
192 218 252
183 209 242
178 204 237
169 192 223
170 193 223
168 190 220
163 184 213
163 184 212
158 180 208
154 175 202
147 168 194
145 164 190
148 168 194
147 168 194
162 184 213
172 195 224
173 197 228
181 206 238
180 205 238
180 204 236
181 204 236
178 203 235
185 209 241
184 208 240
179 203 235
182 207 240
187 212 245
187 213 247
192 217 251
192 219 253
190 215 248
189 215 250
193 219 253
192 218 252
192 218 251
190 217 252
191 217 251
186 211 245
190 216 249
194 219 253
191 217 252
195 221 255
190 216 250
193 219 253
193 218 251
192 218 253
190 215 249
191 218 252
193 217 250
188 213 246
189 214 247
189 214 247
188 212 244
185 211 245
188 213 246
187 212 245
186 212 245
191 216 249
188 213 246
184 209 241
186 211 243
189 215 249
188 214 248
189 214 248
187 213 246
186 211 244
186 211 244
189 214 246
184 210 243
188 214 248
190 215 249
191 216 250
188 215 250
191 216 248
186 211 243
170 194 224
164 188 218
167 189 219
168 191 221
174 198 229
178 201 232
179 203 234
183 207 238
187 213 246
189 215 249
190 216 249
190 216 250
187 213 247
180 206 240
177 201 232
170 193 222
159 181 210
143 163 190
133 152 176
118 134 155
102 116 133
79 89 102
52 60 69
36 41 47
33 37 43
35 40 46
41 46 54
49 55 64
51 58 67
42 48 56
43 49 56
54 62 71
65 74 85
55 63 73
41 46 53
35 39 45
43 48 56
54 62 72
58 66 76
57 66 76
50 57 65
28 32 37
22 25 29
17 20 23
15 17 19
9 10 12
9 11 13
11 12 14
15 17 20
16 18 21
15 17 20
16 18 21
21 24 27
28 32 37
34 39 45
37 42 48
43 48 56
49 56 65
56 63 73
59 67 77
54 61 71
56 64 74
53 60 70
45 51 59
36 41 47
17 19 22
12 14 17
14 16 19
23 26 30
31 36 41
44 50 57
58 65 75
63 71 82
57 65 75
50 57 66
38 43 49
29 33 39
31 35 41
36 41 47
42 48 55
35 39 45
17 19 22
21 24 28
47 53 62
77 88 101
97 110 127
117 133 154
133 151 174
148 167 193
159 180 208
165 188 217
165 189 219
174 197 228
175 199 230
176 200 231
181 205 236
186 211 244
186 211 244
187 212 245
187 210 241
189 214 247
184 209 241
189 214 247
189 214 247
189 214 248
188 214 247
191 217 251
188 213 246
183 207 239
170 195 227
154 175 202
129 146 169
111 126 146
96 109 126
97 110 127
106 120 139
116 133 154
123 140 162
126 145 169
126 144 167
117 132 153
107 122 141
88 101 117
69 78 90
51 58 67
36 42 48
38 44 50
41 47 54
41 46 54
35 40 46
28 32 37
25 29 33
17 20 23
8 10 11
8 9 11
13 15 17
22 25 28
28 31 36
30 34 39
20 23 27
8 10 11
26 30 35
43 49 57
51 58 68
55 62 72
56 63 72
53 60 69
45 51 59
41 46 53
38 43 49
30 34 40
22 24 28
20 23 27
20 23 27
18 21 24
15 17 20
16 18 21
24 27 31
29 33 39
30 34 40
29 33 38
29 33 38
27 30 35
22 25 29
18 21 24
11 13 15
12 13 16
15 17 20
8 9 11
11 13 15
25 29 33
30 34 39
29 33 38
22 25 29
19 21 25
12 14 16
10 11 13
6 7 8
3 4 5
9 11 12
20 23 27
33 37 43
41 47 54
50 57 66
58 66 76
63 71 82
65 74 85
60 68 79
63 72 83
67 76 87
72 82 94
78 89 103
87 98 113
90 102 118
91 104 120
94 107 124
104 117 136
115 130 150
118 134 154
122 138 159
128 145 168
136 154 177
147 167 192
154 175 203
160 182 210
169 191 221
171 195 227
180 205 237
188 214 247
186 212 245
191 216 248
188 213 246
190 216 249
183 207 238
180 205 238
176 201 233
173 197 228
164 187 217
156 178 206
153 174 201
155 175 201
147 167 194
151 170 195
155 176 202
158 180 209
169 191 220
178 201 232
183 208 241
183 210 244
190 216 249
186 212 245
191 217 251
189 215 250
191 218 252
188 214 248
185 211 244
182 206 238
168 191 221
160 182 211
153 174 202
140 158 183
133 152 175
127 144 167
117 133 155
118 134 156
119 136 157
118 134 154
126 142 164
130 148 171
126 143 166
117 133 154
102 115 133
82 94 109
77 87 100
73 83 95
72 82 95
71 81 93
65 74 86
51 58 67
43 49 57
43 49 57
42 48 56
31 36 41
16 18 21
27 30 35
49 56 65
69 78 91
73 83 96
62 71 82
60 68 79
59 67 78
58 66 76
58 66 76
56 63 73
62 70 81
67 76 88
64 73 84
56 64 73
42 48 56
29 33 38
19 22 26
13 15 18
8 9 11
9 10 12
12 13 15
12 14 16
13 15 18
18 21 24
31 35 40
30 34 40
32 37 43
42 47 55
48 54 62
56 63 73
72 81 93
88 101 117
91 102 118
95 108 124
96 110 127
103 118 136
112 127 147
116 132 153
129 147 170
140 158 183
146 166 193
154 175 203
166 188 218
176 200 231
182 208 240
191 217 251
194 219 252
189 215 248
193 220 255
193 218 251
192 219 253
188 215 250
191 218 252
190 216 250
191 218 252
193 219 253
196 221 254
191 217 251
190 216 251
190 215 248
185 211 245
184 209 243
183 208 241
180 204 236
178 201 231
171 195 225
170 193 225
167 189 218
164 187 216
157 178 206
148 168 195
150 170 196
153 174 201
151 172 199
132 151 175
137 156 180
147 167 193
156 177 204
159 181 210
161 182 211
171 194 225
171 194 224
175 199 231
178 203 235
182 207 239
183 208 241
185 210 242
187 211 243
188 213 246
191 216 249
189 215 249
188 214 248
183 208 241
180 205 238
178 203 235
187 211 244
189 215 249
192 218 251
192 218 251
191 217 252
193 219 254
189 216 250
193 219 253
193 219 253
192 219 253
192 218 251
185 210 242
181 206 239
180 204 235
177 202 234
177 201 233
170 193 223
169 192 222
165 189 219
167 188 216
162 185 214
162 183 211
161 183 212
171 194 224
178 202 233
180 204 236
179 204 236
178 202 233
176 201 233
177 201 232
178 202 233
182 206 238
188 213 245
188 214 248
189 214 247
190 216 250
192 219 254
188 213 247
183 209 243
178 204 237
179 203 235
177 200 231
175 198 228
171 194 225
175 198 229
179 202 232
174 198 229
178 202 235
182 206 238
180 205 238
176 200 232
176 200 231
176 200 231
179 203 234
183 208 241
186 212 245
192 217 250
189 214 248
188 214 247
185 210 242
177 201 231
161 184 213
140 159 185
118 135 156
98 111 128
81 92 106
61 69 79
41 46 54
34 38 45
40 46 53
51 58 68
55 62 72
60 69 79
61 69 79
31 35 41
20 22 26
28 32 37
37 42 49
42 47 55
42 48 56
33 38 43
17 20 23
11 12 14
14 16 18
11 12 14
5 6 7
5 5 6
13 15 17
22 25 29
25 29 34
28 32 37
32 37 42
32 36 42
34 39 45
28 32 38
33 37 43
44 50 58
54 61 70
58 66 77
62 70 81
58 66 77
49 55 65
27 31 36
19 22 25
18 20 23
12 13 16
7 8 9
9 10 12
18 21 24
26 30 34
28 32 37
35 40 46
34 38 45
30 34 40
26 29 33
16 18 21
10 11 13
16 18 21
29 33 38
33 37 43
31 36 41
30 35 40
36 41 48
44 50 57
59 67 77
78 89 103
99 113 130
118 134 155
138 156 179
150 170 196
162 183 211
165 185 213
172 196 227
176 201 232
183 208 241
188 213 245
189 215 249
188 214 248
191 218 252
187 213 246
189 215 248
191 217 251
186 212 246
191 216 249
191 217 251
191 216 250
182 207 239
176 200 232
174 197 227
166 189 218
161 182 209
144 164 190
133 150 173
112 128 148
100 112 130
94 107 124
100 113 131
111 126 146
116 132 153
118 134 154
116 131 152
116 131 151
116 132 152
106 120 139
89 102 118
73 83 95
49 55 64
36 41 47
46 53 61
55 63 73
56 64 74
50 57 66
41 47 55
38 44 51
31 36 41
26 30 35
22 25 29
22 24 28
21 24 28
13 15 17
11 12 14
12 14 16
22 25 29
24 28 32
28 32 38
29 33 38
33 38 44
34 38 44
30 35 40
24 28 32
19 22 25
21 24 27
21 24 27
24 28 32
21 24 28
18 20 23
11 12 14
8 9 10
10 11 13
15 17 20
18 20 24
16 18 21
11 13 15
14 16 19
15 17 20
21 24 27
26 30 35
23 26 30
17 19 22
10 11 13
6 7 9
9 10 11
11 12 14
9 11 12
13 15 17
16 18 21
17 20 23
20 23 26
17 20 23
16 18 21
28 31 37
43 49 56
62 70 81
75 85 98
84 95 109
85 97 113
88 101 117
87 98 114
92 104 119
96 109 126
99 113 131
97 110 128
98 111 129
93 106 122
99 112 130
102 115 132
105 120 139
110 126 146
120 136 158
138 157 181
147 166 192
161 182 210
167 190 220
182 206 238
177 202 234
186 211 244
183 208 241
186 209 241
184 209 241
187 211 244
189 213 246
188 213 247
188 212 244
191 218 252
191 218 253
191 216 250
189 215 249
183 207 240
184 209 243
176 199 231
172 195 226
163 185 214
151 171 198
143 162 187
135 154 178
149 169 195
157 178 206
174 196 226
178 203 234
184 209 241
189 214 248
189 214 248
188 214 247
187 212 245
182 206 238
177 200 231
164 187 216
157 178 206
148 167 193
138 157 182
139 159 183
139 158 184
136 154 179
137 156 180
144 163 188
148 168 194
156 177 204
161 182 211
164 185 214
159 180 207
142 162 187
130 147 169
120 136 158
113 128 148
113 128 147
111 127 147
103 117 136
96 109 126
85 97 113
72 82 94
61 69 80
53 60 69
43 48 56
25 29 33
15 17 19
38 43 50
54 61 71
58 66 76
65 73 85
59 67 78
48 55 64
37 42 48
23 26 30
25 28 33
34 39 46
43 49 57
51 58 67
52 59 69
47 54 63
44 50 58
37 42 49
35 40 46
35 40 46
39 44 51
38 43 49
29 33 38
11 12 14
13 15 18
21 24 28
22 25 29
14 16 18
14 16 18
21 24 28
27 30 35
37 42 49
50 57 66
65 74 86
80 91 105
89 101 117
90 103 119
81 93 107
71 81 94
78 89 102
94 107 124
104 118 136
114 129 149
143 161 185
163 185 214
164 187 217
179 202 232
182 207 240
184 208 241
188 213 246
191 217 250
190 216 249
192 219 253
192 217 250
192 218 252
192 218 252
192 218 251
192 217 250
195 221 255
189 215 249
193 218 252
190 216 250
187 213 248
188 213 246
183 207 239
178 203 235
172 195 226
173 197 228
176 201 232
176 199 230
170 194 224
169 193 223
159 181 210
158 180 208
156 176 203
153 173 199
159 181 209
158 180 207
147 167 192
139 157 181
127 144 167
134 152 176
139 158 183
145 165 191
150 171 199
155 177 205
162 185 215
169 191 221
176 200 231
181 205 235
175 200 232
177 201 233
181 204 235
184 207 239
181 206 239
187 212 245
189 215 248
189 214 247
191 217 251
188 214 247
187 213 247
186 212 246
191 216 250
190 217 251
193 219 253
190 216 250
192 217 250
189 213 245
185 209 240
175 199 231
175 199 229
177 202 234
177 201 232
179 203 233
170 194 225
167 190 221
162 183 211
156 177 205
152 172 198
148 167 193
149 170 197
150 169 195
144 164 189
138 157 181
133 151 174
146 166 192
160 183 212
175 199 230
183 208 241
191 216 250
193 218 250
190 216 249
182 206 237
178 202 234
175 198 229
170 194 225
171 194 224
173 196 226
172 195 225
176 199 230
178 202 234
179 204 236
182 206 239
182 206 238
180 204 236
175 198 230
170 193 223
164 186 215
161 182 210
161 183 212
168 192 222
175 198 229
177 201 233
187 211 243
191 216 250
194 220 254
191 217 252
187 211 242
183 207 240
176 200 231
172 196 227
171 194 224
156 178 205
152 172 198
139 157 182
123 140 161
95 107 123
60 67 78
18 21 24
38 43 50
63 72 83
68 77 90
69 78 90
73 83 96
82 94 109
87 99 115
85 96 110
77 87 100
61 70 81
51 58 67
46 53 61
41 47 55
32 37 42
27 31 36
30 34 40
30 34 39
31 35 41
33 38 43
31 35 40
40 46 53
51 58 67
48 55 64
42 48 56
37 42 48
34 39 45
29 32 37
19 22 26
9 10 12
16 18 21
27 31 36
33 37 43
41 47 54
46 52 60
43 49 57
42 48 55
37 42 48
32 36 41
25 28 33
22 25 29
17 19 22
9 10 12
6 6 8
18 20 23
31 35 41
39 45 52
47 53 61
56 64 74
64 73 84
73 83 95
86 98 113
98 112 129
104 119 138
115 131 151
130 147 170
138 156 180
141 160 185
140 160 186
149 170 197
160 182 210
169 191 221
176 200 231
184 209 242
186 211 244
189 216 250
188 214 248
191 216 250
187 213 247
184 208 241
183 208 241
181 206 238
174 198 230
171 194 223
160 181 209
153 174 202
140 159 184
131 150 174
130 147 169
130 147 170
128 144 166
128 146 169
132 150 174
128 146 170
124 142 164
126 143 165
129 146 167
126 143 164
129 147 169
128 145 168
123 139 161
119 134 154
105 119 137
84 95 109
60 68 79
50 57 66
45 51 59
39 44 51
29 33 38
27 31 36
28 31 36
27 31 35
26 30 35
30 34 39
31 35 40
25 29 34
26 30 34
23 26 30
15 18 21
13 15 17
23 27 31
34 39 45
35 40 47
40 46 53
45 51 59
47 54 62
49 55 64
48 54 63
37 42 49
36 41 47
30 34 39
27 30 35
29 33 38
31 35 41
32 37 43
31 36 41
34 39 45
39 44 51
33 37 43
35 39 46
35 40 46
25 29 33
11 13 15
13 15 18
27 30 35
32 36 41
27 31 36
26 29 34
22 25 30
23 26 30
25 28 33
21 24 28
16 18 20
9 10 12
23 26 30
37 42 48
39 44 51
44 50 58
53 60 70
72 82 94
92 104 120
107 122 141
115 131 152
117 133 153
122 138 160
118 135 156
120 136 157
121 138 160
124 141 163
132 150 175
141 159 184
149 169 196
153 174 203
157 178 205
163 185 213
163 184 212
166 189 219
166 189 220
172 195 225
180 205 238
186 212 246
190 214 246
192 216 249
190 217 252
188 213 246
188 213 246
188 214 248
184 210 243
190 215 248
187 212 245
187 213 247
188 212 245
187 212 246
185 209 241
186 211 243
187 213 247
189 214 247
189 214 247
190 216 250
186 211 244
190 215 249
183 207 239
180 204 235
165 188 218
151 172 199
145 165 190
153 175 203
168 191 221
177 200 232
185 210 242
183 209 243
186 210 242
184 208 241
173 196 227
173 197 228
171 194 224
169 191 220
166 189 218
167 190 219
164 187 216
169 192 221
173 197 228
169 192 222
167 191 221
165 187 217
165 188 217
164 186 214
156 176 203
142 162 188
129 146 169
123 139 161
125 141 163
129 146 169
131 149 172
134 152 175
131 148 171
129 146 169
121 138 160
112 128 149
100 113 130
92 105 121
58 66 76
20 23 26
21 25 29
46 53 61
36 41 47
25 28 33
28 32 37
38 44 50
50 56 65
53 60 69
57 65 75
58 66 76
67 76 88
67 77 90
62 71 83
56 64 74
40 45 53
25 28 33
6 7 8
7 8 9
10 11 13
15 17 20
17 19 22
12 14 16
11 13 14
15 17 20
19 22 25
22 25 29
19 21 24
15 17 20
16 18 21
8 9 11
8 9 10
18 20 23
35 40 47
58 65 75
78 89 103
81 92 106
83 95 110
88 99 115
92 104 121
92 104 120
98 111 128
118 134 154
130 147 170
139 159 184
151 172 199
158 180 210
166 190 221
175 198 227
174 199 230
179 204 237
178 203 235
184 207 239
188 214 248
194 219 252
194 220 253
191 216 249
192 217 250
191 218 252
191 216 249
186 212 245
193 218 251
190 217 251
191 218 252
191 217 251
192 217 251
188 214 247
186 211 243
179 203 235
177 201 233
173 197 229
173 196 227
171 194 224
174 197 228
179 203 234
174 198 229
152 173 200
147 168 195
146 165 190
137 157 182
135 154 178
138 157 181
139 157 180
135 154 179
133 151 174
130 147 170
133 151 175
139 158 182
143 163 189
145 165 191
152 172 199
164 187 217
172 196 227
182 207 240
187 212 246
188 215 249
190 215 249
190 216 250
191 218 252
194 220 253
193 220 254
191 218 252
191 216 250
189 215 249
189 214 246
184 210 243
184 207 239
174 198 229
177 200 231
172 195 226
179 202 233
171 194 225
170 193 223
167 190 220
163 186 216
158 179 206
155 176 203
153 173 200
153 174 202
151 172 198
146 166 193
143 162 188
145 165 190
146 166 192
151 172 199
154 174 201
162 184 213
172 196 227
179 204 236
191 216 249
193 218 251
190 215 248
186 211 244
179 203 235
179 203 235
173 196 226
162 184 213
151 171 197
150 170 197
154 175 202
158 180 209
158 179 207
152 172 199
141 160 186
145 164 190
150 170 197
155 176 203
165 187 216
175 199 229
179 203 235
186 210 243
181 206 239
191 217 251
192 218 252
190 216 249
193 219 254
189 215 248
190 215 248
188 214 247
187 213 246
181 206 239
174 198 229
162 184 212
155 175 201
137 155 180
112 127 147
84 96 111
54 61 71
37 42 49
33 37 43
30 34 39
22 25 29
23 26 30
30 34 40
37 43 49
52 59 69
52 59 68
70 79 90
90 102 118
96 108 125
105 119 138
112 128 149
119 136 158
106 121 140
89 102 118
85 97 113
92 104 119
82 93 108
81 92 107
68 77 88
62 71 82
57 65 75
48 54 63
38 43 50
25 29 33
8 9 10
11 13 15
29 33 38
40 45 52
51 58 67
64 73 85
71 81 94
72 82 94
67 76 88
58 66 77
45 52 60
27 31 36
24 27 32
24 27 32
19 21 24
14 16 19
9 10 12
10 11 13
13 15 18
20 22 26
23 26 30
28 32 37
38 44 51
61 69 79
74 84 98
95 108 124
113 128 148
124 140 161
133 151 174
137 156 181
148 168 194
154 174 201
160 183 211
171 194 224
181 205 237
188 212 244
190 217 251
187 212 245
186 210 242
180 204 235
174 196 225
164 188 218
168 191 221
165 187 217
165 187 217
155 177 204
151 172 199
149 169 195
152 172 199
161 183 211
166 189 219
166 188 218
166 189 220
166 188 217
167 190 219
166 188 218
160 181 209
153 174 202
151 171 197
157 179 207
159 181 209
155 176 204
143 162 186
123 141 164
104 118 137
89 100 116
71 80 92
56 64 74
47 54 62
48 55 64
45 51 59
44 50 58
46 52 61
51 58 67
50 57 66
36 41 47
17 19 22
7 8 10
8 9 10
6 7 8
3 4 4
8 10 11
9 10 12
16 19 22
21 24 28
26 30 34
33 38 44
44 50 58
45 51 59
48 55 63
54 61 71
58 66 77
66 75 86
63 72 83
61 69 79
62 70 82
71 80 93
74 84 96
79 89 103
82 94 109
71 81 94
61 70 81
49 56 65
35 40 46
24 27 31
20 23 26
24 28 32
44 50 57
51 57 66
50 57 65
39 45 51
35 40 46
37 42 49
39 45 52
40 45 52
43 49 57
42 48 55
45 50 58
55 62 71
66 74 86
78 88 102
105 119 137
123 140 162
142 161 186
152 172 198
155 177 204
161 182 209
168 192 222
173 197 228
172 195 226
172 196 227
178 202 234
179 203 235
186 210 242
182 208 240
184 209 242
185 209 242
189 214 248
189 214 246
188 213 245
186 211 243
193 218 252
187 214 249
189 215 250
190 216 250
190 216 249
192 218 251
190 216 250
190 216 250
192 217 251
191 217 251
193 218 251
188 213 246
186 211 245
183 208 241
182 207 238
181 204 234
178 202 233
180 203 233
178 202 234
184 209 242
187 213 246
189 214 248
186 211 244
185 211 245
183 207 239
175 199 231
165 187 217
159 181 209
141 160 186
146 165 191
161 183 212
168 192 222
173 197 229
177 201 233
186 212 245
191 216 249
189 215 248
187 213 246
188 213 246
191 217 251
192 218 251
186 212 246
186 211 245
189 214 248
189 214 247
190 216 250
184 209 241
178 203 235
170 193 223
163 186 215
153 175 203
147 167 193
144 163 188
144 164 190
152 173 200
157 178 205
162 183 210
161 183 212
156 177 205
159 181 210
154 175 203
138 157 182
111 127 147
78 88 102
39 45 52
21 24 27
28 32 37
30 34 39
31 36 42
35 40 46
39 45 52
43 48 55
53 60 69
65 73 85
73 83 96
82 92 106
89 101 117
82 93 108
74 83 96
64 72 84
58 66 77
55 63 72
55 63 72
47 54 63
40 46 53
34 38 45
38 43 50
46 53 61
55 63 73
57 64 75
59 66 77
51 58 67
38 43 49
30 34 40
16 19 22
12 13 16
20 22 26
29 32 37
40 46 53
40 46 53
45 51 59
47 53 62
57 65 75
66 75 87
69 79 91
70 80 92
76 86 99
87 99 114
99 112 130
105 120 139
115 131 152
128 146 169
142 161 187
155 176 203
163 186 214
169 192 222
178 203 235
186 210 242
185 210 243
191 217 251
192 218 251
194 219 252
190 216 251
191 216 250
188 213 245
188 213 245
187 213 247
191 217 250
188 214 249
192 218 252
192 218 252
194 220 253
191 217 251
191 217 250
191 218 253
190 215 248
189 214 248
187 213 247
190 215 247
186 212 245
156 178 206
153 173 199
150 170 195
150 171 199
149 168 194
142 162 187
132 151 174
126 142 165
117 133 154
120 136 157
123 141 164
127 143 165
129 146 169
128 146 168
137 155 180
149 169 196
157 178 206
165 188 218
166 188 217
171 194 225
180 204 236
186 211 245
189 216 250
194 220 254
191 217 252
192 218 252
185 212 246
186 211 244
184 208 241
186 211 245
187 211 244
187 211 242
179 204 237
175 199 230
173 197 227
174 198 229
178 201 232
172 195 225
170 193 223
168 190 220
163 185 214
159 180 208
155 176 204
152 173 201
156 176 203
152 172 199
150 169 195
151 171 198
151 172 199
155 177 205
168 190 218
179 202 233
185 209 242
193 218 252
191 217 250
190 216 250
183 208 241
180 204 235
170 194 225
162 184 212
151 172 199
142 162 187
131 149 173
129 146 169
125 142 165
129 145 167
125 142 164
133 151 174
155 175 202
170 192 222
177 202 234
183 208 241
190 215 247
188 214 247
194 219 253
191 217 251
186 211 243
188 214 247
190 216 249
187 212 244
191 217 251
189 215 249
185 209 242
187 212 245
176 199 229
157 178 205
136 155 179
119 135 155
97 111 128
77 88 102
69 78 90
61 69 80
70 79 91
80 91 106
89 101 116
81 92 106
75 84 97
72 81 93
62 71 82
63 72 83
60 68 78
36 41 48
20 22 26
23 26 30
44 50 58
67 76 88
91 103 119
109 124 144
120 136 158
128 146 168
145 164 188
147 166 191
136 155 179
120 136 157
104 118 137
89 101 117
67 77 89
43 49 56
17 20 23
15 17 20
26 29 34
36 41 47
41 47 54
35 39 46
37 43 49
43 49 57
50 57 66
50 57 65
49 55 64
37 42 49
26 30 35
16 18 21
11 12 14
12 13 15
20 22 26
22 25 29
21 23 27
25 28 33
29 33 39
37 42 48
55 62 72
65 74 86
64 73 84
79 90 104
91 103 118
105 119 137
127 144 167
142 162 187
157 178 206
174 196 225
179 204 238
189 215 249
190 217 252
189 215 248
184 208 239
179 203 234
170 194 225
175 198 229
180 204 236
174 199 231
174 198 229
171 194 224
166 189 218
165 188 217
168 191 221
174 198 229
178 202 234
180 204 236
183 207 239
185 210 242
186 211 244
184 209 242
185 211 244
188 213 246
184 210 243
181 206 239
175 198 228
169 192 222
161 183 212
153 173 200
140 158 183
127 144 166
112 127 147
96 109 126
93 106 123
91 104 120
83 94 108
72 82 95
68 77 89
63 72 83
69 79 91
63 71 83
58 65 76
50 57 66
48 54 63
40 46 54
36 41 48
34 39 45
26 30 34
26 30 35
32 36 42
36 41 48
33 38 44
20 23 27
8 9 11
23 26 30
33 38 44
37 42 49
40 46 53
48 54 63
56 63 73
50 56 65
39 44 51
34 39 45
34 38 44
41 47 54
52 59 68
63 72 83
76 87 101
91 103 118
102 116 134
86 97 112
71 80 93
67 77 89
70 80 93
67 75 87
65 73 84
62 70 81
59 67 78
62 70 81
61 70 81
60 68 78
64 73 84
69 79 91
65 74 86
65 74 86
77 87 101
92 105 121
116 132 153
135 154 178
150 171 198
157 179 207
167 190 220
172 195 225
178 201 231
177 201 232
169 191 221
156 177 206
143 162 188
143 163 189
140 160 185
145 164 189
144 164 190
142 162 187
140 158 183
138 157 183
142 161 186
146 165 190
155 176 204
161 184 214
169 192 222
176 200 231
179 204 235
179 204 236
176 200 232
173 197 228
174 198 229
175 199 230
181 205 236
185 209 242
188 213 247
189 215 249
190 216 250
189 216 251
193 219 253
189 215 248
190 216 250
188 213 246
188 213 246
176 199 230
172 196 227
177 200 230
171 195 225
167 189 218
162 184 212
159 180 208
161 183 211
167 191 221
172 195 225
175 199 230
172 196 226
175 199 230
181 206 238
186 212 246
194 219 253
192 218 251
188 214 247
191 217 250
191 216 248
189 214 247
191 215 248
186 212 245
182 206 238
179 204 235
186 211 244
191 216 248
192 218 251
190 217 251
187 212 244
183 209 243
180 203 235
179 203 235
176 200 232
175 199 230
175 199 230
180 203 234
176 199 231
173 197 227
166 189 219
158 180 208
139 157 180
116 132 152
89 102 118
71 81 94
51 58 67
33 37 43
23 26 30
13 15 18
8 9 11
22 25 29
34 39 45
42 48 55
46 52 60
53 61 70
62 71 82
73 84 97
81 92 106
82 94 109
84 96 111
89 100 116
93 106 122
96 108 125
99 112 129
101 114 133
105 119 137
94 107 123
98 111 129
103 117 136
112 128 148
114 129 150
103 118 136
93 105 122
78 89 104
69 79 91
64 73 84
61 69 80
51 59 68
44 50 58
42 49 56
43 49 56
65 73 84
83 95 109
100 114 131
111 126 145
110 125 146
106 120 139
96 109 125
87 98 114
75 85 99
71 81 93
84 95 110
96 109 126
110 125 145
131 149 172
157 178 205
173 197 227
184 210 244
192 217 250
194 218 251
190 216 250
191 217 252
192 218 252
188 214 249
193 218 252
193 218 251
192 217 250
188 212 243
187 212 244
185 210 243
182 207 240
182 207 239
178 203 235
182 206 239
187 212 245
188 213 246
187 212 246
186 211 244
187 212 245
187 212 244
182 206 238
173 196 227
171 193 223
167 189 219
163 185 213
156 177 205
158 179 207
156 177 205
159 180 209
160 182 210
158 180 208
154 175 202
152 172 199
149 169 195
149 169 196
155 176 203
162 183 210
167 190 220
171 194 225
177 201 232
181 205 236
184 209 241
187 212 244
187 213 246
187 213 246
193 219 253
193 219 254
193 218 251
189 214 246
187 212 245
185 210 243
185 209 241
178 201 233
175 199 231
177 200 231
177 201 232
181 207 240
182 207 239
183 208 240
182 208 241
182 206 238
174 198 228
158 180 208
150 171 199
148 168 195
147 167 193
155 177 205
160 181 209
167 189 217
170 193 222
177 201 232
187 211 244
189 215 249
193 219 253
190 216 249
189 215 248
189 214 248
181 206 239
177 202 233
174 196 226
162 184 212
155 177 205
158 180 208
160 180 207
157 179 208
162 185 214
167 189 217
166 188 218
177 201 232
183 208 241
188 215 250
190 215 249
191 217 251
190 216 250
195 220 254
191 217 251
191 216 249
192 218 252
188 214 248
191 217 250
187 212 245
185 209 241
171 194 223
151 171 199
142 161 186
124 142 164
110 125 144
102 115 133
90 103 119
85 97 112
86 97 112
86 98 113
86 98 113
92 104 120
91 103 119
89 101 117
86 97 113
81 92 106
77 88 102
76 86 100
73 83 97
66 75 87
49 56 64
29 33 39
10 11 13
18 20 23
27 31 36
37 42 49
52 59 69
76 86 100
99 112 130
123 140 162
141 161 186
148 168 194
135 153 177
119 134 154
94 107 124
67 76 88
43 49 56
21 24 28
21 24 27
25 28 33
22 25 29
28 32 37
41 47 54
56 64 74
61 70 81
54 61 71
47 53 62
35 40 46
20 23 27
10 11 13
13 15 17
26 30 34
31 36 41
44 50 58
72 82 95
80 91 106
87 100 116
104 118 137
114 130 149
128 145 167
140 159 184
152 172 199
161 182 210
168 191 222
175 197 228
170 194 225
180 205 237
184 208 240
189 216 250
190 216 250
186 212 245
189 213 246
183 208 241
178 203 236
181 206 239
186 213 247
188 214 247
191 217 251
191 218 252
190 215 248
193 219 252
190 216 251
192 218 252
189 215 249
191 217 251
192 217 250
187 212 245
190 216 250
190 215 248
190 215 249
192 218 253
191 218 252
190 215 247
190 216 250
191 216 250
187 214 248
182 207 240
175 199 229
169 190 219
158 180 209
154 174 201
149 169 195
140 159 184
137 156 181
139 158 182
137 156 180
140 159 185
144 162 186
142 162 187
141 160 186
131 149 173
119 135 157
111 125 144
91 104 121
86 98 114
85 96 111
88 100 117
94 106 123
93 105 122
91 103 119
83 94 108
72 82 95
64 73 84
53 60 70
34 39 45
19 21 25
12 13 15
12 14 16
22 25 29
33 37 43
40 46 53
36 41 48
37 42 48
37 43 50
45 51 58
55 62 73
75 85 98
89 101 117
91 102 117
84 96 111
79 90 104
77 88 101
83 94 109
92 104 120
100 113 131
105 120 139
107 121 140
99 112 129
86 98 114
76 86 100
65 74 86
54 61 70
55 63 73
67 76 88
76 86 100
91 103 120
110 124 144
128 145 168
140 159 184
151 171 197
161 182 210
170 193 223
172 194 223
159 181 209
154 174 202
148 168 194
147 167 193
141 160 184
132 150 173
131 149 173
126 143 166
126 143 165
122 138 160
116 131 150
104 118 135
106 120 139
113 128 148
117 133 153
122 139 160
130 148 171
135 153 177
134 152 176
136 154 178
140 159 183
146 166 192
149 169 196
156 177 204
168 190 219
174 197 228
176 199 229
180 204 235
181 207 240
184 208 241
185 209 241
190 215 248
189 214 247
189 214 247
189 215 249
188 214 248
191 217 251
189 215 249
189 215 248
188 214 248
184 209 242
189 214 247
191 217 251
189 215 249
189 215 249
190 216 249
191 217 252
188 213 247
187 213 247
187 211 243
187 211 244
183 208 241
186 211 244
183 207 239
180 204 235
175 198 229
165 187 217
168 191 221
173 197 228
183 208 240
188 214 247
191 216 249
191 217 250
192 217 251
192 217 251
190 216 250
191 217 251
190 216 250
189 216 251
189 215 248
190 216 250
189 215 249
192 218 251
189 214 248
180 203 234
164 186 215
147 167 194
130 147 170
113 128 148
94 107 124
80 91 105
66 75 87
60 68 79
57 65 75
55 62 72
53 61 71
49 56 64
36 40 46
19 21 25
11 12 14
23 26 30
44 50 57
62 70 81
72 81 94
66 75 87
60 68 79
55 62 72
43 49 58
39 45 52
47 54 62
54 62 72
67 75 87
75 85 99
89 102 117
106 121 140
119 134 155
120 135 156
104 118 137
92 105 121
82 93 108
84 96 111
92 104 121
91 104 121
94 107 123
95 108 125
106 120 138
114 129 149
124 141 164
136 154 178
152 172 199
160 181 208
164 186 215
158 180 208
151 172 199
145 165 191
146 165 191
144 164 190
149 170 196
158 180 208
162 184 212
176 199 230
186 211 244
186 211 244
185 210 243
180 204 236
175 199 230
179 203 235
185 210 242
182 208 241
186 212 246
185 210 243
191 216 250
193 218 252
187 214 248
188 214 248
184 209 241
174 197 228
166 188 217
158 180 209
158 178 206
156 178 207
158 180 209
152 173 200
148 167 191
148 169 196
152 173 200
164 186 215
166 189 218
168 191 222
171 195 225
172 195 226
173 196 227
172 196 226
171 194 225
165 187 216
164 187 217
163 185 213
166 187 215
168 192 223
173 197 229
181 205 237
184 208 240
185 209 242
191 216 249
191 218 253
194 219 252
191 217 251
190 217 252
192 217 251
192 219 253
191 217 251
195 220 254
195 221 255
192 218 252
193 219 253
191 218 252
190 217 252
186 210 242
191 217 251
188 213 246
180 205 238
170 194 224
171 194 225
169 192 223
169 192 222
168 190 220
163 185 214
156 177 205
148 168 194
152 173 200
159 180 208
163 185 214
169 192 222
173 197 228
177 201 232
186 211 244
190 216 250
191 218 252
191 217 250
188 213 246
193 219 253
191 217 250
188 214 247
192 217 250
185 210 243
189 214 246
187 211 244
191 216 248
191 217 251
192 219 253
190 217 252
190 216 249
189 216 251
191 216 250
190 216 250
192 218 252
192 218 252
190 216 251
192 218 251
191 216 250
192 218 252
187 213 246
184 209 242
176 200 231
165 187 217
149 169 196
113 129 150
109 124 143
93 106 122
73 83 96
66 75 86
57 64 75
54 62 72
59 67 78
63 72 83
62 70 81
54 62 72
44 50 58
43 49 56
39 44 51
32 36 42
30 34 39
28 32 37
30 34 40
28 32 37
25 29 34
19 22 25
22 25 29
21 24 27
14 16 18
11 13 15
13 15 17
27 30 35
46 53 61
65 74 86
88 99 114
112 126 145
131 148 171
144 163 189
141 161 186
130 147 170
112 127 147
92 104 120
80 90 104
67 76 88
62 70 81
61 69 80
58 65 75
51 58 67
53 61 71
52 59 68
51 58 67
46 53 61
38 43 49
39 44 51
36 40 47
39 44 51
44 50 57
69 78 90
96 109 126
117 133 153
134 152 175
146 166 193
162 184 213
176 200 231
177 201 233
183 208 240
186 212 246
185 210 243
188 213 247
186 212 246
188 214 248
191 217 250
190 216 249
187 213 248
190 215 248
190 215 248
187 213 248
191 217 251
188 215 249
188 213 246
193 219 252
191 215 247
185 210 243
184 208 241
182 206 238
182 206 239
179 204 236
180 204 236
181 205 237
181 205 237
178 203 235
183 208 240
186 211 244
188 214 248
187 212 245
188 214 247
191 217 252
188 214 248
189 214 247
185 209 242
189 214 246
186 213 248
191 217 250
191 217 252
188 214 247
186 211 244
183 208 240
180 205 237
181 206 238
180 204 235
182 207 238
185 210 242
185 211 244
184 211 245
178 202 234
177 200 231
168 191 221
166 188 218
161 183 212
158 180 209
156 177 206
157 178 206
153 174 201
146 166 192
140 158 183
129 147 170
121 137 158
113 128 149
103 117 135
95 108 124
81 92 107
62 71 81
40 46 54
31 35 41
22 25 29
16 18 21
17 20 23
23 26 30
26 29 34
34 39 45
47 53 61
62 71 81
71 80 93
72 82 95
69 78 90
65 73 85
69 78 89
80 90 103
84 96 111
92 105 122
97 110 127
109 123 143
114 129 149
116 132 152
122 137 158
126 142 164
131 148 171
127 144 165
119 135 155
125 142 164
131 148 172
129 146 169
132 149 172
138 157 182
143 163 189
153 174 202
160 181 209
160 182 210
162 183 211
159 181 210
152 174 201
149 169 194
147 166 191
130 148 172
114 130 151
95 108 124
87 99 115
75 86 100
77 88 102
76 87 100
85 97 112
97 110 128
104 119 137
116 132 153
131 149 172
145 164 190
143 162 186
143 162 187
146 165 190
142 161 186
136 155 180
139 157 182
141 160 185
144 163 187
149 170 196
154 174 200
161 183 211
160 182 210
165 187 216
165 187 217
167 189 219
163 185 213
160 181 209
164 186 215
168 191 222
178 202 233
185 210 243
189 214 247
187 212 246
186 212 246
185 211 245
185 209 241
179 203 235
177 201 234
178 201 233
175 200 231
171 194 224
169 191 219
169 191 221
165 188 218
167 190 219
163 185 215
158 180 208
148 168 195
143 162 187
155 175 201
166 188 218
177 201 233
189 214 248
189 216 250
192 217 249
193 219 253
193 218 252
193 219 254
192 217 250
187 212 246
188 213 245
189 214 247
189 214 248
192 218 251
191 217 251
193 218 251
184 209 242
180 204 235
170 192 222
163 185 214
154 175 203
142 160 185
129 146 169
109 124 143
95 109 127
86 98 113
80 91 105
81 92 106
77 87 101
73 83 96
62 71 82
42 48 55
21 24 28
14 16 19
18 21 24
23 27 31
25 29 34
30 34 39
33 38 44
29 33 38
19 22 25
8 10 11
9 10 12
24 28 32
29 33 39
27 31 36
19 22 25
30 35 40
63 72 83
100 113 131
118 133 154
117 133 153
112 127 147
120 136 157
115 131 152
113 128 148
117 133 154
120 136 158
129 146 168
141 160 186
143 162 188
151 171 197
151 170 196
150 171 198
151 171 197
159 181 209
165 187 216
167 189 219
162 184 213
162 184 213
165 188 217
161 183 211
154 175 203
154 175 203
151 172 200
147 167 193
142 161 186
141 160 185
144 163 188
146 166 191
153 173 200
161 183 213
173 195 225
173 197 227
182 207 239
181 204 235
187 212 245
178 202 233
167 189 218
158 179 207
144 164 190
136 154 177
134 152 176
136 154 178
141 161 186
141 160 185
136 154 178
142 161 187
135 153 177
172 195 225
162 184 213
161 183 211
157 179 207
152 172 198
138 157 181
141 161 187
147 166 192
149 169 196
156 177 204
163 184 212
172 195 225
179 203 236
188 213 246
189 215 249
193 219 252
192 219 253
192 217 251
191 217 251
193 218 250
192 218 252
190 216 251
191 217 251
193 219 252
193 220 254
195 220 254
192 218 252
194 221 255
190 214 246
192 218 252
189 215 249
188 214 248
188 213 246
183 209 242
178 202 234
167 190 219
164 187 218
161 183 211
164 186 215
163 185 214
164 186 216
158 180 209
154 176 204
152 172 198
149 169 196
157 178 205
162 184 212
166 188 218
176 200 231
177 202 234
176 200 231
172 195 226
175 198 228
176 200 231
178 202 233
185 210 243
182 207 240
181 205 236
179 204 236
183 207 239
181 205 237
182 206 238
181 206 238
182 206 238
183 206 237
181 206 239
181 205 237
185 210 244
187 213 245
192 218 252
189 215 249
192 218 252
192 218 252
185 211 245
188 213 245
173 196 227
156 177 205
130 147 170
108 123 142
95 108 124
84 96 110
81 92 107
67 77 89
56 64 74
49 56 65
43 48 56
37 42 49
33 38 43
22 25 29
26 29 34
30 34 40
37 43 50
44 50 58
44 51 59
58 65 75
66 75 87
79 89 103
84 95 110
76 86 99
67 76 88
50 57 66
33 37 43
22 25 29
24 27 32
30 34 40
42 48 55
56 64 74
68 77 89
77 88 102
90 102 118
102 115 133
117 133 154
134 152 176
145 164 189
151 172 199
151 171 197
143 162 187
145 164 188
144 164 190
135 153 176
134 153 178
140 159 183
142 161 186
141 160 185
138 157 182
139 158 182
134 152 175
131 148 171
128 144 166
131 150 174
149 169 196
158 180 208
161 183 211
169 192 222
166 189 219
173 196 225
178 203 236
188 212 245
189 214 246
189 215 248
192 219 253
190 216 251
191 217 251
188 215 248
188 215 249
186 212 245
185 209 241
184 209 242
185 210 243
185 210 243
184 209 241
188 213 245
184 208 240
180 204 235
183 207 238
180 204 235
180 204 235
178 202 234
172 196 227
176 200 233
177 201 232
175 199 231
180 204 236
186 212 245
187 211 243
187 211 244
183 209 242
183 208 242
185 210 242
185 210 243
184 209 242
178 202 234
175 198 229
174 198 229
170 193 224
168 190 219
175 198 229
177 201 233
178 201 233
177 200 231
184 208 240
181 207 240
186 210 242
188 213 246
188 214 248
190 217 253
190 215 249
189 215 249
190 216 250
189 215 249
186 212 245
184 210 243
185 210 243
189 214 247
187 213 246
184 210 242
186 211 244
181 204 236
178 202 233
171 194 225
164 186 215
157 178 206
146 166 191
132 150 173
120 136 158
116 132 152
104 119 138
102 115 133
95 108 125
86 97 111
76 86 100
57 64 74
34 39 44
24 27 31
22 24 28
26 30 34
31 36 41
33 38 43
24 27 31
20 23 27
26 29 34
35 39 46
35 40 46
33 37 43
32 37 43
28 32 36
30 35 40
40 46 53
55 63 72
73 83 96
93 105 122
108 123 143
121 137 158
130 147 171
141 161 186
149 169 195
149 169 196
148 168 195
146 167 194
144 163 188
140 159 184
131 150 174
135 153 176
133 151 174
136 154 178
137 156 180
143 162 186
131 149 172
117 133 154
93 106 123
70 79 91
59 67 78
47 53 61
37 42 49
38 43 50
45 51 59
57 64 74
67 77 89
81 92 106
92 104 120
101 114 131
105 119 137
119 135 155
131 149 173
133 150 173
132 150 174
135 154 179
136 155 179
136 154 178
131 150 173
124 141 162
117 133 154
117 133 153
115 131 152
117 132 153
117 133 154
116 131 151
116 131 151
112 128 148
123 139 160
139 158 183
144 163 188
151 171 198
154 174 202
162 184 213
159 181 210
162 184 213
164 185 214
160 182 211
161 182 210
155 176 204
150 171 198
143 163 188
141 160 185
143 162 187
149 169 196
147 167 193
139 158 183
139 158 182
139 158 183
146 166 191
151 172 199
157 179 208
171 193 223
173 196 227
179 204 235
183 208 240
188 213 246
187 213 247
192 218 253
191 217 250
190 216 250
191 217 250
190 215 249
192 216 248
189 215 248
186 211 243
180 205 237
176 199 230
175 199 230
171 195 225
169 191 220
164 187 215
158 180 209
142 161 187
134 152 176
123 140 162
117 133 154
101 115 133
85 96 111
60 68 79
40 45 52
28 32 37
23 27 31
21 24 28
20 23 27
13 15 17
12 14 16
11 12 14
12 14 16
8 9 10
4 4 5
6 7 8
15 18 20
18 20 23
20 23 27
22 25 29
27 31 35
41 46 53
60 68 79
77 87 101
88 100 116
101 115 133
120 136 156
124 141 163
127 145 167
129 146 169
128 146 169
129 146 168
126 144 166
121 137 158
111 126 145
112 128 149
116 132 152
126 144 166
134 152 175
136 154 178
127 145 168
120 136 158
107 121 139
101 115 133
103 118 137
107 121 141
107 122 140
115 131 152
125 141 162
122 140 162
127 144 167
137 155 179
146 165 190
148 168 194
149 169 196
149 169 195
152 173 200
154 175 202
157 178 205
158 180 208
154 176 203
142 162 187
139 158 183
133 150 173
115 130 149
99 112 129
96 109 127
104 118 136
103 117 135
112 127 147
117 133 155
120 136 157
121 138 160
164 186 215
159 181 210
152 173 200
140 159 185
136 154 178
134 152 177
138 156 181
148 169 196
152 173 200
155 177 205
163 184 212
171 193 223
180 204 235
182 206 238
187 212 244
184 210 243
188 213 245
186 212 245
190 216 249
191 217 251
191 217 251
191 217 251
192 219 255
192 217 251
192 218 253
193 219 253
194 220 254
191 217 251
191 217 250
187 212 245
183 208 240
182 207 240
176 201 232
174 198 229
174 197 228
168 191 221
168 190 220
166 189 219
162 184 213
162 184 213
161 183 212
160 181 209
160 182 210
161 183 211
159 181 209
159 181 209
159 179 207
159 180 207
159 181 209
161 183 210
166 188 215
164 187 217
168 190 218
170 194 224
174 198 230
180 205 237
183 208 241
188 213 247
184 210 243
178 204 236
177 200 231
170 192 222
168 191 221
171 194 224
174 197 228
173 198 231
175 199 230
181 205 237
178 202 233
181 206 237
178 202 232
169 192 222
159 181 209
145 166 193
128 146 169
112 127 148
107 122 141
97 110 127
82 93 107
67 76 88
64 72 83
55 63 73
44 51 59
30 34 39
25 28 33
23 27 31
26 29 34
30 34 39
36 41 47
35 40 46
35 40 46
36 41 48
47 53 61
48 55 64
54 61 71
71 80 93
83 94 108
78 89 103
69 79 91
59 67 78
47 54 62
48 54 62
53 60 69
54 62 71
56 64 74
73 83 96
83 94 108
89 102 118
100 114 131
108 123 142
107 121 141
104 118 137
101 115 133
102 116 134
110 125 144
112 128 148
127 145 168
138 157 181
148 168 194
154 174 200
156 177 205
158 180 207
169 191 220
170 194 224
169 192 222
164 187 216
170 194 224
171 194 224
169 192 222
176 200 232
178 201 232
186 210 243
185 210 242
188 213 246
189 215 249
189 216 251
188 214 248
191 215 247
192 217 250
192 218 251
194 220 254
190 216 249
191 217 251
190 216 249
186 212 245
179 204 236
179 203 234
178 201 232
173 196 227
169 193 225
174 198 228
173 197 228
175 198 229
172 195 226
170 193 223
170 193 223
170 193 224
170 193 224
174 197 228
171 194 225
168 191 221
169 192 221
174 197 228
178 201 231
177 200 231
176 199 230
171 194 224
163 185 214
157 179 208
150 170 196
147 167 192
147 167 193
145 165 191
146 165 190
151 171 198
156 178 206
154 175 203
155 177 205
167 188 216
172 196 227
173 197 228
178 202 235
181 205 237
185 209 242
189 216 250
191 217 252
192 217 251
187 213 247
186 211 243
188 214 246
188 213 247
189 214 248
189 214 248
189 215 248
190 214 246
188 215 249
188 213 247
190 215 248
184 210 243
182 207 240
180 205 238
173 196 227
166 188 217
154 175 203
146 166 192
141 160 185
138 156 179
134 153 177
134 152 175
130 147 170
120 136 157
112 127 147
105 119 138
94 107 123
84 96 111
71 80 93
58 66 76
43 49 56
28 32 37
17 20 23
9 10 12
9 10 11
18 21 24
13 14 17
16 19 22
23 26 30
30 34 39
37 42 48
40 46 53
42 48 56
56 64 74
73 82 95
94 106 122
112 127 147
129 146 169
142 161 186
143 163 189
148 168 195
153 173 199
150 170 197
147 167 193
141 160 184
137 155 180
132 150 173
131 148 171
134 152 176
124 141 163
110 124 144
98 112 130
92 104 119
77 88 102
69 78 91
67 76 88
63 72 83
52 59 69
51 58 68
49 56 65
56 64 74
59 67 77
56 64 73
55 63 73
60 68 79
53 60 70
47 53 62
52 59 69
58 66 77
73 83 96
74 84 97
86 97 112
94 106 123
103 117 135
108 123 142
117 133 154
117 134 155
112 127 147
110 125 146
110 125 144
103 118 136
100 113 131
93 106 124
88 99 115
85 97 113
95 107 123
100 113 131
105 119 137
107 122 141
111 126 146
117 134 155
110 125 145
105 120 139
98 111 129
91 104 120
93 106 123
106 121 140
111 126 147
113 129 149
110 125 145
108 123 142
107 121 139
109 123 142
119 135 156
133 151 174
144 164 189
148 168 195
154 176 204
159 181 209
163 184 213
162 184 213
165 188 217
169 191 221
172 195 226
175 199 230
177 201 232
185 210 243
187 213 246
193 218 251
189 215 249
190 216 250
183 208 241
185 209 242
185 210 242
187 213 246
185 210 243
187 212 244
185 210 242
181 205 236
171 195 226
156 177 205
136 154 179
105 119 137
73 83 96
35 40 46
12 13 16
13 15 18
19 21 25
24 28 32
23 27 31
22 25 29
23 26 30
21 23 27
17 19 22
12 14 16
11 13 15
13 14 17
21 24 28
37 42 49
58 66 77
75 85 99
88 100 116
98 111 128
105 120 138
113 128 147
113 128 148
113 127 147
110 125 145
115 131 151
111 125 145
105 118 137
93 106 123
77 87 101
72 82 95
68 77 89
82 94 108
90 102 118
97 110 127
102 116 134
95 108 125
84 96 111
80 91 104
80 91 105
74 84 97
71 81 94
71 81 93
70 80 93
72 82 95
81 92 106
90 102 118
102 117 135
109 123 142
113 129 149
119 136 158
133 150 173
141 160 185
138 156 180
140 159 184
139 158 182
125 142 165
117 133 154
107 122 141
99 112 130
87 99 114
74 85 98
63 72 84
56 63 73
54 61 71
66 75 87
77 87 101
80 91 105
81 91 106
78 88 102
128 145 167
133 151 174
144 163 188
149 169 195
154 175 203
159 181 209
164 186 215
168 191 221
170 194 224
175 198 228
175 197 228
169 193 223
166 188 217
162 184 212
156 178 207
162 184 213
166 189 218
179 203 234
179 204 238
181 207 240
188 213 246
189 215 248
187 213 247
195 221 254
194 220 254
187 214 248
181 207 241
188 214 248
187 213 247
189 214 248
187 212 244
188 213 246
186 212 245
186 211 243
183 208 241
187 212 245
185 208 239
177 202 234
178 201 232
168 190 218
156 177 206
163 186 216
171 194 224
173 196 226
171 195 226
170 193 224
171 194 225
171 194 224
166 189 219
167 189 218
160 183 212
161 182 210
164 186 215
164 187 217
166 188 217
163 185 214
157 178 206
157 178 205
152 173 200
151 170 196
151 171 196
151 170 196
152 172 198
151 171 198
149 169 195
146 166 192
141 160 185
129 147 170
123 140 161
110 124 144
97 110 127
84 96 111
75 86 99
67 76 88
60 68 79
60 68 79
61 70 81
53 60 70
55 63 73
45 51 59
29 33 38
19 21 24
17 19 23
14 17 19
22 25 29
24 28 32
28 32 37
31 36 41
26 30 34
20 23 27
17 19 22
14 16 19
28 32 37
45 51 59
69 78 90
82 94 109
72 82 94
58 65 75
47 54 62
45 51 58
46 52 61
50 57 66
50 57 66
58 66 76
73 83 95
82 93 107
91 103 119
101 115 133
106 120 139
105 120 139
103 117 136
95 108 126
85 97 112
76 87 100
73 83 96
84 96 111
98 112 129
115 129 149
120 137 158
123 140 161
133 151 175
142 162 187
155 176 203
163 185 214
165 187 217
162 183 211
163 185 214
165 186 215
168 190 219
172 197 228
179 204 235
184 208 240
187 213 246
184 209 242
188 213 246
185 211 244
189 214 247
188 213 246
192 218 251
189 216 250
194 219 251
192 218 252
188 214 249
189 214 247
184 209 241
182 207 239
178 201 231
173 195 224
171 194 223
166 189 220
164 186 214
159 181 209
160 181 209
158 180 209
159 180 208
157 178 206
149 170 197
153 174 202
158 180 209
164 186 215
163 185 214
155 176 204
157 178 206
158 180 209
162 183 211
150 170 197
142 161 186
136 154 178
135 153 177
133 150 174
136 155 179
140 159 184
142 162 189
155 176 203
168 191 222
177 201 233
178 202 234
178 203 236
183 207 239
185 210 243
184 210 243
191 217 250
189 216 250
190 216 249
188 214 248
189 214 247
187 213 246
180 205 238
179 204 236
172 195 226
166 188 217
164 187 217
171 194 224
175 199 230
178 203 236
182 207 239
185 210 242
185 210 243
185 210 243
184 208 241
178 202 233
170 192 221
165 188 218
157 177 204
147 167 193
139 157 182
132 149 171
134 152 175
139 158 182
138 156 180
139 159 184
142 160 185
133 150 174
118 134 155
104 117 135
80 92 107
66 75 87
51 58 67
45 51 59
43 49 56
37 42 49
27 30 35
16 18 21
8 9 11
8 10 11
15 17 19
21 24 28
24 28 32
33 38 44
50 56 65
67 76 88
89 101 117
108 122 141
118 134 155
123 139 161
121 138 159
123 141 163
133 151 174
137 155 179
142 161 185
141 160 183
146 166 191
148 167 192
144 164 189
137 156 181
135 153 177
139 158 182
130 148 172
118 134 154
100 114 131
82 93 107
67 76 88
64 72 84
57 65 76
55 62 72
52 59 68
49 56 64
49 55 64
42 48 55
32 36 42
24 27 31
14 16 18
12 14 16
11 13 15
15 17 20
23 26 30
33 37 43
41 47 55
57 64 75
69 78 90
74 84 98
85 96 111
84 96 111
84 96 111
93 106 122
102 116 134
109 123 142
107 122 141
101 115 133
91 103 119
83 95 110
82 93 107
74 84 98
73 83 96
69 78 90
68 77 89
67 76 87
68 77 89
70 79 91
64 73 85
55 62 72
47 54 62
50 57 66
57 65 75
65 74 86
69 79 92
80 91 106
86 97 113
80 91 106
70 79 92
69 78 90
79 90 104
89 101 116
100 113 131
108 123 142
106 121 139
117 134 155
122 139 161
126 144 167
129 147 169
132 151 175
138 156 180
141 159 183
138 156 180
139 159 184
149 170 198
159 181 210
168 192 223
173 197 228
186 211 243
190 216 250
193 219 252
191 217 251
188 213 246
188 213 246
183 207 239
177 200 230
165 188 217
145 164 189
123 139 160
95 108 126
69 79 92
49 55 64
29 33 38
18 20 23
25 28 33
34 39 45
35 39 45
28 32 37
17 19 22
6 7 8
9 10 12
7 8 9
7 8 9
24 28 32
49 56 65
61 70 81
72 82 95
78 89 103
88 100 116
89 101 118
92 105 121
89 101 117
82 93 107
77 87 101
73 83 95
80 90 104
80 90 104
74 84 97
72 82 94
78 88 102
87 99 115
96 110 127
102 116 135
101 114 132
91 104 121
75 85 99
66 75 87
52 59 68
43 49 57
39 45 52
35 39 45
39 45 52
34 39 45
28 32 37
42 48 55
66 74 86
83 94 109
97 110 128
108 123 142
112 128 148
115 131 151
115 131 152
109 124 144
108 122 140
106 120 137
100 114 132
100 114 132
99 113 131
96 109 127
93 105 121
86 98 113
75 85 99
57 65 76
49 55 64
40 46 53
36 41 47
42 48 56
49 55 64
54 61 71
107 122 141
131 149 172
144 163 187
155 175 201
165 187 216
169 192 223
173 197 228
182 206 238
183 208 241
184 209 242
181 207 241
181 206 239
178 201 232
172 195 225
169 192 221
169 191 221
176 201 232
186 212 246
188 215 249
190 215 247
192 219 253
190 217 251
195 220 253
190 216 250
190 215 248
190 215 249
189 215 249
192 219 253
191 218 253
194 220 253
192 217 251
195 220 254
194 220 254
193 218 251
191 217 251
186 212 244
182 207 240
182 207 239
174 197 227
164 186 215
155 176 204
153 174 202
160 181 209
160 182 210
160 182 211
167 189 218
166 188 218
172 195 225
167 190 220
169 192 221
163 186 215
164 186 215
159 181 210
150 170 197
136 154 179
122 138 159
107 121 140
106 121 139
106 121 139
107 122 141
107 121 141
112 127 146
117 133 153
124 140 162
124 141 163
116 132 153
97 110 127
80 91 106
62 71 82
45 51 59
37 43 49
41 47 54
40 46 53
24 27 32
20 23 27
25 29 34
26 29 34
17 20 23
14 16 18
19 22 26
23 26 30
22 25 29
21 24 28
23 26 30
31 35 41
42 48 55
50 57 66
58 66 76
60 68 78
53 60 69
36 40 46
18 21 24
15 17 20
32 37 43
58 66 77
76 87 100
81 92 106
76 86 100
65 74 86
58 66 77
43 49 57
30 33 39
16 19 21
14 16 19
24 27 31
37 42 49
47 54 63
52 59 68
52 59 68
41 46 54
38 43 49
35 40 47
49 56 65
65 73 84
86 97 111
102 116 135
121 137 159
137 156 180
136 155 180
140 160 186
135 153 177
129 147 170
122 140 162
111 126 146
107 121 140
108 124 143
124 141 164
137 156 180
148 168 194
156 178 207
164 186 214
173 196 227
182 206 237
188 213 246
186 211 243
191 216 248
192 216 249
191 216 249
190 216 250
189 216 250
190 215 248
191 217 252
191 217 251
190 216 249
188 214 247
188 213 246
182 207 240
178 202 235
170 193 223
155 175 202
147 167 193
146 166 192
143 162 188
146 166 192
152 173 200
154 174 200
152 172 199
154 173 199
156 176 203
151 171 197
150 170 197
152 172 198
149 169 195
143 163 188
141 160 186
141 160 185
137 155 179
130 148 171
130 149 172
138 157 182
144 164 189
152 172 199
162 184 213
170 193 224
180 204 236
186 211 244
188 214 249
193 219 253
190 216 250
190 216 250
191 217 250
190 215 248
187 212 245
181 206 239
185 210 243
183 208 240
182 206 238
178 202 233
171 194 224
161 183 212
152 173 201
153 174 201
156 177 205
158 179 207
155 176 204
159 181 209
162 183 211
162 185 214
172 194 224
169 192 222
170 193 224
170 193 223
169 192 222
167 190 220
161 183 211
156 177 204
151 171 198
149 169 195
150 171 197
149 170 197
148 168 195
137 156 180
117 133 153
110 125 144
98 111 128
85 96 111
83 94 108
79 90 104
69 79 91
63 71 82
61 69 80
49 56 64
36 41 48
30 34 40
27 31 35
19 22 26
11 13 15
25 29 34
58 66 76
86 97 113
102 116 134
117 133 153
117 133 154
116 132 153
114 130 151
119 134 154
119 135 156
123 140 162
123 140 162
124 140 162
126 142 164
144 163 189
153 173 200
144 163 189
138 157 182
130 148 171
128 145 168
118 134 155
109 125 145
103 117 134
97 110 127
90 102 118
85 96 112
79 89 103
74 84 98
69 78 89
68 77 89
62 70 81
56 63 73
47 54 62
44 49 57
39 44 51
28 32 37
16 18 21
7 8 10
12 13 16
9 10 12
7 8 9
26 29 33
44 50 58
53 61 70
56 63 73
60 69 79
62 70 81
49 56 65
40 46 53
43 49 57
56 64 74
66 75 86
69 78 90
70 80 92
71 81 94
76 87 101
79 90 104
86 98 113
84 95 109
86 98 113
86 97 113
78 89 104
63 72 84
50 57 66
38 43 50
35 40 46
36 42 48
41 47 54
42 48 55
39 45 52
39 45 52
38 43 49
46 52 61
44 50 58
40 45 52
38 43 50
23 26 30
26 29 34
28 32 37
42 47 55
56 64 74
73 83 96
86 97 112
92 105 121
92 104 121
94 108 125
94 107 123
100 113 130
110 125 145
122 139 162
137 155 180
153 174 201
172 195 224
178 203 235
183 209 242
190 215 249
189 214 248
188 214 247
179 204 236
173 196 227
158 180 209
149 169 194
133 151 174
113 129 149
90 102 118
77 87 101
61 69 80
51 58 67
38 43 49
31 35 40
28 32 37
18 21 24
17 19 22
16 18 21
13 15 18
9 10 11
16 18 21
23 27 31
30 34 39
30 34 40
28 31 36
29 33 38
34 38 44
33 38 44
33 38 44
35 40 46
36 41 47
31 35 41
30 34 39
30 34 39
40 45 52
56 63 73
74 84 97
90 102 117
95 108 125
99 112 129
102 116 134
102 115 134
90 102 117
72 82 95
58 66 76
43 48 56
23 26 31
7 7 9
15 17 19
22 25 29
19 22 26
11 12 14
17 20 23
46 52 60
69 78 91
80 91 105
88 100 116
93 106 123
94 107 123
88 101 117
84 95 110
81 92 106
83 94 109
85 96 111
83 94 109
79 90 104
72 82 95
67 76 87
53 60 69
45 51 60
37 43 50
25 29 34
18 21 24
19 21 25
24 27 31
40 46 54
47 54 62
124 141 163
130 147 170
137 155 178
147 167 193
161 182 210
170 192 221
175 199 230
180 204 235
174 199 230
175 197 227
174 196 226
179 204 237
187 211 244
185 210 243
187 214 248
189 215 249
189 215 249
196 221 255
193 219 252
193 219 253
194 219 253
190 216 251
189 216 250
191 217 252
193 219 253
193 220 255
190 217 251
194 219 253
191 218 253
195 220 254
187 214 248
193 219 254
187 213 247
188 214 247
188 213 246
184 209 242
180 204 236
178 202 234
175 199 232
166 189 218
162 183 212
159 180 207
156 177 205
152 172 199
154 175 201
160 182 210
168 191 221
168 191 221
163 186 215
162 184 213
158 180 209
155 176 203
153 173 200
142 162 188
131 148 171
117 132 152
103 117 136
99 113 130
99 113 131
103 117 134
101 114 132
94 106 122
90 102 118
83 94 109
70 80 93
60 68 78
56 64 73
52 59 68
48 55 63
50 57 65
51 58 67
49 56 64
50 57 66
47 53 62
42 48 55
33 38 44
29 33 39
29 33 38
35 40 46
43 49 57
41 47 54
44 50 58
56 64 73
59 67 78
60 68 78
62 71 82
68 77 88
70 79 91
69 78 90
66 75 86
54 61 71
36 41 47
18 20 23
19 21 25
42 48 55
67 76 88
82 93 107
89 101 117
84 95 109
65 74 86
45 51 58
31 35 40
20 23 27
14 16 19
10 12 14
7 8 9
8 10 11
15 18 20
16 19 21
11 12 14
16 18 21
39 45 52
67 77 89
88 100 116
94 107 123
96 110 127
103 118 136
108 123 143
120 136 158
127 145 167
129 147 170
128 145 167
127 144 166
128 145 167
126 145 169
133 151 175
139 158 182
151 171 197
157 178 205
160 181 209
166 189 218
173 197 227
183 207 239
180 205 239
186 212 245
186 211 244
184 208 240
179 203 235
183 209 242
186 211 244
185 210 242
185 209 241
186 211 243
181 206 238
180 205 237
174 197 228
167 190 219
161 182 210
156 177 205
146 166 192
144 164 189
140 159 185
138 157 180
134 152 175
134 153 177
129 147 170
129 147 170
127 145 168
131 149 171
132 150 173
126 143 165
119 135 156
119 135 156
120 137 158
122 139 161
125 142 164
126 143 165
128 146 168
128 146 169
135 154 178
146 166 192
163 185 214
172 196 226
182 207 239
186 211 244
190 216 250
194 221 255
194 220 254
188 213 245
188 213 246
188 213 246
188 213 246
183 208 240
182 207 238
178 202 234
167 189 219
161 183 211
156 177 204
154 174 200
157 177 204
152 173 200
149 169 196
152 173 200
157 178 206
160 181 209
157 179 207
157 179 209
161 183 212
167 189 218
165 188 217
165 188 218
165 187 217
162 184 213
164 186 215
162 185 214
166 189 218
164 186 214
162 183 210
150 170 197
138 156 180
122 138 159
110 125 145
95 109 126
88 100 115
75 85 98
71 80 93
70 79 92
67 76 88
56 64 74
56 64 74
62 71 82
60 68 79
52 59 68
32 37 43
15 17 20
20 22 26
50 57 66
76 87 100
100 114 132
100 114 131
92 104 120
90 103 119
84 95 109
77 87 101
66 75 87
62 71 82
67 77 89
69 79 91
77 87 101
89 101 117
100 114 132
119 135 157
131 148 171
141 159 184
147 166 192
151 172 199
149 170 196
151 172 199
147 166 192
135 154 178
129 146 169
113 128 148
115 131 151
111 127 147
118 133 153
120 137 158
119 135 156
112 127 147
107 122 141
99 113 131
98 112 129
75 85 99
58 65 76
54 62 72
46 53 61
38 43 50
29 33 39
23 26 30
25 28 33
35 40 47
54 61 71
65 74 86
66 75 87
66 75 86
67 77 89
72 82 95
71 81 93
74 83 96
77 88 101
88 100 116
89 101 116
87 98 114
92 104 120
104 119 138
112 127 147
107 121 141
104 118 138
93 106 123
83 94 109
73 83 96
63 71 82
64 73 84
63 72 84
62 70 82
59 67 77
50 57 66
35 40 46
17 19 22
13 15 18
15 17 20
14 16 18
15 17 19
10 12 14
11 12 14
12 13 15
7 8 10
18 21 24
29 33 38
43 49 57
62 70 81
72 81 94
78 89 104
85 96 112
92 104 121
103 118 136
115 131 152
126 143 166
131 149 172
140 159 184
156 177 205
169 192 222
180 204 236
190 215 249
194 220 255
192 217 250
190 215 249
181 205 238
174 198 229
163 186 215
156 178 206
147 166 192
135 154 179
126 143 165
109 124 143
89 101 117
76 86 100
61 69 80
47 54 62
41 46 54
33 37 43
16 18 21
10 11 13
32 37 42
44 50 58
43 49 56
37 42 49
35 40 46
37 42 48
38 43 50
41 47 54
40 46 53
40 45 52
39 45 52
34 38 44
21 23 27
16 18 21
16 18 21
30 34 40
51 58 67
69 78 91
82 93 108
85 96 111
89 102 118
86 97 112
84 95 110
73 84 97
61 69 79
41 46 53
25 28 33
17 20 23
20 22 26
17 20 23
21 24 28
29 33 38
42 47 54
63 72 83
69 79 91
77 87 101
80 90 104
81 92 105
83 94 109
82 93 108
78 89 103
68 77 90
59 67 77
52 59 68
50 57 65
52 59 69
50 57 66
43 49 57
36 41 48
39 44 51
40 45 52
36 40 46
32 36 41
24 28 32
23 26 30
25 28 32
32 37 43
41 47 54
149 170 197
152 173 200
149 169 195
152 171 197
148 168 194
147 166 191
147 167 193
154 174 200
163 185 214
176 200 231
183 208 242
191 216 249
190 216 251
193 220 254
194 220 253
195 220 254
191 217 252
188 214 247
188 213 246
187 212 245
188 213 245
186 211 245
186 211 244
187 213 246
184 209 242
184 210 243
183 207 239
186 211 243
180 205 239
189 215 249
187 212 245
190 216 249
190 216 250
193 219 252
191 217 251
189 213 245
189 215 249
187 213 246
191 216 250
188 212 245
182 206 238
174 198 228
166 188 217
154 175 202
153 174 202
149 169 195
144 164 189
142 162 187
140 158 181
141 160 185
137 156 181
142 162 188
139 158 182
126 144 167
119 135 156
104 118 137
98 111 128
94 106 123
92 105 122
96 109 127
94 106 123
87 98 114
76 86 100
69 78 91
64 72 84
57 65 74
56 64 73
55 63 73
56 64 74
64 73 85
67 77 89
69 79 92
68 77 89
60 68 79
45 51 59
30 34 40
21 24 28
13 15 17
10 12 14
19 22 25
39 44 51
57 65 76
72 81 94
84 96 111
88 100 115
84 96 111
73 83 96
69 78 91
65 73 84
56 63 73
41 47 54
22 25 29
13 14 17
21 24 28
37 43 49
57 65 75
76 86 99
88 100 116
86 98 113
80 91 105
75 85 98
67 76 88
65 74 85
57 65 75
48 55 63
41 47 54
38 43 50
50 56 65
67 76 88
71 80 93
85 97 112
81 92 107
74 84 96
68 77 89
67 76 88
76 86 99
88 100 116
99 113 130
101 115 133
106 120 139
110 126 146
122 139 161
136 155 179
154 175 203
163 186 215
166 188 217
171 195 226
170 193 223
176 199 229
179 203 234
182 206 237
181 204 235
181 206 240
177 201 232
169 192 222
162 185 214
161 183 212
165 187 215
169 192 222
174 197 227
175 199 230
174 197 227
170 194 224
168 190 219
163 185 214
159 181 209
157 177 204
148 168 194
142 161 185
138 157 181
142 162 187
150 170 196
151 172 199
150 170 196
147 167 194
151 171 198
147 167 194
143 162 187
137 155 179
127 144 166
118 134 156
116 132 153
116 133 154
124 140 162
127 144 166
138 157 181
145 164 189
150 171 198
160 181 209
165 187 217
171 194 224
178 202 234
185 210 242
190 215 248
192 218 252
192 217 250
192 218 252
190 216 250
186 211 245
185 210 243
182 207 239
181 206 239
178 202 234
171 196 227
167 189 218
159 180 207
155 176 204
156 176 203
157 178 205
161 183 212
164 186 215
162 185 214
163 184 211
160 183 212
166 188 217
168 190 220
171 194 224
168 191 221
170 193 222
169 191 221
165 188 217
166 187 215
160 182 211
162 183 211
155 176 204
152 173 201
145 164 189
129 147 169
115 130 150
103 117 135
89 101 117
75 85 99
66 75 87
65 74 85
65 74 85
66 75 86
62 71 82
58 66 77
60 68 79
55 63 72
54 61 71
55 62 72
44 50 58
24 27 32
9 10 12
33 37 43
57 65 74
76 87 101
95 108 125
101 114 132
82 94 108
69 79 91
62 70 81
51 58 67
46 52 60
49 55 64
59 67 78
68 78 90
81 93 108
91 104 120
96 109 125
96 110 127
105 119 138
107 121 140
111 126 145
115 131 151
119 135 156
125 142 164
138 156 180
151 171 198
157 178 205
162 184 212
163 185 214
162 184 212
155 176 204
154 175 201
152 173 200
150 170 197
147 167 193
144 162 187
140 159 184
135 154 178
129 147 169
118 134 155
112 127 146
102 116 135
99 112 130
103 117 135
100 113 130
104 118 136
108 123 143
105 119 138
104 118 136
99 112 130
97 110 127
97 110 128
106 121 140
120 137 159
136 154 177
141 160 185
151 171 197
160 181 209
160 182 211
159 180 209
160 181 208
157 178 206
147 166 191
137 155 179
128 144 166
125 142 164
126 143 165
127 145 167
121 137 158
113 128 148
103 117 135
101 115 134
95 108 124
95 108 125
89 101 117
91 104 120
91 103 119
89 101 116
83 94 109
84 95 110
77 87 101
80 91 105
90 102 118
92 105 121
93 107 124
95 108 125
109 124 144
121 138 160
138 156 180
153 174 201
156 176 203
153 174 202
156 177 205
158 180 208
159 181 209
166 189 219
175 198 229
185 210 243
190 215 248
195 220 254
193 218 251
190 215 249
189 214 246
186 211 243
175 198 229
155 176 204
136 155 179
121 138 160
111 126 145
106 121 140
101 115 134
94 106 123
79 90 104
67 76 89
57 65 75
49 56 65
38 44 51
20 23 26
18 21 24
35 40 46
38 44 50
40 46 53
47 53 62
56 64 74
58 66 77
60 69 80
61 69 80
55 63 73
50 57 67
41 47 54
37 41 48
42 47 54
56 64 74
73 83 96
84 95 110
90 102 119
89 101 118
82 93 107
71 81 93
62 70 82
54 61 70
45 51 59
41 46 54
34 39 45
26 30 35
21 24 28
23 26 30
34 38 44
53 60 70
77 87 100
89 101 116
96 109 126
107 122 140
111 126 146
111 126 146
109 124 143
104 117 135
93 105 122
87 98 113
77 88 102
66 75 87
63 71 83
62 71 82
70 79 92
71 81 94
72 82 95
73 83 97
78 88 101
76 86 99
73 82 96
76 87 101
82 93 106
71 80 92
72 82 95
75 85 99
87 98 113
150 171 198
146 166 192
146 166 192
144 163 188
142 161 186
153 174 201
170 193 222
179 203 234
186 211 244
188 214 247
187 213 246
188 214 248
190 217 251
195 220 253
192 218 252
194 219 252
192 218 252
189 214 247
184 209 242
174 198 230
164 185 214
158 179 206
151 171 198
142 162 187
144 163 187
142 161 187
143 162 187
147 167 194
165 187 217
169 191 220
169 192 222
176 199 231
182 207 239
190 215 249
193 218 251
189 216 250
190 217 251
192 219 253
192 219 254
193 218 252
191 216 249
185 211 245
181 206 239
178 202 233
173 196 226
166 189 219
158 180 208
149 170 196
134 152 176
132 149 171
139 157 181
143 162 187
141 161 186
139 158 183
132 150 174
116 132 153
98 112 131
102 116 135
107 121 139
99 112 129
85 96 111
77 87 101
84 96 110
82 92 106
76 87 100
74 84 96
64 72 84
55 62 72
49 55 64
42 48 56
40 46 53
43 49 57
38 44 50
35 40 46
47 54 62
58 65 76
70 80 92
88 100 115
88 101 116
93 105 122
102 116 133
104 118 137
109 124 142
100 114 132
94 107 124
89 101 117
84 95 110
78 89 103
64 73 85
50 57 66
27 30 35
9 11 12
15 17 20
21 23 27
31 35 41
42 48 55
47 53 61
52 59 68
54 61 71
61 69 80
76 87 102
91 103 120
90 103 119
90 103 120
89 101 117
93 105 122
101 115 132
107 121 140
118 133 154
124 140 162
129 147 170
129 146 168
126 143 165
119 136 157
113 128 148
109 124 144
98 113 131
100 114 131
98 111 128
98 111 129
110 125 145
133 151 174
151 171 197
165 188 217
174 197 227
172 196 227
170 193 223
166 189 220
164 186 215
164 185 214
167 189 218
173 197 228
181 205 237
187 212 246
188 214 247
181 206 238
179 204 236
173 197 228
179 203 235
186 212 246
189 214 247
190 215 249
187 213 247
181 206 238
185 210 242
180 204 236
179 203 234
175 198 229
173 197 228
174 197 227
172 195 225
173 196 226
174 197 228
177 200 231
171 194 223
163 185 214
163 184 212
158 180 209
155 177 205
149 169 195
149 169 195
150 169 195
155 176 204
161 183 211
170 193 222
170 193 222
175 198 228
174 198 230
180 204 235
182 207 239
188 213 245
190 216 249
187 213 247
189 214 247
191 218 253
189 215 249
190 215 249
189 215 248
188 213 246
187 213 247
184 209 241
181 204 235
171 195 226
168 191 222
167 190 219
166 188 218
164 185 214
160 183 212
161 183 211
164 186 216
170 193 223
177 201 232
177 202 234
184 209 241
180 206 239
184 209 242
181 204 236
176 199 230
165 187 217
161 182 210
157 178 206
159 180 207
158 180 207
155 176 203
146 165 191
132 150 174
123 140 162
114 130 150
104 118 136
103 117 135
100 113 131
91 103 119
73 83 96
56 64 74
43 49 56
42 48 55
43 49 57
41 47 54
35 40 46
34 38 45
31 36 41
34 38 44
33 37 43
23 26 30
9 10 12
20 23 27
44 50 58
61 69 80
80 90 104
96 108 125
99 112 129
90 102 118
82 93 108
76 86 99
69 79 91
70 80 92
81 92 106
93 106 123
107 121 140
109 124 144
115 131 151
124 141 163
122 138 159
118 135 156
119 136 158
122 137 158
124 141 162
135 153 177
145 164 190
144 163 189
140 159 185
147 166 191
148 168 195
153 174 201
158 180 208
159 181 210
163 184 212
170 193 223
173 196 225
172 196 228
166 188 218
170 192 222
164 186 215
151 171 199
143 161 185
145 165 191
146 166 193
142 162 186
133 151 174
121 138 160
123 140 163
132 150 175
132 149 172
130 147 170
128 145 168
130 147 170
130 148 171
136 155 180
146 166 191
151 171 198
154 175 203
159 182 211
169 192 223
173 196 226
169 192 223
173 195 224
176 199 229
178 202 232
176 199 231
178 202 234
173 196 226
173 196 227
171 193 222
170 193 223
164 186 214
158 179 206
162 184 212
164 187 217
161 182 211
152 173 201
146 167 194
145 165 191
145 165 191
146 167 193
155 175 201
154 175 202
154 173 199
153 174 201
152 174 203
153 173 199
153 174 201
158 180 208
164 187 215
170 193 223
175 198 228
176 200 232
178 202 234
179 204 236
184 209 242
190 216 249
190 216 249
189 216 251
187 212 245
192 217 250
188 214 247
186 211 243
183 208 241
174 197 228
166 189 218
154 174 201
140 160 185
130 148 171
111 126 146
94 106 123
81 92 107
76 86 100
72 81 93
63 72 83
57 65 75
58 66 76
60 68 78
54 62 71
37 43 49
15 17 20
20 22 26
39 45 52
51 58 67
58 66 77
62 70 80
67 76 88
68 77 89
63 72 83
62 70 81
67 76 88
74 84 97
70 79 92
71 81 94
74 84 97
78 88 102
92 105 122
103 118 136
106 120 140
109 123 141
107 122 141
101 116 134
96 109 125
78 89 103
62 70 81
59 67 77
52 59 68
55 62 72
73 83 96
88 100 117
103 117 134
111 126 146
125 142 163
131 149 173
139 157 181
140 159 184
145 165 190
140 159 183
128 144 166
113 129 149
111 126 146
111 126 145
116 131 151
113 128 149
114 129 150
115 130 150
114 130 151
108 122 141
104 118 136
105 119 138
109 124 144
118 134 155
125 142 165
130 147 169
127 144 167
125 143 165
125 143 165
116 131 151
124 141 162
136 154 178
151 171 198
164 187 216
171 195 225
182 207 240
185 210 243
189 214 247
191 216 250
194 219 253
191 217 252
192 217 251
192 218 251
190 217 251
192 218 251
187 212 244
179 203 235
172 196 227
154 175 203
134 153 177
120 136 158
105 119 137
92 104 120
89 101 116
89 101 118
94 107 123
109 124 144
126 144 166
146 164 189
157 177 204
163 185 214
170 193 223
171 194 225
177 201 232
186 210 242
187 212 245
189 214 247
187 212 245
193 219 252
188 215 249
192 218 252
192 218 252
189 214 246
175 198 229
161 182 210
146 166 192
138 157 182
137 155 178
139 158 182
144 164 190
139 158 183
131 149 172
123 140 161
110 124 143
101 115 133
106 120 139
110 124 142
110 125 144
112 127 146
107 122 141
106 120 139
106 121 140
97 110 128
91 103 119
80 91 105
70 80 93
71 80 92
59 67 77
46 53 61
41 46 54
47 54 63
47 53 62
55 62 71
71 81 94
91 103 119
111 126 145
120 135 155
123 139 161
131 148 171
138 156 181
139 157 182
135 153 178
131 148 171
118 134 155
106 120 139
99 112 129
94 106 123
81 92 107
63 71 83
54 62 71
54 61 71
59 67 78
54 61 71
54 61 71
47 54 63
36 42 48
25 28 33
21 25 28
20 23 26
18 21 24
25 28 33
34 39 45
27 30 35
27 31 36
37 42 49
50 57 66
67 76 88
75 85 98
86 97 113
92 105 121
103 117 135
115 131 151
125 143 165
132 150 174
139 157 181
143 162 188
143 162 186
134 153 177
133 151 175
141 160 185
143 163 188
141 160 185
151 170 196
152 173 201
155 176 204
152 171 197
148 167 192
146 165 190
152 173 199
161 183 210
173 196 226
179 203 234
178 203 234
182 207 239
174 198 229
177 201 233
180 204 236
178 202 234
183 208 240
184 208 239
185 210 244
193 218 252
194 219 252
189 215 248
192 217 251
194 220 253
191 217 252
186 211 245
189 214 246
184 209 242
183 208 240
181 206 239
175 199 231
176 200 231
172 195 226
169 193 223
169 193 224
175 199 229
179 203 235
175 198 229
177 201 232
179 204 236
185 211 244
190 216 249
190 216 249
190 216 250
191 217 249
192 217 250
193 218 252
195 221 255
192 218 252
193 219 253
193 219 252
189 215 249
189 214 248
185 211 243
185 210 243
178 203 235
176 200 231
170 194 225
168 191 222
168 191 221
168 190 220
171 194 223
177 200 230
176 199 230
176 199 229
177 201 232
178 203 235
185 210 243
186 212 245
189 215 247
184 210 244
187 211 243
178 202 234
172 195 225
163 185 214
156 177 204
144 165 191
140 159 184
134 152 176
126 143 165
115 130 151
115 130 150
108 123 142
100 114 132
91 103 119
85 96 111
81 92 107
70 80 93
58 66 76
50 57 66
34 39 45
26 30 35
20 23 27
24 27 31
17 19 22
19 21 24
24 27 31
27 31 36
28 32 37
31 35 40
23 26 30
13 15 17
10 12 14
19 21 25
30 34 40
50 57 66
72 81 94
96 109 127
92 104 121
72 81 94
65 74 85
71 81 93
88 99 114
95 108 125
106 121 140
117 132 153
128 145 168
135 153 176
138 158 183
140 159 184
141 160 185
146 165 191
143 163 189
150 170 195
148 170 197
147 168 194
153 174 201
157 180 209
159 180 208
159 181 210
154 176 204
156 177 205
152 172 200
144 164 190
151 171 197
152 173 200
152 173 200
161 182 210
170 192 222
177 201 233
183 208 242
186 212 245
182 207 239
175 199 230
170 192 221
156 177 203
145 164 190
140 159 183
133 151 174
130 147 169
122 138 160
124 141 163
125 143 167
127 144 167
138 156 181
144 164 190
151 172 200
157 179 208
164 186 215
177 200 230
177 201 232
181 205 236
182 206 239
186 211 243
184 209 242
186 211 244
189 214 247
186 212 245
184 210 243
185 211 244
187 212 246
190 215 249
191 216 250
189 214 248
191 217 250
187 212 245
186 210 242
176 199 230
163 187 217
167 190 219
171 194 223
171 194 224
177 202 235
182 207 239
181 206 239
183 209 242
184 209 241
183 208 240
183 208 241
181 206 239
180 204 235
181 205 237
180 205 238
184 209 241
186 212 246
192 218 252
191 217 251
188 214 248
183 208 240
176 199 230
171 193 223
166 188 217
160 181 208
150 171 199
147 167 192
145 165 192
148 167 193
145 164 190
140 159 184
131 149 172
113 128 148
92 105 121
77 87 101
61 70 80
57 65 75
53 61 70
51 58 67
45 52 60
31 35 40
18 20 24
16 18 21
31 36 41
34 39 45
26 30 35
26 30 35
26 30 35
27 31 36
33 37 43
38 44 50
47 53 62
33 38 43
26 30 34
19 22 25
23 26 30
23 26 30
20 22 26
31 35 40
39 44 51
38 43 50
45 51 59
57 64 74
58 65 76
83 95 110
97 110 127
109 124 143
111 126 146
114 130 150
118 133 153
123 140 162
132 149 172
134 152 175
137 155 179
141 160 185
147 166 191
151 172 198
157 178 207
158 181 210
163 185 215
164 187 217
164 186 216
167 189 218
162 184 213
164 186 216
166 189 219
175 197 227
170 193 223
165 188 218
158 179 206
146 165 191
136 154 177
130 147 169
123 138 159
121 138 160
125 142 164
130 147 170
128 145 168
123 139 160
143 163 189
148 169 196
148 168 195
152 172 199
155 176 204
165 187 217
177 200 230
183 208 241
187 213 246
192 217 251
191 217 252
187 213 246
180 205 237
178 203 235
173 197 228
161 184 214
151 170 195
128 146 170
117 134 155
104 118 137
99 112 130
95 108 125
87 99 115
82 94 108
87 99 114
95 107 123
102 116 135
111 126 146
113 128 148
119 135 156
128 145 167
129 147 170
132 149 172
133 151 175
140 160 185
142 161 187
144 164 189
157 178 206
167 189 218
178 202 232
189 214 247
190 215 249
192 219 254
190 216 250
182 206 239
175 199 229
171 194 225
166 189 218
158 179 206
150 170 197
142 161 187
141 159 182
133 151 174
123 140 162
107 123 143
110 125 144
119 136 157
124 140 162
122 138 159
124 141 163
123 139 161
119 135 157
110 125 145
97 110 128
88 99 114
80 91 105
72 82 94
65 73 85
48 54 63
47 53 62
58 66 76
69 78 90
71 81 94
91 103 119
98 111 128
110 125 145
121 136 156
123 140 161
121 137 157
121 138 159
129 146 169
135 153 177
134 153 178
134 152 176
135 153 177
130 149 172
123 140 162
118 133 154
114 129 149
104 118 137
94 106 122
91 103 119
89 101 116
84 96 111
72 82 95
64 72 83
53 60 69
46 52 60
31 35 41
17 20 23
12 13 16
15 17 20
6 7 8
3 3 4
4 5 6
8 10 11
11 13 15
17 20 23
29 33 39
44 50 58
58 65 76
65 74 86
69 78 91
63 71 82
65 75 87
62 70 81
59 68 79
67 76 87
61 69 80
53 60 70
49 56 65
50 58 67
58 66 76
63 72 83
70 79 92
85 97 111
93 106 123
106 120 139
119 135 156
133 150 173
142 161 186
143 162 188
137 155 179
134 153 177
131 148 170
131 149 173
142 162 188
157 179 206
167 190 220
171 194 225
175 200 231
176 200 232
182 206 237
185 210 244
189 215 248
193 219 253
193 220 255
195 221 255
191 217 252
191 217 251
189 215 248
190 216 250
190 216 249
184 210 243
187 212 246
187 214 248
187 213 246
189 215 249
189 216 250
194 220 253
191 217 250
194 219 251
191 217 251
194 220 253
185 212 246
192 216 248
187 213 246
188 213 245
190 216 249
189 215 248
188 214 248
188 213 246
181 206 238
178 203 235
172 195 225
164 187 216
157 178 206
157 179 207
159 182 210
158 180 209
159 181 210
165 187 216
162 183 212
163 186 215
168 191 221
168 191 221
169 192 223
174 197 227
175 198 229
173 197 227
176 200 232
179 204 236
180 205 238
174 198 230
170 193 222
163 185 214
151 171 197
141 160 185
128 146 168
117 132 153
110 125 144
106 120 139
99 113 130
93 105 121
87 99 115
73 84 97
71 81 94
67 76 88
54 62 72
35 40 47
19 21 25
15 17 20
18 20 23
19 21 24
18 20 23
17 20 23
26 29 33
29 32 37
40 45 52
39 44 51
39 44 51
41 47 54
41 46 53
38 44 51
33 37 43
19 22 25
9 11 12
15 17 20
33 37 43
58 66 76
91 103 119
88 100 116
82 93 107
75 85 98
78 88 101
80 91 106
90 101 116
96 109 126
101 115 133
111 126 145
120 137 158
133 151 175
139 158 183
140 160 185
140 160 185
143 163 189
147 167 194
153 174 201
158 179 207
158 179 206
162 184 213
161 183 212
160 182 209
157 179 207
151 171 198
144 163 188
143 163 188
145 165 191
149 170 197
155 176 204
164 186 216
171 195 226
175 198 228
177 201 232
184 209 242
189 215 248
185 210 242
181 205 237
176 200 231
171 194 224
166 188 217
166 189 219
159 180 207
152 172 199
145 165 191
142 161 185
142 162 187
144 164 189
150 170 197
160 181 209
166 189 218
171 194 224
180 205 237
187 212 244
187 213 246
190 216 249
192 218 251
192 218 251
190 215 249
188 215 249
191 218 252
191 217 250
192 218 253
192 219 254
193 218 251
191 217 251
192 217 250
191 216 250
192 219 254
190 216 251
190 216 249
191 217 251
190 216 249
189 214 246
186 212 245
189 214 248
191 217 251
192 217 251
191 216 250
189 215 249
182 206 238
184 210 242
181 206 238
182 207 240
186 211 243
190 215 248
189 215 248
191 217 250
185 210 243
185 209 240
180 205 237
179 203 234
174 198 229
166 189 218
159 181 209
153 173 200
142 161 187
143 163 188
145 165 191
147 166 192
146 166 191
139 158 182
127 145 168
111 126 145
99 113 130
78 89 102
60 68 79
47 54 62
41 46 54
29 33 38
25 28 32
11 12 15
14 16 19
16 19 21
13 15 17
11 12 14
22 25 30
43 48 56
56 63 73
58 66 76
57 65 75
62 71 83
71 82 95
84 96 111
88 99 114
98 112 129
96 109 126
86 97 112
85 96 111
81 93 107
85 96 112
78 89 103
62 70 81
56 63 73
39 44 51
25 28 33
29 33 38
35 39 46
35 40 46
34 38 44
39 43 50
53 60 70
63 71 82
76 86 99
86 97 112
87 99 114
93 106 122
97 111 129
98 112 130
94 107 124
97 110 126
101 114 131
106 120 139
117 133 154
134 152 175
143 162 187
157 179 207
168 190 220
167 190 220
174 199 231
173 197 229
175 199 230
176 199 230
174 198 229
171 193 223
165 188 219
163 185 213
152 172 199
140 159 184
131 149 172
136 154 178
142 162 187
149 169 195
156 177 204
163 186 215
172 195 226
180 204 236
184 209 241
190 216 250
189 215 249
181 206 238
178 202 233
171 194 224
160 181 210
146 166 192
130 147 170
112 127 147
96 109 127
84 95 111
81 92 106
84 95 110
89 101 117
95 107 124
102 116 134
105 120 139
113 129 149
115 131 151
107 121 140
89 101 116
77 88 102
70 80 93
77 87 100
83 94 108
84 95 111
86 97 112
95 109 126
106 121 140
125 143 165
147 168 194
165 188 217
179 202 233
187 212 245
190 216 250
191 217 251
190 216 249
187 213 246
187 212 245
185 211 244
183 208 241
183 208 240
179 202 233
167 189 218
157 176 203
135 154 179
114 129 150
120 136 157
133 151 176
132 148 171
134 152 175
134 153 176
128 145 168
122 139 160
116 131 151
104 118 136
87 99 114
73 83 96
71 81 93
77 87 100
91 103 118
102 116 134
118 133 153
117 133 155
125 143 165
136 155 179
145 165 191
148 169 196
158 179 206
154 175 203
150 171 197
149 170 196
145 165 191
131 149 173
122 139 161
111 126 146
107 122 141
108 122 141
108 122 141
105 120 139
100 114 131
100 114 131
104 119 138
109 123 141
105 119 137
101 115 134
94 107 124
80 91 105
58 66 76
43 49 57
35 40 46
26 30 35
24 28 32
21 24 28
17 19 22
13 15 17
10 11 13
18 21 24
29 32 37
31 35 40
24 28 32
21 24 27
22 25 29
19 21 25
15 17 20
8 9 11
14 16 18
28 31 36
34 38 44
41 47 55
42 48 55
45 52 60
50 57 67
45 51 58
37 42 48
30 34 40
22 25 29
13 15 17
16 18 21
33 38 44
46 53 61
49 55 64
46 53 61
44 50 58
46 53 61
59 67 77
86 98 113
109 124 142
129 147 170
140 159 184
150 171 198
162 184 212
170 193 223
174 198 229
181 205 237
186 212 244
189 214 247
190 216 250
194 219 253
193 219 253
190 215 248
192 218 252
191 217 251
193 219 253
194 220 254
196 221 254
195 220 254
192 218 252
193 218 251
192 219 253
191 217 251
193 219 253
192 218 253
194 219 253
194 219 253
192 218 252
193 219 253
190 215 248
191 216 248
192 217 250
189 214 247
187 213 246
188 213 246
184 210 243
181 206 238
168 191 221
158 179 206
145 165 192
137 156 180
135 154 178
138 156 180
133 150 174
136 154 178
131 149 173
136 155 179
136 155 180
146 165 190
148 168 195
156 177 205
152 173 200
152 172 199
148 168 194
146 166 192
143 162 187
140 159 184
137 156 180
133 151 174
128 145 167
117 133 155
107 122 142
101 115 133
93 106 123
90 102 118
82 94 109
74 85 98
66 75 87
56 64 74
49 56 64
40 46 53
39 44 51
36 41 48
31 35 41
23 26 31
16 18 21
15 17 19
24 27 32
37 41 48
41 47 54
42 47 55
42 48 56
48 54 63
48 55 64
43 50 58
38 43 49
21 23 27
18 20 23
19 21 25
22 25 29
32 36 42
48 55 63
63 72 83
74 84 97
85 96 111
90 102 118
92 105 121
79 89 103
75 86 99
73 83 96
68 77 89
73 83 96
86 98 113
97 110 127
111 126 146
121 138 159
130 147 169
128 145 168
126 143 165
130 147 170
134 153 177
138 157 182
145 165 192
149 169 195
156 178 206
162 184 213
158 181 209
161 183 211
167 190 219
166 189 218
167 189 219
161 182 210
165 188 217
171 193 222
176 199 230
177 201 233
183 207 239
181 206 238
180 205 238
182 206 237
182 206 238
181 206 239
179 202 233
176 200 232
179 203 234
178 202 234
175 198 229
169 193 223
171 195 225
173 196 226
173 197 227
171 195 225
172 195 225
169 193 223
174 198 230
177 201 234
187 212 246
191 217 251
188 213 247
193 218 252
193 219 254
188 214 248
192 218 251
192 216 249
190 216 250
188 213 247
193 219 252
188 214 248
188 213 247
186 211 244
183 208 241
185 211 244
185 211 244
186 211 243
189 215 248
188 214 247
190 214 246
183 208 241
177 200 231
174 198 228
170 192 222
160 181 210
152 172 199
147 166 191
144 163 189
146 166 192
145 164 189
143 163 188
145 165 191
152 173 200
159 180 207
163 185 214
168 190 219
167 190 220
169 192 221
166 189 219
168 190 219
166 189 218
164 186 216
163 184 213
162 184 212
158 179 207
156 178 206
155 175 202
154 174 201
145 165 191
134 152 175
118 135 156
107 121 140
94 107 123
77 87 100
54 61 71
31 35 40
10 11 13
23 26 30
30 34 39
26 30 35
22 25 29
23 26 31
26 29 34
39 45 52
58 66 76
71 81 94
79 90 104
95 107 124
106 120 138
106 120 139
106 120 139
113 129 148
112 128 148
115 131 151
118 135 156
123 140 162
127 144 166
122 137 158
115 131 151
104 119 138
83 94 109
65 74 86
60 68 78
59 67 77
46 53 61
36 41 48
32 36 42
35 40 47
38 43 50
32 36 42
20 23 27
12 14 16
8 9 11
19 21 25
23 26 30
21 24 28
28 32 37
29 33 39
30 34 39
40 45 52
52 59 68
66 75 86
84 96 110
96 109 125
105 120 140
122 138 159
127 144 167
139 157 182
145 165 192
158 179 207
157 180 209
164 187 217
167 191 221
180 204 236
184 209 242
182 205 237
171 195 225
127 145 168
136 154 177
145 165 192
160 182 209
173 195 224
184 208 241
192 217 250
189 214 247
186 211 244
180 204 236
174 197 227
165 187 216
153 173 199
138 156 181
124 141 163
109 125 144
99 113 130
103 116 134
100 114 131
98 112 129
94 107 124
94 107 123
93 106 122
95 108 125
89 101 118
88 100 115
76 86 100
71 81 93
64 73 84
59 67 77
67 77 89
74 85 98
80 90 104
83 94 109
94 107 124
108 122 141
124 140 162
140 158 183
155 176 203
167 189 218
173 197 228
177 202 234
181 204 235
181 206 238
183 208 241
186 210 242
190 216 250
194 220 254
191 217 252
191 217 250
183 208 240
172 195 226
158 179 206
139 158 182
123 139 161
112 127 147
111 126 145
110 124 143
100 113 130
101 115 132
97 110 127
103 118 136
103 117 135
102 116 134
105 120 139
116 132 153
131 148 171
145 165 191
160 181 209
167 191 222
173 197 228
177 200 231
175 199 230
181 206 238
179 202 232
177 202 234
177 202 235
179 203 235
176 201 233
171 196 227
164 187 216
152 173 201
141 160 184
122 138 160
118 134 155
115 130 150
106 121 139
101 115 133
94 106 123
89 100 116
82 94 109
74 85 98
70 79 92
63 72 83
54 61 71
52 58 68
59 66 76
64 73 84
69 79 91
73 83 96
72 81 94
66 75 86
55 63 73
46 52 60
38 43 50
32 37 43
30 35 40
25 29 33
20 22 26
28 32 37
28 31 36
21 24 28
24 27 31
37 42 48
51 58 67
59 67 77
70 80 92
73 84 97
73 83 96
66 75 87
62 70 81
55 62 72
43 49 57
31 35 41
27 31 36
28 32 37
31 35 41
37 42 49
40 46 53
40 46 53
37 42 49
28 32 37
11 13 15
18 21 24
43 49 56
63 72 83
85 97 112
106 121 140
132 150 173
154 174 201
171 195 225
180 204 236
180 205 238
189 214 247
190 215 248
191 218 253
193 219 253
192 219 253
190 216 250
193 219 253
192 216 249
187 212 245
192 218 251
193 219 254
192 217 250
190 216 250
189 216 250
188 213 246
187 213 247
190 216 250
193 218 251
194 220 254
193 219 253
194 220 255
191 217 251
189 216 250
191 217 251
190 214 247
193 219 252
190 215 248
183 208 241
181 205 237
171 195 227
162 184 212
152 173 200
149 169 195
149 170 196
156 176 202
158 179 207
162 184 213
163 185 214
160 182 211
155 176 204
145 165 191
137 155 179
134 151 175
131 148 171
130 148 171
130 148 170
123 140 162
116 132 152
106 121 140
103 117 135
96 109 126
88 100 115
81 92 106
87 99 114
88 100 115
84 95 110
74 83 96
65 73 85
58 66 77
55 63 73
56 64 74
51 57 66
36 40 47
22 26 30
21 24 28
22 25 29
25 29 33
16 18 21
15 17 19
22 26 30
29 33 38
35 40 46
38 44 51
39 44 51
34 38 44
23 26 30
17 19 22
13 14 17
22 26 30
42 48 55
52 59 69
52 59 69
56 63 73
62 71 82
67 76 88
70 80 92
72 82 94
63 72 83
57 64 74
52 59 69
49 55 64
46 53 62
50 56 65
50 57 66
62 70 81
73 82 95
77 87 101
90 103 119
98 111 129
94 107 124
96 109 126
103 117 135
116 132 152
119 136 157
128 146 169
139 157 182
149 169 195
153 173 200
158 180 209
161 183 212
166 187 215
162 184 212
163 186 216
165 187 217
167 189 219
170 192 222
174 198 230
175 199 230
176 200 230
170 192 221
164 186 215
165 188 217
166 188 217
167 189 218
164 186 216
165 188 217
164 187 216
169 192 221
173 197 227
173 198 230
177 200 232
176 200 231
173 196 226
174 198 229
176 200 231
178 201 232
184 210 243
187 211 243
187 213 247
193 219 253
193 220 254
194 220 254
194 220 255
193 219 252
191 217 252
194 221 255
193 219 252
191 218 253
190 216 250
191 216 249
188 213 246
190 216 250
189 215 249
189 214 246
183 208 240
183 207 240
180 205 237
180 203 235
178 202 234
178 202 233
170 194 224
169 192 221
165 187 216
158 180 208
155 176 202
143 163 189
137 156 181
130 148 172
130 147 169
128 146 170
126 144 166
124 141 163
122 138 159
127 145 168
144 163 188
154 175 202
162 184 213
172 195 226
174 197 227
174 197 227
170 194 225
169 192 222
163 184 211
159 180 208
152 173 200
151 171 198
151 171 197
147 167 192
144 164 190
138 157 182
133 151 175
124 140 162
114 130 150
103 117 135
88 101 117
63 72 83
42 47 55
24 28 33
17 19 23
10 11 13
9 11 12
12 14 16
26 30 35
41 46 53
41 47 54
38 43 50
45 51 59
60 68 79
66 75 87
68 77 89
72 82 94
72 81 94
76 87 101
88 100 117
108 123 143
132 150 173
144 164 189
152 173 200
146 167 193
132 151 175
124 142 165
122 139 161
112 127 148
97 110 127
82 93 108
70 79 92
61 69 79
38 43 49
23 26 30
22 25 28
18 21 24
9 10 12
5 6 7
13 15 17
8 9 11
13 15 18
20 23 26
20 23 27
17 19 22
13 15 17
15 17 20
36 40 47
51 58 67
60 69 80
66 76 88
80 91 106
95 108 124
105 120 139
119 135 156
132 151 174
139 158 182
142 161 186
145 164 190
156 176 203
163 186 215
177 202 234
182 207 240
151 171 198
162 184 212
180 203 234
185 209 240
183 209 243
181 206 238
174 198 228
164 186 215
159 180 207
151 171 198
142 161 186
131 149 172
120 136 157
116 132 153
110 125 144
104 117 136
105 120 138
96 110 127
94 106 123
90 102 117
80 91 105
68 77 90
64 73 84
60 68 79
58 65 76
52 60 69
49 56 65
56 63 73
59 67 77
64 72 83
77 88 101
90 102 118
98 111 128
103 117 136
111 126 145
120 137 158
131 149 172
136 154 178
140 159 184
138 156 180
139 158 183
134 153 177
140 158 181
147 167 193
154 175 203
167 188 217
174 197 227
183 209 242
190 216 250
193 219 254
191 217 251
186 211 243
181 206 238
176 200 231
173 196 226
163 185 213
165 187 216
159 181 209
148 168 195
147 167 192
152 173 200
158 179 207
167 189 219
170 193 224
168 192 223
172 196 227
175 200 231
178 201 233
182 206 238
188 213 245
187 213 246
187 212 245
186 211 245
190 216 250
190 215 249
189 215 249
186 210 243
181 206 238
182 206 238
176 201 233
166 189 220
161 182 211
156 177 204
141 161 186
133 152 176
128 145 168
118 133 154
105 119 138
89 101 118
73 82 95
63 72 83
55 63 73
53 60 69
44 50 58
34 38 44
34 39 45
41 46 54
53 60 69
61 69 80
58 65 76
55 62 72
56 63 73
53 60 69
50 57 66
60 68 78
60 68 79
60 68 78
59 67 77
54 61 71
54 61 71
62 71 82
65 74 85
73 83 95
73 83 96
68 77 89
66 75 86
61 69 80
55 62 71
48 55 64
55 62 72
58 66 76
57 65 75
49 56 65
46 52 60
48 54 62
57 65 75
64 73 85
59 67 78
45 51 58
30 34 39
21 24 28
18 21 24
16 18 21
16 19 22
13 14 17
24 27 32
45 52 60
70 80 93
96 110 128
119 135 157
136 155 179
154 175 203
168 191 221
179 203 234
184 209 240
190 215 249
191 217 252
191 218 253
192 218 253
192 219 253
192 219 253
188 213 245
191 216 249
190 216 251
191 217 250
186 211 244
186 211 244
187 212 245
193 218 251
189 215 249
189 215 247
192 217 251
193 219 254
192 218 253
192 218 252
191 217 251
194 220 254
189 214 248
183 208 240
182 206 238
172 195 226
164 186 215
156 177 205
153 174 201
157 179 208
167 190 219
176 199 230
177 201 232
182 207 241
183 207 239
185 210 242
184 210 243
182 207 239
177 203 236
177 201 232
175 200 232
173 196 226
174 199 230
174 198 229
168 191 222
163 185 214
152 173 200
144 163 189
131 149 173
113 129 149
92 104 120
78 89 103
64 73 84
61 69 80
60 69 80
53 61 71
48 55 64
43 49 57
37 43 49
34 38 45
30 34 40
22 25 29
18 21 24
14 16 19
15 17 20
20 22 26
17 20 23
13 15 18
12 14 16
17 20 23
24 28 32
17 20 23
10 11 13
12 14 16
22 25 29
33 37 43
43 49 57
35 39 45
25 28 32
16 19 22
14 16 19
24 27 31
33 38 44
32 36 42
19 21 25
19 21 25
24 28 32
31 36 42
45 51 59
55 63 73
50 57 66
37 41 48
32 36 41
25 28 33
28 32 37
38 44 51
56 63 73
69 79 91
78 89 103
89 101 116
95 109 126
109 123 141
117 133 154
127 145 167
136 156 181
144 164 190
149 170 197
145 165 191
139 158 182
141 160 185
142 161 186
151 172 199
163 185 214
166 189 218
166 189 219
158 180 208
153 174 202
147 167 193
148 166 191
141 160 185
143 163 189
144 164 189
149 169 195
155 176 204
163 184 212
167 189 218
169 192 222
178 202 233
182 206 239
180 205 237
181 206 238
180 204 237
186 212 245
189 214 246
194 220 253
194 220 254
191 216 250
191 217 252
193 218 252
193 219 252
190 215 249
191 217 251
189 214 247
189 215 248
186 212 247
189 214 248
186 211 244
183 206 236
185 210 243
186 212 245
186 211 243
184 209 241
181 205 237
183 208 239
180 206 238
179 202 233
179 202 233
177 201 232
169 193 225
166 189 219
163 185 214
156 178 206
148 168 193
145 165 191
143 162 188
146 166 193
151 171 198
155 176 204
153 174 201
143 162 188
127 143 165
123 140 161
137 156 179
145 165 191
160 181 209
169 192 222
171 194 224
176 199 230
176 200 232
178 202 233
175 199 229
172 195 225
164 185 213
168 191 221
171 193 223
170 193 224
169 191 221
169 192 221
163 186 216
159 180 207
150 170 196
144 163 187
134 152 176
109 125 144
85 97 112
68 77 90
57 65 75
44 50 58
29 32 37
14 15 18
11 13 15
18 20 23
15 17 20
19 21 25
17 20 23
16 18 21
20 23 27
35 40 46
54 61 70
73 84 97
87 98 113
95 108 125
110 125 145
123 139 160
127 145 168
130 148 171
133 151 175
134 153 177
134 152 176
138 156 180
136 153 176
127 144 166
124 140 162
105 119 138
77 87 100
54 62 71
42 48 55
28 31 36
25 28 33
25 29 33
20 23 26
12 14 16
5 6 7
15 17 19
24 28 32
32 37 43
34 39 45
41 47 54
41 47 54
34 39 45
26 30 34
25 28 33
34 39 45
46 52 60
60 68 78
77 87 101
90 102 118
92 105 122
89 101 116
97 110 127
110 124 143
127 144 167
137 155 179
148 168 194
156 177 206
177 201 232
184 208 239
181 206 238
172 194 224
160 182 211
148 169 196
135 154 180
126 143 165
120 136 157
116 131 152
115 131 153
113 128 148
104 118 136
97 110 126
86 98 114
72 82 95
59 67 77
41 47 54
35 40 47
35 40 46
35 40 46
44 50 58
47 53 61
45 51 59
52 59 68
51 59 69
57 64 74
70 79 92
86 98 113
99 112 130
109 123 141
115 130 150
124 141 162
129 147 170
129 147 169
119 136 157
111 125 144
103 117 135
99 112 130
99 113 131
115 131 151
130 148 171
136 154 178
141 161 186
150 170 196
166 188 217
172 195 225
181 206 238
187 213 246
189 214 246
191 216 249
190 216 249
191 218 253
193 219 252
189 214 247
191 216 250
189 215 250
192 217 251
190 214 247
189 215 249
189 215 249
190 216 251
192 218 253
193 219 252
192 218 252
192 217 250
193 219 252
190 216 250
190 216 250
191 216 248
191 217 251
190 216 249
191 217 250
189 215 248
189 214 248
189 214 247
184 210 243
184 210 243
186 210 243
187 212 246
186 211 243
181 206 238
176 200 231
168 190 219
164 187 217
153 173 199
132 150 175
115 131 152
91 103 119
80 91 105
68 77 89
57 65 75
48 54 63
43 48 56
29 33 38
24 27 32
24 28 32
22 25 29
26 29 33
24 28 32
17 20 23
19 22 25
25 28 33
37 41 48
56 63 72
59 67 78
60 68 78
60 68 79
63 71 82
66 75 88
78 88 102
90 102 118
96 110 127
98 112 129
94 107 124
84 96 111
72 82 94
60 68 78
46 52 60
34 39 45
27 31 36
30 34 40
32 37 43
39 44 51
37 42 48
38 44 51
42 48 56
42 47 54
35 39 45
34 39 46
37 42 48
34 39 45
26 30 35
21 24 28
11 12 14
14 16 18
37 42 49
59 67 78
92 104 120
116 131 152
138 156 180
149 170 197
162 185 215
168 191 222
181 204 235
188 213 247
191 216 249
192 219 253
194 219 253
192 217 251
192 218 252
194 219 252
192 218 251
190 215 249
190 216 250
189 216 251
190 217 251
192 218 252
191 217 250
193 219 252
194 220 254
193 219 252
193 219 254
193 218 251
194 219 253
189 215 249
187 213 247
186 211 244
178 203 235
167 190 221
162 184 212
165 188 218
168 190 220
172 195 226
175 198 228
181 205 237
182 206 237
186 211 244
187 213 247
187 213 247
186 212 245
187 212 245
187 213 245
188 214 248
188 213 246
186 211 245
183 208 241
184 209 242
181 205 237
180 205 237
175 199 231
165 188 219
151 171 197
136 155 180
121 138 161
108 123 142
97 110 128
90 102 118
79 90 104
75 85 99
73 83 96
65 74 85
55 62 71
48 55 64
41 47 54
38 43 49
26 30 35
28 32 37
35 39 45
34 38 44
33 37 43
30 34 40
26 30 35
24 27 31
18 20 24
15 17 20
17 19 23
11 13 15
16 18 21
29 33 38
27 31 36
13 14 17
8 9 10
14 16 18
22 26 30
23 27 31
21 23 27
18 20 23
26 30 34
34 38 44
36 41 47
40 46 53
51 58 67
59 67 78
65 73 85
65 74 85
66 75 87
68 77 89
59 67 77
40 46 53
23 26 30
18 21 24
37 42 49
57 65 76
87 99 114
107 122 142
130 148 171
140 160 185
139 158 184
137 156 180
129 147 169
118 134 155
109 123 142
98 111 129
99 112 128
106 121 140
122 138 160
128 145 167
127 143 165
130 148 171
126 144 167
128 144 166
125 142 163
127 145 167
133 151 175
139 157 181
140 159 184
145 164 190
151 171 197
160 182 210
165 188 218
172 197 229
183 208 240
187 213 247
190 215 248
187 213 247
186 212 246
181 206 238
179 203 236
177 201 232
175 198 229
173 196 226
182 206 237
184 209 241
183 208 240
185 210 243
189 214 247
187 214 248
192 218 252
191 217 251
193 218 252
191 216 250
189 215 248
187 212 244
189 214 246
184 209 241
186 211 244
184 209 241
184 209 241
179 202 233
175 199 230
172 196 228
168 191 221
173 197 227
172 196 226
167 189 219
166 189 219
166 188 217
158 180 208
155 177 205
152 173 201
147 166 192
148 168 195
150 171 197
148 169 195
140 159 184
127 145 168
124 140 161
122 139 161
136 154 177
148 168 195
158 180 208
169 191 221
177 201 232
180 204 236
177 201 233
179 203 234
183 208 241
181 205 238
182 206 239
178 202 234
179 202 232
179 202 232
174 197 228
163 185 214
155 176 204
144 163 189
133 150 174
119 135 156
101 115 133
85 97 113
67 77 89
52 60 70
42 47 55
36 40 47
30 35 40
16 19 22
9 10 11
10 11 13
11 12 14
14 16 19
19 21 25
35 40 46
52 59 67
59 67 77
71 81 94
80 92 107
86 98 114
86 98 113
79 90 104
78 89 103
88 100 116
96 108 124
103 116 134
101 115 133
112 128 149
110 125 145
102 116 134
88 99 115
70 79 91
52 59 68
45 51 59
42 47 55
40 45 52
35 40 46
24 27 32
10 11 13
15 17 20
21 24 28
23 26 30
31 35 41
36 41 48
39 44 51
43 49 57
48 54 63
49 56 65
50 56 65
54 62 71
65 74 85
82 92 107
97 110 127
99 112 130
91 104 120
83 94 108
79 90 105
84 96 111
93 106 123
111 127 147
134 153 177
154 174 201
179 203 235
172 196 226
159 180 208
149 168 194
134 151 174
116 131 152
98 112 129
90 102 118
83 95 109
81 92 107
79 90 104
81 92 106
72 82 95
60 68 79
49 56 65
38 43 50
28 31 37
15 17 20
9 10 12
3 4 4
6 7 9
16 18 21
32 37 42
57 65 74
80 91 105
89 102 118
100 114 132
111 126 146
120 136 158
127 145 169
132 151 175
133 151 175
129 147 170
116 132 153
108 122 141
104 119 137
109 124 143
114 129 150
124 140 162
132 150 173
138 157 181
150 171 197
162 184 213
169 191 220
176 199 230
181 205 237
186 210 243
188 213 247
183 208 241
181 205 237
180 203 234
179 202 233
176 200 231
174 198 228
177 201 233
177 201 233
178 202 234
177 201 233
181 205 237
178 203 235
180 205 238
188 214 247
186 211 245
187 212 246
187 213 246
188 214 247
185 210 243
181 206 239
184 209 242
188 214 247
187 213 247
192 218 251
192 217 249
186 211 244
191 217 252
190 216 250
190 217 252
194 221 255
193 219 254
193 219 253
193 220 255
190 217 251
186 212 245
182 206 238
174 198 229
165 186 215
156 177 204
151 171 197
139 158 183
131 149 172
119 134 154
102 115 133
83 95 110
68 77 90
49 55 64
38 43 50
35 39 46
27 30 35
28 32 37
29 33 38
23 26 29
26 29 34
29 32 37
28 32 37
23 26 30
18 21 24
23 26 31
31 35 41
40 45 52
49 56 65
52 59 69
60 69 80
71 80 93
71 81 94
68 77 89
66 75 87
60 68 78
53 60 69
34 39 45
16 18 21
7 8 9
6 7 8
14 16 19
8 10 11
8 9 10
25 28 32
37 42 49
45 50 58
46 53 61
42 47 55
27 30 35
17 19 22
11 13 15
18 21 24
35 40 46
52 59 68
73 83 96
90 103 119
108 123 142
120 136 157
140 159 185
154 175 203
164 187 216
172 196 227
179 204 236
186 210 242
191 216 250
192 218 252
188 214 248
190 217 251
191 218 252
190 216 250
190 216 250
188 214 247
190 216 250
193 218 251
191 217 251
193 217 250
189 214 248
188 214 249
190 215 247
189 213 245
190 215 249
188 214 247
188 213 246
183 209 242
181 206 237
176 199 231
171 194 224
166 189 218
176 199 229
180 205 237
184 209 241
187 213 246
189 215 249
187 213 245
188 214 247
188 213 246
183 208 242
186 211 243
187 213 246
189 214 248
190 215 249
189 215 248
189 214 247
184 209 243
183 207 237
182 207 240
178 203 236
177 200 231
166 188 217
159 180 208
151 171 198
136 154 178
124 141 163
112 127 147
100 114 132
99 112 130
100 114 132
103 117 136
99 112 130
89 101 118
85 97 113
82 93 107
71 81 94
59 67 77
43 49 57
30 34 39
29 33 38
31 36 41
32 37 42
28 31 36
22 25 29
11 12 14
5 6 7
9 11 12
12 14 16
14 15 18
14 16 19
10 11 13
6 7 8
13 14 17
21 24 27
24 28 32
30 34 39
27 31 35
28 32 38
29 33 38
30 34 40
37 42 49
46 52 60
45 52 60
40 46 53
34 38 45
29 33 38
30 34 39
31 35 40
25 28 33
19 22 25
19 22 25
12 14 16
14 16 19
25 29 33
38 43 49
56 64 74
80 91 106
101 114 131
120 136 157
138 155 179
134 153 178
121 138 160
105 119 137
94 107 124
85 97 112
76 86 99
71 80 92
62 70 81
61 69 80
70 80 92
81 93 107
90 101 117
97 110 128
115 131 151
119 136 157
123 140 161
126 144 166
130 148 171
136 154 179
149 169 196
165 187 217
180 204 236
187 211 243
186 212 246
183 208 240
172 195 226
163 184 212
145 165 190
139 158 182
134 152 176
135 153 176
132 150 174
130 147 170
133 150 174
141 160 185
151 171 198
158 180 208
162 184 214
171 194 224
181 205 236
183 208 241
188 212 244
186 212 245
191 215 247
191 217 250
189 215 249
191 216 249
192 218 251
193 219 253
193 219 252
189 215 248
189 214 247
177 201 232
167 189 219
165 188 218
173 197 228
176 200 231
180 204 236
179 203 234
176 200 232
170 192 222
160 181 210
146 165 191
142 161 186
141 160 184
140 160 185
137 155 179
133 151 174
134 152 176
133 151 175
140 159 184
145 165 190
149 168 194
153 174 201
164 185 212
166 189 219
171 195 227
176 200 231
176 201 233
178 202 233
179 203 235
183 207 238
179 203 235
166 188 217
159 181 210
155 176 204
152 172 198
140 157 181
128 145 168
122 138 160
109 123 142
87 99 114
62 70 81
51 58 67
48 54 63
41 47 54
37 42 49
38 43 49
37 42 49
33 37 43
27 31 35
20 22 26
14 16 19
20 22 26
14 16 18
15 17 20
25 28 33
26 30 35
30 34 40
27 31 36
35 40 46
43 49 57
47 53 61
49 56 65
45 51 59
52 59 68
55 63 72
50 57 66
48 54 62
54 61 71
61 68 79
59 67 78
59 67 78
57 65 75
46 52 60
29 33 38
13 15 17
8 10 11
17 19 22
22 25 29
25 28 33
29 33 38
34 38 44
39 45 52
47 54 62
59 68 78
62 70 81
67 76 88
71 81 93
77 88 102
86 98 113
89 102 118
95 108 125
112 128 148
120 137 159
121 138 160
118 134 156
122 139 160
131 149 172
134 153 177
142 161 186
158 181 210
153 173 200
150 170 196
142 161 185
124 141 163
104 118 136
94 107 123
78 89 103
69 78 90
63 72 83
57 64 74
53 61 70
47 54 62
39 45 52
37 42 49
29 33 38
16 18 21
8 9 10
5 6 7
10 11 13
15 17 20
31 35 40
49 55 64
61 70 81
68 77 90
71 81 94
82 93 107
93 105 122
102 117 135
105 119 138
97 110 127
91 104 120
96 109 125
101 115 133
115 131 151
127 145 168
137 156 180
149 169 194
160 182 212
171 194 224
176 199 230
179 203 234
182 206 236
184 209 241
183 208 241
182 206 237
182 206 239
180 204 236
176 199 230
175 198 229
167 190 220
171 194 224
174 197 228
171 193 223
170 193 223
172 196 226
177 200 230
177 201 232
181 205 236
177 201 231
169 192 223
165 187 216
153 173 200
150 171 198
147 167 192
142 162 187
137 156 181
144 163 189
152 172 198
158 179 207
169 192 222
170 194 224
174 197 227
176 200 231
184 208 240
188 213 246
191 217 251
190 216 250
194 220 254
194 220 254
192 218 252
192 218 252
189 214 248
184 210 244
181 206 237
180 204 235
175 199 230
168 191 220
162 184 213
148 169 196
135 153 177
113 128 148
92 104 120
74 84 98
65 73 84
61 69 80
58 65 75
54 62 71
52 59 68
51 58 67
56 64 74
61 69 79
55 63 73
46 52 60
38 44 51
29 33 38
23 27 31
22 25 29
18 20 23
18 21 24
20 23 26
19 21 24
19 21 24
17 19 22
22 25 29
25 29 33
23 26 30
11 13 15
7 8 9
16 18 21
24 28 32
32 37 42
42 47 55
41 47 54
39 45 52
42 48 55
42 47 55
36 40 47
25 28 32
15 18 21
6 7 9
9 10 12
20 23 27
38 43 50
59 67 78
86 97 112
109 123 142
120 136 156
124 141 162
134 152 176
144 164 190
152 172 198
154 174 201
160 181 208
164 187 217
170 193 223
180 204 235
187 212 246
192 217 251
189 215 249
187 213 247
189 214 248
191 217 250
192 217 250
186 212 246
190 215 249
191 216 248
191 217 251
188 214 248
191 217 251
188 214 247
191 216 250
190 215 248
186 211 244
187 212 244
187 212 245
187 212 245
188 213 246
189 215 249
191 217 251
189 214 248
189 216 251
192 217 249
192 217 251
188 214 247
192 218 252
191 217 251
190 216 250
192 218 253
192 218 253
193 218 252
194 220 253
191 217 250
185 210 243
186 211 245
187 212 245
190 216 249
189 215 248
189 215 250
186 211 244
180 204 236
176 198 227
167 190 220
159 181 210
154 175 203
152 173 201
139 158 184
131 148 172
128 145 168
125 142 164
126 143 165
126 142 164
112 127 147
95 108 125
82 93 108
76 86 100
64 72 83
43 49 57
28 32 37
25 29 33
25 29 33
26 30 34
24 28 32
26 30 35
23 26 30
18 20 23
11 13 15
13 14 17
11 13 15
10 11 13
3 4 4
5 6 7
9 10 12
6 7 8
8 9 10
9 10 12
14 16 18
12 13 15
4 4 5
7 8 10
14 16 18
15 17 20
16 18 21
22 25 29
23 26 31
24 27 31
25 28 32
17 20 23
12 14 16
14 16 18
26 30 34
35 40 46
43 49 56
59 67 77
77 88 102
87 99 115
105 119 136
120 136 157
132 150 174
142 161 186
143 162 187
139 158 182
124 141 164
111 126 145
90 103 119
77 88 101
71 81 94
68 78 90
63 72 83
68 77 89
73 83 97
79 90 104
90 103 119
99 113 130
109 124 143
120 136 157
127 145 168
138 156 181
161 182 210
175 198 229
189 213 245
184 207 239
174 197 227
161 183 212
148 167 192
130 147 170
118 134 156
112 127 148
111 126 145
104 118 137
95 108 124
98 111 128
106 120 139
117 133 154
122 139 161
128 146 169
132 150 174
137 156 181
144 163 188
144 164 189
141 161 186
148 168 194
156 177 205
158 179 207
164 186 215
168 191 221
178 201 232
180 204 235
185 210 243
192 218 252
191 217 251
190 216 249
183 208 242
179 203 234
177 201 232
172 196 226
169 192 222
169 192 221
161 184 213
159 180 207
154 175 202
149 170 196
145 165 190
156 176 203
156 178 206
160 181 209
162 184 213
160 182 210
161 183 211
167 189 219
171 193 223
167 191 221
172 195 226
176 200 230
176 201 234
184 209 241
185 209 240
185 210 243
178 202 233
175 198 229
168 192 222
158 179 206
142 161 186
133 151 175
120 136 157
115 130 151
112 127 147
110 124 143
96 109 126
77 87 101
58 66 77
50 57 66
51 58 67
54 61 70
55 63 72
65 74 85
73 83 96
72 82 94
59 67 78
48 54 62
35 40 46
19 22 25
7 8 9
14 17 19
17 20 23
16 18 21
6 7 8
7 9 10
8 9 10
11 13 15
17 19 22
15 17 20
8 9 11
8 9 10
14 16 19
19 21 25
23 27 31
36 41 47
44 50 58
51 58 68
65 73 84
73 84 98
72 82 95
59 66 77
37 42 49
18 21 24
7 8 10
5 6 7
5 6 7
6 7 8
8 9 11
10 11 13
21 24 28
37 42 48
54 61 71
61 69 80
61 69 80
59 66 76
53 60 69
49 55 64
57 65 75
78 88 101
90 103 119
95 108 125
96 108 125
107 121 140
118 134 154
120 136 157
126 143 165
134 152 175
143 162 187
127 144 167
106 120 139
81 92 106
67 77 89
58 66 76
54 61 71
46 53 61
46 52 60
41 47 54
30 34 39
20 23 26
16 18 21
14 16 18
10 11 13
7 8 10
7 8 9
12 13 15
22 25 29
28 32 37
33 38 44
41 47 54
47 54 62
50 58 67
50 57 66
50 57 66
55 63 73
58 66 76
52 59 68
57 65 75
68 77 89
79 90 105
95 108 125
111 125 145
139 157 181
151 171 198
159 181 210
171 193 222
173 196 226
179 203 234
181 204 235
179 204 237
178 201 232
176 200 230
171 195 226
170 194 224
166 189 219
163 185 214
165 188 218
165 187 216
163 185 213
162 184 213
167 189 218
170 193 223
170 194 224
171 193 223
168 191 221
176 198 228
172 195 225
162 184 214
155 175 202
141 160 184
127 144 166
120 137 159
113 128 148
108 124 143
110 125 144
112 127 147
116 131 151
126 142 164
140 159 183
150 170 196
164 185 213
174 198 228
182 206 237
187 213 246
191 217 251
190 216 249
192 217 250
190 216 250
194 220 254
192 217 251
192 218 251
188 213 247
184 208 240
179 203 233
167 189 219
153 174 202
139 157 182
122 138 159
107 122 142
92 104 121
85 97 112
77 88 102
83 95 110
89 100 115
82 93 107
79 90 104
77 86 100
68 77 89
66 75 87
70 79 92
70 80 93
67 76 88
58 67 77
45 50 58
35 39 45
33 38 44
26 29 34
15 17 20
7 8 9
7 9 10
13 15 18
15 17 20
13 15 17
9 10 11
13 15 17
15 17 19
8 9 10
9 10 12
25 29 33
38 43 50
43 49 56
47 53 62
52 59 69
47 54 62
39 45 52
31 35 40
18 20 23
10 11 13
22 25 29
34 39 45
42 48 56
58 66 76
77 87 101
92 105 121
98 111 128
101 114 132
102 116 134
104 118 137
111 126 145
118 134 154
127 145 168
134 152 177
135 154 178
142 162 188
152 173 200
158 179 206
162 184 213
166 188 218
167 190 221
169 193 224
174 197 227
180 205 237
183 207 238
179 203 234
174 198 230
170 193 224
165 187 216
170 193 222
174 197 227
172 196 227
181 205 236
183 208 240
184 210 243
190 215 249
188 215 250
190 216 250
188 214 247
190 216 250
190 215 248
183 208 241
182 206 238
179 203 235
175 199 230
176 200 231
179 203 235
186 211 243
188 213 246
190 216 250
190 217 251
192 218 252
191 217 251
190 217 252
191 217 251
194 219 252
193 218 252
191 216 249
190 217 251
187 214 248
186 211 244
181 206 238
176 200 231
173 196 227
164 186 215
160 182 210
152 172 198
143 163 189
136 154 178
128 146 169
118 134 155
110 124 144
97 110 126
86 98 114
79 89 102
68 77 89
60 68 78
57 65 75
45 51 59
33 37 43
31 35 41
36 40 47
49 55 64
56 63 73
54 61 71
49 55 64
41 47 54
36 41 48
30 34 40
19 21 24
5 6 7
9 10 12
12 14 16
19 21 25
20 22 26
18 20 23
19 22 26
19 21 25
21 23 27
16 18 21
17 20 23
29 33 38
37 42 49
49 56 65
54 61 70
54 62 72
52 59 68
52 59 68
55 62 72
59 66 76
66 75 86
72 82 95
74 84 97
80 92 106
93 106 123
110 124 143
124 141 162
123 140 162
121 136 157
121 137 157
121 137 158
116 132 152
111 126 145
97 110 128
91 103 120
89 101 117
80 91 106
75 85 98
78 89 102
78 89 103
78 89 103
79 89 103
89 101 117
101 114 132
112 127 147
127 144 167
140 159 184
155 176 204
170 192 222
184 209 241
179 204 238
177 201 233
166 188 217
154 175 203
139 158 182
124 141 163
113 128 148
105 119 137
99 112 130
95 108 125
101 115 133
105 120 139
107 122 142
108 123 142
117 132 152
118 133 154
108 123 142
99 112 129
94 107 124
94 107 124
104 118 136
104 118 136
101 115 134
100 114 133
105 119 137
114 129 149
130 148 171
146 166 192
166 188 217
178 202 233
185 211 244
193 218 251
193 219 253
191 217 251
191 216 249
189 214 248
187 212 245
184 210 244
184 209 241
184 209 242
178 202 233
169 193 224
162 184 212
149 170 196
158 179 206
168 191 221
175 199 230
177 201 232
178 202 234
188 212 244
186 210 242
185 209 241
187 212 245
187 212 245
185 210 243
181 205 238
182 206 238
181 205 237
175 199 231
164 187 217
154 175 202
137 156 180
121 138 160
110 125 144
93 105 122
74 84 97
70 80 93
69 79 91
63 72 83
53 60 69
46 53 61
42 48 56
38 43 50
37 42 49
42 48 55
42 48 55
40 45 52
36 41 48
34 39 45
33 37 43
22 26 30
13 15 18
10 11 13
8 9 11
15 17 20
17 19 22
17 19 22
23 27 31
29 33 38
34 39 45
32 36 42
24 27 32
13 15 17
11 12 14
14 16 19
22 25 29
32 36 42
39 45 52
45 51 59
53 61 71
65 73 85
74 84 97
75 86 99
75 85 98
73 83 95
60 68 78
41 47 54
25 29 33
18 20 24
17 19 22
18 21 24
22 25 29
25 28 33
25 28 33
31 35 41
37 43 49
34 38 44
32 37 43
42 48 56
50 57 66
60 68 78
68 77 89
70 79 92
69 78 91
77 88 102
86 98 113
91 104 120
101 114 131
114 129 149
131 148 171
152 173 199
137 155 179
116 132 153
102 117 135
81 92 107
58 65 75
41 46 53
27 31 36
18 21 24
14 16 18
8 10 11
5 6 7
9 11 13
19 22 25
22 25 29
22 25 29
25 28 32
28 32 37
32 37 43
37 42 49
49 56 64
52 59 68
53 61 71
53 60 69
43 49 57
43 49 57
45 51 59
51 58 67
59 67 78
67 76 87
79 90 103
97 110 127
117 132 153
135 152 176
141 160 185
146 166 192
148 168 194
152 173 200
152 173 200
160 182 209
165 187 216
168 191 221
175 198 229
173 196 227
170 193 223
170 192 221
164 185 213
156 176 202
155 176 203
157 178 205
160 182 210
162 184 212
157 179 206
151 171 198
152 172 198
149 169 195
142 161 186
128 145 168
116 131 151
107 122 141
105 119 138
101 115 133
104 118 137
109 124 144
112 128 148
114 129 149
115 131 151
117 133 154
120 137 158
130 147 170
149 169 195
165 187 216
173 196 226
175 200 232
181 205 236
179 203 234
182 206 237
184 209 241
186 211 244
186 210 243
190 216 250
195 220 253
192 218 252
185 210 242
168 191 222
148 168 195
120 137 158
102 116 135
90 102 118
84 96 111
77 88 101
67 76 89
62 70 80
51 58 68
47 54 62
55 62 72
61 70 80
61 69 80
61 69 79
55 63 73
55 62 72
53 61 70
43 49 57
35 39 46
30 34 39
23 26 31
20 22 26
16 18 21
10 11 13
6 7 8
19 22 25
31 35 41
32 36 42
28 32 37
30 34 39
29 33 38
32 36 42
37 42 48
31 35 41
24 27 32
17 20 23
10 12 14
11 13 15
19 22 25
19 22 25
17 20 23
21 24 27
24 28 32
25 29 34
22 25 29
27 30 35
43 49 57
58 66 76
65 74 85
76 86 100
91 103 120
101 115 132
101 115 133
103 117 135
111 127 146
120 135 156
127 144 166
134 152 175
141 160 185
141 161 187
143 163 189
147 167 193
148 169 195
151 172 198
155 175 203
157 178 206
159 180 209
164 185 214
167 191 221
167 190 220
159 181 209
158 178 205
148 169 195
146 165 191
146 165 190
146 166 191
145 166 192
147 166 191
146 166 191
148 168 193
150 171 197
157 179 208
160 181 210
163 185 214
164 186 216
165 188 217
165 187 217
162 184 214
165 187 216
161 183 212
165 187 216
170 193 222
172 195 226
176 199 230
179 203 235
173 198 230
173 196 226
176 199 230
178 202 233
179 203 235
183 208 240
188 214 247
193 219 252
192 217 251
194 220 254
192 218 252
191 217 251
185 210 243
178 203 235
174 198 230
172 194 223
163 185 214
151 171 197
137 155 180
128 146 169
120 137 158
113 129 148
105 118 136
98 110 127
92 104 120
90 102 118
88 100 116
90 102 118
81 92 107
74 84 97
67 76 88
66 75 87
67 76 88
73 83 96
75 85 98
70 80 92
65 74 85
51 58 67
39 44 51
34 38 44
27 31 36
20 23 27
17 20 23
15 17 19
18 20 23
22 25 29
32 36 42
39 44 51
48 55 64
53 61 70
60 68 79
63 72 83
58 65 75
50 57 66
45 51 59
42 48 55
42 47 55
50 57 66
64 73 84
80 91 106
98 111 128
103 117 135
103 118 136
105 120 139
110 125 145
107 122 141
103 117 136
99 113 131
96 109 127
88 100 116
86 98 113
88 100 115
86 97 112
83 94 109
80 91 106
85 97 112
87 99 114
89 101 117
86 98 114
84 95 110
88 100 116
98 110 127
105 120 139
112 128 148
124 141 163
136 155 180
149 170 197
163 184 212
175 198 229
182 206 239
179 202 232
170 192 221
155 177 204
143 163 188
131 149 172
115 131 151
100 114 132
94 107 124
101 114 132
109 124 144
111 125 144
111 126 146
116 132 152
118 135 156
120 137 158
117 133 153
101 114 131
84 96 111
70 80 93
61 69 80
59 68 78
66 75 87
70 79 92
70 80 93
74 84 98
90 102 118
110 125 144
129 147 169
144 163 188
159 181 209
172 194 224
183 207 238
187 212 245
186 212 245
188 215 249
190 215 249
189 215 249
194 219 252
193 219 253
195 220 253
191 216 249
183 208 242
178 203 235
166 188 217
153 174 202
165 187 216
171 194 224
174 198 229
174 198 228
176 200 231
181 206 238
183 208 240
183 208 240
182 206 238
181 204 235
183 207 239
177 201 234
167 191 221
162 184 212
153 174 201
145 165 191
132 149 172
118 133 154
104 119 137
94 107 124
74 85 98
73 83 96
78 88 101
80 91 106
76 87 100
67 76 88
58 66 76
53 61 70
50 57 66
42 48 55
39 44 52
40 45 52
34 39 45
27 31 36
18 21 24
12 14 16
19 21 25
24 27 32
18 21 24
6 7 8
10 12 14
15 17 20
13 15 17
14 16 19
24 27 31
30 35 40
28 32 37
32 37 42
31 35 41
40 45 52
41 46 53
42 48 55
40 46 53
25 28 33
39 45 52
64 73 85
78 89 102
69 78 90
59 67 78
49 55 64
35 39 46
20 23 26
13 15 17
10 11 13
11 13 15
15 17 20
15 17 19
20 22 26
30 34 40
37 41 48
39 44 50
41 46 54
50 58 67
68 78 90
85 97 112
93 105 122
89 102 118
88 100 115
97 109 126
93 106 122
94 106 123
97 111 128
110 124 143
126 143 165
138 157 181
179 203 235
171 194 224
163 185 214
149 168 193
128 146 168
109 124 143
92 105 121
78 89 103
71 81 93
58 66 76
55 63 73
43 49 56
29 33 39
18 20 23
19 22 25
26 29 34
36 41 48
47 53 61
48 55 63
46 53 61
45 52 60
42 47 54
42 48 55
49 55 64
63 71 82
78 89 103
86 98 113
92 104 120
102 116 134
112 127 147
117 132 152
119 135 156
125 141 162
127 144 167
128 146 170
131 148 172
132 150 173
132 150 174
137 156 180
145 164 190
149 170 197
152 173 199
153 174 202
156 177 205
162 184 213
165 187 215
163 185 213
163 185 213
166 189 218
160 181 210
155 175 202
145 166 192
137 156 180
127 145 168
124 141 163
115 130 150
105 120 139
95 107 124
83 94 108
76 86 99
79 90 104
85 96 111
96 109 126
109 124 143
125 141 162
141 159 183
150 170 197
167 189 218
172 196 226
181 205 237
185 210 244
185 210 242
184 208 241
181 205 237
180 204 236
184 209 242
188 214 248
189 215 249
192 218 251
190 217 252
187 214 248
184 209 241
176 200 231
166 188 217
151 171 198
136 155 180
121 138 161
104 118 136
88 100 115
79 90 103
73 83 96
57 65 76
40 45 52
36 41 48
36 41 47
35 40 46
35 40 47
33 37 43
33 37 43
29 33 38
26 30 34
22 25 29
23 26 30
28 32 37
32 36 42
31 36 42
30 34 40
36 41 47
44 50 58
43 49 57
40 46 54
42 48 55
45 50 58
42 47 55
37 42 48
33 37 43
33 38 44
38 43 49
28 32 38
21 24 28
23 26 30
27 30 35
34 38 44
43 49 57
54 61 71
66 75 86
73 83 96
78 88 102
85 97 112
95 108 125
100 114 132
100 113 131
102 115 134
101 115 133
111 126 146
117 133 153
111 127 148
116 132 153
122 140 162
129 148 171
134 152 176
142 162 188
155 176 204
163 186 216
176 198 229
178 202 233
176 200 231
172 195 224
169 192 222
167 190 220
167 189 218
162 184 212
156 176 203
147 167 193
139 158 183
136 154 177
132 150 174
130 147 170
122 139 161
120 136 157
124 140 162
119 136 157
118 134 155
117 133 153
118 134 155
119 135 156
120 136 157
125 142 164
123 140 161
126 142 163
117 133 154
126 143 166
131 148 170
139 157 181
143 162 188
142 161 186
144 163 187
144 163 188
136 155 178
135 153 178
133 152 176
136 154 179
142 162 187
143 163 189
154 175 203
165 187 217
174 197 228
180 203 235
185 209 242
186 212 246
192 219 254
192 218 253
191 217 251
187 212 245
186 211 244
182 207 240
175 199 231
167 189 217
165 187 216
153 174 201
146 166 192
138 157 182
131 149 173
124 140 162
110 124 143
103 116 134
99 113 130
102 116 134
95 108 125
87 98 114
77 87 101
68 78 90
68 77 88
67 75 87
66 75 86
61 70 81
56 63 73
50 57 66
40 45 53
33 37 43
23 27 31
13 14 17
12 13 16
14 15 18
21 24 27
26 30 34
29 33 38
39 44 51
46 52 60
53 61 70
57 65 75
53 60 70
46 52 60
41 47 54
51 58 67
53 60 69
51 58 67
54 62 72
63 71 83
74 85 98
82 94 108
94 106 123
95 107 123
98 112 129
107 122 141
111 125 145
111 126 146
107 121 139
92 104 121
84 95 109
82 94 108
83 94 108
81 92 106
84 96 111
87 99 115
94 107 124
100 113 130
92 106 123
90 103 119
92 105 121
91 103 119
92 104 120
101 114 132
118 133 153
139 157 181
156 176 203
161 183 212
167 190 219
175 199 230
177 201 233
171 195 226
167 189 219
154 175 202
150 170 196
144 163 188
132 150 173
127 144 167
130 148 171
129 147 171
120 137 158
112 128 148
105 119 138
103 116 134
92 104 121
85 96 110
81 92 107
79 90 104
72 82 95
70 79 92
68 78 90
71 81 94
76 86 99
79 90 104
80 92 106
91 103 120
103 117 135
108 122 141
118 133 154
131 149 172
144 165 191
153 174 201
160 180 207
159 181 210
160 181 209
158 180 209
159 181 209
165 187 215
175 199 230
186 210 242
189 215 248
191 217 251
191 216 249
186 211 244
176 201 232
171 196 227
161 183 211
153 175 202
154 175 203
155 176 203
151 172 200
152 172 198
150 171 198
151 171 198
147 167 193
154 175 202
153 174 201
152 172 198
142 161 186
137 155 178
130 147 170
122 138 160
112 127 147
108 123 142
97 110 128
88 100 115
85 97 112
88 100 115
80 90 104
69 78 91
67 76 88
60 68 79
57 65 76
61 69 80
66 75 87
70 80 92
75 85 98
76 86 99
69 78 91
63 72 83
59 67 78
49 56 66
33 37 43
18 20 23
8 9 10
3 4 5
9 10 12
16 18 21
16 18 21
20 23 26
25 28 33
19 22 26
8 9 11
10 11 13
19 21 25
22 25 29
26 30 34
40 45 53
56 64 74
56 63 74
42 48 56
34 39 44
31 35 41
32 37 42
34 38 44
35 40 47
24 28 32
15 17 19
11 12 14
10 11 13
11 12 14
17 20 23
28 31 36
39 44 51
53 60 69
66 75 86
67 76 88
65 74 85
75 84 97
91 104 120
100 113 130
108 122 141
120 136 158
134 151 174
140 159 184
144 162 186
142 161 187
153 173 199
153 173 200
153 173 200
154 174 201
182 207 240
187 212 245
186 211 243
177 201 232
166 187 216
159 180 208
150 170 197
151 172 199
149 168 194
135 153 177
123 140 161
104 119 137
84 96 111
72 83 96
69 79 92
62 71 82
56 64 74
48 55 63
38 43 50
38 43 50
42 48 55
53 60 69
70 79 91
89 101 116
101 115 134
107 121 140
108 122 141
112 127 147
111 126 146
111 127 147
117 133 154
125 142 164
131 149 172
134 152 176
135 154 177
140 158 183
143 163 189
146 166 192
143 163 188
147 167 193
151 171 198
156 178 206
163 184 213
162 183 212
161 183 211
163 185 213
160 181 209
155 176 203
148 168 195
148 168 193
146 165 190
137 155 180
130 148 170
127 144 166
118 134 154
109 124 143
103 116 134
98 111 127
94 107 124
96 109 127
104 118 136
119 134 154
126 144 168
139 159 184
153 173 200
165 188 218
179 202 233
186 211 243
190 215 249
189 214 247
190 216 250
192 217 251
194 220 254
189 215 248
189 214 248
185 210 243
182 207 239
178 201 232
175 199 230
166 189 219
158 179 207
148 168 193
132 151 175
121 137 158
115 130 151
114 130 150
105 119 139
98 111 129
88 100 116
74 84 97
68 77 89
61 70 81
56 64 74
44 50 57
24 28 32
10 11 13
32 37 43
54 61 71
62 71 82
70 80 92
74 84 97
71 81 93
67 77 89
66 75 87
71 81 94
76 87 101
80 91 105
78 88 101
66 75 87
58 65 75
49 56 65
37 42 49
25 28 33
19 22 25
19 22 25
20 23 26
17 19 23
18 20 24
21 24 28
26 30 35
28 32 37
26 29 34
33 38 44
41 47 54
44 50 58
55 63 73
79 90 104
102 116 133
123 139 161
136 154 178
142 161 186
150 170 196
147 168 194
148 168 194
151 172 199
154 175 203
158 179 207
157 179 207
157 179 207
162 184 212
165 188 218
173 195 224
177 201 232
175 199 231
174 198 228
174 199 232
174 198 228
172 195 226
169 192 223
167 190 220
163 185 214
155 176 203
146 166 192
139 157 182
137 156 180
137 156 180
135 153 177
130 148 171
126 143 166
120 136 157
108 123 143
105 119 138
106 120 139
106 121 139
102 116 134
101 114 132
100 114 131
99 113 131
101 114 132
95 107 124
92 104 120
97 110 127
99 113 131
101 115 132
98 111 128
91 102 118
81 92 107
76 86 98
79 90 104
78 88 102
78 89 102
85 97 113
98 111 129
115 130 150
133 151 174
146 165 191
157 178 205
169 193 223
181 205 236
186 211 244
191 216 250
191 217 250
190 215 248
192 218 252
192 218 253
186 211 243
186 210 242
183 208 240
179 203 235
175 199 229
165 188 217
158 181 209
153 173 200
143 162 187
131 148 171
115 131 151
98 111 128
84 95 110
74 83 96
68 77 90
58 66 76
54 61 71
49 55 64
38 43 50
32 36 42
32 36 42
30 34 39
28 32 37
28 31 36
22 25 29
12 14 16
9 11 12
19 21 25
18 20 23
20 23 27
22 25 29
27 31 36
40 46 53
39 45 52
39 44 51
42 48 55
47 53 61
54 61 71
53 60 70
49 56 65
50 56 65
55 62 73
76 87 101
83 94 109
83 94 109
90 103 119
87 99 114
89 101 117
86 98 114
97 110 127
108 123 142
102 116 135
94 107 123
89 100 115
79 90 104
77 87 101
75 86 99
78 88 102
82 93 108
83 95 110
71 81 94
73 83 96
86 97 112
90 103 119
95 108 125
103 116 134
115 131 152
134 151 174
141 161 187
157 179 208
167 190 219
168 191 221
164 186 215
158 179 206
155 176 203
149 169 196
142 161 186
143 161 185
137 156 182
131 149 172
128 146 169
124 140 162
118 134 156
112 128 148
104 118 137
100 113 131
100 114 131
90 102 118
83 94 108
83 94 109
82 93 108
77 88 102
70 79 92
64 73 84
68 77 89
70 79 92
75 85 98
93 105 121
104 118 138
110 125 145
116 132 152
119 135 157
126 143 166
132 149 173
133 151 174
134 152 175
129 146 169
121 137 158
113 129 149
121 137 159
129 146 169
135 153 177
144 163 188
152 172 199
163 185 215
177 201 232
188 213 245
190 215 248
191 218 252
190 217 251
191 216 250
186 211 243
187 212 245
182 207 239
181 206 238
174 198 228
168 191 221
163 185 213
159 180 207
152 173 201
148 168 193
144 163 189
140 160 184
130 148 171
125 142 164
116 132 152
109 124 144
107 121 140
103 117 136
100 113 131
102 115 134
103 116 134
101 115 133
100 113 131
91 104 120
84 95 110
81 92 106
84 95 110
91 103 119
96 109 126
93 106 124
99 112 129
95 107 124
85 97 112
80 90 104
67 76 88
56 64 74
37 42 49
21 24 28
7 9 10
14 16 18
11 12 14
8 9 10
12 14 16
13 15 18
14 16 19
20 23 27
23 27 31
26 30 34
32 36 42
39 44 51
46 52 60
53 60 69
55 62 72
53 60 70
59 67 77
61 69 80
66 74 86
67 77 89
66 75 86
66 75 86
58 66 76
50 56 65
55 63 72
57 65 75
60 68 79
65 74 85
77 87 101
70 79 91
59 68 78
54 61 71
63 71 82
82 93 107
99 112 130
112 127 147
123 139 161
134 152 176
136 154 178
135 154 179
139 158 183
137 155 179
138 156 180
142 161 187
151 171 197
151 172 200
177 202 234
185 210 242
187 213 246
186 212 245
188 214 247
187 212 246
185 210 243
181 206 239
178 202 234
174 198 229
171 193 222
161 182 210
149 169 195
133 151 175
117 134 155
101 115 134
91 103 120
85 96 111
79 90 104
86 97 111
88 100 116
91 104 121
89 101 117
93 106 123
94 107 124
92 104 121
100 114 132
105 120 138
110 125 145
124 140 162
134 152 175
135 154 178
134 152 177
136 155 180
136 154 178
139 157 181
136 155 179
135 154 179
141 159 184
148 169 196
153 174 202
156 177 205
162 185 215
165 187 216
161 182 211
153 174 201
144 165 192
142 161 187
143 163 189
142 161 187
142 161 186
141 160 185
141 161 186
137 155 179
132 150 174
136 154 178
139 158 182
136 154 179
142 161 186
155 176 203
164 186 214
170 194 224
177 201 233
184 209 241
188 213 246
190 215 248
192 218 252
189 215 248
191 217 250
195 220 252
192 218 252
189 215 249
186 210 242
174 199 231
163 187 217
155 176 203
137 156 181
125 142 164
107 122 142
90 102 118
75 84 97
58 65 75
65 74 85
70 79 92
78 89 104
83 94 109
80 91 105
71 81 94
65 74 85
61 69 80
57 65 75
55 63 73
49 55 64
35 40 46
17 20 23
16 18 21
31 36 42
61 69 80
75 85 99
74 83 96
71 81 94
83 95 109
81 92 106
74 84 97
69 78 90
68 78 90
67 76 88
55 63 73
52 59 68
50 57 66
51 58 67
42 48 56
36 41 47
31 35 41
21 24 28
14 16 18
11 13 15
12 14 17
15 17 20
26 30 35
41 46 54
52 59 69
62 70 81
68 77 89
73 84 97
86 97 113
101 115 133
112 127 147
126 142 164
136 155 180
141 160 185
146 166 192
157 178 206
165 187 216
173 196 226
178 202 234
180 204 235
181 205 238
185 210 242
187 213 246
191 216 249
188 213 246
187 212 245
183 208 241
178 203 236
176 199 231
176 201 232
174 197 228
168 191 220
166 189 218
164 185 213
155 177 205
150 172 199
151 172 199
147 167 194
147 167 194
148 168 194
150 171 199
146 166 191
143 163 188
140 159 184
139 157 182
130 148 171
127 145 168
117 133 155
105 119 137
93 106 122
84 95 110
78 89 103
79 90 105
86 97 112
89 101 117
83 95 109
72 81 94
65 73 84
60 68 79
59 67 78
59 67 78
62 70 82
65 74 85
66 75 86
67 76 88
73 83 96
86 98 114
101 115 133
125 142 165
145 164 189
165 186 214
172 196 227
180 204 236
186 211 245
187 214 248
192 218 251
190 216 251
188 214 248
184 209 241
175 199 230
166 189 219
163 185 214
162 184 212
160 182 210
152 173 200
139 158 183
125 143 166
107 122 140
88 99 115
72 82 95
66 75 86
62 70 81
63 71 82
70 79 92
77 88 102
75 86 100
64 73 84
50 57 66
32 37 42
14 16 18
18 21 24
29 33 39
38 44 51
51 58 67
58 66 76
47 53 61
37 42 49
30 34 39
23 26 30
20 23 27
23 26 30
30 34 40
37 42 49
43 49 57
47 53 62
52 59 69
59 68 78
61 69 79
59 68 79
58 66 77
62 71 82
65 73 85
58 66 76
55 62 72
52 59 68
51 58 68
47 53 61
36 41 47
43 48 56
45 51 59
56 64 74
59 67 78
69 78 91
75 85 98
67 76 88
62 70 81
55 63 73
43 49 57
35 39 46
40 45 52
50 57 66
65 74 85
80 91 106
95 108 125
115 131 151
132 150 174
143 162 188
157 179 207
164 186 216
156 176 202
151 171 196
140 159 183
129 146 169
123 139 160
124 140 162
128 145 167
125 142 164
126 144 166
125 142 165
123 139 159
112 127 147
100 114 132
84 95 109
65 74 86
54 62 72
53 60 69
53 60 69
57 64 74
62 70 80
64 72 83
72 82 95
80 91 106
82 94 108
90 102 117
107 121 141
119 135 156
125 142 164
129 147 170
133 151 174
142 162 188
143 163 189
138 157 182
128 145 168
118 133 153
107 121 140
102 116 135
106 120 140
119 135 156
132 150 175
141 159 183
144 163 188
151 171 198
161 184 213
171 195 226
178 201 233
181 206 238
186 212 246
188 213 247
190 216 250
190 216 251
190 216 250
190 216 251
192 218 251
192 218 251
192 218 252
187 211 244
192 217 251
191 217 251
190 216 250
190 216 249
185 210 242
178 203 235
172 196 227
166 187 216
163 186 215
154 175 203
151 172 199
139 158 184
135 153 176
133 151 175
128 146 169
119 136 157
109 124 143
108 123 142
114 129 149
123 140 162
126 143 166
125 142 164
123 140 162
121 138 159
112 126 146
99 113 131
97 110 128
91 103 119
76 87 100
51 59 68
34 39 45
26 29 34
17 19 22
10 12 13
10 11 13
9 10 12
13 14 17
17 20 23
21 24 28
20 23 26
19 22 25
21 24 28
24 27 32
27 31 36
26 29 34
29 33 38
27 30 35
29 33 38
41 47 54
49 56 65
54 61 71
58 66 76
67 76 88
78 88 102
84 95 110
88 100 115
93 105 122
89 101 117
93 106 123
99 112 130
104 118 135
96 109 126
92 105 122
100 113 130
108 123 142
114 129 150
112 127 147
105 119 138
97 111 128
93 106 122
95 108 125
91 103 118
95 108 125
104 117 136
114 130 150
122 139 161
126 143 165
155 175 201
156 178 205
161 183 211
169 192 222
172 195 226
175 198 229
186 211 243
189 214 247
192 218 252
190 216 251
186 211 245
175 199 230
166 188 217
164 185 213
155 176 203
147 167 194
150 170 196
155 175 202
160 183 212
160 181 208
150 171 198
145 164 189
137 155 178
124 141 163
112 127 148
117 133 153
124 140 162
127 144 167
133 151 175
139 157 182
141 159 184
143 161 186
144 163 189
143 162 188
146 166 192
152 173 200
162 184 213
159 181 210
160 182 210
158 179 207
158 179 207
157 178 206
151 171 197
147 166 192
143 163 189
137 157 182
134 151 175
132 150 172
132 150 174
130 147 170
132 149 172
135 153 176
143 162 187
153 173 200
152 173 200
157 178 206
162 183 212
168 191 220
175 199 229
181 206 238
189 215 248
191 217 250
192 218 252
191 217 251
194 220 254
194 219 253
192 218 252
189 215 249
184 210 244
181 206 239
175 199 231
170 194 225
161 182 210
153 173 200
141 159 183
124 141 164
111 126 146
89 101 116
71 81 93
56 64 74
43 49 57
37 42 48
31 36 41
26 29 34
19 22 25
12 14 17
11 13 15
14 16 18
15 17 20
17 19 22
22 25 29
18 20 23
16 18 21
26 30 35
44 50 58
52 59 68
61 70 81
70 80 93
73 82 95
72 82 95
64 73 85
53 60 69
49 55 64
58 66 76
60 69 80
55 63 73
49 55 64
41 47 54
38 43 50
39 45 52
43 49 57
52 59 68
55 63 73
51 58 67
51 58 67
48 54 62
47 54 63
58 66 76
62 70 81
69 78 90
68 77 90
76 86 100
84 95 109
91 103 120
95 109 126
103 117 135
116 132 153
128 145 167
132 150 174
143 163 189
151 171 197
159 181 210
168 190 219
174 197 226
179 202 233
179 204 235
177 202 234
178 203 236
181 205 238
178 202 234
177 202 233
178 202 233
182 207 239
183 208 241
190 216 250
190 215 248
193 218 251
191 217 250
191 216 250
186 211 243
182 207 239
185 209 240
181 206 238
181 205 237
178 202 234
172 196 227
170 193 223
169 192 221
171 193 223
166 189 220
163 185 213
159 180 208
147 167 192
137 156 181
125 142 165
112 127 147
102 116 134
97 110 127
95 108 124
95 107 124
94 106 123
86 97 112
81 91 105
71 80 93
62 71 82
60 68 79
60 69 80
70 80 92
76 86 99
71 81 93
67 76 87
62 70 81
59 67 77
75 85 99
97 110 127
120 137 158
137 156 181
155 175 202
161 184 214
179 202 232
186 211 245
188 214 247
190 217 252
190 217 251
189 214 247
176 199 229
163 185 214
148 168 194
138 155 178
131 148 171
120 136 157
106 120 139
93 105 121
82 94 108
76 87 100
64 73 85
59 67 78
68 77 89
75 85 98
79 90 104
73 83 96
64 73 84
55 63 73
46 52 61
43 49 56
32 37 43
25 29 34
26 30 35
38 43 50
56 64 74
69 79 91
71 81 93
69 79 91
61 70 81
52 59 68
44 50 57
41 46 53
34 39 45
29 32 37
14 16 18
10 11 13
19 21 25
24 28 33
27 31 36
22 25 29
20 23 26
19 22 25
23 26 31
21 24 28
21 24 28
29 33 38
46 53 61
49 55 63
50 57 66
54 61 71
59 66 76
54 62 71
52 59 69
41 47 54
33 37 43
42 48 56
50 56 65
52 59 68
41 47 54
29 33 38
32 36 42
35 39 45
47 54 62
61 69 80
73 83 96
82 93 108
100 113 131
125 142 164
138 158 183
151 172 199
161 183 212
158 179 206
149 170 196
145 165 191
134 153 177
125 142 163
114 130 151
110 124 144
112 127 146
111 125 145
112 127 146
107 121 140
103 117 135
94 106 123
85 97 113
79 90 104
70 79 92
55 63 73
42 48 56
40 45 53
45 52 60
54 61 71
65 74 86
86 97 112
107 121 140
119 136 157
126 143 165
136 154 177
142 161 186
149 170 197
152 172 199
152 172 199
147 167 193
136 154 178
124 140 162
115 130 150
121 137 158
125 141 163
134 152 175
141 159 183
143 163 188
155 176 204
165 188 218
171 195 226
176 200 231
179 203 234
183 208 240
188 214 247
191 216 250
189 215 248
184 208 240
182 206 238
180 204 236
180 204 237
179 203 235
181 205 236
181 205 237
182 206 238
183 208 240
184 209 241
186 212 245
191 217 251
191 217 251
189 215 249
189 215 248
192 218 251
190 216 250
189 214 247
187 212 245
184 208 239
177 201 232
174 197 227
165 187 217
154 175 202
149 170 198
143 162 187
138 156 179
142 162 188
148 169 195
146 166 192
142 161 185
134 153 178
126 143 165
129 146 169
121 137 157
108 123 142
95 108 125
83 95 109
78 88 102
64 73 84
49 56 64
40 46 53
49 56 65
55 63 72
52 59 68
50 57 66
57 65 75
57 65 75
55 63 73
60 68 79
62 71 82
64 72 83
67 77 89
65 73 85
62 70 81
51 58 67
37 42 48
28 32 38
27 30 35
28 32 37
37 42 48
40 45 52
60 68 79
74 84 97
85 96 111
82 93 108
74 84 97
76 86 100
77 88 102
88 100 117
96 109 126
91 104 121
85 96 111
79 90 104
75 86 99
70 80 93
59 67 77
61 69 80
65 74 86
63 71 82
63 72 83
71 81 94
82 93 107
91 104 120
93 105 122
143 162 187
151 171 198
161 183 213
168 190 220
173 197 228
180 204 235
187 213 246
192 218 253
193 219 252
187 213 246
191 216 249
186 211 244
186 212 245
187 212 246
185 212 246
188 212 245
186 212 246
187 213 247
185 210 242
184 209 241
181 206 239
180 206 239
180 203 233
179 202 234
179 202 233
171 195 226
170 193 223
159 180 208
152 173 200
144 163 189
150 170 197
153 173 200
160 181 208
166 189 219
170 193 223
175 198 230
172 196 227
171 194 225
165 188 217
163 185 214
159 181 209
154 175 201
152 172 198
146 166 191
138 157 181
135 153 177
132 150 174
128 146 169
125 142 166
130 147 170
140 159 184
149 170 196
158 179 207
168 191 221
177 201 232
178 203 235
185 209 241
181 207 241
186 212 246
189 214 248
191 217 251
192 218 253
190 216 250
190 217 251
191 216 250
185 210 244
178 203 235
169 192 222
158 179 207
144 163 189
131 149 172
122 139 160
107 122 142
94 107 124
82 94 108
77 87 101
66 76 88
60 68 78
55 63 73
55 62 72
52 59 68
47 54 62
38 44 51
23 27 31
8 10 11
14 15 18
22 25 29
24 27 31
27 31 35
25 29 34
27 31 36
27 31 36
31 35 41
30 34 39
37 42 49
54 61 71
66 75 87
57 65 75
48 55 63
47 53 62
52 59 69
63 72 84
61 69 80
62 70 81
60 68 79
59 67 77
54 62 71
54 62 72
63 71 82
69 78 90
69 79 91
67 76 88
63 72 83
62 70 81
64 73 84
77 87 101
91 103 118
100 114 131
99 113 132
96 109 126
97 111 128
100 114 131
104 119 138
104 118 137
102 116 134
104 118 136
100 114 133
107 121 140
117 133 154
130 147 170
137 156 181
150 170 197
168 191 221
176 199 229
175 199 230
171 195 225
171 194 224
170 193 224
172 194 224
175 199 231
177 201 232
178 202 233
185 210 242
184 210 244
190 216 250
191 217 250
192 217 251
190 216 250
189 216 250
190 217 251
193 219 254
191 216 249
191 216 249
194 220 254
189 215 250
191 216 249
187 213 248
186 210 243
185 210 243
178 203 235
173 197 227
168 190 220
161 182 210
151 172 199
143 162 187
136 155 180
139 158 182
140 159 184
145 165 191
142 161 187
138 157 183
126 144 167
124 141 164
118 135 156
105 119 137
90 102 118
84 96 110
85 97 112
80 91 105
81 92 106
83 95 110
90 103 120
90 102 118
96 109 126
111 126 146
128 145 167
140 159 184
157 179 207
169 192 223
185 209 241
189 215 249
192 218 252
193 220 255
189 215 249
179 204 237
172 196 226
160 183 212
151 171 198
138 157 181
124 141 162
102 115 132
84 95 110
86 97 113
87 99 115
83 95 110
76 86 100
63 71 82
62 70 81
63 72 83
64 73 85
65 73 84
63 71 82
53 61 70
49 56 65
47 53 62
50 57 65
56 63 73
62 70 80
67 76 88
63 72 83
61 69 80
58 66 76
56 63 73
53 60 69
45 51 59
45 50 58
48 55 63
44 50 58
39 45 52
42 47 55
45 50 58
45 51 58
50 57 66
66 75 87
76 86 99
75 85 98
69 79 91
79 90 104
86 98 113
94 108 125
106 120 138
120 136 157
118 134 155
120 137 158
113 128 148
108 123 142
100 114 131
97 109 126
91 104 120
93 105 121
95 108 125
99 113 130
95 108 125
87 99 115
76 86 99
59 67 77
39 45 52
22 24 28
16 18 21
25 29 34
58 66 77
92 104 121
119 135 157
144 164 190
158 179 208
160 182 211
156 178 206
155 175 203
155 176 203
149 170 197
139 157 182
129 146 169
120 137 159
112 127 147
103 117 135
102 115 132
101 114 132
98 111 128
90 102 119
87 98 114
85 97 111
78 88 102
65 74 86
59 67 78
51 58 67
48 55 64
52 59 69
68 78 90
87 99 114
97 110 128
98 112 130
105 120 139
111 126 145
116 131 152
121 138 159
131 149 172
126 144 166
121 137 159
117 132 152
118 134 155
125 142 164
134 153 177
146 166 192
153 174 201
160 181 208
169 191 220
182 206 238
183 207 239
186 211 243
187 212 245
187 213 246
189 214 247
183 208 239
184 209 241
185 209 241
184 209 242
180 205 237
178 203 235
179 203 235
182 207 239
182 207 239
178 203 235
175 199 231
179 203 235
184 209 241
184 209 241
185 210 243
188 213 246
191 216 249
187 213 246
188 213 246
185 211 245
185 210 243
188 215 249
190 216 251
191 217 251
188 215 249
185 211 245
189 213 246
188 214 247
186 211 244
181 206 238
181 206 239
178 203 235
178 202 233
177 201 232
173 198 231
173 196 226
172 196 227
162 184 213
160 181 209
154 174 202
148 168 194
134 152 175
113 129 150
102 115 134
106 121 139
105 120 139
100 113 130
98 112 129
105 119 138
126 143 165
128 146 168
121 138 160
114 130 150
103 117 135
96 110 127
94 106 123
92 105 121
87 100 116
89 101 117
92 105 121
91 103 119
88 100 116
75 85 98
68 78 90
53 60 69
31 35 40
25 28 33
43 48 56
59 68 78
75 85 98
75 85 98
83 93 107
86 97 112
81 92 107
74 84 97
70 80 92
72 82 96
71 80 93
64 73 84
61 69 79
64 73 84
63 71 82
64 73 84
71 80 93
72 82 95
75 86 99
77 87 101
79 89 104
152 173 201
166 188 218
175 199 229
182 206 238
186 212 246
190 216 250
193 218 252
193 218 252
191 217 251
195 220 254
194 220 253
193 218 252
190 217 252
192 218 252
193 219 254
195 220 254
193 218 252
193 219 253
189 216 250
192 218 252
191 217 250
191 217 251
191 217 252
190 217 251
194 220 254
191 218 253
191 217 252
190 215 248
189 215 248
189 214 247
189 215 249
190 216 249
191 216 249
184 209 241
174 197 228
171 195 225
168 192 222
169 192 223
168 190 220
169 191 219
161 183 212
157 179 207
155 175 202
150 170 197
147 167 193
151 171 198
151 170 195
151 171 197
148 169 195
152 172 199
158 179 206
165 187 216
169 192 223
180 204 236
186 211 245
185 212 246
191 216 249
189 215 249
194 220 253
193 218 252
191 216 249
186 213 248
186 211 243
182 206 238
176 199 230
166 188 216
144 164 190
125 142 164
114 129 149
98 111 127
80 91 105
69 78 90
59 67 77
57 64 74
62 70 81
58 66 76
53 60 70
49 55 64
39 45 52
28 31 36
22 25 29
19 22 25
10 11 13
7 8 9
14 16 19
18 20 24
16 18 21
11 12 14
6 7 8
11 13 15
18 21 24
14 16 19
9 10 12
13 14 17
30 34 40
49 56 65
58 66 76
57 65 75
58 66 76
66 74 86
73 83 96
83 94 109
86 98 113
80 92 106
77 87 101
78 89 102
81 92 106
84 96 110
88 100 115
89 101 117
93 106 122
91 103 119
87 99 115
85 97 113
89 101 117
98 111 128
100 114 132
103 117 135
104 118 137
99 113 131
97 111 129
106 120 138
113 128 148
119 136 157
121 138 161
121 137 158
121 138 160
132 150 173
145 163 188
157 178 206
166 188 216
170 193 223
174 199 231
176 199 231
175 198 229
172 195 226
174 197 228
178 201 231
176 200 231
179 203 234
180 205 237
183 208 240
187 212 244
184 209 242
188 212 244
189 215 248
189 214 247
187 212 245
188 213 245
189 214 247
189 215 249
192 217 251
190 215 249
193 218 251
190 216 250
192 218 253
192 219 254
195 220 254
193 218 252
191 216 250
186 211 244
179 204 237
174 198 229
168 191 221
163 185 214
161 183 211
164 187 216
168 190 220
166 189 218
166 188 217
165 188 218
163 185 214
154 175 201
141 159 183
123 140 162
113 129 149
106 120 138
101 115 133
103 117 135
113 129 149
120 136 157
122 139 161
129 147 170
142 161 186
152 174 201
164 186 216
171 194 224
181 205 236
186 211 245
189 216 250
191 218 252
193 220 255
190 217 251
191 217 251
184 211 245
178 203 235
173 196 226
163 185 213
149 169 195
133 151 174
114 130 150
103 117 135
99 112 130
103 116 134
108 122 140
102 115 132
82 93 107
68 77 89
67 76 88
77 88 102
86 97 113
86 99 115
85 97 113
85 97 113
90 102 118
95 108 124
95 108 125
97 110 128
87 99 115
69 78 90
50 57 66
42 48 56
39 44 51
34 39 45
34 39 45
32 36 42
27 31 36
20 22 26
21 24 28
29 34 39
46 52 61
68 77 88
95 108 126
116 132 152
127 144 166
130 147 170
131 149 173
125 142 164
121 137 159
124 141 163
133 151 175
144 163 188
153 173 199
151 171 198
149 169 195
143 162 188
137 155 179
138 156 181
142 161 186
144 163 189
146 165 190
142 161 186
131 149 172
124 141 163
113 128 147
97 110 128
80 91 106
66 74 86
39 44 51
15 17 20
31 36 42
59 67 78
89 101 117
114 130 150
128 146 169
139 157 182
146 165 191
156 177 205
158 179 208
139 158 182
120 137 159
106 121 140
102 115 133
103 117 135
99 112 129
98 112 130
101 115 132
92 105 121
83 94 108
75 86 99
65 74 85
56 63 73
56 63 73
56 64 74
59 67 78
72 81 94
81 92 107
82 93 107
83 94 108
89 101 116
96 109 126
100 114 132
98 110 127
94 107 123
99 112 129
99 113 130
96 109 126
89 101 117
100 113 131
108 123 142
119 135 156
131 149 172
146 165 190
161 183 211
173 197 227
180 204 236
182 206 237
184 210 243
182 207 240
189 215 249
189 214 248
186 210 242
182 207 239
182 207 239
182 207 239
178 202 234
177 201 232
176 199 229
178 202 233
174 199 231
173 196 227
176 199 230
178 202 233
182 207 240
181 206 238
179 204 236
181 205 237
185 210 242
183 207 238
178 204 237
177 201 233
171 195 225
169 193 224
170 194 226
176 199 230
181 205 238
180 204 236
182 207 241
186 211 244
185 211 244
187 212 245
191 216 249
193 218 252
192 217 251
192 218 252
194 220 253
193 218 251
190 217 251
192 217 251
189 214 247
185 210 244
188 213 247
184 209 241
179 203 236
177 202 234
174 198 229
166 189 218
165 187 216
154 175 203
152 172 199
151 172 199
158 180 208
160 182 210
160 183 213
164 186 215
158 180 208
148 168 195
136 154 178
121 137 159
114 129 149
109 124 143
108 122 141
111 126 145
116 131 151
111 126 146
104 118 136
94 106 123
80 91 105
60 68 79
43 49 57
25 28 33
21 24 27
35 40 46
52 59 68
71 80 92
89 101 117
94 107 123
94 107 123
86 98 114
78 88 102
80 91 106
94 107 123
100 113 131
92 105 121
93 105 122
90 102 118
92 105 121
84 95 110
80 91 106
87 99 115
174 197 228
182 207 239
188 212 245
191 216 249
191 217 250
193 218 252
191 216 250
194 220 255
193 218 251
189 215 249
193 218 251
190 216 249
190 216 250
191 216 249
192 218 252
191 217 250
191 218 252
190 216 250
192 218 251
193 219 252
193 219 253
190 216 249
186 212 244
190 215 248
190 216 250
190 216 250
189 216 250
190 216 249
195 220 252
191 217 252
195 221 255
193 219 253
191 217 251
188 214 248
187 213 247
187 212 245
182 206 238
174 198 229
163 186 215
154 175 202
146 165 190
143 162 187
146 166 192
150 170 196
156 177 204
166 187 216
167 189 219
166 189 218
168 190 220
169 191 221
171 194 224
178 201 231
185 210 242
189 214 248
193 219 253
193 219 253
193 219 253
190 215 248
190 216 249
183 208 241
180 205 237
170 192 222
153 174 202
132 150 173
109 124 144
96 109 126
82 93 108
73 83 96
69 78 91
71 81 94
70 80 92
73 83 96
72 81 94
71 81 94
62 71 82
52 59 68
45 51 59
35 40 46
32 36 42
27 31 35
24 28 32
27 30 35
33 38 44
36 41 47
36 41 48
39 44 51
42 48 56
43 49 57
40 45 53
36 42 48
21 24 28
11 13 15
27 30 35
36 41 48
39 44 51
37 42 48
33 38 44
25 29 33
23 27 31
31 35 41
37 42 49
48 54 63
52 59 69
56 63 73
54 61 71
71 80 92
87 99 114
97 110 127
101 115 133
98 112 130
95 108 125
98 111 128
99 113 131
104 117 135
106 121 140
116 132 153
127 145 167
134 152 177
131 149 173
133 151 174
134 153 177
139 157 182
139 157 182
149 169 194
154 174 200
154 174 201
151 171 197
157 179 206
162 184 212
163 186 215
165 188 218
161 183 211
159 180 207
151 171 198
151 171 198
149 169 196
151 171 198
161 184 214
167 190 219
172 194 224
173 195 225
179 202 234
180 206 239
182 207 240
185 211 244
188 213 247
189 215 248
187 213 246
188 214 247
187 213 246
187 211 243
185 210 242
185 211 243
189 214 248
191 217 250
192 218 252
192 217 250
192 218 252
193 219 254
195 221 255
192 217 251
193 219 253
192 218 251
191 217 251
186 211 244
186 211 245
184 209 242
173 198 230
166 189 218
156 178 206
146 165 191
142 161 185
135 152 175
127 146 169
124 139 160
121 138 159
122 139 161
129 146 168
132 150 174
133 151 175
133 151 175
142 162 187
148 168 194
157 179 208
173 195 225
182 206 237
187 213 247
187 213 246
188 214 248
193 219 253
195 221 255
192 218 252
192 218 252
193 219 253
189 214 247
184 209 242
180 204 236
168 191 221
162 184 213
150 170 197
149 169 195
148 169 195
148 168 194
141 160 186
139 158 183
133 151 174
116 132 152
92 104 121
72 81 94
64 72 83
67 75 87
78 89 103
92 104 120
104 118 137
115 130 150
123 139 161
126 143 165
120 135 156
105 119 138
94 107 124
78 89 103
68 77 89
58 66 77
52 59 68
46 53 61
38 43 50
28 32 37
22 25 28
25 29 33
38 43 50
54 62 71
67 76 87
82 93 108
99 112 130
115 130 151
125 142 165
132 150 174
131 148 170
120 135 156
119 135 155
123 140 162
133 151 175
145 165 192
148 169 197
157 178 205
161 182 210
159 180 208
163 185 214
164 186 215
164 186 215
161 184 213
163 184 212
155 176 204
149 169 196
138 156 181
122 138 160
116 131 152
96 110 128
74 84 97
52 59 68
28 32 37
19 22 25
41 47 54
67 76 89
82 94 108
87 99 115
104 118 137
127 144 167
144 163 189
157 178 206
157 178 206
154 175 202
144 163 189
132 150 174
116 132 152
103 117 136
92 105 122
83 94 109
73 83 96
69 79 91
66 75 87
65 73 85
74 84 97
85 97 113
89 101 116
87 99 114
88 100 116
87 99 115
93 106 123
101 115 133
104 118 137
110 124 144
109 124 144
100 113 130
93 105 122
87 100 115
86 98 113
91 104 120
101 114 132
107 121 140
114 130 151
129 146 169
148 168 194
163 186 215
166 189 219
167 190 220
171 195 227
175 198 229
174 198 230
175 200 232
181 205 237
182 207 240
186 210 242
185 211 245
182 207 240
181 206 237
178 202 233
174 196 226
168 192 222
166 189 219
174 197 227
176 200 231
175 199 230
174 197 228
171 194 223
170 193 223
169 193 225
167 189 218
159 180 208
150 170 197
144 164 189
135 153 176
132 150 175
135 153 177
144 163 189
152 172 199
154 175 202
154 175 202
157 179 206
159 181 209
163 185 214
165 187 216
174 197 228
181 205 237
188 214 248
192 217 251
191 217 251
192 219 253
192 218 252
190 216 249
192 217 251
191 216 248
189 215 248
190 215 248
187 213 247
185 211 243
180 205 238
176 200 232
175 199 230
179 203 234
181 206 239
185 211 245
186 210 243
179 202 233
172 196 226
163 185 213
157 178 205
146 166 192
140 159 184
137 156 181
132 150 174
128 146 168
128 145 167
121 138 161
117 133 154
112 128 148
113 128 147
109 124 143
90 103 119
75 85 98
58 66 76
37 42 49
12 14 16
27 31 36
56 64 74
75 86 99
88 100 117
92 104 120
93 106 122
97 110 127
98 111 129
99 113 131
101 115 132
105 119 138
112 127 146
116 132 153
116 132 152
113 129 150
118 133 153
120 136 157
185 210 242
189 213 246
191 216 250
190 216 249
193 219 253
193 218 251
189 215 249
189 216 251
190 215 249
189 215 249
187 212 245
186 211 244
189 214 247
187 214 248
189 215 248
190 215 248
191 217 250
189 214 248
193 218 251
193 218 252
196 221 254
191 217 251
189 214 246
188 213 246
185 209 242
181 207 240
181 206 239
186 210 243
185 211 245
192 219 253
194 220 253
194 221 255
194 221 255
193 218 252
187 213 248
180 204 236
177 201 232
170 192 222
162 184 212
158 180 209
160 182 210
159 181 210
160 181 209
156 177 205
156 177 205
147 167 193
142 161 187
150 170 196
161 182 211
170 193 223
179 203 236
185 211 245
191 217 251
191 217 252
188 214 249
195 220 254
191 217 250
186 212 245
180 205 237
172 195 225
152 172 198
136 155 179
113 129 148
91 103 118
74 84 97
88 99 114
97 110 128
108 123 142
109 123 143
113 128 147
122 138 159
125 142 164
126 143 166
123 140 161
117 133 155
110 124 144
104 118 137
94 106 122
89 101 116
97 110 128
98 112 130
101 114 131
102 115 132
112 128 148
114 130 150
109 124 143
103 117 135
94 106 123
73 84 97
55 62 71
41 46 53
28 32 37
25 28 33
27 31 36
25 29 34
20 23 27
18 21 24
11 13 15
7 8 10
9 10 12
15 17 19
21 23 27
29 33 39
36 41 47
30 34 39
24 28 32
30 34 40
35 39 46
53 61 70
76 87 100
91 103 118
105 120 139
113 129 149
120 136 158
119 135 157
118 135 157
117 133 154
110 125 144
106 120 139
102 116 134
92 104 120
87 99 115
85 96 111
101 115 134
112 126 145
120 136 157
119 135 156
128 145 167
132 150 173
133 151 175
126 143 166
125 142 163
113 128 149
112 127 148
113 128 149
113 129 149
119 135 156
132 150 172
141 160 185
149 169 196
158 180 207
166 187 216
169 192 222
174 198 228
175 199 230
181 205 237
181 206 238
185 210 242
184 209 242
186 211 244
185 210 243
189 214 247
191 216 249
191 217 251
193 219 253
196 221 255
192 219 254
192 218 252
194 220 254
191 218 252
193 220 254
194 219 253
194 220 254
194 220 254
192 217 251
187 213 247
187 213 247
182 205 236
171 194 225
164 185 213
149 170 197
144 164 191
134 152 176
129 146 169
123 140 162
125 143 166
130 146 168
133 150 174
141 160 185
152 172 198
156 177 206
162 183 211
164 187 216
171 194 224
178 203 234
185 208 239
185 210 243
183 208 241
184 209 241
185 211 244
186 213 247
191 217 251
193 218 251
193 219 254
192 218 252
191 216 250
194 219 252
188 214 247
185 211 245
188 212 244
184 209 243
180 204 235
173 197 228
159 181 209
147 166 192
141 160 184
129 147 170
119 136 157
106 120 139
91 103 118
72 82 94
53 60 70
49 56 65
59 67 77
67 76 88
67 77 89
65 73 84
63 71 83
63 71 83
60 68 79
56 63 74
58 66 76
60 68 79
62 70 81
56 63 73
46 53 61
40 45 52
35 40 46
39 45 52
51 58 67
75 85 98
94 106 123
104 118 136
106 121 140
108 122 141
103 117 135
102 114 132
94 107 124
91 103 119
90 103 119
96 109 126
107 121 140
122 138 160
139 157 181
151 172 199
164 186 214
174 197 227
177 201 232
179 204 236
182 206 237
176 201 232
170 193 224
170 192 221
167 191 221
165 187 216
157 178 205
149 168 194
142 161 186
125 143 166
110 125 146
93 106 123
81 93 107
60 68 79
45 51 59
33 37 43
29 33 39
39 45 52
59 67 77
76 86 99
88 100 116
103 117 136
123 139 161
143 162 187
155 176 203
160 182 211
159 181 209
152 173 200
136 154 178
123 140 162
121 138 160
106 120 139
113 128 147
107 121 139
98 111 128
93 105 122
91 103 119
96 109 126
102 116 134
110 124 143
113 128 148
109 123 142
108 122 141
100 114 131
94 107 124
97 110 127
107 121 140
119 135 156
124 141 163
129 146 169
133 150 174
142 161 187
147 167 194
152 172 199
150 171 198
153 174 202
156 177 205
161 182 210
159 181 209
158 179 206
159 179 206
161 183 212
169 191 219
169 192 221
174 197 228
173 196 227
174 197 228
179 203 234
176 200 232
177 200 232
175 199 229
179 203 235
177 201 233
172 195 226
169 191 221
162 184 214
156 177 205
153 173 200
149 169 195
140 160 185
130 148 171
120 136 157
115 132 153
116 131 151
117 133 153
122 138 159
129 146 169
134 152 176
129 146 169
126 144 167
123 141 163
123 141 163
129 147 170
148 169 196
160 182 210
165 188 218
171 195 226
181 206 239
187 213 247
191 216 250
191 217 252
192 218 251
191 216 250
187 213 246
186 211 245
188 212 245
180 205 238
175 200 233
175 199 230
173 196 226
177 201 232
181 206 239
183 207 239
185 209 240
181 206 238
178 203 236
176 200 230
166 189 220
161 183 211
155 176 204
152 172 199
144 163 189
136 154 179
127 144 166
120 137 159
110 126 146
105 118 136
101 115 133
99 112 130
94 106 122
90 102 118
79 90 104
56 64 74
30 34 39
13 15 18
27 30 35
38 43 50
55 63 73
63 71 82
61 70 80
59 67 78
60 68 79
57 64 75
59 67 77
65 73 85
65 74 85
67 77 89
79 90 104
96 108 124
110 124 144
118 134 154
174 199 231
184 209 241
187 213 246
192 217 251
191 218 252
192 217 250
193 218 252
193 218 252
190 216 251
189 215 249
193 218 252
193 218 252
191 216 249
191 218 252
191 217 251
192 219 254
193 220 255
194 220 253
192 219 253
194 220 255
194 220 254
193 218 252
189 215 248
188 213 246
184 209 242
183 207 240
184 209 243
186 211 244
192 217 251
194 220 254
193 220 254
193 219 252
191 217 251
187 213 246
185 210 243
178 202 234
171 195 226
165 187 216
162 184 212
166 189 220
169 192 223
167 189 219
165 188 218
167 190 220
167 190 219
164 187 216
168 191 220
167 190 219
172 195 225
172 196 227
181 205 237
183 209 243
191 217 251
193 218 252
193 219 253
189 215 248
177 200 230
157 178 205
137 155 179
116 132 154
100 113 131
90 102 119
100 113 131
103 116 134
111 125 145
117 132 153
126 143 166
133 151 175
142 161 186
151 171 197
158 179 206
160 181 208
161 184 213
161 182 210
165 187 216
160 181 209
160 181 209
162 183 212
164 186 214
155 175 202
149 170 197
150 170 197
151 172 199
148 169 197
144 163 189
134 152 176
119 134 155
106 120 139
99 113 131
101 114 132
104 118 136
104 118 136
92 104 121
81 92 106
65 73 85
50 57 65
35 40 46
32 36 42
28 32 37
29 33 38
28 31 36
29 33 38
27 31 36
34 38 44
37 42 49
37 42 49
31 35 41
25 29 33
13 15 17
22 25 29
38 43 50
49 55 63
63 72 83
70 80 92
79 90 103
73 83 96
63 72 83
48 54 63
38 43 50
33 37 43
32 36 42
44 50 58
53 60 69
61 69 80
67 75 87
71 80 93
75 85 98
76 86 100
76 87 100
69 79 91
67 76 88
71 80 93
75 85 99
86 97 113
95 108 125
106 120 139
114 130 151
118 134 155
126 142 164
135 153 177
146 166 193
156 177 205
164 187 217
169 192 221
174 197 228
176 200 232
180 205 237
182 206 237
182 207 239
186 212 245
189 214 247
191 216 250
192 218 252
190 218 253
194 220 254
195 220 253
193 220 255
190 215 248
191 218 253
192 218 253
189 215 249
194 220 254
196 221 253
192 217 251
192 218 252
193 218 251
191 217 252
188 214 247
186 211 242
179 203 234
169 192 223
167 189 218
171 193 223
165 187 217
159 180 207
151 172 198
146 166 191
147 167 193
151 172 199
150 170 197
159 181 208
167 189 217
171 195 226
173 197 229
181 204 235
184 209 241
187 212 244
186 211 244
184 210 242
187 213 246
192 217 250
193 219 253
192 218 253
194 220 255
194 219 253
191 217 251
188 213 246
186 211 245
185 209 241
179 204 237
180 205 238
180 204 236
176 200 230
170 194 224
165 188 217
155 176 204
140 159 184
126 144 167
114 130 151
98 112 129
86 98 113
75 85 99
74 84 96
71 81 94
66 75 87
64 73 84
49 56 64
45 51 58
46 53 61
48 54 62
34 39 45
27 31 36
27 31 36
24 28 32
32 37 43
35 39 46
42 48 55
52 59 68
64 73 84
80 91 105
89 101 117
91 103 119
84 96 111
72 82 95
62 71 82
54 61 71
59 67 77
73 83 97
87 98 113
101 114 131
106 120 139
113 128 148
115 130 151
122 138 159
132 149 173
146 166 191
157 180 209
167 190 220
171 194 224
172 196 227
173 196 227
170 193 223
169 192 222
167 191 221
164 186 215
157 179 207
163 185 214
159 180 208
149 169 196
141 160 185
138 156 180
131 149 173
117 133 154
110 124 143
92 104 120
91 103 118
72 81 94
51 58 67
40 45 53
36 41 48
30 35 40
33 37 43
59 67 77
74 84 98
105 120 139
124 140 162
146 166 192
161 183 211
164 186 216
169 193 223
172 195 226
172 196 226
163 185 214
158 179 207
137 155 180
120 136 157
125 141 163
118 134 155
123 139 161
119 135 156
111 126 146
101 115 132
101 114 132
102 117 135
110 126 146
125 142 165
137 157 182
146 165 190
150 171 197
150 170 197
151 171 197
152 171 197
149 169 196
154 174 201
154 175 202
158 180 209
160 182 211
158 180 210
158 180 208
164 186 215
165 188 217
164 187 217
166 188 217
164 187 217
169 192 221
174 198 229
174 198 230
173 196 227
171 195 226
173 196 227
173 197 228
170 193 222
166 189 218
162 184 212
158 179 206
148 167 192
143 161 186
140 159 183
131 148 170
120 136 157
116 132 152
109 123 143
106 120 139
100 113 130
98 112 130
104 118 136
108 122 140
105 119 138
113 127 146
120 137 158
128 145 167
136 154 178
143 161 186
145 164 189
148 168 194
155 177 205
162 184 213
172 194 223
178 201 232
184 209 242
191 218 252
191 217 252
190 216 250
191 216 250
186 211 244
185 210 242
186 210 241
184 209 241
179 204 236
175 198 228
164 187 216
158 180 208
155 175 203
152 173 200
152 173 200
153 174 201
158 179 207
159 181 209
162 184 212
158 179 206
153 173 200
147 167 194
136 155 180
125 142 164
121 138 160
127 145 167
127 145 167
129 146 169
120 136 157
115 130 151
99 112 129
75 86 100
54 61 71
40 45 53
18 21 24
9 11 12
25 29 33
34 38 44
27 31 36
31 35 41
39 44 51
42 48 55
38 44 51
42 48 55
49 55 64
50 57 66
56 64 74
61 69 79
66 76 88
77 88 101
175 199 231
184 208 240
188 213 246
187 213 247
190 216 250
191 218 252
194 219 253
192 218 253
192 218 253
190 216 250
194 219 253
194 220 254
189 216 251
193 219 253
193 219 252
193 218 251
193 220 254
190 216 250
192 218 252
191 217 252
193 219 252
190 216 250
187 213 247
188 213 245
186 212 246
192 217 249
190 216 249
193 219 253
193 218 252
195 221 254
195 221 255
193 217 250
189 214 246
189 214 246
186 210 241
183 207 239
179 204 236
180 204 236
180 204 236
178 203 236
177 201 232
179 204 237
184 208 240
183 207 240
187 212 244
189 214 247
190 215 247
188 214 248
189 215 249
191 217 251
192 218 252
189 216 250
189 214 247
186 211 244
181 205 237
170 193 224
156 177 204
139 159 184
123 139 160
97 110 128
89 102 118
103 117 136
111 125 145
113 129 149
127 145 167
144 163 189
155 177 205
166 188 217
175 199 230
178 202 233
175 199 230
178 202 233
173 197 228
176 200 231
179 203 234
182 205 237
180 205 238
181 206 238
177 202 235
171 195 227
170 192 222
164 186 216
158 179 208
154 175 203
151 172 199
148 169 196
144 163 188
138 157 181
138 156 180
133 151 175
124 141 163
116 132 152
111 126 145
100 114 132
85 96 111
72 82 95
68 77 88
67 76 88
65 74 86
61 69 80
63 72 83
72 82 95
74 84 98
79 89 103
81 92 107
73 83 96
66 75 87
59 67 78
53 60 69
49 56 64
41 47 55
36 41 47
29 33 38
29 33 39
27 31 36
23 26 30
28 31 37
28 31 36
15 17 20
4 5 5
12 13 15
13 14 17
16 18 21
18 21 24
16 18 20
15 17 20
17 19 22
15 17 19
15 17 20
22 26 30
32 36 42
38 44 50
52 60 69
67 76 88
73 82 95
81 91 105
90 102 117
97 110 127
107 121 140
115 131 152
128 145 168
139 158 182
149 169 195
153 175 202
158 180 208
164 186 214
170 193 223
172 195 226
175 199 230
180 204 236
184 210 242
188 213 247
192 218 252
189 215 248
190 216 250
195 221 255
196 222 255
193 219 253
194 220 254
194 220 255
193 219 254
193 220 255
193 220 254
194 220 255
193 219 254
191 216 249
187 213 246
186 211 243
181 205 236
178 202 234
176 200 231
175 200 232
181 205 236
179 203 234
179 204 237
177 202 233
178 203 236
178 202 234
181 205 237
183 208 241
183 208 241
181 205 237
181 206 239
185 209 241
188 212 245
184 210 243
187 213 247
189 215 249
191 217 251
192 219 253
193 219 254
192 218 253
193 218 252
188 215 249
184 208 241
178 202 233
168 191 222
166 188 217
163 186 215
165 188 218
166 189 219
168 190 219
167 190 220
162 183 211
150 171 198
144 163 189
138 157 182
131 149 172
121 137 159
118 133 154
115 130 150
119 135 156
124 142 165
122 138 159
118 134 155
115 131 151
108 123 142
101 115 133
98 112 129
97 111 129
89 101 117
82 93 107
66 75 86
55 62 72
38 44 50
21 24 28
14 16 18
22 25 28
36 40 47
47 53 61
49 56 64
51 58 68
39 45 52
39 45 52
45 51 59
53 60 69
68 78 90
87 99 114
96 108 125
98 111 130
104 118 137
115 130 150
124 141 164
140 158 182
147 168 194
159 181 209
168 191 220
170 193 222
172 195 224
176 200 231
177 201 232
173 197 228
170 193 223
167 191 222
168 191 220
167 190 219
167 189 218
165 188 218
169 192 223
174 197 227
171 195 226
170 192 222
171 194 223
167 189 218
160 181 209
147 167 194
144 163 189
132 150 173
121 137 158
105 119 137
88 100 115
60 67 77
42 48 56
23 26 31
43 49 56
63 72 83
78 89 102
96 110 127
104 119 138
120 136 157
134 152 175
146 166 193
163 184 212
172 194 224
175 199 229
180 203 233
181 205 237
171 193 222
160 180 208
144 164 189
139 158 182
123 140 162
121 138 159
120 136 158
124 140 161
128 145 168
137 155 178
146 165 191
146 167 193
141 161 187
141 160 185
145 164 188
144 164 190
147 167 193
153 175 203
158 179 206
161 183 213
162 184 213
162 185 214
163 186 215
164 186 214
162 184 212
155 176 205
162 184 212
166 188 216
170 194 226
172 195 225
177 201 233
177 201 232
176 200 231
174 197 226
166 188 216
156 177 205
152 173 201
153 174 202
150 169 195
141 161 187
140 158 182
135 153 177
126 144 167
124 140 161
120 136 158
118 134 155
116 131 151
120 136 157
121 137 158
125 142 164
129 147 171
140 158 182
152 172 199
160 180 208
157 178 206
151 172 199
153 173 200
157 177 205
159 180 208
160 181 209
166 189 218
177 200 232
182 207 240
189 215 248
191 218 253
191 218 253
189 215 249
191 218 253
192 218 253
189 216 250
185 211 244
175 199 230
172 195 225
166 188 218
165 187 215
157 178 206
150 169 195
145 164 190
140 159 184
139 157 181
136 154 178
134 152 177
129 147 169
129 146 168
114 130 151
101 115 133
97 110 127
108 123 142
121 138 160
131 148 171
133 151 175
133 150 174
126 144 166
115 130 149
102 115 133
91 103 119
72 82 95
46 52 60
20 23 27
14 16 19
11 12 15
11 12 14
16 19 22
20 23 27
17 20 23
23 26 30
32 37 42
42 48 55
45 51 59
44 51 59
56 63 73
75 85 99
91 103 118
186 211 244
190 216 249
191 216 249
188 214 248
186 211 244
187 213 247
189 214 246
191 217 250
189 214 247
189 215 249
191 216 249
190 216 249
190 216 250
191 216 249
192 218 253
192 219 254
193 219 253
191 217 252
191 217 251
190 216 250
192 218 251
190 215 249
190 216 251
193 220 255
193 219 253
193 219 253
193 220 254
191 218 252
190 217 252
193 219 254
192 218 251
190 216 249
192 217 250
192 218 251
187 214 248
187 213 246
191 216 250
189 214 248
191 217 250
186 212 245
190 216 250
193 219 252
191 217 251
190 217 252
193 218 252
193 219 252
190 215 249
189 214 246
188 213 246
186 210 242
179 204 235
168 190 219
158 179 208
152 173 200
146 165 190
136 154 177
133 150 173
123 140 162
107 122 141
99 113 131
113 128 148
129 146 168
137 157 182
149 169 195
158 179 207
170 193 222
178 201 232
187 212 244
189 215 249
188 212 245
190 216 249
189 216 250
189 215 249
189 215 248
186 212 245
184 208 239
178 202 234
174 197 227
172 196 226
169 191 221
171 193 222
165 188 218
162 185 214
161 182 211
159 181 209
158 178 205
153 174 201
146 167 193
138 157 182
126 143 166
116 131 151
108 122 141
111 125 144
109 123 142
103 117 135
97 111 128
89 100 115
88 100 116
97 110 127
105 119 137
108 123 142
108 123 142
110 125 145
118 134 154
120 136 157
110 125 145
106 121 139
104 118 136
96 109 125
96 108 124
88 100 116
92 104 120
88 99 115
84 96 111
76 87 100
65 74 85
54 61 71
40 45 52
29 33 38
22 25 29
17 20 23
12 13 16
9 11 12
13 15 17
12 14 16
12 14 16
11 13 15
6 7 8
8 10 11
10 11 13
7 8 9
12 14 16
23 26 30
37 42 49
49 56 64
68 77 89
84 95 110
98 111 128
101 115 133
105 119 138
109 123 141
109 123 143
113 128 147
117 134 155
125 142 163
135 153 176
148 167 193
161 182 210
168 191 221
172 195 225
175 200 231
179 203 233
182 207 240
185 210 243
186 212 245
189 215 248
193 218 252
192 219 254
193 219 253
194 220 255
194 220 254
194 220 254
191 217 251
190 216 250
188 213 247
186 212 245
183 208 240
183 207 238
181 205 237
178 203 235
171 195 226
168 191 221
169 192 223
172 195 227
171 195 225
174 197 227
180 205 237
187 212 245
192 218 251
193 218 252
194 220 254
189 215 249
193 219 253
193 219 254
193 219 253
195 221 255
190 216 249
191 216 249
191 216 250
191 218 252
191 218 252
192 217 251
186 211 245
179 204 237
180 204 234
178 203 235
177 201 232
174 198 230
171 195 226
171 194 224
165 188 217
157 178 206
146 166 191
136 155 179
124 140 162
120 137 158
124 141 162
125 142 164
125 142 164
123 140 162
123 139 160
120 136 157
121 137 159
125 142 164
130 147 169
133 151 174
134 152 175
132 149 172
129 147 170
126 142 164
115 130 150
105 119 137
90 102 118
77 87 101
58 65 75
37 42 48
17 19 22
7 8 10
6 7 8
10 11 13
12 14 16
12 13 15
16 18 21
19 22 26
15 17 20
36 41 47
62 70 81
78 89 103
95 107 124
109 124 143
122 138 159
130 148 171
147 167 194
156 178 207
164 187 216
165 188 218
171 194 224
168 192 223
170 193 223
174 196 226
171 194 225
168 190 220
166 188 218
162 184 213
161 183 213
158 179 207
159 180 208
167 189 218
172 195 226
177 202 235
182 207 239
187 213 247
189 214 247
185 210 244
182 206 238
178 202 233
172 194 223
162 184 213
149 170 197
135 153 177
119 134 155
98 112 129
78 88 102
62 70 81
44 49 57
35 40 47
34 39 45
32 36 42
28 32 37
34 38 44
44 50 59
64 73 84
78 89 103
102 116 134
120 137 159
144 164 190
168 191 221
182 207 239
185 210 243
179 203 236
175 198 230
173 196 226
173 196 225
174 200 232
178 201 231
175 199 230
167 190 220
158 180 208
156 178 206
140 159 184
139 158 183
142 161 186
153 173 200
159 180 207
161 183 212
167 190 221
168 191 222
166 189 218
166 188 217
158 181 210
157 179 207
159 181 210
164 186 215
161 183 212
159 181 210
163 185 214
163 185 215
162 184 213
163 186 214
157 178 206
150 170 195
144 163 189
133 151 174
127 144 166
128 145 167
119 135 156
115 130 149
117 133 155
118 134 156
113 128 149
112 127 147
116 131 152
122 138 160
124 141 162
132 149 172
135 154 178
142 162 187
151 172 199
165 186 215
170 192 220
169 192 222
170 193 223
177 201 233
181 205 236
180 205 238
183 208 241
181 206 238
185 211 244
189 215 249
191 217 251
188 214 248
191 218 252
194 220 254
191 216 249
195 221 255
193 219 253
188 214 247
184 209 241
174 197 227
170 193 222
162 184 214
156 177 203
148 168 196
145 164 189
140 159 184
133 151 175
124 141 162
121 137 158
121 138 160
118 134 155
109 122 141
92 104 120
87 99 115
86 97 112
74 84 97
70 80 93
78 88 101
83 94 109
96 109 125
92 104 120
85 97 111
84 96 111
80 91 106
74 84 98
65 74 86
53 60 69
37 42 49
24 27 31
17 19 22
10 11 13
8 9 11
14 15 18
23 26 30
32 37 42
34 39 45
34 38 45
36 41 48
47 53 61
61 69 80
72 82 95
191 216 249
193 218 250
188 214 248
186 211 245
184 209 240
183 208 240
185 210 242
186 210 243
187 211 244
185 209 241
190 215 247
188 214 248
192 218 252
192 218 253
193 220 254
192 219 253
190 216 249
193 219 253
192 218 252
194 220 255
191 216 249
196 222 255
194 219 253
192 217 251
193 219 253
193 217 250
189 215 249
192 218 252
193 218 252
194 219 253
193 220 254
190 216 249
190 216 250
193 219 253
192 219 254
193 219 253
192 218 253
193 218 251
195 220 252
189 215 249
186 211 243
187 211 244
185 210 242
186 211 244
186 210 243
188 212 244
183 209 242
179 204 236
172 195 226
165 188 218
160 181 210
154 175 202
148 169 195
142 161 186
135 153 177
125 142 164
109 124 144
100 114 131
114 129 149
121 138 159
126 143 165
134 152 175
145 164 190
155 177 206
166 189 219
173 197 228
178 203 235
183 208 242
188 214 248
188 214 248
194 218 251
191 217 250
192 217 251
188 214 248
186 211 244
182 207 239
178 203 234
176 200 231
176 199 229
173 197 227
172 196 227
173 195 225
169 191 220
165 187 216
160 182 211
161 183 212
162 183 211
155 177 205
146 166 193
139 157 182
134 152 176
133 150 172
132 151 175
134 153 177
134 152 175
140 158 183
144 163 189
144 164 190
150 170 197
153 173 200
150 170 197
151 170 196
144 164 190
140 159 184
145 164 189
145 164 190
138 156 180
123 140 162
117 133 155
114 129 150
112 127 147
108 123 142
102 116 134
82 94 109
66 75 86
55 62 72
44 50 59
29 33 38
21 24 28
19 22 26
16 18 21
10 12 14
9 11 12
13 15 17
13 15 17
14 16 19
22 25 29
27 30 35
24 27 32
19 21 25
10 11 13
8 10 11
15 17 20
23 26 30
39 44 51
54 61 70
62 71 81
73 84 97
83 95 109
87 99 114
88 100 116
93 105 121
95 108 125
98 112 130
106 119 137
115 130 151
122 139 161
132 149 172
139 158 183
143 163 188
154 176 204
164 187 216
170 192 222
179 203 234
186 211 243
189 215 249
193 218 252
194 220 253
194 220 255
194 219 253
191 218 252
193 220 254
191 216 249
187 212 245
181 206 238
178 203 235
176 200 232
173 196 227
172 195 224
171 194 225
174 198 230
175 199 230
177 201 232
172 195 226
175 199 231
180 205 237
185 211 245
191 216 249
191 216 249
191 218 252
194 219 253
194 220 253
191 216 250
190 217 251
191 217 250
189 214 247
187 212 245
182 207 239
180 205 238
177 201 231
172 195 226
167 190 219
168 192 222
173 196 226
177 199 229
176 200 232
181 205 236
183 206 237
179 203 234
175 199 230
170 193 222
163 185 213
156 177 205
154 175 202
147 167 193
144 163 187
135 153 177
133 152 176
137 155 178
135 153 177
128 145 167
122 139 161
128 145 167
134 152 175
136 153 177
137 155 180
138 157 182
137 156 180
127 145 168
117 133 153
111 125 144
98 111 129
80 91 105
59 67 78
43 49 57
37 42 49
30 34 39
31 36 41
29 33 39
24 28 32
15 17 19
7 8 9
14 16 19
18 20 23
6 7 8
19 21 25
32 37 42
53 60 69
69 78 90
90 102 119
119 134 155
134 152 176
156 177 205
167 190 219
173 196 227
179 202 234
178 203 235
182 206 238
179 203 235
183 207 238
181 205 236
175 200 233
175 199 231
172 195 225
171 194 225
175 198 229
179 203 235
181 205 237
183 208 242
188 213 245
187 212 245
186 210 243
185 211 244
181 206 238
177 200 232
174 197 228
171 194 225
166 188 217
157 178 205
141 160 184
126 143 166
112 127 147
100 114 132
89 101 116
86 98 114
88 100 115
86 97 112
71 81 93
53 61 70
38 43 50
24 28 32
8 9 11
18 21 24
49 56 64
82 93 108
115 131 151
141 159 183
158 180 208
164 187 217
172 196 226
175 199 231
181 206 239
185 210 242
185 211 244
189 214 247
188 214 247
189 215 249
191 217 250
188 214 247
184 209 241
182 206 238
185 209 242
178 201 232
175 199 230
168 191 222
169 192 222
166 188 217
164 186 215
169 190 219
167 190 220
169 192 222
175 199 230
180 205 237
180 204 236
179 203 235
176 200 231
173 196 227
168 192 222
163 185 213
150 171 198
146 165 191
139 159 184
130 147 169
115 131 151
108 122 142
103 117 136
100 114 132
96 109 126
96 109 126
100 113 129
111 125 145
118 133 153
122 138 159
123 141 163
130 147 169
135 153 177
137 156 180
146 166 192
152 172 198
156 178 205
164 187 217
177 200 231
183 208 240
183 208 240
185 209 241
187 212 245
192 217 251
193 219 253
188 215 250
192 217 250
186 212 245
192 218 252
191 217 251
193 218 251
192 218 252
192 218 251
188 214 248
188 213 246
184 208 240
182 206 239
178 203 235
175 199 230
167 190 220
162 184 213
150 170 197
131 149 172
119 135 157
112 127 146
105 120 139
98 111 129
97 111 128
97 110 128
95 108 124
84 96 111
69 79 91
61 69 80
62 70 81
66 75 87
64 73 84
59 67 77
59 67 77
64 73 84
65 74 86
66 75 87
70 80 92
72 82 95
73 83 97
65 74 86
57 65 76
48 54 62
39 45 52
24 28 32
18 20 24
12 14 16
17 19 22
28 32 38
43 48 56
48 54 63
50 57 66
61 69 79
188 214 247
188 215 249
190 216 249
187 212 245
188 214 248
194 220 253
192 218 253
191 217 251
192 218 251
194 220 253
192 219 254
193 219 254
194 219 253
192 218 253
192 218 252
191 217 250
193 218 252
194 219 252
191 217 251
191 216 249
193 219 253
194 221 255
196 222 255
192 219 254
192 217 251
193 219 252
191 218 252
190 216 250
193 218 251
192 218 252
191 216 249
190 215 248
187 212 246
189 214 247
187 213 246
188 214 247
188 213 247
186 212 246
186 211 244
184 209 242
185 210 242
184 210 242
184 210 243
186 212 244
188 214 248
185 210 242
178 203 235
170 194 224
160 182 210
159 180 208
152 173 201
148 168 195
137 156 181
136 154 177
130 147 170
127 144 167
124 141 163
116 132 153
105 119 137
99 111 128
113 128 148
132 149 171
143 163 189
152 173 199
159 180 208
167 190 219
170 193 223
173 197 229
178 201 232
185 209 240
183 207 240
183 208 239
182 207 239
178 203 235
181 205 237
178 203 235
179 203 235
174 197 228
177 201 232
174 197 228
175 198 228
170 193 224
169 192 221
163 186 215
159 181 209
160 181 208
158 179 207
159 181 210
158 179 207
153 174 201
151 171 198
150 171 198
160 180 207
162 184 212
163 185 214
167 189 218
167 189 217
165 187 216
167 189 217
164 186 214
157 178 206
149 170 197
140 158 182
128 146 169
127 145 167
124 141 163
120 136 157
115 130 151
113 129 149
111 126 145
90 103 119
77 87 100
59 67 77
46 52 60
34 39 45
21 25 29
13 15 17
8 9 10
17 20 23
25 29 33
31 36 41
34 39 45
31 35 40
22 26 30
14 16 19
8 9 11
7 8 9
7 8 10
6 7 8
5 6 7
6 7 8
18 20 23
31 35 40
40 45 52
51 58 67
63 71 83
79 90 103
94 107 123
105 119 138
103 118 136
99 112 130
97 110 128
98 111 129
99 112 130
103 117 135
107 121 140
109 124 143
111 127 147
126 144 167
145 164 189
155 176 204
164 187 216
170 194 224
182 206 237
182 207 240
190 215 248
194 220 253
192 219 253
194 220 253
189 215 249
193 219 254
195 221 255
190 217 252
194 219 251
187 213 247
184 209 241
179 203 236
180 205 237
180 204 236
179 204 235
178 202 234
178 203 235
182 206 238
186 211 243
187 212 245
186 212 247
186 212 245
191 218 252
192 218 252
192 218 253
193 219 254
192 219 254
191 217 251
187 212 244
187 211 244
179 204 236
172 195 225
166 189 219
163 185 214
160 181 209
162 184 212
158 179 207
147 166 192
149 169 196
149 170 198
163 184 211
162 185 214
160 183 212
157 179 207
157 178 206
154 175 203
152 173 200
151 172 198
152 172 199
154 175 202
152 172 199
148 168 194
144 163 189
140 159 184
139 158 183
138 157 181
138 157 181
139 158 184
138 155 179
132 150 174
126 143 166
123 140 162
111 126 145
96 109 126
91 103 120
92 105 121
87 99 114
75 85 99
64 73 84
55 63 72
48 55 63
49 56 65
52 59 68
45 51 59
26 29 34
7 8 9
12 14 16
9 10 12
6 6 8
3 4 4
6 7 8
10 12 14
19 22 25
42 48 55
62 71 83
83 94 109
107 122 141
124 140 161
135 154 178
152 173 199
164 185 213
166 188 217
170 194 224
179 203 234
185 211 244
187 212 245
188 214 248
189 215 247
186 212 245
190 215 248
190 215 248
193 219 253
193 218 252
191 217 251
192 218 252
190 216 250
188 214 247
185 209 241
178 202 234
171 195 226
167 190 219
156 177 206
149 168 194
139 158 183
133 151 175
128 145 168
115 130 151
107 122 142
110 126 146
109 123 143
100 114 132
91 104 120
77 87 101
65 74 86
46 53 61
25 29 33
7 8 9
17 20 23
43 48 56
70 79 92
94 107 124
110 124 143
123 139 162
129 147 170
133 151 176
135 153 177
142 161 186
146 165 191
152 172 199
157 178 206
160 182 211
169 191 220
173 197 227
177 201 233
184 208 239
189 213 244
189 214 247
192 218 252
192 219 254
194 219 252
192 218 252
188 213 247
186 210 243
187 212 244
188 212 244
183 209 243
187 212 245
184 209 241
183 208 241
181 205 236
170 193 223
172 195 225
169 191 221
164 186 214
154 175 202
143 162 187
138 156 180
131 148 171
117 133 154
107 121 140
99 113 131
89 101 117
79 89 103
75 85 98
81 93 107
88 100 116
96 108 124
107 121 140
119 135 156
125 142 164
129 146 168
130 147 170
131 148 172
136 154 177
149 170 197
160 183 212
169 192 222
170 193 223
171 195 226
181 205 237
185 210 243
186 212 246
189 215 248
189 215 249
191 216 249
189 215 250
188 214 249
187 212 245
189 215 249
192 218 251
195 221 255
191 216 249
187 212 246
186 211 243
178 203 236
177 201 232
171 195 226
171 193 223
157 180 209
151 171 198
139 157 181
125 142 165
119 135 156
121 137 159
122 138 160
125 141 163
125 142 164
120 137 158
107 122 141
99 112 129
97 110 128
97 110 127
88 100 116
77 87 100
72 82 95
76 87 100
75 85 98
61 69 80
58 65 76
59 67 77
66 75 86
75 85 98
78 89 103
76 86 99
68 77 89
59 67 78
53 59 69
52 59 68
41 46 54
27 31 35
10 11 13
12 14 16
25 29 33
37 42 48
54 62 72
189 215 249
187 212 244
191 216 250
189 215 249
190 216 250
188 214 247
186 210 242
186 211 244
187 212 245
186 211 244
182 207 240
183 207 239
183 208 241
185 210 242
187 213 246
193 217 250
192 218 251
191 216 249
192 218 251
193 218 251
187 212 246
187 213 247
189 214 247
189 214 248
187 214 248
191 217 251
189 215 250
187 212 245
185 209 241
183 208 241
181 205 237
179 204 235
176 199 230
171 195 226
169 192 223
167 190 219
164 186 215
172 196 226
172 196 227
175 200 232
181 205 237
184 208 240
185 210 242
182 206 238
181 206 238
183 207 239
182 207 239
181 205 236
177 201 232
171 193 223
166 189 218
164 186 215
159 181 209
153 174 202
150 170 197
140 158 183
132 149 172
112 128 148
104 117 135
91 103 119
90 101 117
97 110 126
107 121 140
107 122 141
114 129 149
125 142 164
137 156 181
147 167 193
154 175 202
158 179 206
158 179 208
166 188 217
171 195 227
173 198 229
177 201 232
178 202 232
176 199 231
172 196 226
167 190 220
166 189 219
171 195 225
171 194 224
165 188 218
162 184 212
160 181 209
162 183 212
164 186 215
164 186 215
165 187 215
162 185 214
165 188 218
166 189 220
173 196 227
174 198 230
176 200 231
174 198 229
172 195 225
167 190 219
165 187 216
157 178 206
147 166 192
127 144 167
109 124 144
95 108 125
91 104 120
93 105 121
92 104 120
83 95 110
67 76 88
50 57 66
41 46 54
35 40 46
26 29 34
20 22 26
15 17 20
16 19 22
8 9 10
14 16 19
30 34 40
47 54 62
60 69 80
62 70 81
55 63 72
53 60 69
53 60 70
48 54 63
41 47 55
32 36 42
25 28 33
21 24 28
22 26 30
24 28 32
31 35 40
39 44 51
54 62 71
69 78 91
83 94 109
95 108 125
106 120 139
111 126 146
111 126 146
104 118 136
100 114 131
93 106 122
88 100 116
97 110 127
114 129 149
127 144 167
141 158 182
148 168 194
154 175 202
164 186 215
171 193 223
173 196 226
176 199 230
183 208 240
191 217 251
191 216 250
193 218 252
193 219 252
192 218 253
193 219 253
195 221 255
193 219 254
192 218 251
190 217 251
189 215 249
190 216 249
191 217 252
189 214 248
193 219 253
189 215 248
188 214 249
191 217 251
191 217 251
187 214 249
192 218 252
190 216 250
191 218 253
189 216 251
192 218 253
190 217 251
188 214 248
189 215 248
182 207 239
174 197 228
162 184 212
157 178 207
155 175 202
150 170 196
142 160 185
139 158 183
141 160 184
136 155 179
131 149 172
128 146 169
130 148 171
137 155 179
132 150 173
128 145 168
127 145 167
130 148 172
134 153 177
148 168 194
152 172 199
148 167 193
143 162 187
141 159 184
139 158 182
134 153 177
140 159 184
148 167 193
150 170 197
154 175 202
151 170 196
139 157 181
122 139 160
105 119 138
90 102 117
79 90 104
68 77 90
61 69 80
53 61 70
46 52 60
43 48 56
38 44 51
32 37 43
32 36 42
26 30 34
12 14 17
6 7 8
11 12 14
14 16 19
15 17 19
10 12 14
11 12 15
7 8 9
18 21 24
37 42 49
57 64 74
77 88 101
105 119 137
123 140 162
141 161 186
148 168 195
158 180 209
164 187 217
175 199 230
181 206 237
188 213 247
187 213 246
189 215 249
194 218 251
191 217 251
195 220 254
194 220 254
193 219 254
194 220 254
193 218 251
192 216 249
185 209 242
181 205 238
170 194 225
170 192 222
162 185 214
148 169 196
135 154 178
125 142 165
116 131 151
103 117 136
99 113 130
102 116 133
106 120 139
106 120 140
98 112 130
95 108 125
93 106 123
86 98 114
74 85 99
51 58 67
24 27 32
8 9 10
21 24 28
48 54 63
73 82 94
84 96 111
92 105 121
102 116 134
107 122 141
107 121 140
94 107 123
89 101 116
95 109 126
102 115 133
108 123 143
111 127 147
116 132 152
129 147 170
126 143 165
138 156 181
144 164 190
164 186 216
173 196 227
178 202 234
185 211 245
191 217 252
192 218 253
192 219 253
196 221 255
192 218 252
191 217 251
194 220 253
192 218 252
192 218 252
186 212 245
185 209 241
181 206 238
177 201 231
174 198 230
165 187 217
154 175 202
142 162 187
135 153 177
128 144 166
121 137 158
121 137 158
118 134 154
113 129 149
109 124 144
102 116 134
99 112 130
101 115 133
105 119 138
110 125 145
113 129 149
122 139 160
130 148 170
134 152 175
142 161 186
149 169 196
152 172 198
151 171 197
152 171 198
153 174 201
160 182 210
167 189 218
173 196 227
180 205 237
183 208 240
183 209 243
184 209 242
186 211 244
187 213 247
189 215 248
188 213 246
193 219 252
195 221 255
190 216 249
189 216 250
186 212 246
180 206 239
173 197 229
169 192 222
164 185 213
157 179 207
156 177 204
150 171 197
146 166 191
144 163 189
138 157 182
132 149 172
122 139 160
119 135 155
112 128 148
111 126 145
116 130 150
110 125 145
102 116 133
103 116 134
106 119 138
95 108 126
77 87 101
65 74 86
60 68 79
59 67 77
63 72 84
73 84 97
79 89 103
71 81 93
65 74 86
64 72 84
66 74 86
64 72 84
50 57 67
32 36 42
17 19 22
6 7 8
22 25 29
41 47 54
52 59 68
183 207 240
182 206 239
177 201 233
171 194 224
167 190 220
162 185 215
161 183 212
161 182 210
156 178 206
162 184 213
172 195 225
180 203 234
177 202 234
177 201 232
182 208 241
186 211 244
188 213 247
189 215 248
192 218 253
193 219 254
193 219 252
190 216 249
193 219 252
193 218 252
190 216 250
188 214 247
190 214 247
186 210 242
188 212 245
188 212 245
189 214 248
191 216 249
190 215 248
183 209 242
186 211 244
183 208 240
171 195 226
161 183 212
159 180 208
160 182 211
164 184 212
160 181 209
162 184 212
166 188 217
171 194 225
175 199 231
179 203 234
186 210 242
183 209 242
187 212 246
186 211 244
189 214 246
185 210 242
182 206 237
174 197 226
164 187 216
155 177 205
151 171 198
139 158 183
127 144 167
112 127 146
100 114 131
89 101 117
78 88 102
75 85 98
82 93 107
93 106 123
103 117 136
116 132 152
127 145 168
144 162 186
153 174 201
159 180 209
161 183 212
169 192 221
171 193 222
169 191 221
168 190 219
163 186 216
163 185 214
159 181 209
158 179 208
162 184 212
162 184 213
165 187 216
161 183 212
161 183 212
167 189 218
168 192 222
167 191 222
171 193 222
171 194 225
176 199 229
177 201 233
172 196 228
171 195 226
168 191 220
161 184 213
155 175 202
143 163 188
128 146 169
112 127 147
94 107 123
71 81 94
65 73 85
57 65 76
50 57 66
33 37 43
24 27 31
15 17 20
13 15 17
5 5 6
1 1 1
2 2 2
4 4 5
7 8 10
18 21 25
32 36 42
46 52 61
59 67 78
64 73 84
68 77 89
68 78 90
69 78 91
72 81 94
72 82 95
72 82 96
73 83 96
63 72 83
57 65 75
55 63 73
57 65 75
55 62 72
56 64 73
61 70 82
66 75 86
72 82 95
85 98 113
90 102 118
89 101 117
90 102 118
90 101 117
91 104 120
101 116 134
118 135 157
132 151 174
141 160 184
147 167 194
153 174 202
158 179 206
159 181 209
162 183 212
170 193 223
179 202 233
182 207 239
186 211 243
189 215 250
193 219 253
192 218 252
193 220 255
193 217 250
195 221 255
195 221 255
193 219 253
193 219 253
192 219 253
194 220 254
192 219 254
193 220 254
193 219 253
191 217 251
188 215 249
189 215 249
189 215 250
189 215 250
192 217 249
191 216 249
187 213 247
190 215 249
193 218 251
190 217 252
194 219 253
194 220 255
190 216 250
185 210 243
179 203 235
177 200 231
170 193 223
161 183 212
159 180 208
152 173 200
148 167 192
140 159 185
135 153 177
133 150 173
132 149 172
127 144 166
121 138 159
122 138 160
120 136 157
116 131 152
112 127 146
111 126 147
115 130 151
117 133 154
118 133 154
118 134 155
121 138 160
124 141 162
129 146 169
137 155 179
139 158 182
140 160 185
138 157 181
134 152 175
128 145 167
121 138 159
113 129 149
99 113 131
82 93 108
62 70 81
39 44 51
36 40 47
38 44 51
38 43 49
28 33 38
22 25 29
12 13 16
11 13 15
17 19 22
11 13 15
5 6 7
10 12 14
8 9 10
4 4 5
10 11 13
11 13 15
19 22 25
33 38 44
52 59 68
73 83 96
89 101 117
104 118 137
121 138 160
143 163 189
157 178 206
166 188 217
166 190 221
177 201 232
182 207 240
186 211 244
193 218 251
191 217 251
193 219 254
194 219 253
193 219 253
192 218 253
193 219 253
192 218 252
190 216 249
179 204 236
174 197 227
160 183 212
151 172 200
145 165 191
139 158 182
128 145 168
113 128 148
105 119 138
101 115 133
102 115 134
99 112 130
99 113 130
98 112 130
94 107 124
91 104 121
86 98 114
78 88 101
65 74 85
46 52 60
23 26 30
22 25 29
36 41 48
55 63 73
68 77 88
74 84 97
84 95 110
89 101 117
84 95 109
73 83 97
63 72 83
61 69 79
67 76 88
76 86 99
77 88 102
75 85 99
72 82 95
73 83 96
75 85 98
82 94 108
97 110 128
123 139 160
139 158 182
157 178 206
173 196 226
178 203 235
183 207 239
184 209 242
191 216 249
190 216 250
192 217 251
191 217 251
189 214 247
193 219 252
190 217 251
192 218 252
192 217 250
186 212 246
177 202 234
170 193 223
160 181 209
142 162 187
125 142 164
120 137 158
117 133 154
116 131 151
115 131 151
125 142 164
122 139 160
114 129 148
105 119 137
107 121 139
102 116 135
103 117 135
111 127 147
123 139 161
126 143 165
135 154 178
140 159 184
149 169 195
155 176 203
159 181 211
161 183 211
169 192 222
175 198 228
180 204 235
185 211 244
190 215 247
187 212 245
181 206 239
176 200 232
177 200 231
184 208 240
188 214 247
190 216 249
193 219 254
191 217 252
192 218 251
187 213 246
182 208 241
181 205 237
175 198 228
171 195 226
164 186 215
159 181 209
149 169 195
148 167 193
144 163 188
135 154 179
129 147 170
114 129 149
99 112 130
94 107 124
98 111 128
101 114 131
93 105 121
99 112 129
102 116 134
97 110 127
86 98 114
73 83 96
56 64 74
44 49 57
43 49 57
48 54 63
48 54 63
60 67 78
67 76 88
66 75 87
62 70 81
58 66 76
55 63 73
47 53 62
37 42 49
23 27 31
9 10 11
16 18 21
35 40 46
48 55 63
52 59 68
158 179 207
150 170 196
147 167 193
138 156 181
137 156 181
138 156 181
135 153 177
137 155 179
142 161 187
150 170 196
155 176 205
166 188 217
169 193 224
175 198 229
173 197 228
173 196 226
172 195 226
172 195 226
176 199 230
176 201 233
183 207 239
184 210 244
187 213 247
193 219 253
193 219 253
192 218 252
193 218 252
191 218 252
192 218 252
190 216 250
189 215 250
190 216 250
190 216 250
192 218 251
193 219 254
194 220 254
187 213 247
182 207 240
177 201 232
167 190 220
161 182 210
148 169 196
148 168 193
152 172 199
155 175 202
161 181 209
169 192 222
179 203 235
185 209 240
188 213 246
191 216 249
189 215 249
193 219 252
194 219 252
189 215 249
191 217 250
188 212 244
177 201 233
167 190 220
162 183 211
143 163 189
132 150 174
121 137 158
109 124 144
90 102 118
68 78 91
79 90 105
101 115 133
114 130 151
131 149 172
138 157 182
144 164 189
153 174 201
160 182 211
166 188 217
168 190 219
168 189 217
169 191 221
167 189 217
164 186 215
166 188 218
173 196 226
169 191 221
167 190 220
171 194 225
173 196 226
180 203 233
180 205 237
178 203 235
182 206 237
179 203 235
179 203 233
178 202 234
181 205 237
175 200 233
175 198 228
164 186 216
151 171 197
140 159 184
123 140 163
103 118 137
87 98 113
68 77 89
57 64 74
44 50 58
42 48 56
34 39 45
23 26 30
12 14 16
5 6 7
2 3 3
7 8 9
9 10 11
22 25 29
36 41 48
42 48 56
49 56 65
59 67 78
68 77 89
72 81 94
76 87 100
79 89 103
76 87 100
71 81 94
71 81 94
72 82 95
65 74 86
62 70 80
59 67 77
57 65 75
60 69 80
65 73 85
65 74 86
69 78 90
72 82 95
72 82 94
70 79 92
69 79 91
71 80 93
78 89 103
89 102 118
102 116 135
115 130 149
128 146 169
140 158 182
147 167 194
153 174 202
164 186 215
171 193 222
173 196 226
175 200 232
176 201 233
185 209 240
188 214 247
190 216 249
191 217 252
192 218 252
194 220 253
192 219 254
192 218 251
189 215 248
193 220 255
192 218 252
192 218 252
190 215 249
190 215 247
194 219 251
190 216 250
189 215 249
189 214 247
185 209 241
187 212 245
186 211 243
187 212 245
188 214 247
189 215 248
190 215 248
188 213 246
189 215 249
191 217 251
193 219 254
192 219 253
192 218 252
191 217 251
191 217 250
189 215 249
187 212 245
188 213 246
186 211 243
181 205 235
167 190 220
157 178 206
144 164 190
138 157 182
135 153 178
137 154 178
131 148 171
125 142 164
127 144 167
126 143 166
130 147 170
131 148 171
131 149 172
126 143 165
118 134 155
109 123 142
99 113 130
100 114 131
101 114 132
100 114 132
106 119 137
104 118 136
101 114 132
102 116 134
100 114 132
99 112 130
101 114 131
97 110 127
90 102 117
67 76 88
45 51 59
40 46 53
38 43 50
36 41 47
41 47 54
39 44 51
28 32 37
16 19 22
15 17 20
13 14 17
8 9 11
2 3 3
6 7 8
6 7 8
13 15 17
17 20 23
24 27 31
42 48 55
67 76 88
87 98 113
99 113 130
109 125 145
126 143 165
133 151 175
143 162 186
150 170 196
159 179 206
159 181 210
168 190 218
176 201 232
182 206 238
181 205 237
178 202 233
178 203 235
179 204 236
180 204 236
176 200 230
176 199 229
167 190 220
169 192 223
165 187 216
158 179 207
151 172 198
146 165 189
143 163 188
138 156 180
127 145 167
118 134 155
118 133 154
114 129 149
106 120 139
100 113 132
95 108 125
91 103 119
79 90 104
71 80 93
54 62 72
37 42 49
28 31 36
26 30 35
40 46 53
52 60 69
57 65 75
63 71 82
72 81 94
76 86 100
78 89 102
69 78 90
63 72 84
66 74 86
67 76 89
68 78 90
65 74 86
66 76 87
70 80 92
79 89 103
82 93 107
83 94 108
87 99 114
88 100 116
96 108 125
108 123 142
123 140 162
140 160 185
150 171 197
154 174 201
160 182 210
164 186 215
170 193 223
177 201 232
187 212 245
188 215 249
195 220 254
193 219 253
190 217 251
192 217 251
191 217 252
192 218 252
188 213 246
183 208 239
173 196 226
160 183 212
153 174 201
154 175 203
154 174 201
146 165 190
138 157 182
132 149 172
118 134 155
99 113 131
87 99 115
90 103 119
103 117 136
115 131 151
125 142 165
135 154 178
143 163 188
146 165 191
150 170 197
152 173 201
157 178 205
164 186 215
172 194 223
178 202 235
183 208 242
192 218 252
193 218 251
192 218 251
193 219 254
189 216 252
191 216 250
188 214 247
191 216 248
189 214 247
189 215 250
192 218 251
189 215 248
187 212 245
187 212 244
184 208 239
177 202 234
168 191 220
161 182 210
152 173 200
142 161 186
124 141 164
117 134 156
122 138 159
119 134 155
101 115 133
86 98 113
76 86 99
67 76 88
54 61 71
38 44 51
30 35 40
34 38 44
33 38 44
35 39 46
24 27 32
19 22 25
21 24 28
15 17 20
16 18 21
26 30 34
33 37 43
33 37 43
32 36 42
35 40 45
27 31 35
23 27 31
19 22 26
19 21 25
15 17 20
13 14 17
25 29 33
38 44 50
44 51 59
50 57 66
47 54 62
129 146 168
121 137 159
109 124 143
99 112 130
100 113 131
100 113 131
99 113 131
102 116 134
100 113 130
100 114 132
103 117 134
104 118 136
104 118 137
106 120 139
106 120 139
107 121 140
112 127 147
114 130 151
122 138 160
139 158 183
156 176 203
167 190 220
175 198 228
182 206 238
178 203 235
177 201 232
179 203 233
178 202 234
177 201 233
181 205 236
179 203 235
183 208 240
184 209 243
188 213 246
190 216 249
193 219 253
191 217 252
194 220 254
186 212 245
183 207 240
177 201 233
170 192 221
154 175 203
146 166 192
155 176 204
167 189 218
174 197 228
181 206 238
185 211 244
191 217 250
191 217 252
192 217 251
192 218 252
193 220 254
195 220 253
191 216 250
187 213 246
188 212 244
183 208 240
174 198 230
165 188 217
154 175 202
137 155 179
116 131 151
89 100 116
73 83 97
93 106 123
115 130 150
128 145 167
136 155 179
145 164 189
150 171 197
152 171 197
145 165 191
143 163 188
144 163 189
141 161 187
148 168 195
155 176 203
159 181 209
161 182 210
161 182 210
166 189 218
175 198 228
179 202 233
178 201 232
176 200 232
179 204 236
180 205 237
177 202 233
174 198 228
173 196 227
171 193 223
166 188 218
162 184 213
156 177 204
146 166 193
139 158 182
120 137 158
101 114 131
85 97 112
71 80 92
58 66 77
49 56 64
39 44 51
32 36 42
23 26 30
14 16 19
9 11 12
8 9 10
6 7 8
17 19 22
29 33 39
45 51 59
61 70 80
72 82 95
75 86 99
75 85 98
73 84 97
74 84 97
74 84 97
75 86 99
76 86 100
72 82 95
69 78 90
64 73 84
57 65 75
57 65 75
58 66 76
54 62 71
53 61 70
60 68 79
72 82 94
75 85 98
74 84 97
73 83 96
74 84 98
80 91 105
93 106 122
112 127 147
122 138 159
136 154 178
147 166 192
156 177 204
160 181 210
167 189 218
173 196 226
178 201 233
178 202 234
176 200 232
185 209 241
184 208 241
185 210 242
186 210 242
188 213 246
188 215 249
194 220 255
192 217 251
193 219 254
192 217 251
189 215 248
185 210 242
182 207 240
181 206 238
181 206 238
180 204 236
178 203 235
182 207 240
189 213 245
184 208 241
185 210 243
188 213 246
193 218 250
189 215 248
191 217 252
189 214 247
190 216 251
191 217 250
190 216 250
193 219 253
194 220 255
193 219 254
195 221 255
193 219 253
192 218 252
194 219 252
190 216 251
187 213 248
179 204 237
176 200 233
167 191 221
160 181 209
152 172 200
143 163 188
141 159 183
137 156 180
142 162 187
140 160 185
140 158 182
136 155 179
136 154 178
138 157 182
136 156 181
136 154 178
133 151 175
129 147 170
121 137 159
111 127 148
110 124 144
108 123 142
103 117 134
99 111 128
89 101 116
81 92 105
75 85 98
70 79 91
64 73 84
61 69 80
61 69 79
56 64 75
46 52 61
46 53 61
48 55 64
56 64 74
63 71 83
69 79 92
61 69 80
58 66 76
45 51 59
40 46 54
26 29 34
8 9 11
3 3 3
0 1 1
3 3 4
10 11 13
22 25 29
39 44 51
55 62 72
76 86 99
94 107 123
107 122 141
112 127 147
113 128 148
121 138 159
129 146 169
136 154 177
137 155 179
137 156 180
144 164 189
143 162 187
138 157 181
147 167 194
152 174 201
148 169 196
145 165 192
144 164 189
143 162 187
142 161 186
138 156 181
131 149 173
122 138 160
125 142 164
127 144 167
116 132 153
117 132 152
119 135 156
121 138 159
117 133 154
107 122 142
100 113 130
98 111 129
89 101 117
76 86 99
55 63 73
36 41 48
20 23 26
30 34 40
49 56 65
63 72 83
78 88 101
85 97 112
94 106 123
97 110 127
99 113 130
95 108 125
89 101 116
84 96 111
91 102 118
91 104 120
93 106 123
91 104 120
98 111 129
103 117 136
112 127 147
115 130 150
109 124 143
109 124 143
113 129 149
114 130 150
119 134 155
124 140 162
124 140 162
127 144 166
135 153 177
143 162 187
150 170 196
153 174 201
165 186 213
170 194 225
179 203 235
185 210 243
191 216 249
192 219 255
191 217 251
192 218 252
193 219 252
193 220 255
193 219 254
189 215 249
188 213 245
178 202 234
174 197 227
167 191 222
173 197 228
172 194 224
165 188 217
159 181 210
158 179 207
147 167 194
142 162 187
142 161 187
142 161 185
138 155 178
139 158 182
137 155 178
142 161 186
146 166 192
154 175 203
160 182 211
170 194 225
179 203 234
187 212 246
192 217 250
193 220 255
192 218 253
193 219 253
194 220 255
190 216 250
187 212 246
188 213 245
182 207 240
179 204 236
179 203 235
179 202 234
178 201 233
177 201 233
179 203 235
177 201 234
171 194 225
164 185 213
158 179 207
147 167 192
131 149 173
117 133 154
118 134 155
116 132 152
104 119 138
88 100 115
73 82 95
60 68 78
51 58 68
52 59 68
64 73 85
68 78 90
59 67 77
57 65 75
56 64 74
59 67 78
53 60 70
42 48 55
29 32 37
20 22 26
13 15 17
11 13 15
10 11 13
13 14 17
14 16 18
18 21 24
23 26 30
30 33 38
35 40 47
40 45 52
43 49 56
45 51 59
44 50 58
52 60 69
59 67 77
65 73 85
70 79 92
86 98 113
75 86 99
66 75 87
70 79 90
60 68 78
60 69 80
44 50 58
34 39 45
24 27 31
20 23 27
19 22 26
26 30 35
33 38 44
40 45 53
42 48 56
39 44 51
39 44 51
53 61 71
72 82 95
93 106 123
109 123 142
122 139 161
132 150 173
139 157 181
147 167 194
152 174 201
157 177 204
160 182 211
171 193 223
173 196 227
177 201 231
177 201 233
180 204 236
183 208 240
188 213 246
189 216 250
192 219 253
192 218 253
191 217 251
188 212 245
178 203 235
172 195 226
163 185 213
146 166 192
139 159 184
149 169 195
164 186 214
173 197 228
184 209 241
191 216 249
190 216 249
191 216 249
192 217 250
188 213 246
185 210 243
185 210 242
178 202 233
174 198 229
171 195 225
164 187 217
149 169 195
128 146 170
111 126 145
83 94 108
83 94 109
95 107 123
106 121 139
118 134 155
127 145 167
137 156 181
142 161 186
142 161 186
138 157 181
137 155 178
135 154 178
137 156 181
140 159 183
139 158 181
139 158 183
146 165 189
153 173 198
156 177 203
165 187 217
169 191 220
171 194 224
176 200 231
177 201 232
175 198 228
168 191 220
168 191 221
165 187 215
154 175 202
148 168 194
144 163 189
141 160 184
131 149 172
121 137 159
110 125 145
97 111 129
86 98 114
79 90 104
66 75 87
59 67 78
50 57 67
40 45 52
30 34 40
28 32 37
22 25 29
6 7 8
10 12 14
18 20 23
30 34 39
47 54 63
57 65 76
60 69 79
62 70 82
62 70 82
61 70 81
58 66 76
55 62 72
54 61 71
52 59 68
53 60 70
47 53 61
42 47 55
36 40 47
36 41 48
39 45 51
44 49 57
50 57 66
57 65 75
63 72 84
69 78 91
68 78 90
65 74 86
77 87 100
94 107 123
110 125 144
124 141 164
136 154 177
146 166 192
156 176 202
162 184 213
168 192 223
176 200 231
178 203 235
183 208 239
186 210 242
184 209 242
183 208 242
182 207 240
187 212 245
185 211 245
185 211 244
191 215 248
190 217 251
192 218 252
192 218 253
192 217 251
194 220 255
193 218 251
191 217 252
185 210 243
183 208 242
183 207 239
177 201 233
177 201 232
180 204 236
183 208 241
186 210 242
186 212 245
188 214 248
191 217 252
192 217 251
192 218 252
192 219 253
192 218 253
188 213 246
190 216 250
191 218 252
194 220 254
195 221 255
191 217 251
194 220 254
192 218 253
188 213 246
185 210 243
176 200 232
172 194 223
166 188 217
158 180 208
152 172 199
150 169 195
146 166 192
149 169 195
155 177 205
155 176 204
151 171 198
151 171 198
147 167 193
142 161 187
143 162 186
146 166 191
149 169 196
148 167 192
140 159 184
132 149 172
121 138 161
118 133 154
112 126 146
101 114 132
93 105 122
85 97 112
76 86 99
74 85 98
73 83 96
69 79 91
63 71 83
59 67 77
54 62 71
47 54 62
47 53 62
50 57 66
62 70 80
67 76 88
68 77 89
71 81 94
71 81 94
69 78 91
59 68 78
49 55 64
37 42 49
26 30 35
13 14 17
7 8 9
15 18 20
24 27 32
29 33 39
44 50 58
56 64 74
65 74 86
69 79 91
70 80 92
68 77 89
72 82 95
79 89 103
85 96 110
91 103 119
93 106 124
99 112 129
93 106 123
88 99 115
85 97 113
94 106 123
100 113 130
104 118 136
112 127 146
111 126 146
101 115 133
99 112 129
91 104 121
90 102 118
84 96 110
85 97 112
92 105 121
106 120 138
109 124 143
109 124 144
106 120 138
106 119 137
104 118 136
97 110 126
72 82 95
47 53 61
24 27 32
16 18 21
40 45 52
62 70 81
69 78 90
72 82 95
83 94 108
98 111 128
110 125 146
115 131 151
114 130 150
110 124 144
114 129 150
118 134 155
120 136 157
120 137 158
120 136 157
126 143 166
132 150 173
138 156 181
143 163 189
147 167 194
154 175 202
156 177 205
160 182 211
159 182 211
154 175 203
155 176 203
149 169 195
142 162 188
140 158 182
136 154 178
138 157 182
146 165 191
151 171 198
165 188 217
176 199 230
181 205 236
183 208 241
189 214 248
194 220 253
195 221 255
192 218 252
190 217 252
189 215 250
192 218 253
192 217 251
192 218 253
190 216 251
191 215 248
187 213 246
187 212 244
186 210 243
182 208 241
180 204 236
186 210 242
184 208 240
185 210 243
186 211 244
182 207 240
183 208 240
179 203 235
178 202 234
169 193 223
175 198 228
181 206 238
185 210 243
189 214 248
193 220 254
194 220 254
192 219 254
191 217 251
190 215 248
184 208 240
180 204 235
175 199 231
171 194 224
165 188 218
159 181 209
161 182 210
155 176 204
155 176 203
149 169 196
143 163 189
143 162 187
136 154 178
126 143 165
115 130 151
97 110 127
85 96 111
86 98 113
87 99 116
81 92 106
80 91 105
73 83 97
74 84 97
83 94 109
109 124 144
123 140 161
128 146 169
123 140 162
115 131 151
110 125 143
98 111 129
85 96 112
78 88 102
66 75 86
59 67 77
50 57 67
47 53 62
44 50 57
37 43 49
31 36 42
24 28 32
21 24 28
28 31 36
30 34 39
28 32 37
22 25 29
25 29 33
22 25 30
21 23 27
13 14 17
12 13 16
24 28 32
39 45 52
47 53 62
39 45 52
34 38 44
23 26 31
15 17 20
13 15 17
23 26 30
32 36 42
32 37 43
30 34 39
27 31 36
21 24 28
15 17 20
14 16 19
14 16 19
7 9 10
5 5 6
12 14 16
22 25 29
33 37 43
54 61 71
73 83 96
84 95 110
96 110 127
115 130 150
129 147 170
139 158 183
145 164 190
149 170 197
152 172 199
160 181 209
166 189 219
177 202 234
186 212 246
194 219 252
192 218 253
192 218 251
189 215 248
188 213 247
182 207 239
179 202 233
175 199 230
169 192 223
158 180 208
149 168 194
138 158 183
152 173 200
165 187 215
170 193 223
174 197 227
177 201 232
177 201 233
175 199 230
174 197 228
174 197 227
166 189 218
160 181 209
149 170 197
143 163 188
136 155 179
125 142 163
108 123 143
90 102 119
75 85 98
80 91 105
89 100 116
97 110 126
97 110 128
105 118 136
111 126 146
117 133 154
122 138 159
118 134 156
116 132 153
108 122 141
110 125 144
116 131 151
125 142 164
128 145 168
133 151 175
137 155 179
142 161 187
152 172 199
153 174 202
153 173 199
151 171 197
146 166 192
139 158 183
137 155 179
131 148 172
124 141 163
121 137 159
122 138 160
121 138 159
113 128 149
103 117 135
104 118 137
104 118 136
100 113 132
93 106 123
86 98 113
72 82 95
59 67 77
47 54 62
40 45 52
40 45 52
33 37 43
22 25 29
9 10 12
6 7 8
14 16 19
26 30 34
34 39 45
45 51 59
51 58 67
56 64 74
59 67 78
58 65 76
40 46 53
34 39 45
25 28 33
18 20 24
15 17 20
13 15 18
12 14 16
18 20 23
32 36 42
50 57 66
63 71 82
75 86 100
84 95 109
82 93 107
79 90 104
86 97 113
98 111 129
112 127 148
121 138 159
130 147 170
137 155 180
143 162 188
146 166 191
149 169 195
154 176 203
165 187 217
174 198 230
184 208 240
185 210 243
188 212 243
189 214 247
189 214 248
191 216 249
189 215 249
187 213 246
192 219 253
192 218 253
192 218 252
194 220 254
190 216 250
192 218 252
193 219 253
191 218 253
192 218 252
193 219 253
191 217 251
189 214 248
189 214 246
183 208 240
182 207 240
186 212 245
190 215 249
193 219 253
194 220 253
194 220 255
191 216 250
191 217 250
188 213 246
188 213 246
184 209 242
184 209 241
185 211 244
186 212 246
192 218 251
192 218 252
191 216 249
188 213 246
177 201 232
167 189 219
163 184 213
164 185 213
158 179 207
154 175 203
153 174 201
151 171 198
149 169 196
144 164 189
146 165 190
140 159 184
140 159 184
143 162 187
143 163 188
143 162 188
142 161 186
140 159 185
141 160 185
135 152 175
124 141 163
121 137 159
115 130 150
107 122 141
101 115 133
97 110 127
90 102 118
82 93 107
83 95 110
87 98 114
79 89 103
70 79 90
64 73 85
63 71 82
61 69 80
61 70 80
52 59 68
47 53 61
45 51 60
52 60 69
58 66 77
53 60 69
42 48 56
46 52 60
51 58 67
52 59 69
47 53 61
39 44 51
27 30 35
15 17 20
9 10 11
11 12 14
14 16 18
20 22 26
26 30 35
37 42 49
44 50 58
43 49 57
43 49 56
47 54 62
53 61 70
58 66 77
66 75 87
73 83 96
76 86 100
76 86 99
75 84 97
73 83 96
73 83 95
75 86 99
70 80 93
67 76 88
67 76 89
68 77 89
67 77 89
67 77 89
70 79 91
72 82 95
79 90 104
90 102 118
95 108 125
100 113 131
99 112 130
98 111 128
95 108 125
89 100 116
74 84 97
51 58 67
23 26 31
15 17 20
33 37 43
53 60 69
64 73 85
67 77 89
75 85 98
89 101 118
102 116 134
104 118 137
105 120 139
115 131 151
124 141 163
127 144 166
127 144 166
134 152 176
148 167 193
157 178 205
163 185 215
166 187 216
164 186 215
168 190 220
178 202 233
181 206 238
182 207 240
184 209 242
185 210 243
185 209 241
185 209 241
182 205 236
173 197 228
169 192 222
167 189 217
157 180 209
157 177 205
167 189 218
173 197 228
180 204 236
184 209 242
186 212 245
193 217 250
191 218 252
194 220 253
195 221 255
192 218 251
190 216 249
190 217 251
191 216 249
191 217 250
190 216 249
194 219 253
191 218 253
191 217 250
192 219 254
192 218 252
194 219 253
192 218 253
192 218 252
192 218 252
193 219 254
193 220 255
191 216 250
192 219 253
193 219 253
191 217 251
193 219 252
192 218 253
190 216 249
188 213 245
187 211 244
181 206 238
179 204 237
179 204 237
178 202 234
170 193 223
153 174 202
144 163 187
134 153 177
129 146 169
127 144 166
124 141 162
127 145 168
126 143 166
124 140 161
121 137 158
119 135 156
113 128 148
102 116 134
97 110 128
102 116 133
104 118 137
109 123 143
109 124 144
121 138 159
130 147 170
134 152 175
138 157 181
137 157 182
149 169 195
157 178 205
161 183 212
162 184 212
160 181 209
152 172 199
138 157 181
124 141 163
115 131 152
108 122 140
97 111 128
84 96 111
78 89 103
69 79 91
56 64 74
51 58 67
54 61 70
56 65 75
68 78 90
77 88 102
80 90 104
79 90 104
80 91 105
72 82 95
59 67 77
39 44 50
15 17 19
12 14 16
31 35 40
21 24 28
8 9 11
7 7 9
11 13 15
17 19 22
20 23 26
29 33 38
34 39 45
35 39 45
32 36 41
27 31 35
18 21 25
15 17 20
17 20 23
19 22 25
18 21 24
13 14 17
6 7 8
14 16 19
25 29 33
36 41 48
48 55 64
65 73 85
86 97 112
97 110 127
109 124 144
120 136 158
129 146 168
138 157 182
152 172 198
168 190 219
178 202 235
183 208 241
192 217 251
191 217 251
193 220 255
190 216 250
192 218 252
191 217 250
186 211 244
177 200 231
169 191 220
165 186 214
158 179 206
148 168 194
139 157 181
144 163 189
149 170 197
154 175 202
162 183 212
163 186 215
164 186 215
161 182 210
154 175 202
147 166 191
135 154 178
130 148 172
123 140 162
109 124 144
101 114 131
94 106 123
89 101 116
83 94 109
84 96 111
90 102 117
87 99 115
85 96 111
87 99 115
87 99 115
97 110 127
102 116 134
105 119 138
104 118 136
108 123 142
109 124 143
115 131 151
123 139 160
122 138 159
121 137 158
125 142 164
124 140 162
125 142 165
135 153 177
137 156 180
134 152 175
123 139 161
109 124 143
95 108 124
84 95 110
78 88 102
75 86 100
78 88 102
75 84 97
69 78 90
72 82 95
81 92 106
85 96 111
79 90 105
74 84 97
73 83 96
69 78 90
59 67 77
45 52 60
34 38 45
24 28 32
15 17 20
8 9 10
5 6 7
5 6 7
9 10 11
15 17 19
14 16 19
12 13 16
15 17 19
21 24 28
21 24 28
20 22 26
21 23 27
13 15 17
12 13 15
15 17 20
13 14 17
10 12 14
6 7 8
13 14 17
32 36 42
53 60 69
69 78 90
85 96 112
95 108 125
105 118 136
109 124 143
120 136 157
128 146 169
132 149 172
136 155 180
144 164 189
147 167 194
154 175 203
160 181 208
162 183 210
163 185 214
165 189 219
171 195 227
181 204 235
186 211 243
185 211 244
184 209 241
188 214 248
188 214 247
190 215 248
188 215 250
191 215 248
193 219 253
191 218 252
191 217 252
194 220 253
194 220 255
190 216 251
193 218 252
194 221 255
192 219 253
194 219 252
191 217 251
192 218 253
193 219 253
193 219 254
192 218 251
194 219 252
190 216 250
193 218 251
191 217 251
194 220 254
190 216 250
189 215 248
188 214 247
191 217 251
192 217 251
192 217 249
192 218 252
191 217 251
193 218 251
191 217 252
188 214 247
183 207 238
173 197 229
166 189 218
164 186 215
165 187 215
165 187 216
162 183 211
159 180 208
156 178 206
157 178 205
152 174 201
151 172 199
144 164 189
135 153 177
132 150 174
134 151 175
135 153 176
130 148 172
121 138 159
123 139 160
118 135 157
118 134 155
118 133 153
110 125 145
106 120 138
104 118 137
100 114 132
97 110 127
97 110 127
93 106 123
88 100 116
86 98 113
81 92 107
74 84 98
66 75 86
60 68 79
57 65 75
55 62 72
63 71 83
70 80 93
69 79 91
65 74 86
58 66 76
43 49 57
35 40 46
31 35 40
26 30 34
26 29 33
13 15 17
8 9 10
14 16 19
12 14 16
8 10 11
5 6 7
7 9 10
10 12 14
12 14 16
20 23 26
27 30 35
30 35 40
32 36 42
44 50 58
51 57 66
58 66 76
65 74 86
74 84 97
83 95 110
95 108 125
95 108 125
88 100 116
76 87 101
66 75 87
61 69 80
56 63 73
49 56 65
48 54 62
49 56 65
63 71 82
72 82 95
74 84 98
75 85 98
72 83 96
78 88 101
76 87 101
76 86 100
61 70 81
50 57 66
29 33 38
18 20 24
29 34 39
44 50 58
53 61 70
63 72 83
73 83 96
83 94 110
98 111 128
100 114 132
102 116 134
106 120 139
118 133 154
124 141 163
127 145 169
129 147 170
136 154 177
148 168 194
162 183 212
173 195 225
177 200 231
175 198 229
170 194 225
176 200 231
178 202 233
177 201 233
178 203 234
182 206 239
187 212 245
188 215 249
186 212 246
184 208 241
179 204 236
175 200 232
174 198 228
174 198 228
177 201 231
178 202 233
177 201 233
182 206 238
188 212 244
190 216 249
193 218 251
191 217 250
193 219 254
193 220 255
192 217 251
193 219 254
192 218 251
194 219 252
192 217 251
192 218 251
191 217 250
190 215 248
188 213 246
187 212 244
187 212 245
184 210 244
183 207 240
178 203 236
182 206 239
185 210 243
185 211 244
190 216 250
190 217 251
189 216 251
190 216 250
189 215 249
185 209 242
179 203 234
172 196 227
172 196 226
170 192 221
166 189 218
166 188 217
161 183 213
153 173 200
147 167 193
143 163 189
136 154 178
135 152 175
136 155 179
136 155 179
133 150 173
134 152 175
131 149 172
132 150 172
131 148 171
125 142 164
124 141 163
125 142 164
132 150 174
142 161 186
148 168 194
150 171 197
159 182 211
167 190 220
167 190 220
168 191 221
171 194 225
172 195 225
171 195 225
169 192 222
169 191 221
163 185 214
157 178 206
148 168 194
140 158 183
138 157 181
134 152 176
131 149 172
121 137 159
111 126 145
94 107 123
80 91 105
73 83 96
80 91 105
92 104 120
98 111 129
103 116 134
103 117 135
99 112 129
85 96 112
65 73 85
42 47 55
23 26 31
8 10 11
25 28 32
44 50 57
14 16 18
15 17 19
16 18 21
23 26 30
25 28 33
29 33 38
41 47 54
47 54 62
48 54 63
46 53 61
42 48 55
39 44 51
39 45 52
32 37 42
21 23 27
11 13 15
6 7 8
17 19 22
33 38 44
48 54 63
64 73 84
79 89 103
86 98 114
96 108 125
107 122 141
125 141 162
134 152 175
138 156 180
143 163 189
158 180 208
172 196 227
183 208 240
189 214 247
190 215 247
195 221 255
193 219 254
193 219 252
190 216 250
186 211 243
187 212 245
183 206 237
172 195 226
167 189 217
157 178 206
143 163 188
137 155 178
144 164 190
155 175 202
159 181 210
159 181 208
158 178 205
150 171 198
146 166 192
141 160 184
132 150 174
127 144 166
115 131 151
103 117 136
96 108 124
94 107 123
94 107 123
88 100 116
86 98 114
80 91 105
76 86 99
76 87 100
77 87 101
76 87 101
76 86 100
82 93 107
88 100 116
95 108 124
102 115 133
103 116 134
102 116 135
105 119 138
106 121 140
111 126 146
108 123 142
106 120 138
99 112 130
98 111 128
100 114 132
100 114 131
96 108 125
88 100 116
76 86 99
63 71 82
52 59 68
50 56 65
46 52 61
50 56 65
52 59 68
54 61 71
57 65 75
57 64 74
54 61 70
53 60 69
56 64 74
53 60 70
39 44 51
30 34 39
22 25 29
12 14 16
10 11 13
10 11 13
8 9 10
13 15 18
19 21 25
21 24 28
23 26 30
21 24 28
16 18 21
12 13 15
10 11 13
6 7 8
4 5 6
8 9 10
14 16 18
27 31 35
24 27 31
8 9 10
10 11 13
23 26 30
45 50 58
67 76 88
87 98 113
99 111 128
110 124 143
121 137 159
127 144 167
136 154 179
145 164 189
150 170 197
148 169 195
155 176 203
157 178 206
167 188 217
171 195 225
172 196 226
175 198 228
174 197 228
175 199 231
179 203 235
177 201 233
180 205 237
179 204 236
178 202 233
179 203 235
185 210 242
189 214 247
192 217 251
192 217 250
190 216 250
192 217 250
187 212 245
188 212 245
188 214 248
189 215 249
189 216 250
192 219 253
195 221 255
195 220 254
196 221 254
190 218 253
194 220 255
191 217 251
194 220 254
193 219 253
188 214 248
193 218 250
192 218 253
189 215 250
193 219 253
191 217 251
190 217 251
188 214 248
183 209 243
187 213 245
188 213 245
184 210 244
183 207 238
179 203 234
175 199 229
171 195 225
172 195 225
170 193 223
166 189 218
162 185 214
166 187 216
161 182 210
156 177 204
158 179 207
160 181 209
159 180 207
156 176 203
152 172 199
149 169 196
149 169 194
147 167 195
151 172 199
159 180 207
159 181 210
156 177 205
147 167 194
145 164 190
141 160 186
139 158 182
134 152 175
135 153 178
131 149 173
121 137 158
105 120 139
91 103 119
83 94 109
83 94 108
80 90 105
86 98 113
82 93 109
84 95 110
84 96 111
85 96 111
87 99 114
83 95 110
86 97 112
86 96 111
89 101 117
86 98 113
75 85 98
68 77 89
54 62 72
44 50 57
26 30 34
16 18 21
25 29 33
30 34 39
28 32 38
33 37 43
33 38 44
30 34 39
35 40 46
34 38 45
26 29 34
22 25 29
21 23 27
22 25 29
20 23 27
23 26 30
39 44 51
58 66 76
68 78 90
70 80 93
73 83 96
72 82 95
63 71 82
54 61 70
41 47 54
33 37 43
27 30 35
31 35 41
38 43 50
37 43 49
36 40 47
26 30 34
21 24 28
20 22 25
19 22 25
23 26 30
23 26 30
25 28 33
38 43 50
53 60 70
64 73 84
72 82 96
81 92 106
82 94 109
85 96 112
95 108 125
100 114 132
103 116 133
104 117 135
113 127 146
125 142 165
136 154 178
149 167 192
152 172 198
155 177 205
157 179 208
159 180 208
164 185 214
160 182 211
157 178 205
155 176 203
157 177 204
164 186 215
173 194 222
171 194 224
170 193 223
178 202 234
184 209 242
187 212 245
186 211 243
183 208 241
184 209 240
179 204 236
181 205 236
180 204 236
182 206 238
185 209 240
183 209 242
186 211 243
191 217 250
191 217 251
190 217 252
193 219 252
193 219 252
193 219 253
190 217 252
194 219 253
195 221 254
187 212 244
190 215 249
188 214 248
188 214 248
193 219 254
194 219 252
194 220 255
191 217 250
193 219 252
186 212 246
189 215 248
183 208 240
181 204 235
175 199 231
180 205 236
180 205 238
177 202 235
175 199 231
172 195 226
166 189 220
167 190 219
164 186 216
162 184 214
159 180 208
151 172 200
152 172 198
150 170 197
149 170 197
153 174 201
151 171 196
143 161 186
133 150 174
133 150 173
133 151 175
140 159 184
143 161 186
148 168 193
150 169 194
151 171 197
149 170 196
150 170 196
156 177 204
158 180 209
169 191 220
172 196 227
176 200 231
177 201 232
175 199 231
177 201 232
178 202 234
180 205 238
180 205 238
182 207 239
181 205 238
176 199 230
174 196 225
167 190 219
161 182 210
152 173 200
146 166 192
143 163 188
139 159 185
139 158 182
133 151 175
131 148 171
119 136 158
114 129 149
122 139 161
136 154 177
139 157 181
132 150 174
128 146 168
118 134 156
91 104 121
66 76 88
40 46 53
28 32 37
9 10 12
23 26 30
44 50 57
25 29 33
28 32 37
32 37 43
43 49 57
56 63 73
70 80 92
80 90 104
85 95 110
85 96 111
86 97 112
79 90 104
69 79 91
53 61 70
38 44 51
18 21 25
8 9 10
24 27 31
48 55 63
73 83 96
91 103 119
100 114 131
109 124 143
117 133 154
119 135 155
122 138 159
128 144 165
136 153 177
145 164 190
153 174 201
162 183 211
167 190 219
175 199 230
182 206 237
186 210 243
189 215 249
193 219 252
195 220 253
190 216 250
193 219 254
192 218 252
190 215 248
185 209 241
177 201 232
166 188 217
145 165 192
141 159 184
152 173 200
157 178 204
151 172 199
146 165 190
140 159 184
133 152 177
130 147 169
122 139 161
114 129 150
108 122 141
101 115 132
96 109 126
92 105 121
97 109 126
99 112 130
102 116 134
101 115 132
94 107 124
81 92 106
75 85 97
69 79 91
63 72 83
72 82 95
80 90 104
86 97 112
86 97 112
86 97 112
89 101 117
85 97 112
84 95 110
83 95 110
82 93 108
79 90 103
69 78 91
60 68 79
58 67 77
65 73 85
65 74 86
60 68 78
49 56 65
38 44 51
29 33 38
27 31 36
31 35 40
36 40 46
43 49 57
47 54 62
46 52 60
42 48 55
34 39 45
29 33 38
16 18 21
9 10 12
18 21 24
30 35 40
43 48 56
43 49 57
37 42 48
33 38 44
28 32 37
33 37 43
34 39 45
31 35 41
23 26 30
18 20 23
20 22 26
17 19 22
13 15 17
11 12 14
15 17 20
16 18 21
14 15 18
17 19 22
20 23 27
31 35 41
34 39 45
42 47 55
57 66 77
77 87 101
96 109 125
109 124 143
122 138 159
127 143 165
132 150 173
140 159 185
141 161 186
149 169 195
156 177 204
161 183 213
167 189 218
168 191 220
169 191 220
176 200 230
173 196 226
168 191 222
166 189 219
170 193 224
176 200 232
178 202 234
179 203 234
184 209 242
186 210 243
186 210 242
183 208 240
184 209 241
183 208 241
182 207 240
182 207 240
185 209 241
182 207 240
183 207 239
184 209 242
187 212 245
190 216 250
191 218 252
194 219 252
192 218 252
191 218 253
194 220 253
193 220 255
193 218 252
192 218 253
192 218 251
191 217 250
191 217 250
193 218 251
186 212 246
189 214 247
188 214 248
188 213 247
186 210 242
187 213 246
186 211 245
183 208 242
180 204 236
184 208 241
182 208 241
185 210 242
184 210 243
180 204 235
171 195 226
167 190 220
167 189 217
163 185 214
163 185 213
160 181 209
158 179 207
151 171 198
145 165 191
144 164 191
146 166 192
152 172 198
158 179 208
171 193 223
177 201 233
182 205 237
178 203 235
175 198 229
166 189 218
159 181 209
150 171 197
148 168 195
144 163 189
136 154 178
124 140 162
114 129 149
102 116 134
93 106 123
85 97 112
98 111 129
106 121 140
118 133 154
123 141 163
125 141 163
125 142 164
123 140 162
121 137 159
119 135 156
114 128 147
110 126 145
109 125 144
105 119 137
94 108 125
90 102 118
85 96 110
70 80 93
43 49 57
25 28 33
19 22 26
27 31 36
33 37 43
39 44 51
38 43 49
33 37 43
31 35 41
34 39 45
40 45 53
42 48 55
43 49 56
38 43 50
41 47 54
44 50 57
48 54 62
39 44 51
31 35 41
23 26 31
22 26 30
26 29 34
22 26 30
25 28 32
22 25 29
17 20 23
21 24 28
19 21 25
13 15 17
10 11 13
6 7 8
7 8 10
13 15 17
25 29 34
36 41 48
43 49 57
56 63 73
76 87 101
93 106 122
99 113 131
105 120 139
113 128 147
114 130 150
114 130 151
112 127 147
111 126 146
112 127 146
115 131 152
124 141 163
131 150 174
141 160 185
150 171 197
158 180 208
156 177 204
146 166 192
137 155 180
134 152 176
132 149 172
129 146 168
129 147 170
132 150 174
140 159 184
149 168 193
147 166 192
152 174 202
165 188 218
175 199 229
183 207 238
184 209 242
189 213 246
183 208 240
181 205 236
179 202 233
177 201 232
175 199 231
177 201 232
181 205 237
180 203 234
183 207 239
185 209 241
190 215 248
189 214 248
190 216 249
194 219 251
193 219 252
191 216 250
190 216 250
191 216 250
191 217 250
188 214 248
184 209 242
184 209 242
186 211 244
187 213 247
193 220 254
193 219 253
193 219 253
193 220 254
191 217 252
189 214 246
189 214 247
183 209 242
180 205 237
178 203 235
176 201 233
177 201 232
181 205 237
179 203 234
179 203 234
177 201 233
174 198 228
167 189 219
158 179 206
155 176 204
158 179 207
156 178 207
155 177 205
149 169 196
148 168 194
146 165 191
144 163 188
144 163 188
141 160 186
132 150 174
129 146 169
127 143 164
132 150 174
143 162 187
152 173 200
167 190 220
174 198 228
183 207 239
186 211 243
190 215 248
188 213 246
191 216 250
189 214 247
188 214 248
186 211 243
188 214 248
186 212 246
184 210 243
180 204 237
176 199 230
172 195 224
163 185 213
159 180 208
162 183 211
164 185 213
160 182 211
154 175 202
148 169 196
146 165 191
147 167 193
152 172 198
155 176 202
158 179 208
162 184 213
158 180 208
152 172 199
142 161 185
118 134 155
95 108 125
79 89 103
58 65 76
35 40 47
17 19 23
22 25 29
43 49 57
52 59 69
62 71 82
74 84 97
86 98 113
99 113 131
106 120 138
109 124 143
105 119 138
103 117 136
94 107 124
72 81 94
53 61 70
37 42 49
19 22 26
13 15 17
32 36 41
45 51 59
60 69 79
79 90 104
98 111 129
115 131 151
126 144 166
134 152 175
140 159 184
144 163 187
151 170 196
153 174 201
157 177 204
158 180 208
161 184 213
168 191 221
171 195 226
177 201 232
182 208 242
187 213 248
192 218 251
194 220 253
193 219 252
192 217 251
194 220 255
190 214 247
177 201 233
164 186 215
152 173 201
142 161 187
138 158 183
135 154 178
132 150 173
128 145 168
123 140 161
124 141 163
127 144 166
125 143 166
120 136 157
113 129 149
104 117 135
96 110 128
96 108 125
98 111 128
102 115 133
105 119 137
112 127 147
113 128 148
103 116 134
94 107 124
83 94 109
71 80 93
65 74 86
59 67 78
61 69 79
65 74 86
67 76 89
68 78 90
75 86 99
82 93 108
85 97 113
84 95 110
79 89 103
74 84 97
74 83 96
69 79 91
73 83 95
72 82 95
72 82 94
70 79 91
62 70 81
55 62 72
55 62 71
57 64 75
53 60 70
55 62 72
54 61 70
49 56 65
47 53 61
38 44 51
26 30 35
8 9 11
14 17 19
28 32 37
39 44 51
51 58 67
63 72 83
67 76 88
71 80 93
74 84 97
77 87 101
68 78 90
55 63 73
53 60 70
45 51 59
40 45 52
31 35 40
33 38 44
40 45 53
40 46 53
50 56 65
57 65 76
66 75 87
70 79 92
76 87 101
82 93 107
93 106 122
106 120 139
117 133 153
127 143 165
133 150 173
138 156 180
139 158 182
143 163 189
150 170 196
155 176 204
162 183 212
164 186 215
164 186 215
165 187 216
165 188 218
171 193 223
172 196 226
173 196 227
172 196 227
172 196 227
178 201 231
179 204 236
179 203 235
182 206 238
178 201 232
177 200 231
173 197 228
172 196 228
170 193 223
170 192 221
173 196 226
172 196 227
180 204 235
180 204 237
180 205 237
182 207 240
185 210 244
188 213 245
187 211 244
187 212 245
188 215 249
189 216 250
192 218 252
194 220 254
194 220 254
191 216 249
196 221 254
193 219 253
194 219 251
191 217 250
190 215 248
191 217 252
191 218 253
192 217 251
191 218 253
192 217 251
192 219 254
192 218 253
189 216 251
191 217 251
189 216 251
192 218 252
192 218 253
191 216 249
185 210 242
179 203 236
177 201 232
172 196 226
172 194 223
165 187 217
162 184 212
154 175 202
148 167 193
145 166 194
149 169 195
152 172 199
156 177 205
158 180 209
166 189 218
172 196 226
175 198 229
176 200 231
170 194 225
159 180 208
146 165 190
133 151 174
124 140 161
115 130 151
107 121 140
101 115 134
110 125 145
113 128 147
111 127 147
115 130 151
120 137 158
123 139 161
126 143 166
129 147 171
139 159 184
145 165 191
147 166 192
143 163 188
142 161 186
129 146 169
120 136 157
106 120 139
95 108 125
85 97 112
79 90 103
68 78 90
51 58 67
36 40 47
18 20 24
11 13 15
14 16 18
12 14 16
12 14 17
19 21 25
26 30 35
33 38 44
42 48 56
41 46 54
43 48 56
45 51 59
45 51 59
40 45 53
36 41 47
24 28 32
15 17 20
5 6 7
22 25 29
43 48 56
51 58 67
51 58 67
50 57 66
48 55 64
48 54 62
49 55 64
45 51 59
34 39 45
29 33 39
26 30 35
24 28 32
38 43 50
57 65 75
76 86 99
89 101 117
108 123 142
116 132 153
120 135 156
123 139 161
125 142 165
131 149 172
134 152 176
127 144 166
123 140 163
127 144 167
137 155 179
141 160 185
149 169 195
148 168 195
148 168 195
150 170 196
143 163 189
143 162 187
137 156 181
129 147 170
121 137 158
113 129 150
110 125 144
111 125 145
115 130 150
113 128 147
124 141 163
139 158 182
154 176 203
162 184 212
169 192 222
176 201 233
183 208 241
186 211 244
184 209 241
182 206 238
174 198 230
173 197 228
176 199 229
172 194 224
168 191 221
169 191 221
170 194 224
173 197 227
176 201 233
182 206 237
186 211 243
185 210 243
188 213 244
182 206 238
175 200 231
176 201 233
171 194 225
174 197 228
180 203 234
183 208 241
187 213 247
194 220 254
195 220 254
193 219 253
190 217 251
192 218 252
192 218 252
192 218 253
193 218 251
191 217 250
189 216 250
189 215 249
193 219 252
195 221 254
193 219 252
187 214 250
187 213 247
184 209 242
180 204 236
174 197 228
166 188 216
159 180 207
156 176 204
154 175 203
155 176 204
154 175 203
154 174 200
148 168 195
147 167 193
145 165 190
139 159 184
132 151 175
126 143 166
123 140 163
136 155 179
153 173 199
164 186 214
175 199 229
182 206 239
185 210 242
184 209 242
188 214 247
189 216 250
193 219 253
194 220 253
192 219 254
193 220 254
192 218 252
191 216 249
186 212 246
182 207 239
175 197 227
165 188 218
160 181 210
160 181 209
159 180 208
157 177 204
156 177 205
157 178 206
161 183 211
168 190 219
171 193 223
168 192 222
171 193 223
173 197 227
168 191 220
154 175 202
139 157 182
121 137 158
99 112 129
81 92 107
69 79 91
58 66 76
41 47 54
20 23 27
74 84 97
83 94 109
87 99 114
92 105 121
100 113 130
106 120 138
107 121 140
106 120 139
108 122 141
101 115 134
93 106 123
72 82 95
46 53 61
28 32 38
16 18 22
9 10 12
4 5 6
19 21 25
36 41 47
50 57 65
63 71 81
81 92 106
97 110 127
109 124 143
120 136 157
130 148 172
144 163 188
159 180 207
164 186 215
166 189 219
170 193 223
175 198 228
181 204 235
185 210 243
186 210 242
186 211 244
190 216 250
192 218 252
192 218 252
195 220 254
193 218 252
191 216 250
188 214 248
183 208 241
180 203 233
169 192 223
164 185 213
154 175 202
140 159 183
127 144 167
122 139 161
119 136 157
121 136 157
121 137 159
114 130 150
116 132 152
104 118 136
97 110 128
99 111 128
100 113 131
108 123 142
111 126 146
111 126 146
110 124 144
104 118 135
99 113 131
96 109 126
87 99 115
76 87 101
68 77 89
57 64 74
47 53 61
49 55 64
56 64 74
67 76 88
76 87 100
88 100 115
100 114 131
106 120 139
109 124 143
106 120 139
102 116 134
102 116 135
97 110 127
87 98 114
76 87 100
70 79 91
63 71 81
61 70 81
66 75 86
68 77 89
65 74 86
64 73 85
65 74 86
60 68 78
37 42 49
17 20 23
5 6 7
17 19 23
36 41 48
53 60 70
63 71 82
71 80 93
69 78 90
66 75 87
65 73 84
67 77 89
80 91 105
90 102 117
91 103 119
87 98 114
82 93 107
86 97 112
90 102 118
93 106 122
95 107 124
98 112 130
105 119 137
110 126 146
109 124 143
112 127 147
118 134 155
119 135 156
124 142 164
130 147 170
131 149 172
134 153 177
144 163 188
148 168 195
152 172 199
156 176 204
159 181 208
161 183 212
162 184 212
162 182 209
158 178 206
159 180 207
163 185 214
171 195 225
174 197 227
176 199 230
175 200 231
178 203 235
174 198 229
173 196 225
171 193 223
169 192 222
165 187 217
167 189 217
168 190 220
168 192 222
172 195 225
175 199 230
181 205 237
186 211 243
190 215 247
189 214 248
190 216 250
191 217 251
189 215 248
190 216 249
192 217 250
194 220 253
193 218 251
193 220 254
191 217 252
193 219 253
192 217 250
191 217 251
192 218 251
191 217 251
190 216 250
191 218 252
192 218 251
190 216 251
192 218 252
191 218 253
194 220 254
194 219 252
189 217 252
190 216 250
189 215 249
191 218 252
191 217 252
192 219 254
192 218 252
194 220 255
190 216 250
189 215 249
190 215 248
183 207 239
178 202 233
171 194 224
163 185 214
158 180 208
155 176 205
157 178 206
165 187 216
168 191 221
169 192 223
172 195 225
171 194 224
164 186 214
158 179 207
143 163 188
129 146 169
122 138 160
118 134 155
117 132 153
120 136 156
124 140 162
128 146 169
137 155 179
139 158 183
139 157 182
137 156 180
137 155 179
134 152 175
136 153 177
139 157 181
141 160 185
143 162 187
140 159 183
133 150 173
124 141 163
122 138 159
115 130 150
109 124 143
99 111 128
86 98 113
77 88 102
68 77 89
52 59 67
33 37 43
18 21 24
10 12 14
11 13 15
16 19 22
24 27 31
29 33 38
30 34 40
32 36 42
38 44 50
47 53 62
45 52 60
37 42 48
31 35 41
24 28 32
22 24 28
21 24 28
15 18 21
8 9 11
18 20 23
33 37 42
49 56 64
55 63 72
57 65 75
60 68 79
60 68 78
60 68 79
55 63 73
52 59 69
51 57 66
52 60 69
64 72 84
77 88 102
91 103 119
93 106 123
99 112 129
107 122 142
117 133 154
117 133 154
110 126 146
110 125 144
118 133 153
125 141 163
125 142 164
131 149 172
135 153 177
137 156 180
139 157 182
136 154 178
129 146 169
127 144 166
125 141 163
123 140 162
123 139 159
119 135 156
113 128 148
105 120 139
103 118 137
102 116 134
96 109 125
92 105 121
96 109 126
107 122 140
111 127 147
121 137 158
132 150 174
145 165 190
159 180 207
166 189 220
174 198 228
180 204 236
188 213 245
191 216 249
188 214 247
188 213 246
182 207 239
174 198 229
165 187 216
157 178 206
160 182 210
157 179 208
160 182 211
165 188 217
171 193 222
165 187 217
164 185 213
153 175 202
156 177 206
161 183 212
172 195 226
177 201 231
184 210 243
190 217 251
191 217 251
194 219 253
194 220 255
191 218 254
193 219 253
193 219 253
191 217 250
192 217 251
194 219 253
194 220 254
192 218 251
194 221 255
193 219 254
191 218 253
196 221 255
191 218 252
190 215 249
187 212 245
183 208 240
180 205 237
177 200 231
170 193 222
161 183 212
151 172 199
148 169 195
148 167 193
149 169 194
141 161 186
143 162 186
143 162 187
145 165 190
148 168 193
151 170 196
155 176 203
163 185 213
171 194 224
179 203 234
182 206 239
184 208 240
187 213 246
191 216 249
191 217 250
195 221 254
196 222 255
192 218 253
193 219 252
193 218 252
193 219 253
192 218 253
187 213 247
183 207 239
177 202 234
175 200 231
170 193 224
166 188 216
165 187 216
163 186 215
168 190 219
169 192 222
173 196 226
172 196 228
175 199 231
172 196 227
171 194 224
161 184 213
156 177 204
145 165 192
131 149 173
115 130 150
94 107 123
74 84 98
64 72 83
52 59 69
46 53 61
91 103 119
91 104 120
93 107 124
98 112 129
96 109 126
94 107 123
95 107 123
95 107 124
88 100 116
74 84 97
65 74 86
56 64 74
48 54 63
42 47 55
32 36 42
25 28 33
17 19 22
9 10 12
10 11 13
19 22 25
27 31 36
45 51 59
59 68 79
80 91 105
95 108 125
109 124 143
125 142 163
143 162 187
155 175 202
169 191 221
175 198 229
179 204 236
184 208 240
186 212 246
189 215 249
192 217 250
191 217 251
193 219 254
194 220 254
194 221 255
193 220 255
193 218 252
193 218 251
190 215 248
183 207 240
180 205 238
176 200 230
166 190 221
161 182 210
155 177 205
152 173 201
148 169 196
144 165 191
143 162 187
136 154 177
127 144 166
112 127 148
102 116 134
97 110 127
103 117 135
103 117 135
96 109 126
90 102 119
85 97 112
80 90 104
76 87 100
76 86 100
75 85 98
76 86 100
77 87 100
63 72 83
49 56 65
65 73 84
77 88 102
88 101 117
101 115 134
113 128 148
119 135 157
125 142 164
125 142 164
115 131 152
105 120 139
100 113 131
93 106 123
83 94 109
79 90 105
78 88 102
78 89 103
74 84 97
70 80 92
71 81 94
61 68 79
49 55 64
37 42 49
29 34 39
16 18 21
24 27 32
41 46 54
49 55 64
51 59 68
48 54 63
46 52 60
39 44 51
32 37 43
36 41 47
38 43 49
45 51 58
47 53 61
56 63 73
60 69 80
59 67 77
57 65 75
54 61 71
49 55 63
47 54 62
54 62 71
64 73 84
77 87 101
90 102 118
92 104 121
96 108 125
106 121 140
119 135 156
132 149 172
134 152 175
135 154 178
142 162 187
145 164 190
141 159 184
139 158 183
144 163 189
147 167 194
150 170 197
146 166 191
150 170 196
152 173 200
159 180 207
162 184 212
165 188 217
172 195 226
173 197 228
176 200 232
175 198 229
171 194 225
170 193 222
161 183 212
160 182 211
162 183 211
164 186 215
164 186 215
164 187 217
170 192 222
178 202 233
185 209 242
189 214 248
190 216 250
193 219 253
193 219 253
192 218 252
192 218 251
192 217 250
192 218 253
192 219 254
194 220 254
192 217 251
193 219 254
191 217 251
191 218 252
191 217 252
192 217 250
193 220 254
192 218 252
191 217 251
193 220 255
194 219 253
194 219 252
194 220 253
191 218 252
194 220 254
193 219 253
195 221 255
194 220 255
195 219 252
190 217 252
195 220 253
191 217 251
192 218 252
191 217 250
194 219 252
190 217 251
189 214 247
185 210 244
182 207 239
175 199 230
173 196 226
172 196 227
177 201 232
180 204 236
181 205 237
174 197 228
163 186 216
156 177 205
139 158 183
129 147 171
130 147 170
133 150 173
132 151 175
132 151 175
133 150 174
136 154 178
138 156 181
144 164 189
145 165 191
149 168 193
144 164 190
144 164 191
144 163 188
144 163 189
145 166 192
150 170 196
150 170 196
137 156 180
122 138 159
113 128 147
112 126 146
108 122 141
101 115 133
98 111 128
92 104 120
83 95 110
76 87 100
72 82 95
67 77 89
62 70 80
57 65 75
53 60 70
38 43 51
27 30 35
18 21 24
14 16 18
9 10 11
16 18 20
30 34 39
38 43 49
39 44 51
32 37 43
27 31 35
23 26 30
16 18 21
11 13 15
8 9 11
8 9 11
24 27 31
37 42 49
53 60 70
62 70 81
64 72 83
67 76 88
71 80 93
72 82 95
72 82 95
75 85 98
85 96 111
85 97 112
88 99 114
95 107 123
99 112 130
102 115 133
106 120 140
112 127 147
110 125 145
106 120 139
109 124 143
114 129 150
116 131 152
113 128 148
112 127 147
116 132 153
124 141 163
129 147 170
128 146 169
129 146 169
128 145 168
126 143 165
126 143 164
123 140 162
119 135 156
110 125 144
99 112 130
97 110 128
93 106 123
90 102 118
87 99 115
89 101 117
92 104 121
96 109 126
97 110 127
103 117 135
110 125 144
121 138 159
133 151 175
147 167 193
165 187 217
175 199 231
183 208 240
187 212 244
190 216 250
187 212 245
183 208 241
177 201 233
170 193 224
166 188 218
159 181 209
157 177 204
152 173 200
148 169 195
145 164 189
141 159 184
136 154 177
132 150 174
134 153 178
150 169 196
163 185 214
180 204 235
186 211 244
189 215 249
194 219 253
191 217 251
191 217 250
191 217 250
190 216 251
194 220 255
194 220 254
194 219 253
192 218 252
195 221 255
197 222 255
194 220 254
194 220 254
192 218 252
191 217 250
190 216 250
187 212 245
183 207 240
186 211 243
183 209 242
181 206 238
174 198 229
165 188 218
162 184 212
156 177 205
154 175 202
154 175 203
159 180 208
159 180 208
165 185 212
163 184 212
170 191 220
170 193 223
175 198 229
178 202 233
180 204 235
182 206 239
181 206 239
185 210 242
189 216 250
191 217 252
193 219 252
193 219 254
191 217 250
194 220 254
193 219 253
195 220 254
191 217 251
186 212 246
183 208 241
186 210 243
186 211 244
182 207 239
185 209 242
181 205 237
178 202 234
181 205 237
181 206 239
178 202 233
179 202 233
180 204 236
182 206 237
176 199 230
170 193 223
162 184 213
154 175 203
144 163 187
132 150 173
115 131 151
109 123 143
100 113 131
92 104 120
83 95 110
77 87 101
93 106 123
102 116 135
107 122 140
107 122 141
97 111 128
88 100 115
74 84 98
64 73 84
62 70 81
63 71 82
61 69 80
56 64 74
52 59 68
53 60 70
55 63 73
54 61 71
44 50 58
35 40 46
19 22 25
11 12 14
27 30 35
44 51 59
58 66 76
81 92 106
100 112 129
112 129 150
129 146 169
149 169 194
155 176 204
162 184 213
172 194 224
180 203 235
185 210 243
192 218 252
193 219 254
191 218 252
195 221 255
193 219 252
192 218 253
192 219 254
192 218 253
192 219 254
191 217 252
191 217 250
190 215 247
182 207 239
180 203 234
174 197 227
169 191 219
162 185 214
159 181 209
161 183 211
160 182 210
157 178 207
149 169 196
135 153 178
122 138 160
107 122 141
97 111 128
90 103 119
86 98 113
85 97 111
82 94 109
78 88 102
73 83 96
73 83 96
70 79 91
65 74 85
65 74 86
67 76 88
73 83 96
85 96 111
97 110 127
107 122 141
118 134 156
132 150 174
134 152 177
128 146 169
124 140 162
122 138 159
117 133 154
113 128 148
106 120 139
103 116 134
98 112 130
100 115 133
94 107 124
88 100 115
78 89 104
63 71 83
50 57 66
35 40 47
16 18 21
7 9 10
17 20 23
33 37 43
43 49 56
45 52 60
34 38 44
24 27 31
12 14 16
10 11 13
7 9 10
5 6 7
7 8 9
8 10 11
8 9 11
10 12 13
16 19 22
16 19 22
11 12 14
9 10 12
8 9 10
9 10 12
10 12 14
10 11 13
17 19 22
27 30 35
35 40 46
48 54 63
69 79 91
87 98 113
93 105 122
102 116 134
115 130 151
126 144 167
129 147 169
131 148 171
136 154 178
138 156 180
135 154 177
135 154 179
138 157 182
143 163 189
147 168 194
154 174 201
158 179 207
158 179 207
164 186 215
172 196 226
175 199 232
175 199 232
176 199 230
173 195 225
165 188 217
163 184 213
160 182 211
162 183 212
165 187 216
170 193 223
171 194 225
178 202 233
182 207 239
186 211 244
191 217 251
191 217 251
188 215 249
193 219 252
193 219 252
189 216 250
192 218 251
191 218 252
194 220 255
193 218 252
194 221 255
196 221 255
195 221 254
190 216 250
193 218 252
192 218 253
194 220 254
193 220 254
194 220 254
193 219 253
193 219 254
191 217 251
191 218 253
195 221 255
194 220 254
193 218 252
193 219 254
192 218 251
193 219 254
191 218 252
193 218 251
191 217 250
189 215 249
192 217 250
190 216 250
193 219 253
192 217 250
192 217 250
193 219 253
192 218 251
192 218 253
191 217 252
191 216 250
190 215 247
185 211 244
175 199 230
161 183 212
141 161 187
138 156 180
137 156 181
134 152 176
128 145 167
128 145 167
129 148 171
138 157 181
145 165 190
151 171 197
155 176 203
156 178 206
156 177 205
153 174 200
157 178 206
157 178 205
162 184 212
166 188 218
163 185 214
160 181 209
156 176 204
153 174 201
150 170 196
138 156 181
134 152 175
130 148 171
135 152 176
125 142 164
115 130 150
104 119 138
98 111 128
90 103 119
88 101 116
85 96 111
77 87 100
64 73 85
59 67 78
50 56 65
36 41 47
14 15 18
8 9 11
9 11 12
9 11 12
11 12 14
13 15 17
14 15 18
15 17 19
9 10 12
4 5 6
6 7 8
10 11 13
26 30 34
44 50 57
51 58 67
60 67 77
61 69 79
65 74 85
69 79 92
73 83 96
70 79 92
69 78 91
66 76 88
74 84 98
85 96 112
87 99 115
91 104 120
92 105 122
98 111 128
100 113 131
102 116 134
105 119 138
97 110 128
94 107 124
91 104 121
96 109 126
102 117 136
109 124 143
113 129 149
124 140 161
134 152 175
141 160 185
144 164 189
144 164 190
137 155 180
133 151 174
123 139 160
112 127 146
94 107 124
82 93 108
79 89 103
80 91 105
81 92 106
80 92 106
84 96 111
91 103 119
91 103 120
91 104 121
99 113 130
112 127 146
127 144 166
138 158 183
148 167 193
157 178 206
168 190 220
179 204 235
185 210 243
188 213 245
188 213 246
188 213 246
182 207 240
180 205 237
180 203 233
178 202 233
174 198 229
168 191 220
164 186 214
155 176 204
153 174 201
154 175 202
157 178 205
168 191 221
174 196 226
175 199 229
182 206 237
182 207 240
183 208 241
184 209 241
187 211 242
190 215 247
190 216 249
191 217 251
192 218 252
192 218 252
192 218 252
195 220 252
191 218 252
190 217 252
194 220 255
190 217 252
188 213 247
187 213 247
185 209 241
183 207 240
180 205 237
178 202 233
172 195 225
169 192 221
168 191 220
169 191 220
166 189 220
173 196 225
176 200 231
179 203 235
182 208 241
184 209 243
183 207 240
181 206 238
185 211 244
185 210 243
186 212 246
188 214 247
186 211 243
185 210 244
186 212 245
188 213 247
189 215 248
191 218 252
194 219 252
193 219 253
193 220 254
193 219 253
193 219 253
190 216 250
189 215 249
192 217 250
188 213 247
187 213 246
189 214 247
181 206 239
187 213 247
188 213 247
189 215 248
190 216 250
189 215 248
188 214 248
190 216 249
191 217 251
186 211 244
186 212 245
180 205 237
175 199 230
167 190 220
157 178 206
144 164 189
127 144 167
126 143 165
125 141 163
118 134 155
107 121 141
91 103 120
96 109 126
95 108 124
91 104 120
87 99 114
90 102 118
88 100 117
83 94 108
80 91 105
75 85 98
73 83 96
73 83 97
72 82 95
64 72 83
57 65 75
50 57 66
43 49 56
36 41 47
25 29 33
18 20 23
10 12 14
18 21 24
43 49 56
74 84 97
103 117 135
116 131 152
128 146 169
137 155 180
146 165 191
155 176 203
163 185 214
169 192 221
176 200 231
184 209 240
189 215 249
190 216 249
191 216 250
195 221 254
194 220 254
191 218 253
192 219 254
194 219 253
189 215 249
187 213 246
184 209 241
178 202 234
174 197 227
167 191 222
167 190 220
166 188 217
166 189 219
165 187 216
163 185 214
156 178 207
149 169 195
139 158 183
131 148 171
123 139 161
118 134 154
108 123 142
102 115 133
96 109 126
99 112 129
98 112 129
98 111 128
101 115 133
102 116 134
106 120 140
106 120 139
118 134 155
121 138 160
132 149 173
136 154 178
139 157 181
132 149 171
123 140 162
118 134 156
120 137 158
121 138 159
118 134 155
115 130 150
120 136 157
123 140 163
118 134 155
113 129 149
101 115 133
84 96 111
71 81 94
61 69 80
43 50 57
20 23 27
8 10 11
15 17 19
21 24 28
30 35 40
36 41 47
27 30 35
18 21 24
12 14 16
8 9 11
11 13 15
13 15 17
14 16 19
11 13 15
15 17 19
18 21 24
17 20 23
13 15 17
15 17 20
23 26 30
20 23 27
20 23 27
22 25 29
23 27 31
21 23 27
13 15 18
4 5 6
17 19 22
35 40 47
49 56 64
64 73 85
74 84 98
83 94 108
94 106 123
105 119 137
113 128 147
115 130 151
120 137 159
126 144 166
129 147 170
130 148 171
134 152 176
143 163 189
150 170 197
149 170 197
154 175 203
160 183 213
167 190 220
165 188 218
163 186 216
163 185 214
161 183 211
161 182 210
161 183 211
161 182 210
156 178 206
154 175 202
155 176 204
163 185 214
170 193 223
177 201 232
180 205 237
187 212 245
190 216 249
192 218 251
192 217 251
190 215 248
188 214 248
193 219 252
193 219 254
194 219 253
193 219 252
194 220 254
195 221 255
192 218 253
195 221 255
192 218 251
194 220 253
192 218 252
193 219 253
192 218 251
190 217 252
191 217 250
190 216 250
193 219 252
191 217 251
191 218 253
193 220 255
195 221 255
194 220 254
192 218 252
189 216 251
192 219 255
192 217 251
192 218 252
190 215 249
190 217 252
187 213 247
190 217 251
191 216 250
191 217 251
194 220 253
191 217 251
192 219 253
193 219 253
192 218 253
190 217 252
191 216 249
184 208 240
176 201 232
168 189 218
158 180 209
154 174 201
145 165 191
141 159 183
129 147 170
127 145 167
135 153 177
142 161 186
152 173 199
158 178 205
160 181 209
163 185 213
169 191 220
169 192 222
173 197 228
173 197 228
172 196 226
177 200 231
175 199 230
180 204 236
180 204 235
176 199 229
172 194 224
169 192 222
168 190 218
163 186 217
160 181 209
154 174 201
142 162 188
134 152 176
123 139 160
116 131 151
108 123 143
104 118 136
102 116 133
93 105 122
81 92 107
62 71 82
50 57 67
42 48 55
40 46 53
36 41 47
26 29 34
21 23 27
22 25 29
20 23 27
15 17 20
17 19 22
23 25 29
20 23 27
19 22 26
17 20 23
18 20 24
24 27 31
34 39 45
48 55 64
58 66 76
63 72 83
57 65 75
49 56 65
47 54 62
55 62 72
70 79 92
83 95 110
85 97 111
86 99 115
89 101 116
90 103 120
99 113 131
106 121 140
112 127 146
110 124 144
110 125 144
109 124 144
109 123 142
101 115 133
101 115 133
111 126 146
125 142 165
131 150 174
132 150 174
126 143 165
127 144 167
123 140 162
124 141 163
114 129 148
105 119 138
93 105 121
84 95 110
80 91 105
76 86 100
73 83 96
77 88 101
83 94 109
86 98 113
88 100 116
95 108 125
110 125 144
127 144 167
139 158 183
146 166 192
151 172 199
165 186 215
167 190 220
172 195 225
174 197 229
182 206 239
185 210 242
188 214 247
187 212 245
191 217 250
191 215 247
184 210 244
183 207 239
179 203 234
176 200 231
174 197 228
173 196 227
179 203 234
185 210 243
189 214 247
189 214 247
192 217 251
189 216 250
188 213 245
184 209 242
179 204 237
185 210 242
183 208 240
187 212 245
187 212 246
187 212 245
191 216 249
190 215 248
191 216 250
194 219 253
192 218 252
193 219 252
188 214 247
182 207 239
182 207 239
180 204 236
175 198 229
173 196 226
171 194 224
167 190 219
167 190 220
166 189 220
168 191 220
162 184 213
162 185 214
172 195 225
182 206 238
186 211 244
189 214 247
190 216 250
189 214 247
188 213 246
190 215 248
189 215 248
189 215 248
189 216 250
190 216 250
191 217 251
189 215 248
184 209 242
187 212 244
185 210 243
188 214 248
188 213 246
187 213 247
188 215 249
191 217 250
193 218 251
191 217 251
191 217 250
186 212 246
191 218 252
191 217 252
194 220 254
191 218 253
193 219 254
195 221 255
191 217 251
193 218 251
193 220 254
195 221 254
193 219 253
192 218 252
190 216 250
186 211 245
181 205 237
172 195 226
168 190 219
163 185 214
157 177 204
152 172 199
144 164 189
139 157 181
78 89 102
74 84 97
74 83 96
74 84 97
77 88 102
80 90 105
73 82 95
71 81 94
75 85 99
72 81 94
62 71 82
50 57 66
42 47 54
37 42 49
33 38 44
40 46 53
46 52 60
44 49 57
35 40 47
19 22 25
14 16 19
35 40 46
54 61 71
73 83 96
88 100 116
101 115 133
114 130 150
126 143 165
131 148 171
136 155 179
144 163 188
154 175 202
164 186 215
175 198 229
179 203 235
184 210 243
189 215 248
191 216 249
193 220 254
192 219 255
192 217 251
187 213 246
186 211 245
185 209 241
179 202 234
176 199 231
173 197 229
172 195 226
168 192 222
171 193 222
171 194 223
167 190 220
160 182 210
157 179 207
155 175 202
150 170 196
147 167 193
149 169 195
145 165 191
138 157 182
135 153 177
134 152 176
132 150 174
134 152 176
133 150 174
138 157 182
147 166 191
151 172 199
156 176 202
156 177 205
152 172 199
147 167 194
142 161 186
134 153 177
128 145 168
123 139 161
118 134 155
113 128 147
105 120 139
105 119 138
101 115 134
100 114 131
92 104 121
85 97 112
74 84 97
70 79 92
67 76 88
58 66 76
42 47 54
22 25 28
7 8 10
22 25 29
29 33 37
17 20 23
12 14 16
14 16 19
14 16 19
15 17 19
13 15 18
10 11 13
8 9 10
11 12 14
15 17 20
15 17 20
22 25 29
31 35 41
37 42 48
38 43 50
38 44 50
36 40 47
34 39 45
32 36 42
29 33 38
26 30 35
20 23 26
11 13 15
10 11 13
24 27 31
38 43 50
50 57 66
60 68 79
70 80 92
82 93 108
87 99 115
87 98 114
84 96 111
82 93 108
82 93 108
88 99 115
99 112 130
110 125 145
123 140 163
128 145 167
128 145 167
141 160 185
159 180 207
164 187 217
165 188 217
171 194 224
168 191 223
167 190 220
167 190 219
168 192 222
169 192 223
171 193 223
169 192 221
171 194 224
175 198 228
176 199 229
178 202 234
184 207 238
187 212 244
188 214 247
187 213 246
187 213 247
190 215 248
192 217 251
191 217 251
191 217 251
191 216 250
193 220 255
191 217 251
192 219 255
193 219 253
194 219 253
190 217 251
190 215 247
185 210 243
182 206 238
183 209 242
186 211 244
185 210 243
188 213 246
185 211 244
187 212 244
189 213 245
187 212 245
189 214 248
190 216 251
190 217 252
195 221 255
193 219 254
193 219 253
195 221 255
193 219 253
194 220 255
193 219 253
191 217 252
192 219 254
194 219 253
192 218 252
192 218 252
192 218 252
195 220 253
190 218 253
192 218 252
184 211 246
182 206 237
175 198 228
168 192 222
166 189 218
165 187 216
166 188 218
159 181 210
151 171 198
142 160 185
129 147 169
129 146 170
138 156 181
138 156 180
139 158 183
149 170 196
164 186 215
175 199 230
182 207 240
187 211 243
193 219 252
193 219 254
192 217 249
192 218 252
192 218 252
194 219 253
191 217 251
191 216 250
188 213 246
183 208 241
181 205 238
175 198 229
164 187 216
156 178 205
148 168 194
142 161 185
132 150 173
126 143 165
124 140 162
120 136 157
107 122 141
97 110 127
94 107 124
95 108 124
94 107 123
85 96 111
70 80 93
58 66 76
44 50 58
32 36 42
16 19 22
11 12 14
15 17 20
26 30 34
20 23 27
11 13 15
6 7 9
10 11 13
11 13 15
20 22 26
29 33 38
46 52 59
60 68 79
57 64 75
53 60 69
60 68 79
68 77 90
74 84 97
81 92 106
83 94 109
79 90 104
84 95 110
88 101 117
92 104 121
98 111 128
101 115 133
100 114 132
103 117 135
108 123 142
112 127 147
120 137 158
124 140 162
125 142 165
130 147 170
123 139 160
112 128 148
103 117 136
95 108 125
82 93 108
69 79 91
62 70 82
62 70 81
61 69 80
57 65 75
58 66 76
64 73 85
65 74 85
66 75 87
66 74 86
67 76 88
71 80 93
79 90 104
93 106 122
110 124 144
124 140 161
139 158 182
148 166 191
148 168 194
149 169 195
155 176 203
163 184 212
167 189 218
168 191 221
170 193 222
176 199 230
173 196 228
179 203 234
189 214 247
190 216 249
191 215 248
189 215 249
189 214 247
192 217 250
192 217 250
195 220 254
192 218 253
191 218 253
194 220 254
190 217 252
195 221 255
194 220 254
190 217 253
192 218 252
192 218 253
192 217 251
188 214 248
189 214 248
184 210 243
187 212 245
187 213 247
188 213 246
192 218 252
194 220 255
192 218 253
186 211 244
182 207 241
178 203 235
176 201 232
174 197 227
174 197 227
176 200 231
178 201 233
180 205 237
176 200 232
171 193 222
158 180 209
158 180 208
164 186 214
170 193 224
177 202 234
183 207 239
185 209 242
183 207 238
180 205 237
176 199 229
179 203 234
179 203 235
180 206 239
184 209 241
186 211 243
185 209 240
184 209 241
184 209 243
185 211 245
187 212 244
188 214 247
188 213 247
189 214 247
189 214 246
186 211 244
188 213 246
191 215 248
195 220 253
193 218 251
192 218 253
192 218 252
190 215 249
189 215 248
188 213 246
187 213 247
192 218 252
194 220 254
192 218 252
190 217 251
187 212 244
180 204 235
172 196 228
167 191 221
169 191 220
166 188 217
165 187 216
161 182 210
153 174 201
150 171 198
82 94 109
76 86 100
64 73 85
52 60 69
46 52 60
44 50 58
41 47 54
41 47 54
42 48 56
38 43 50
40 45 52
46 52 61
50 57 65
52 59 68
47 53 62
44 50 58
37 42 48
28 32 37
16 18 21
12 14 16
26 29 34
41 47 54
59 67 77
82 94 108
95 108 125
104 118 136
113 127 146
124 140 162
132 150 174
136 156 181
149 169 195
156 179 208
168 190 220
174 197 228
179 203 235
182 207 239
188 214 248
191 218 253
194 221 255
190 216 250
192 217 250
188 212 244
180 206 238
183 208 240
177 202 234
174 198 229
177 201 232
175 198 229
172 195 225
173 196 226
169 191 221
163 185 214
159 181 209
159 181 209
163 185 214
165 187 216
171 194 224
171 194 224
168 190 220
163 185 214
160 180 208
155 176 203
151 172 199
159 180 207
162 183 212
166 190 220
167 189 219
164 187 216
160 182 212
155 175 202
149 169 196
141 160 186
132 150 173
120 136 158
110 125 145
108 122 141
102 116 134
91 104 121
86 97 112
79 90 104
77 87 100
71 80 93
68 77 89
65 74 85
60 69 79
55 62 72
44 50 58
28 31 36
13 15 17
11 12 14
16 18 21
17 19 23
8 10 11
8 9 10
13 15 18
22 25 29
23 27 31
23 26 30
22 24 28
20 23 26
20 22 26
17 20 23
20 23 26
24 27 31
28 32 37
32 37 42
35 40 46
33 37 43
29 32 37
28 32 37
24 27 32
19 21 25
12 14 16
7 8 9
3 4 4
14 15 18
20 23 26
28 32 37
35 40 46
43 49 56
56 64 74
67 76 88
73 84 97
68 77 89
66 75 86
63 71 82
67 76 88
73 84 97
80 90 104
80 92 106
89 100 115
97 111 129
109 124 143
121 137 159
134 153 177
146 166 193
154 175 201
162 184 213
170 193 224
171 194 225
171 194 224
174 197 226
174 197 228
175 199 230
176 200 232
178 203 236
182 206 238
185 210 242
182 206 238
185 210 241
184 209 241
186 211 244
186 212 245
188 214 247
185 211 245
188 214 248
191 218 252
190 215 249
192 218 252
192 218 252
192 218 253
194 220 254
192 218 252
191 217 250
189 216 250
189 214 247
188 213 246
188 213 245
187 211 244
182 206 237
184 209 241
186 211 244
185 210 244
185 211 245
183 207 240
183 207 240
184 209 242
184 209 243
185 210 243
189 215 248
193 217 250
194 220 254
194 220 254
192 218 252
193 219 253
189 215 249
189 216 250
189 215 248
186 211 245
185 209 241
186 211 244
185 210 243
188 213 246
193 219 253
192 219 254
190 216 250
193 218 250
181 207 241
175 199 230
171 194 225
174 196 225
166 189 218
163 185 214
156 177 203
146 167 193
138 157 181
132 149 172
126 142 164
125 142 165
129 146 169
131 148 171
141 160 184
160 182 210
172 195 226
188 213 245
193 218 250
192 218 252
191 217 250
197 222 255
193 219 252
189 215 249
192 217 250
192 218 253
195 221 254
193 219 254
194 220 254
189 215 248
185 211 243
183 207 238
171 196 227
164 187 216
163 185 213
161 183 211
151 172 200
145 165 190
133 151 175
126 143 166
125 141 162
124 141 164
127 144 166
123 139 160
112 127 147
101 115 133
90 102 118
71 81 93
43 49 57
14 16 19
13 14 17
17 19 22
17 19 22
11 13 15
10 11 13
6 8 9
10 12 13
14 16 18
20 23 26
32 36 42
49 56 65
56 64 74
57 65 75
60 68 79
65 74 85
62 71 82
63 71 82
59 67 77
57 64 73
57 65 75
61 70 81
72 82 95
76 87 101
81 92 106
85 96 111
87 99 115
89 101 117
96 109 126
101 115 133
107 122 141
117 134 155
122 138 160
117 134 155
113 128 148
107 121 140
95 108 124
79 89 103
60 68 79
49 56 65
39 44 51
29 33 39
22 25 29
19 22 26
24 27 31
28 31 36
32 36 42
42 48 56
51 58 67
58 65 76
64 73 84
74 84 97
81 93 107
91 103 119
100 114 131
105 120 140
111 126 146
118 134 154
114 129 149
114 130 150
122 139 161
131 148 171
139 157 180
138 157 182
142 160 185
149 169 195
153 173 200
158 180 208
167 190 220
171 194 224
179 201 231
172 195 226
175 198 229
176 199 230
180 204 237
186 211 243
190 215 249
191 216 250
194 220 253
192 219 254
195 221 254
189 216 251
193 219 253
195 220 253
194 220 253
189 214 248
190 215 247
190 216 249
192 217 251
189 215 250
190 216 250
189 216 250
191 216 249
189 213 245
185 210 243
185 210 243
181 205 237
179 203 235
178 202 234
180 204 236
183 207 239
183 209 242
186 211 242
184 209 242
182 206 238
171 193 222
162 184 213
166 187 215
168 192 222
173 196 227
173 197 228
169 192 221
165 188 217
157 179 207
153 173 199
145 165 191
143 163 190
148 167 192
150 171 199
154 174 200
154 175 203
157 177 205
166 187 215
174 196 225
180 204 236
183 207 240
188 213 245
189 214 247
184 209 242
186 211 244
186 211 244
190 215 248
192 218 252
195 221 255
194 220 254
192 218 251
191 218 252
190 216 250
192 217 250
191 217 251
190 215 248
189 214 247
189 215 248
185 209 240
179 203 235
171 194 225
164 187 216
159 181 209
159 179 207
156 178 206
153 174 200
148 169 196
143 162 187
131 149 172
47 54 62
45 51 59
39 45 51
27 31 36
16 18 21
10 12 14
14 15 18
19 22 25
21 24 27
19 21 24
18 20 24
18 21 24
20 23 27
23 27 31
25 28 33
22 25 29
19 21 25
13 14 17
16 18 21
31 35 41
44 50 58
63 71 83
79 90 104
95 108 125
106 120 139
121 137 159
134 152 177
143 163 189
152 173 201
163 184 212
170 193 222
180 204 235
184 209 241
188 214 247
191 217 251
191 218 253
194 220 254
192 219 253
191 217 250
188 213 246
186 211 245
181 206 239
183 208 239
182 206 238
179 203 234
175 199 231
175 199 230
173 196 227
169 191 221
167 188 217
164 186 215
166 188 216
165 187 216
167 189 218
172 194 224
172 196 227
172 194 224
168 191 221
163 185 214
166 188 217
161 184 213
156 178 206
162 184 212
168 191 221
167 190 219
164 186 215
156 178 206
147 168 194
137 156 180
126 143 165
114 129 149
104 118 136
93 105 120
79 89 103
70 80 93
56 64 74
53 60 70
44 50 57
38 44 51
40 45 52
33 37 43
25 28 33
29 34 39
32 36 42
29 33 39
19 21 25
8 9 11
9 10 12
15 17 19
20 23 27
25 29 33
32 37 42
44 50 58
47 54 62
58 66 76
65 74 86
64 73 84
59 67 77
55 62 72
58 66 76
50 56 65
42 48 55
39 44 51
41 46 54
36 40 47
26 29 34
24 27 31
27 31 36
26 30 34
34 38 44
37 42 49
39 44 51
35 40 47
30 34 40
19 22 25
15 17 20
12 13 16
11 13 15
11 13 15
18 20 23
24 28 32
33 37 43
36 41 47
36 41 48
37 43 49
35 40 46
33 37 42
33 37 43
45 51 59
55 63 72
69 78 90
79 90 103
87 99 115
96 109 126
114 129 149
125 142 164
139 158 182
144 164 189
150 170 196
152 172 199
153 173 199
152 173 200
159 179 206
158 180 208
159 180 208
161 183 212
173 196 226
171 194 224
175 199 230
180 204 236
181 206 239
186 212 245
188 213 247
190 216 249
190 215 248
191 217 252
191 218 252
191 218 253
190 215 249
189 215 249
188 215 249
189 216 250
190 215 248
187 212 244
183 208 241
184 208 240
183 209 243
186 212 245
185 210 243
185 210 244
186 210 243
187 213 246
188 213 245
185 210 243
179 204 236
181 204 234
178 203 236
182 206 237
185 210 242
185 210 244
186 212 245
186 211 243
185 210 242
182 206 239
184 209 242
186 212 246
189 213 245
188 213 246
186 211 244
186 211 244
189 214 247
190 215 248
194 220 254
190 217 252
192 218 252
194 220 255
192 219 253
193 218 252
190 216 249
185 209 242
176 200 231
167 189 218
158 180 209
147 166 192
136 155 180
141 159 183
146 166 192
151 171 197
155 176 202
157 178 206
164 187 217
173 195 225
181 205 238
187 212 245
187 213 246
191 217 251
193 220 254
189 216 251
194 219 253
189 216 251
192 217 250
190 216 250
192 217 250
193 219 253
191 216 250
191 218 253
194 220 254
190 217 252
190 215 248
189 214 248
185 210 244
186 209 240
181 205 238
179 204 236
176 200 231
170 193 224
170 192 222
166 189 220
156 178 206
154 174 202
150 171 197
145 164 189
134 152 175
112 128 148
83 95 110
62 71 82
42 47 54
35 40 46
21 23 27
8 10 11
14 16 18
21 24 28
24 28 32
26 30 34
33 38 44
41 47 54
43 48 56
48 55 63
54 62 71
51 58 68
45 51 58
36 40 47
31 35 40
23 26 30
18 20 24
18 21 24
26 29 34
28 32 37
31 35 41
37 42 48
46 53 61
56 64 74
69 78 91
72 81 94
75 85 99
90 102 119
110 125 143
120 136 157
118 134 155
114 130 150
113 129 149
108 122 142
96 109 126
86 98 113
72 82 95
54 61 71
43 49 57
44 49 57
43 49 57
32 36 42
17 20 23
7 8 9
7 8 9
8 9 10
15 17 19
29 32 37
43 49 56
54 61 71
58 65 75
65 74 86
70 80 93
80 91 105
87 99 115
90 102 118
88 100 115
92 104 121
96 109 127
105 118 136
107 121 139
111 127 147
119 135 157
124 141 164
129 146 169
136 155 179
145 165 191
153 174 201
156 177 205
156 176 204
152 173 201
151 172 198
155 175 202
166 189 218
172 196 227
173 197 228
180 204 234
186 210 242
189 214 247
190 216 251
191 217 251
193 219 253
193 219 253
194 220 254
194 220 253
195 220 253
190 217 251
192 218 251
194 220 254
195 220 254
191 217 251
191 218 253
194 220 253
190 216 251
190 216 251
189 215 248
188 213 246
188 214 248
188 214 248
188 214 247
188 214 248
189 214 247
182 207 239
179 203 234
172 194 223
163 185 213
163 185 214
163 185 213
164 186 215
163 184 213
166 188 218
163 185 214
160 182 210
152 173 200
143 163 188
136 154 178
136 155 179
136 153 176
136 154 179
143 162 188
142 162 187
154 174 200
165 188 217
173 195 226
180 204 235
185 209 241
187 212 245
188 213 246
187 212 244
194 220 253
193 219 253
194 219 252
192 218 253
194 219 252
191 217 251
194 220 254
194 220 254
191 217 251
190 215 247
189 214 246
181 206 239
177 201 232
172 195 225
162 184 212
155 176 203
147 167 192
140 159 184
140 159 183
138 157 181
134 152 175
127 144 166
120 136 158
17 19 22
19 22 25
20 22 26
16 18 20
15 17 19
16 18 21
24 27 31
33 37 43
37 42 48
37 42 49
36 41 48
43 48 56
47 54 62
53 60 69
55 62 72
59 67 77
64 73 85
68 77 88
82 93 108
87 99 115
95 108 125
106 120 139
118 133 154
124 141 162
133 152 175
143 163 188
153 174 200
160 182 210
175 198 228
183 207 239
190 215 249
190 215 249
191 218 253
190 215 249
190 215 247
186 211 243
184 208 240
180 205 237
177 201 233
178 202 234
178 202 234
179 202 233
178 203 234
176 199 230
171 195 226
163 185 214
157 179 207
157 178 206
160 181 208
162 183 212
158 179 207
159 180 207
157 177 205
154 174 201
153 173 200
153 174 201
151 171 198
150 169 194
147 167 193
141 161 186
140 158 183
138 157 182
142 161 186
145 164 190
139 158 182
127 144 166
123 139 161
114 130 151
108 123 142
99 113 131
91 102 117
75 85 98
58 66 77
49 56 64
47 53 62
55 63 73
65 74 86
66 75 88
59 67 78
51 58 67
46 52 61
37 42 49
34 39 45
31 35 41
33 38 44
27 30 35
30 34 40
31 35 40
41 47 54
47 53 62
54 61 70
63 72 83
79 90 104
90 103 119
106 119 137
112 128 149
114 130 151
106 120 138
91 104 120
79 90 104
69 79 92
58 66 76
47 53 62
45 51 59
41 47 54
43 48 56
50 57 66
57 64 74
58 66 77
56 64 74
58 66 76
57 65 75
53 60 70
49 56 64
40 45 52
29 32 37
19 21 24
17 19 22
19 21 25
18 21 24
16 18 21
7 8 9
6 7 8
12 14 16
11 13 15
14 16 18
12 14 16
18 21 24
31 35 40
40 46 53
46 53 61
55 63 73
68 78 89
80 91 104
90 102 118
107 121 140
119 134 154
120 136 158
117 133 153
113 128 148
106 121 140
105 119 137
105 119 138
112 127 147
125 142 163
132 150 173
137 155 179
142 161 185
148 169 196
164 186 215
173 197 228
175 200 231
180 205 237
182 207 240
188 213 246
190 215 249
191 216 249
192 217 250
191 216 250
194 219 252
192 218 252
192 218 251
188 214 248
188 213 246
183 209 241
186 211 244
187 211 244
190 214 246
188 212 245
187 212 245
188 212 245
182 207 240
180 205 236
177 201 232
182 206 238
182 206 238
180 205 238
183 208 240
181 205 237
177 201 233
176 199 230
173 197 228
173 196 227
174 198 230
180 205 237
187 212 245
188 213 246
186 211 243
192 217 249
190 216 250
190 216 249
192 218 253
192 219 253
194 220 254
196 221 255
196 221 255
196 221 254
192 218 253
192 217 249
190 216 249
184 209 241
179 202 233
164 187 217
151 171 197
143 162 187
136 155 180
151 171 197
160 181 209
170 192 221
172 195 226
181 204 236
184 210 243
191 217 250
190 216 250
195 221 255
194 220 254
194 219 253
194 220 253
190 216 250
191 217 251
189 215 249
191 217 251
194 219 253
194 220 253
195 221 255
196 221 255
193 219 253
192 219 254
195 221 255
193 219 253
193 219 254
192 218 253
192 219 253
192 218 252
192 218 252
191 217 250
187 213 247
188 213 245
184 208 241
175 199 230
174 197 228
159 181 209
141 160 185
126 142 163
112 127 147
99 112 129
84 95 110
62 70 82
44 50 58
33 37 43
24 28 32
16 18 21
12 14 16
11 12 14
12 14 16
14 16 19
21 24 28
31 35 40
45 51 59
53 60 70
41 47 55
29 33 38
21 24 28
18 21 24
14 16 19
14 17 19
18 21 24
16 18 20
21 24 28
33 38 44
51 57 66
56 64 74
61 69 79
62 71 82
70 79 91
79 90 104
94 106 123
111 126 145
118 134 154
109 124 142
98 111 129
96 108 125
90 102 117
71 81 93
56 64 75
46 52 60
34 38 44
32 37 42
36 41 47
36 40 47
30 34 40
26 29 34
19 22 25
21 24 27
25 29 34
29 33 38
29 33 38
32 37 43
39 45 51
41 47 54
40 46 53
45 51 59
52 59 68
66 74 85
74 83 96
78 89 102
85 97 112
93 105 122
102 115 133
105 119 137
112 127 147
118 134 155
127 144 166
135 153 177
145 165 191
155 175 201
158 179 206
158 179 208
157 179 208
157 179 207
155 177 206
149 169 196
153 174 202
151 171 197
157 179 207
166 189 219
172 196 227
177 202 233
181 206 239
185 211 244
187 211 243
186 211 244
189 213 245
185 211 245
181 205 237
184 209 241
182 206 237
184 209 242
185 210 243
186 211 243
184 208 239
183 208 241
186 211 244
183 209 243
190 215 249
191 216 250
190 216 251
193 219 254
193 218 251
190 217 252
186 211 244
183 208 240
181 205 237
178 202 233
177 201 233
180 204 235
183 208 241
186 211 243
189 215 248
187 212 245
180 203 234
171 194 225
159 181 210
151 172 199
146 166 191
139 158 183
140 158 183
139 158 182
148 167 192
159 180 208
165 188 218
172 196 226
173 197 227
178 203 235
182 207 239
188 213 246
190 216 249
192 218 252
195 221 254
192 218 252
189 215 249
191 218 252
189 215 249
195 221 255
193 220 254
190 215 248
190 216 250
187 212 245
178 203 235
171 195 226
163 184 212
152 173 200
146 165 190
137 155 179
125 141 162
114 130 150
105 119 138
95 108 124
91 103 119
89 101 117
40 45 52
44 50 58
47 53 61
49 56 64
52 59 69
50 57 66
45 51 59
47 53 62
51 59 68
57 65 75
60 68 79
61 69 80
67 76 87
73 83 96
84 95 110
96 109 125
104 118 136
109 125 145
119 135 156
127 145 167
132 150 174
137 155 178
140 159 183
144 163 188
151 172 199
156 177 204
165 187 215
172 195 225
183 208 239
192 217 251
193 219 253
193 220 254
190 215 248
184 209 241
183 207 240
180 204 235
176 200 232
174 198 230
173 196 227
172 194 224
170 192 221
163 186 215
160 181 208
155 175 202
150 170 196
148 168 195
145 164 189
144 164 190
148 168 195
149 169 195
142 161 186
139 158 182
135 153 177
130 148 171
122 139 161
126 142 164
125 142 164
119 135 156
117 134 155
114 130 151
109 124 143
103 116 134
97 110 128
91 103 120
88 99 115
88 100 115
82 92 107
78 88 102
76 86 99
81 92 106
78 88 102
61 69 80
54 61 71
65 74 85
82 94 108
97 110 127
99 112 129
96 108 125
95 108 124
98 111 128
104 118 137
99 113 130
89 102 118
91 104 120
82 93 107
75 86 99
72 82 95
74 84 97
74 84 96
75 86 99
88 100 116
95 108 126
104 118 137
112 127 147
120 137 158
122 139 160
119 135 155
109 125 144
100 113 131
92 104 120
79 89 103
63 72 84
64 72 84
66 75 87
72 81 94
74 84 97
72 82 95
74 83 96
72 81 93
72 82 95
69 79 91
64 73 85
61 69 80
59 67 78
50 57 67
46 52 60
40 45 53
35 40 46
31 35 41
25 29 33
28 32 37
26 30 34
21 24 28
16 18 21
9 11 12
3 4 5
10 12 13
16 19 21
23 26 30
34 38 44
42 48 55
45 52 60
52 60 69
54 61 70
62 70 81
76 87 100
88 100 116
88 100 116
87 99 114
84 95 110
84 95 110
81 92 106
78 88 102
85 96 111
96 108 125
104 117 136
112 128 149
127 145 168
143 162 187
153 173 199
158 179 208
166 188 217
174 199 231
182 207 238
183 209 241
185 210 244
190 215 249
190 216 251
190 216 250
193 218 251
191 218 252
192 218 253
193 218 252
190 216 249
186 212 246
189 214 248
189 214 247
189 214 247
187 212 244
183 208 241
180 204 236
179 203 235
176 198 228
174 196 226
174 197 228
176 199 231
180 203 234
179 203 235
181 204 235
178 202 233
178 202 234
178 202 233
178 202 234
178 202 234
178 203 236
183 208 240
186 210 243
187 212 246
191 217 250
194 219 251
192 218 253
194 220 254
195 221 255
194 220 255
193 219 253
192 218 251
194 220 254
191 217 251
191 217 252
187 212 246
184 209 242
176 201 232
171 194 224
159 181 209
144 164 190
142 160 184
155 176 203
164 186 215
170 192 222
178 202 234
185 210 243
188 213 247
192 217 251
194 220 254
192 219 254
190 216 250
192 218 252
192 217 251
193 218 250
189 215 248
196 221 254
193 219 253
193 220 254
191 216 250
194 221 255
194 220 255
193 219 253
192 218 252
192 218 253
193 219 254
193 219 253
194 219 253
193 219 253
192 218 251
193 219 253
192 219 253
192 217 251
192 217 251
193 219 252
191 217 252
186 211 243
176 199 230
165 187 215
152 173 200
140 160 185
120 136 157
96 109 126
83 94 108
69 78 90
61 70 81
61 69 80
54 61 71
49 55 64
43 48 56
37 42 49
26 29 34
9 10 12
11 13 15
28 32 37
47 54 62
45 51 59
16 18 21
9 10 12
15 17 20
12 14 16
16 18 21
19 22 25
17 20 23
12 14 16
20 23 27
28 32 36
31 35 40
38 44 51
55 62 72
76 86 99
90 102 118
103 117 136
108 123 142
101 114 132
93 106 122
85 97 112
79 90 103
67 77 89
53 60 70
35 40 46
24 27 31
18 20 23
15 17 20
18 21 25
25 29 34
25 28 33
32 36 42
35 40 47
40 45 52
39 44 51
42 48 56
52 59 68
53 60 69
50 56 65
49 55 64
56 64 74
57 65 75
62 71 82
65 73 85
63 71 81
58 66 77
63 71 82
70 79 90
79 89 104
85 96 111
87 100 116
103 117 134
114 130 151
133 150 173
143 161 185
152 173 200
153 174 202
157 178 205
156 177 205
153 175 202
152 173 199
155 175 201
151 171 198
158 179 206
164 185 213
169 191 221
171 194 224
169 192 222
170 193 223
169 192 222
170 193 222
167 190 220
166 188 217
160 181 209
155 177 205
159 180 208
158 180 209
152 174 202
158 179 207
156 177 205
154 175 203
152 172 199
148 168 195
151 172 199
159 181 209
162 184 213
165 188 219
173 196 227
181 205 237
189 214 247
191 217 250
194 219 253
191 217 251
191 216 250
190 215 248
190 216 250
193 219 254
194 220 254
188 215 250
192 217 250
184 209 242
183 207 239
177 200 231
169 192 222
165 188 217
160 180 207
154 174 201
142 162 187
136 154 178
143 162 187
155 175 201
161 182 210
168 190 220
173 197 228
184 208 239
191 216 248
191 217 252
194 219 252
193 219 252
195 220 253
190 216 250
192 219 254
197 222 255
192 220 255
194 219 252
190 215 249
186 211 244
183 207 239
179 204 236
172 196 226
163 186 215
152 172 199
140 158 183
129 146 168
119 135 155
107 121 140
94 107 124
81 91 105
66 75 87
53 60 70
101 115 133
105 119 138
98 111 129
98 111 128
95 107 124
92 106 123
99 113 130
107 121 140
103 117 135
98 110 127
94 107 123
99 113 130
106 120 139
106 120 139
107 121 140
107 121 140
106 121 140
113 128 148
120 136 157
129 146 169
139 157 181
148 167 193
153 174 201
157 178 206
164 185 213
170 192 222
175 199 230
179 204 236
187 213 247
193 218 251
193 218 251
192 220 255
192 219 254
187 213 246
187 212 246
184 209 241
181 205 237
172 195 227
167 189 218
156 177 204
152 171 197
147 168 194
143 163 188
145 164 190
147 168 194
141 161 187
138 157 180
137 156 180
137 155 180
133 151 174
127 144 167
121 137 158
117 133 155
118 134 155
119 135 156
122 138 159
117 133 154
113 129 149
111 125 144
104 118 136
88 101 117
86 98 113
86 98 113
87 98 113
87 99 114
79 90 104
71 80 93
66 75 87
64 73 84
62 70 81
62 70 81
72 82 95
86 98 113
99 112 129
107 121 140
110 125 144
116 131 152
121 137 158
122 139 161
127 144 167
131 149 172
134 152 175
133 152 176
131 150 174
119 136 158
116 131 152
115 131 152
114 130 150
111 126 146
110 125 144
114 130 150
114 129 148
112 127 147
115 131 152
119 136 157
113 128 148
107 122 141
100 114 132
93 106 123
88 100 115
93 105 122
102 116 134
111 125 145
107 121 139
102 116 134
102 116 133
101 115 133
96 109 126
81 92 106
73 83 96
76 87 100
83 94 109
80 91 105
83 94 109
83 94 109
77 87 101
65 74 86
57 64 75
54 61 71
52 60 69
51 58 67
44 50 57
39 44 51
32 36 42
28 32 37
26 30 34
17 19 23
16 18 21
11 13 15
11 13 15
12 13 16
15 17 20
14 16 18
15 17 20
22 25 29
24 27 32
30 35 40
36 41 47
42 47 54
40 46 53
40 46 53
39 44 51
47 54 62
60 69 79
77 87 100
99 112 129
114 130 150
124 141 164
138 157 181
143 162 188
153 174 201
161 183 211
171 193 222
176 199 230
178 202 233
183 208 240
186 211 244
188 213 246
189 214 247
191 217 251
190 217 251
191 217 250
192 217 250
191 217 250
189 214 247
186 212 246
190 215 248
187 212 245
185 210 243
184 208 240
179 204 236
174 197 228
171 194 223
169 191 220
169 192 222
169 191 221
172 195 225
175 198 228
174 197 228
175 200 231
179 203 235
182 207 240
184 209 242
183 208 240
184 209 242
186 211 244
186 211 243
187 213 246
187 213 246
190 216 249
192 218 253
194 220 253
190 217 253
193 219 253
193 219 254
194 219 253
194 220 255
192 218 253
190 216 250
188 213 247
183 207 239
175 198 229
166 187 215
150 171 198
143 162 188
149 169 196
161 182 211
169 192 221
174 197 228
180 204 237
182 208 242
191 216 250
193 218 252
196 221 254
192 219 253
190 216 251
190 215 248
192 218 253
194 220 254
193 219 254
196 222 255
193 220 254
192 219 254
195 220 253
193 219 253
192 218 252
194 220 254
193 219 253
194 220 254
191 218 253
193 218 251
190 216 250
191 216 250
192 218 253
193 219 253
194 220 254
192 218 252
193 218 252
193 219 253
190 216 249
188 215 249
182 207 240
173 197 228
161 184 212
151 171 198
136 155 179
122 138 159
111 125 144
105 119 137
100 113 131
102 117 136
95 108 124
84 95 110
77 87 101
62 71 82
48 55 63
33 38 44
17 20 23
13 14 17
40 46 53
36 41 47
19 22 25
7 8 10
5 6 7
3 4 4
12 13 15
16 18 21
15 17 19
11 13 15
8 9 10
10 11 13
17 19 22
41 46 54
65 74 85
87 98 114
100 113 130
92 105 121
79 89 102
66 75 86
59 67 78
55 62 71
42 48 55
30 34 39
21 23 27
15 17 20
12 13 15
13 15 18
22 25 29
32 37 43
31 35 40
23 26 30
22 26 30
26 29 34
20 23 27
13 15 17
28 32 37
41 47 55
53 61 70
59 67 77
67 76 87
74 84 97
69 78 90
67 76 88
74 84 96
72 82 96
76 87 100
75 84 97
78 88 102
76 86 100
72 82 95
83 94 108
99 112 129
114 129 149
122 138 159
119 136 157
125 142 164
126 143 165
126 143 165
128 146 168
133 152 176
135 153 176
137 156 180
148 168 193
158 178 205
161 182 211
164 187 216
166 189 218
163 185 215
161 182 209
157 179 209
154 175 202
158 178 204
153 174 201
153 174 201
148 168 194
146 165 190
137 157 182
132 150 174
129 146 168
124 141 164
126 142 164
122 139 161
122 139 161
132 150 173
134 151 174
138 157 183
148 168 194
158 179 207
165 188 217
174 199 231
181 205 236
183 208 240
183 207 239
181 205 237
180 204 234
173 195 225
178 202 233
182 206 239
188 213 246
192 218 252
191 217 251
188 214 248
185 210 242
179 204 236
176 199 229
169 192 222
159 181 210
147 166 192
138 157 182
145 164 190
150 169 195
157 178 206
165 187 216
171 195 226
182 206 238
188 213 246
193 219 253
195 221 255
193 219 253
195 220 254
191 217 251
193 220 255
193 219 253
192 219 254
189 216 250
190 214 246
181 205 237
176 200 231
172 195 225
167 190 220
163 186 215
158 179 207
149 169 196
139 157 182
127 144 167
116 132 152
108 123 142
97 110 127
82 94 109
68 77 90
119 135 157
132 150 174
141 161 186
149 169 195
151 172 199
151 172 200
146 166 192
145 165 190
139 158 183
134 153 177
133 152 176
129 147 169
121 138 159
119 135 157
120 136 157
117 133 154
116 132 153
119 135 156
123 140 162
125 142 164
128 146 170
140 160 185
148 168 194
157 179 207
166 189 220
178 202 233
182 206 237
184 209 242
188 213 246
189 215 250
192 218 252
194 219 253
194 220 254
191 217 250
190 215 249
181 206 238
176 201 234
173 197 228
164 187 217
160 182 210
155 176 204
155 176 203
149 170 196
150 170 196
147 167 193
141 161 187
133 151 174
127 144 167
126 143 164
121 137 158
120 137 159
118 133 153
115 130 150
119 135 155
126 143 165
129 147 170
128 146 168
123 140 161
116 132 152
108 123 141
95 108 125
84 95 110
84 96 110
84 96 111
82 93 108
82 93 108
80 90 104
85 96 112
92 104 121
93 106 123
96 110 127
104 118 136
116 131 152
122 139 160
126 144 166
136 154 179
140 159 183
138 157 181
140 160 185
142 162 188
140 160 185
136 154 178
135 153 176
130 148 171
128 145 167
127 144 166
130 146 168
129 146 169
128 145 167
128 146 169
128 144 167
123 140 162
115 131 151
106 120 139
103 117 135
100 113 131
101 114 132
104 118 136
104 119 138
109 124 143
114 129 148
118 133 154
119 135 156
122 138 159
119 136 158
122 138 160
118 134 154
115 131 152
112 126 146
111 126 146
112 127 148
113 128 147
109 123 142
99 112 130
91 104 120
85 97 111
79 89 103
75 85 99
75 85 98
73 83 97
67 77 88
59 67 78
52 59 68
44 50 58
37 42 49
38 43 50
38 43 49
36 41 48
32 36 42
26 30 35
21 24 28
24 27 31
30 34 40
32 37 43
30 35 40
20 23 26
5 6 7
6 7 8
10 11 13
17 19 22
20 23 27
28 32 37
42 48 56
61 69 80
75 85 99
90 102 117
106 120 139
116 132 152
124 140 163
134 152 176
146 166 191
155 175 202
158 180 208
161 183 213
166 188 217
169 191 221
171 194 224
180 203 235
188 212 244
188 214 247
192 218 251
194 219 252
193 219 254
193 219 253
192 219 253
190 215 248
190 215 248
189 216 250
191 217 251
191 216 249
181 208 241
184 209 241
182 207 239
176 199 230
169 193 223
172 196 226
173 196 227
179 203 234
178 203 235
182 207 240
185 210 242
183 208 241
184 210 242
183 208 241
185 211 245
190 216 250
192 218 252
192 218 252
192 218 252
192 217 249
193 219 254
193 220 255
192 217 250
194 220 254
195 221 255
192 218 253
195 220 254
192 219 253
194 219 251
183 209 242
181 204 235
172 195 225
161 184 212
148 168 194
143 163 189
150 170 197
160 180 207
166 188 217
170 194 225
176 201 234
184 209 241
186 212 247
190 215 249
191 216 249
192 219 253
193 219 252
193 219 253
190 217 252
194 220 254
194 221 255
196 222 255
194 221 255
192 219 253
194 220 254
193 220 255
193 219 253
191 219 254
193 219 253
194 220 254
195 221 254
191 218 252
189 215 249
191 217 252
193 220 255
193 219 254
194 220 255
194 220 254
194 219 253
192 218 251
185 211 246
189 214 247
180 205 238
175 200 232
173 196 227
161 183 212
157 178 205
152 172 197
147 167 193
148 168 194
145 165 191
141 161 186
132 150 173
120 135 155
102 116 134
87 98 114
71 81 93
53 60 70
24 27 31
11 12 14
30 34 39
43 49 56
47 53 61
40 45 52
28 32 37
21 24 28
17 20 23
22 25 29
21 24 28
21 24 27
30 34 40
50 57 65
67 76 89
78 88 101
84 95 109
86 98 113
81 92 106
68 77 89
54 61 71
38 43 49
19 22 25
6 6 7
10 11 13
18 20 24
27 30 35
37 42 48
44 50 58
43 49 57
42 48 56
42 47 55
43 48 56
40 46 53
42 48 56
38 43 50
28 32 37
16 19 22
8 9 10
8 9 11
25 29 34
39 44 51
46 52 61
49 55 64
56 63 73
59 67 78
64 72 83
74 84 98
85 97 112
91 103 119
98 111 128
103 117 135
108 123 142
114 130 150
122 138 160
120 136 158
114 130 151
111 126 145
110 124 144
108 123 142
105 119 137
100 113 131
100 113 131
104 118 137
115 131 152
123 139 160
127 144 167
131 148 172
137 155 179
144 162 187
143 162 187
147 166 192
140 159 185
139 157 181
134 153 177
138 157 181
134 153 178
134 152 176
133 150 173
126 143 166
117 133 154
111 126 146
105 120 138
100 114 131
108 122 140
116 132 152
120 136 158
125 142 164
131 149 173
144 164 190
154 175 202
163 184 211
166 188 217
173 196 226
169 191 221
163 185 214
159 181 209
161 183 211
160 182 210
164 186 215
168 191 221
175 199 231
186 211 244
191 216 249
195 220 253
192 218 251
192 216 248
186 212 245
179 203 234
166 187 216
150 170 196
142 162 187
151 171 197
158 179 207
160 184 214
169 192 223
175 199 230
179 203 235
182 207 239
190 215 248
192 218 253
193 219 253
194 219 253
194 220 254
191 218 252
190 216 250
189 216 250
187 212 246
186 210 242
179 203 235
173 196 226
169 192 223
165 187 217
163 185 213
160 181 210
157 178 206
150 170 195
145 165 190
141 160 184
124 141 164
112 127 147
98 111 128
85 96 111
137 156 180
151 171 198
158 179 206
162 183 211
161 182 211
161 183 211
163 186 215
163 185 215
159 181 210
152 172 200
146 166 191
139 157 182
135 153 177
132 149 172
127 144 165
125 141 163
122 139 161
126 143 166
125 142 164
125 142 165
132 149 173
136 155 179
145 164 188
148 169 197
159 180 208
166 189 219
175 199 229
184 209 241
189 214 247
192 218 252
195 221 254
194 220 254
190 216 250
185 211 244
183 208 242
181 206 238
178 203 235
175 199 230
177 200 231
174 198 229
174 197 228
169 191 220
161 183 212
152 172 199
145 165 192
141 160 185
135 154 178
130 147 170
125 142 165
122 139 160
124 141 163
123 140 163
121 138 161
121 137 159
125 142 164
126 143 166
124 141 162
118 134 155
115 131 152
110 126 145
102 115 133
94 106 123
84 96 112
78 89 104
86 97 113
96 109 126
104 118 136
113 128 148
126 143 166
131 150 174
138 157 182
141 159 184
143 162 186
146 166 192
146 166 191
150 169 195
151 171 197
149 170 196
146 166 193
145 166 192
145 165 191
141 159 184
138 157 181
137 156 180
132 150 174
130 147 170
128 146 170
133 150 174
137 155 179
129 147 170
122 139 161
113 128 148
110 124 143
106 121 140
108 122 141
110 125 145
111 126 146
116 131 151
117 133 154
122 139 162
129 146 169
130 147 170
130 147 170
128 146 169
132 149 172
130 148 171
130 148 171
125 142 164
120 136 158
114 130 151
105 119 138
99 113 130
92 104 121
92 104 120
95 108 124
99 112 130
95 108 125
89 101 116
83 94 109
79 89 104
75 85 98
76 86 99
72 82 95
61 69 80
56 63 74
54 61 70
51 58 67
48 54 62
37 42 49
33 38 44
31 35 41
27 30 35
24 27 32
17 20 23
16 18 21
11 13 15
3 4 4
10 11 13
24 28 32
37 43 49
46 52 60
53 60 70
60 68 79
73 83 96
75 85 99
79 89 103
79 90 104
88 100 116
100 114 131
110 125 145
127 144 166
139 159 184
148 169 195
154 175 202
162 184 212
169 192 222
182 205 235
183 208 240
183 208 240
183 208 240
187 212 245
186 212 245
190 216 249
190 217 251
194 221 255
192 218 253
193 219 253
190 216 250
189 215 248
186 210 242
182 207 239
183 208 241
182 206 237
185 211 244
190 215 249
189 214 248
191 217 252
191 217 251
189 214 247
187 213 246
186 212 245
185 211 244
184 209 241
187 211 243
189 214 247
191 217 250
193 219 253
192 219 253
194 221 255
193 220 254
194 220 254
194 220 254
194 220 254
193 219 253
191 217 251
195 220 254
191 216 249
189 215 248
187 212 244
181 204 236
168 191 221
158 179 207
156 176 202
155 176 204
164 185 214
171 194 223
171 194 224
175 199 230
178 201 232
182 206 237
186 212 245
188 214 247
187 213 246
189 215 248
191 218 252
191 215 248
191 217 251
192 218 253
192 217 250
190 218 254
192 218 253
193 219 254
194 220 255
193 220 255
196 221 255
195 220 254
194 220 255
193 219 252
191 217 252
192 218 253
192 218 252
195 221 255
195 221 255
194 220 254
194 220 254
192 218 252
191 217 250
191 217 252
192 217 249
187 212 245
185 211 244
180 205 237
181 204 236
178 201 232
175 199 230
175 199 230
179 202 234
179 203 233
174 198 230
172 195 225
165 187 216
157 179 208
146 165 190
131 149 172
118 134 154
95 109 126
75 85 97
51 58 67
33 38 44
22 25 29
20 23 27
30 34 39
41 47 54
41 47 54
46 52 60
50 57 65
55 63 72
57 65 76
63 71 82
64 73 85
70 80 92
69 78 90
55 63 73
41 46 53
33 38 44
28 32 36
24 28 33
20 22 26
16 19 21
11 12 14
8 10 11
18 20 23
37 43 50
55 63 73
64 72 84
66 75 87
70 80 92
72 82 94
67 76 88
63 72 83
51 58 68
45 51 59
40 46 53
40 46 53
34 39 45
23 26 30
11 13 15
9 10 12
17 20 23
23 26 30
26 30 34
32 36 42
44 50 57
54 61 70
66 75 86
82 93 107
90 102 118
99 112 129
108 122 140
114 129 150
116 132 152
116 132 153
117 135 157
119 134 155
118 134 155
114 129 149
104 118 136
96 109 126
91 104 121
95 108 124
99 114 132
108 122 141
115 131 153
118 134 154
120 136 158
116 132 153
117 132 151
119 135 157
124 140 162
121 138 159
119 135 156
118 134 155
122 138 158
122 139 162
124 140 162
120 136 156
111 126 145
106 120 139
103 117 135
102 115 133
108 122 142
118 134 155
125 142 164
126 143 165
122 139 161
124 142 164
135 153 177
145 164 189
145 165 190
148 168 194
148 168 195
146 166 191
140 160 186
144 163 189
146 166 192
153 174 200
163 184 212
169 192 221
171 196 228
178 202 235
181 205 238
185 210 242
190 215 247
188 214 248
193 219 254
193 218 252
191 216 250
179 204 236
168 190 219
161 182 210
155 175 202
146 166 192
149 168 194
159 180 208
168 190 219
177 201 233
186 211 243
189 214 248
189 215 248
191 217 251
193 218 252
189 215 248
194 220 254
191 217 251
189 215 248
186 211 244
180 205 237
180 203 234
170 193 223
168 191 220
164 186 215
165 187 217
162 185 214
159 180 208
153 175 203
150 170 197
140 159 183
123 141 163
116 132 154
113 128 148
