P3
400 225
255
220 235 255
220 235 255
220 235 255
220 235 255
220 235 255
220 235 255
220 235 255
220 235 255
220 235 255
220 235 255
220 235 255
220 235 255
220 235 255
220 235 255
220 235 255
220 235 255
220 235 255
220 235 255
220 235 255
220 235 255
220 235 255
220 235 255
220 235 255
220 235 255
220 235 255
220 235 255
220 235 255
220 235 255
220 235 255
220 235 255
220 235 255
220 235 255
220 235 255
220 235 255
220 235 255
220 235 255
220 235 255
220 235 255
220 235 255
220 235 255
220 235 255
220 235 255
220 235 255
220 235 255
220 235 255
220 235 255
220 235 255
220 235 255
220 235 255
220 235 255
220 235 255
220 235 255
220 235 255
220 235 255
220 235 255
220 235 255
220 235 255
220 235 255
220 235 255
220 235 255
220 235 255
220 235 255
220 235 255
220 235 255
220 235 255
220 235 255
220 235 255
220 235 255
220 235 255
220 235 255
220 235 255
220 235 255
220 235 255
220 235 255
220 235 255
220 235 255
220 235 255
220 235 255
220 235 255
220 235 255
220 235 255
220 235 255
220 235 255
220 235 255
220 235 255
220 235 255
220 235 255
220 235 255
220 235 255
220 235 255
220 235 255
220 235 255
220 235 255
220 235 255
220 235 255
220 235 255
220 235 255
220 235 255
220 235 255
220 235 255
220 235 255
220 235 255
220 235 255
119 129 142
51 57 65
42 46 52
55 61 69
61 67 77
50 56 63
61 67 76
75 83 93
85 95 107
87 96 109
88 97 110
86 96 109
78 87 98
82 91 102
81 89 101
83 92 104
79 88 99
81 90 102
90 101 114
88 97 110
92 102 116
86 95 108
94 104 118
85 95 108
83 92 104
79 87 99
76 84 95
70 78 87
57 63 71
43 48 54
18 21 23
36 40 46
42 46 52
45 50 57
46 51 58
46 51 57
49 55 62
58 64 73
65 72 81
74 82 93
68 75 85
65 72 82
61 67 76
58 64 73
63 70 79
61 68 77
64 71 80
54 60 67
44 48 55
32 36 41
18 20 23
25 27 31
39 43 49
46 51 58
49 54 62
53 58 66
56 62 70
64 71 80
68 75 84
67 74 83
60 66 75
74 82 93
75 83 94
81 89 101
80 89 100
78 87 98
80 89 100
87 96 109
83 91 103
81 91 104
81 90 102
76 84 95
74 83 94
69 76 86
65 71 81
59 65 73
47 52 58
36 39 45
25 27 31
12 13 15
16 18 20
27 30 34
24 27 31
24 27 30
27 31 35
32 35 40
28 31 36
30 34 38
34 37 42
38 42 48
43 48 54
40 45 51
41 45 51
37 42 47
26 28 32
20 22 25
26 28 32
29 32 37
37 41 46
43 48 55
52 58 65
59 66 75
68 76 86
77 85 96
83 91 103
91 100 114
92 102 114
92 101 113
95 105 119
97 108 121
88 98 112
88 98 111
93 104 118
97 108 123
102 112 126
99 110 125
95 105 118
98 108 122
102 112 126
108 120 135
105 117 132
102 113 128
99 109 123
93 102 115
89 100 113
82 91 104
83 92 103
83 91 103
82 92 104
78 87 98
79 87 99
77 86 97
77 85 95
76 83 94
61 67 76
55 61 69
50 55 62
43 47 54
32 35 40
16 18 20
29 31 35
39 43 49
46 50 57
51 57 64
56 62 70
59 65 74
63 70 79
69 77 86
76 85 96
79 87 98
82 91 102
89 98 111
89 99 112
89 98 111
85 94 106
79 87 99
81 89 101
78 87 98
73 81 91
79 87 98
74 82 93
77 85 96
69 76 85
69 77 87
67 74 84
64 71 81
79 87 97
81 89 101
89 99 112
94 105 119
111 122 137
105 117 133
115 127 144
107 119 134
109 119 134
105 116 131
111 123 139
109 121 137
109 120 135
106 117 132
105 117 133
114 126 143
110 121 137
100 112 127
113 124 140
101 112 126
87 97 109
83 92 104
80 89 100
84 93 105
74 82 92
67 74 83
64 71 81
101 109 120
220 235 255
220 235 255
220 235 255
220 235 255
220 235 255
220 235 255
220 235 255
220 235 255
220 235 255
220 235 255
220 235 255
220 235 255
220 235 255
220 235 255
220 235 255
220 235 255
220 235 255
220 235 255
220 235 255
220 235 255
220 235 255
220 235 255
220 235 255
220 235 255
220 235 255
220 235 255
220 235 255
220 235 255
220 235 255
220 235 255
220 235 255
220 235 255
220 235 255
220 235 255
220 235 255
220 235 255
220 235 255
220 235 255
220 235 255
220 235 255
220 235 255
220 235 255
220 235 255
220 235 255
220 235 255
220 235 255
220 235 255
220 235 255
220 235 255
220 235 255
220 235 255
220 235 255
220 235 255
220 235 255
220 235 255
220 235 255
220 235 255
220 235 255
220 235 255
220 235 255
220 235 255
220 235 255
220 235 255
220 235 255
220 235 255
220 235 255
220 235 255
220 235 255
220 235 255
220 235 255
220 235 255
220 235 255
220 235 255
220 235 255
220 235 255
220 235 255
220 235 255
220 235 255
220 235 255
220 235 255
220 235 255
220 235 255
220 235 255
220 235 255
220 235 255
220 235 255
220 235 255
220 235 255
220 235 255
220 235 255
220 235 255
220 235 255
220 235 255
220 235 255
220 235 255
220 235 255
220 235 255
220 235 255
220 235 255
220 235 255
220 235 255
220 235 255
220 235 255
220 235 255
220 235 255
220 235 255
220 235 255
220 235 255
220 235 255
220 235 255
220 235 255
220 235 255
220 235 255
220 235 255
220 235 255
220 235 255
220 235 255
220 235 255
220 235 255
220 235 255
220 235 255
220 235 255
220 235 255
220 235 255
220 235 255
220 235 255
220 235 255
220 235 255
220 235 255
220 235 255
220 235 255
220 235 255
220 235 255
220 235 255
220 235 255
220 235 255
220 235 255
220 235 255
220 235 255
220 235 255
220 235 255
220 235 255
220 235 255
220 235 255
220 235 255
220 235 255
220 235 255
220 235 255
220 235 255
220 235 255
220 235 255
220 235 255
220 235 255
220 235 255
220 235 255
220 235 255
220 235 255
220 235 255
220 235 255
220 235 255
220 235 255
220 235 255
220 235 255
220 235 255
220 235 255
220 235 255
220 235 255
220 235 255
220 235 255
220 235 255
220 235 255
220 235 255
220 235 255
220 235 255
220 235 255
220 235 255
220 235 255
220 235 255
220 235 255
220 235 255
220 235 255
220 235 255
220 235 255
220 235 255
220 235 255
220 235 255
220 235 255
220 235 255
220 235 255
220 235 255
220 235 255
220 235 255
220 235 255
220 235 255
220 235 255
220 235 255
220 235 255
220 235 255
220 235 255
220 235 255
220 235 255
220 235 255
220 235 255
220 235 255
220 235 255
220 235 255
85 94 105
56 62 70
34 37 42
59 66 74
65 72 82
57 63 71
66 73 83
75 83 93
88 98 110
85 95 107
91 101 114
84 94 107
80 89 100
76 85 96
74 83 94
80 88 100
74 82 93
80 89 100
88 98 110
93 103 116
90 100 114
88 98 111
88 97 109
92 102 116
82 91 103
75 83 94
74 83 93
64 70 78
59 66 74
42 47 53
22 24 28
35 39 44
46 51 58
51 56 64
53 59 67
52 57 64
57 64 72
64 70 79
72 80 90
75 83 94
73 81 91
71 79 90
75 83 93
66 74 84
63 70 79
63 70 79
61 67 76
57 63 72
51 57 65
34 38 43
24 26 30
22 25 28
39 43 48
44 48 55
49 55 61
51 57 64
52 58 66
61 68 77
62 68 77
56 63 71
67 74 84
66 73 83
76 84 95
81 90 101
78 85 96
78 86 97
81 90 101
77 86 98
82 91 103
86 94 106
82 90 101
76 84 95
67 75 85
68 76 86
59 66 75
48 53 60
37 41 47
27 30 34
18 20 23
14 15 17
27 30 34
35 38 43
35 39 44
28 31 35
21 23 26
30 34 39
32 36 40
39 43 49
40 44 50
36 40 46
35 39 44
37 41 46
44 49 55
36 40 45
26 28 32
21 23 26
19 21 24
27 30 33
33 37 42
47 52 59
58 65 73
64 71 81
74 82 92
77 85 95
78 86 97
81 89 101
91 101 114
92 102 115
90 100 114
93 102 115
98 109 123
94 104 118
93 102 115
90 100 112
96 106 119
96 107 121
91 100 113
104 115 130
99 109 124
108 119 133
104 114 128
103 114 129
102 113 128
98 108 122
85 95 108
83 92 105
80 88 100
75 83 94
78 86 97
81 90 102
78 87 99
81 90 101
77 86 98
68 76 86
60 67 76
54 60 68
41 46 52
33 37 43
18 20 22
23 26 29
30 33 38
41 45 51
50 55 62
56 62 70
54 60 67
59 65 74
65 73 83
71 79 89
73 81 92
80 89 100
79 87 98
81 90 102
81 90 102
81 90 102
82 90 102
76 84 95
75 83 94
75 83 94
76 85 96
74 82 93
63 70 80
65 72 81
62 69 79
60 66 75
62 68 77
63 70 79
69 76 86
78 86 98
83 92 104
87 96 108
103 114 129
104 116 132
108 119 134
106 118 133
107 118 133
107 118 132
104 115 130
108 120 135
112 124 141
109 120 135
102 113 127
109 122 138
110 122 138
113 125 140
109 121 138
104 115 130
98 109 123
87 97 110
88 97 110
88 97 110
84 92 104
71 79 90
71 79 90
64 70 79
216 231 251
220 235 255
220 235 255
220 235 255
220 235 255
220 235 255
220 235 255
220 235 255
220 235 255
220 235 255
220 235 255
220 235 255
220 235 255
220 235 255
220 235 255
220 235 255
220 235 255
220 235 255
220 235 255
220 235 255
220 235 255
220 235 255
220 235 255
220 235 255
220 235 255
220 235 255
220 235 255
220 235 255
220 235 255
220 235 255
220 235 255
220 235 255
220 235 255
220 235 255
220 235 255
220 235 255
220 235 255
220 235 255
220 235 255
220 235 255
220 235 255
220 235 255
220 235 255
220 235 255
220 235 255
220 235 255
220 235 255
220 235 255
220 235 255
220 235 255
220 235 255
220 235 255
220 235 255
220 235 255
220 235 255
220 235 255
220 235 255
220 235 255
220 235 255
220 235 255
220 235 255
220 235 255
220 235 255
220 235 255
220 235 255
220 235 255
220 235 255
220 235 255
220 235 255
220 235 255
220 235 255
220 235 255
220 235 255
220 235 255
220 235 255
220 235 255
220 235 255
220 235 255
220 235 255
220 235 255
220 235 255
220 235 255
220 235 255
220 235 255
220 235 255
220 235 255
220 235 255
220 235 255
220 235 255
220 235 255
220 235 255
220 235 255
220 235 255
220 235 255
220 235 255
220 235 255
220 235 255
220 235 255
220 235 255
220 235 255
220 235 255
220 235 255
220 235 255
220 235 255
220 235 255
220 235 255
220 235 255
220 235 255
220 235 255
220 235 255
220 235 255
220 235 255
220 235 255
220 235 255
220 235 255
220 235 255
220 235 255
220 235 255
220 235 255
220 235 255
220 235 255
220 235 255
220 235 255
220 235 255
220 235 255
220 235 255
220 235 255
220 235 255
220 235 255
220 235 255
220 235 255
220 235 255
220 235 255
220 235 255
220 235 255
220 235 255
220 235 255
220 235 255
220 235 255
220 235 255
220 235 255
220 235 255
220 235 255
220 235 255
220 235 255
220 235 255
220 235 255
220 235 255
220 235 255
220 235 255
220 235 255
220 235 255
220 235 255
220 235 255
220 235 255
220 235 255
220 235 255
220 235 255
220 235 255
220 235 255
220 235 255
220 235 255
220 235 255
220 235 255
220 235 255
220 235 255
220 235 255
220 235 255
220 235 255
220 235 255
220 235 255
220 235 255
220 235 255
220 235 255
220 235 255
220 235 255
220 235 255
220 235 255
220 235 255
220 235 255
220 235 255
220 235 255
220 235 255
220 235 255
220 235 255
220 235 255
220 235 255
220 235 255
220 235 255
220 235 255
220 235 255
220 235 255
220 235 255
220 235 255
220 235 255
220 235 255
220 235 255
220 235 255
220 235 255
220 235 255
220 235 255
220 235 255
220 235 255
220 235 255
220 235 255
209 223 243
68 75 85
53 58 66
30 33 37
58 65 73
63 69 78
60 67 75
59 65 74
76 84 95
82 91 103
90 100 113
87 96 109
87 96 108
75 84 95
71 78 88
68 75 84
75 83 94
75 83 94
81 90 102
90 100 113
92 102 116
88 97 108
78 87 99
83 92 105
90 100 113
82 92 104
79 88 99
71 79 89
66 73 82
58 64 72
47 51 58
22 25 28
34 38 43
44 49 55
58 65 73
61 68 77
60 66 74
62 69 78
69 76 87
73 81 91
82 91 102
76 85 96
78 87 98
75 84 95
76 84 95
64 71 80
62 69 78
58 64 73
54 61 69
49 54 62
38 42 47
26 29 32
18 20 22
37 41 46
48 53 60
48 53 60
51 56 63
47 53 60
54 59 67
55 61 69
58 64 72
62 69 79
64 71 79
75 83 94
76 84 95
77 85 96
74 83 94
75 83 94
80 88 99
78 86 98
78 86 97
75 83 93
73 81 92
66 73 83
64 71 81
54 60 69
43 48 54
32 35 40
24 27 30
14 15 17
26 29 33
37 42 47
39 44 50
38 42 48
34 37 42
26 29 33
25 27 31
40 45 50
44 49 55
44 49 55
38 42 47
31 34 39
36 40 46
38 42 47
33 37 42
28 31 35
18 19 22
19 21 23
30 34 38
40 44 49
48 53 60
59 65 74
69 76 86
72 80 90
76 84 95
78 87 98
83 92 103
89 98 111
86 95 108
90 99 112
89 99 111
96 105 118
95 106 120
90 100 114
93 102 115
92 102 116
94 104 117
90 100 114
97 107 121
101 112 126
94 104 118
102 112 127
97 107 120
99 109 124
95 105 118
83 92 104
82 91 102
77 86 97
77 86 98
79 88 100
76 85 97
83 91 103
81 90 102
73 81 92
61 68 77
54 60 68
45 50 56
34 37 42
23 25 29
18 20 23
28 30 34
35 39 44
41 46 52
52 58 65
56 62 70
57 63 72
62 68 77
66 73 82
72 79 89
77 85 95
76 84 95
84 92 104
80 89 101
80 88 100
80 89 100
79 87 98
72 79 90
68 76 86
70 78 89
71 78 88
69 76 86
64 71 80
63 69 78
57 63 71
48 54 60
55 61 69
60 67 76
61 67 77
66 74 83
78 87 98
87 97 109
101 112 127
102 114 129
104 116 132
110 121 135
111 122 138
104 114 129
106 118 133
108 120 136
104 115 130
102 114 129
101 112 127
109 120 136
105 117 133
111 123 139
110 122 137
112 124 139
99 110 124
93 103 116
102 112 126
90 100 114
92 102 115
82 90 102
72 80 90
68 76 86
206 220 240
220 235 255
220 235 255
220 235 255
220 235 255
220 235 255
220 235 255
220 235 255
220 235 255
220 235 255
220 235 255
220 235 255
220 235 255
220 235 255
220 235 255
220 235 255
220 235 255
220 235 255
220 235 255
220 235 255
220 235 255
220 235 255
220 235 255
220 235 255
220 235 255
220 235 255
220 235 255
220 235 255
220 235 255
220 235 255
220 235 255
220 235 255
220 235 255
220 235 255
220 235 255
220 235 255
220 235 255
220 235 255
220 235 255
220 235 255
220 235 255
220 235 255
220 235 255
220 235 255
220 235 255
220 235 255
220 235 255
220 235 255
220 235 255
220 235 255
220 235 255
220 235 255
220 235 255
220 235 255
220 235 255
220 235 255
220 235 255
220 235 255
220 235 255
220 235 255
220 235 255
220 235 255
220 235 255
220 235 255
220 235 255
220 235 255
220 235 255
220 235 255
220 235 255
220 235 255
220 235 255
220 235 255
220 235 255
220 235 255
220 235 255
220 235 255
220 235 255
220 235 255
220 235 255
220 235 255
220 235 255
220 235 255
220 235 255
220 235 255
220 235 255
220 235 255
220 235 255
220 235 255
220 235 255
220 235 255
220 235 255
220 235 255
220 235 255
220 235 255
220 235 255
220 235 255
220 235 255
220 235 255
220 235 255
220 235 255
220 235 255
220 235 255
220 235 255
220 235 255
220 235 255
220 235 255
220 235 255
220 235 255
220 235 255
220 235 255
220 235 255
220 235 255
220 235 255
220 235 255
220 235 255
220 235 255
220 235 255
220 235 255
220 235 255
220 235 255
220 235 255
220 235 255
220 235 255
220 235 255
220 235 255
220 235 255
220 235 255
220 235 255
220 235 255
220 235 255
220 235 255
220 235 255
220 235 255
220 235 255
220 235 255
220 235 255
220 235 255
220 235 255
220 235 255
220 235 255
220 235 255
220 235 255
220 235 255
220 235 255
220 235 255
220 235 255
220 235 255
220 235 255
220 235 255
220 235 255
220 235 255
220 235 255
220 235 255
220 235 255
220 235 255
220 235 255
220 235 255
220 235 255
220 235 255
220 235 255
220 235 255
220 235 255
220 235 255
220 235 255
220 235 255
220 235 255
220 235 255
220 235 255
220 235 255
220 235 255
220 235 255
220 235 255
220 235 255
220 235 255
220 235 255
220 235 255
220 235 255
220 235 255
220 235 255
220 235 255
220 235 255
220 235 255
220 235 255
220 235 255
220 235 255
220 235 255
220 235 255
220 235 255
220 235 255
220 235 255
220 235 255
220 235 255
220 235 255
220 235 255
220 235 255
220 235 255
220 235 255
220 235 255
220 235 255
220 235 255
220 235 255
220 235 255
220 235 255
220 235 255
220 235 255
205 218 238
60 66 74
46 51 57
35 39 44
52 57 65
63 70 80
62 69 78
62 69 78
77 86 98
81 90 103
88 98 111
82 91 102
80 88 99
73 81 92
64 71 80
65 72 81
69 76 86
73 81 92
84 93 105
90 100 112
86 95 108
81 91 103
86 95 107
86 95 107
79 88 100
77 85 96
78 86 97
70 78 88
61 68 77
57 63 71
41 46 52
19 22 25
40 44 50
56 63 71
61 67 75
69 76 85
66 73 83
71 78 88
73 81 91
75 83 94
79 88 99
84 93 104
84 93 104
86 95 106
80 89 101
76 84 95
68 75 85
59 66 75
54 61 70
56 61 69
48 53 60
36 39 44
18 20 22
32 35 40
38 42 48
43 47 53
47 52 58
46 51 58
57 62 70
54 60 67
59 66 74
56 62 71
63 70 79
70 78 88
70 78 88
73 80 91
75 82 93
73 81 92
80 88 99
74 82 94
72 81 91
69 76 86
67 74 84
61 68 76
55 61 68
51 56 63
40 45 51
24 27 30
9 10 12
19 21 24
32 35 40
37 41 46
41 46 51
35 39 44
36 40 46
36 39 45
35 39 44
45 50 56
47 52 59
46 51 57
43 47 53
38 42 47
39 43 48
36 40 46
31 35 39
22 24 27
16 17 20
28 31 35
36 40 45
43 48 55
55 61 69
68 75 85
72 80 90
73 81 91
76 84 96
74 82 94
82 92 104
80 90 102
81 90 101
85 94 107
85 94 106
86 95 108
90 99 112
94 104 117
88 98 110
91 100 113
91 101 113
94 104 117
97 108 122
102 113 128
96 107 121
92 102 116
98 109 123
95 105 118
90 100 113
81 91 103
78 86 98
81 90 101
77 84 95
78 87 98
78 86 97
81 89 101
78 85 96
74 82 92
61 67 76
47 52 59
35 39 44
16 18 21
23 25 29
33 37 42
38 42 48
38 42 48
45 49 56
50 55 62
58 65 74
59 65 73
63 69 78
67 74 84
73 80 90
72 79 89
73 81 92
74 82 92
74 82 92
74 82 93
76 84 95
74 82 93
70 77 87
69 76 86
69 77 87
70 78 87
67 74 84
63 69 79
58 64 72
53 59 66
42 47 53
45 50 57
57 63 71
59 65 73
67 74 84
69 77 87
79 88 100
84 93 106
106 117 131
102 114 129
107 118 133
105 116 130
96 107 120
112 123 139
107 118 134
103 115 131
107 118 133
101 112 127
103 114 128
108 120 136
116 128 145
109 121 137
102 112 125
105 115 130
106 117 132
105 116 131
106 116 131
96 106 120
86 94 106
84 92 104
74 82 93
195 208 226
220 235 255
220 235 255
220 235 255
220 235 255
220 235 255
220 235 255
220 235 255
220 235 255
220 235 255
220 235 255
220 235 255
220 235 255
220 235 255
220 235 255
220 235 255
220 235 255
220 235 255
220 235 255
220 235 255
220 235 255
220 235 255
220 235 255
220 235 255
220 235 255
220 235 255
220 235 255
220 235 255
220 235 255
220 235 255
220 235 255
220 235 255
220 235 255
220 235 255
220 235 255
220 235 255
220 235 255
220 235 255
220 235 255
220 235 255
220 235 255
220 235 255
220 235 255
220 235 255
220 235 255
220 235 255
220 235 255
220 235 255
220 235 255
220 235 255
220 235 255
220 235 255
220 235 255
220 235 255
220 235 255
220 235 255
220 235 255
220 235 255
220 235 255
220 235 255
220 235 255
220 235 255
220 235 255
220 235 255
220 235 255
220 235 255
220 235 255
220 235 255
220 235 255
220 235 255
220 235 255
220 235 255
220 235 255
220 235 255
220 235 255
220 235 255
220 235 255
220 235 255
220 235 255
220 235 255
220 235 255
220 235 255
220 235 255
220 235 255
220 235 255
220 235 255
220 235 255
220 235 255
220 235 255
220 235 255
220 235 255
220 235 255
220 235 255
220 235 255
220 235 255
220 235 255
220 235 255
220 235 255
220 235 255
220 235 255
220 235 255
220 235 255
220 235 255
221 235 255
221 235 255
221 235 255
221 235 255
221 235 255
221 235 255
221 235 255
221 235 255
221 235 255
221 235 255
221 235 255
221 235 255
221 235 255
221 235 255
221 235 255
221 235 255
221 235 255
221 235 255
221 235 255
221 235 255
221 235 255
221 235 255
221 235 255
221 235 255
221 235 255
221 235 255
221 235 255
221 235 255
221 235 255
221 235 255
221 235 255
221 235 255
221 235 255
221 235 255
221 235 255
221 235 255
221 235 255
221 235 255
221 235 255
221 235 255
221 235 255
221 235 255
221 235 255
221 235 255
221 235 255
221 235 255
221 235 255
221 235 255
221 235 255
221 235 255
221 235 255
221 235 255
221 235 255
221 235 255
221 235 255
221 235 255
221 235 255
221 235 255
221 235 255
221 235 255
221 235 255
221 235 255
221 235 255
221 235 255
221 235 255
221 235 255
221 235 255
221 235 255
221 235 255
221 235 255
221 235 255
221 235 255
221 235 255
221 235 255
221 235 255
221 235 255
221 235 255
221 235 255
221 235 255
221 235 255
221 235 255
221 235 255
221 235 255
221 235 255
221 235 255
221 235 255
221 235 255
221 235 255
221 235 255
221 235 255
221 235 255
221 235 255
221 235 255
221 235 255
221 235 255
221 235 255
221 235 255
221 235 255
221 235 255
221 235 255
221 235 255
221 235 255
196 209 228
54 60 68
39 43 48
40 44 50
55 60 68
65 72 81
66 72 82
59 65 74
72 80 90
79 88 99
88 96 108
71 80 91
73 80 91
65 72 81
61 67 76
59 65 73
61 68 77
69 77 87
78 86 98
83 92 105
79 88 101
83 92 104
85 95 107
81 89 101
83 91 102
77 85 97
72 80 90
63 70 79
55 61 68
42 47 53
27 30 34
20 22 25
47 52 59
66 73 83
69 75 84
70 77 87
73 81 92
71 80 91
76 84 96
78 86 98
82 91 103
88 99 113
90 99 112
90 99 111
86 96 108
79 87 99
70 77 87
65 73 82
64 71 81
58 64 73
56 62 70
47 52 59
33 37 41
19 21 24
27 30 34
40 45 50
41 45 51
45 49 56
48 53 60
49 55 62
56 62 69
60 67 75
57 64 72
61 67 76
61 67 76
67 75 84
64 71 80
73 80 91
68 76 86
67 74 84
66 73 83
68 75 84
64 70 79
56 62 70
49 54 61
41 45 51
35 39 44
18 20 23
19 21 24
32 35 40
35 39 44
38 41 47
42 46 53
45 50 56
46 51 58
46 51 58
51 57 65
51 56 64
49 55 62
50 55 63
46 51 58
47 52 59
44 49 55
37 41 46
36 40 46
26 29 33
25 27 31
36 40 45
37 41 46
48 53 59
60 67 75
65 73 82
72 80 90
69 76 86
77 86 97
71 79 90
75 83 94
80 89 101
81 91 103
81 90 102
77 85 97
84 93 106
85 94 107
89 99 113
92 101 114
93 103 116
91 100 114
91 100 113
95 104 118
96 106 119
96 106 120
97 108 122
87 97 109
86 94 106
81 90 102
83 91 103
79 88 100
71 79 89
72 79 89
76 84 94
78 87 98
75 83 94
71 79 89
64 71 81
54 59 67
37 41 46
24 27 31
27 30 34
35 38 43
41 45 51
43 47 53
40 44 50
48 53 60
58 64 72
57 63 70
64 71 80
65 72 82
64 71 80
65 72 81
70 77 88
69 76 85
73 81 92
69 76 86
66 73 83
68 75 85
63 70 80
61 68 78
67 74 83
69 76 86
69 77 87
68 75 85
62 68 77
55 61 70
48 53 60
45 50 56
49 54 62
55 62 70
58 64 72
59 66 75
64 71 80
77 85 95
84 93 106
90 100 113
104 115 130
95 106 121
101 113 128
100 111 124
103 115 130
104 114 129
103 114 129
97 108 123
109 120 135
103 114 129
114 127 143
114 126 142
116 128 144
114 126 142
107 119 135
107 119 135
107 118 132
105 116 131
92 102 115
87 97 110
86 95 107
77 86 97
187 200 218
221 235 255
221 235 255
221 235 255
221 235 255
221 235 255
221 235 255
221 235 255
221 235 255
221 235 255
221 235 255
221 235 255
221 235 255
221 235 255
221 235 255
221 235 255
221 235 255
221 235 255
221 235 255
221 235 255
221 235 255
221 235 255
221 235 255
221 235 255
221 235 255
221 235 255
221 235 255
221 235 255
221 235 255
221 235 255
221 235 255
221 235 255
221 235 255
221 235 255
221 235 255
221 235 255
221 235 255
221 235 255
221 235 255
221 235 255
221 235 255
221 235 255
221 235 255
221 235 255
221 235 255
221 235 255
221 235 255
221 235 255
221 235 255
221 235 255
221 235 255
221 235 255
221 235 255
221 235 255
221 235 255
221 235 255
221 235 255
221 235 255
221 235 255
221 235 255
221 235 255
221 235 255
221 235 255
221 235 255
221 235 255
221 235 255
221 235 255
221 235 255
221 235 255
221 235 255
221 235 255
221 235 255
221 235 255
221 235 255
221 235 255
221 235 255
221 235 255
221 235 255
221 235 255
221 235 255
221 235 255
221 235 255
221 235 255
221 235 255
221 235 255
221 235 255
221 235 255
221 235 255
221 235 255
221 235 255
221 235 255
221 235 255
221 235 255
221 235 255
221 235 255
221 235 255
221 235 255
221 235 255
221 235 255
221 235 255
221 235 255
221 235 255
221 235 255
221 235 255
221 235 255
221 235 255
221 235 255
221 235 255
221 235 255
221 235 255
221 235 255
221 235 255
221 235 255
221 235 255
221 235 255
221 235 255
221 235 255
221 235 255
221 235 255
221 235 255
221 235 255
221 235 255
221 235 255
221 235 255
221 235 255
221 235 255
221 235 255
221 235 255
221 235 255
221 235 255
221 235 255
221 235 255
221 235 255
221 235 255
221 235 255
221 235 255
221 235 255
221 235 255
221 235 255
221 235 255
221 235 255
221 235 255
221 235 255
221 235 255
221 235 255
221 235 255
221 235 255
221 235 255
221 235 255
221 235 255
221 235 255
221 235 255
221 235 255
221 235 255
221 235 255
221 235 255
221 235 255
221 235 255
221 235 255
221 235 255
221 235 255
221 235 255
221 235 255
221 235 255
221 235 255
221 235 255
221 235 255
221 235 255
221 235 255
221 235 255
221 235 255
221 235 255
221 235 255
221 235 255
221 235 255
221 235 255
221 235 255
221 235 255
221 235 255
221 235 255
221 235 255
221 235 255
221 235 255
221 235 255
221 235 255
221 235 255
221 235 255
221 235 255
221 235 255
221 235 255
221 235 255
221 235 255
221 235 255
221 235 255
221 235 255
221 235 255
221 235 255
221 235 255
221 235 255
221 235 255
221 235 255
221 235 255
221 235 255
221 235 255
221 235 255
184 197 214
55 61 69
35 38 43
42 47 53
51 57 65
66 73 82
60 66 75
60 67 76
65 72 81
72 80 90
74 83 94
75 83 94
68 75 84
61 67 76
56 61 69
53 59 67
54 60 68
64 71 80
69 77 86
68 76 86
75 82 93
77 85 96
80 88 99
80 88 99
78 86 98
71 79 89
66 73 82
57 63 71
44 49 56
24 27 31
19 21 24
36 40 45
58 63 71
71 79 89
67 74 84
75 83 94
71 78 89
78 86 98
81 89 101
82 90 102
73 81 93
93 103 116
95 105 118
95 105 118
88 97 110
83 92 104
75 83 94
72 80 91
72 80 90
70 77 87
64 70 80
53 58 66
45 50 57
31 35 39
19 21 23
38 43 48
43 48 55
48 53 61
51 56 63
46 51 58
50 55 62
50 55 63
51 56 63
50 55 62
51 56 64
52 58 66
59 65 74
59 66 75
59 66 74
61 67 76
56 62 70
57 63 72
57 63 71
41 46 52
33 36 41
35 39 44
26 29 33
16 18 20
29 33 37
39 43 48
45 50 56
42 47 53
41 46 52
50 56 63
52 57 65
54 60 67
55 61 68
59 65 73
57 63 71
56 62 70
53 59 67
50 56 63
48 53 60
41 46 52
35 39 44
35 38 43
36 40 45
38 43 49
43 47 53
47 52 59
56 61 69
69 76 85
71 79 90
75 83 94
75 83 94
72 80 90
74 82 92
81 89 101
77 85 96
79 87 99
76 84 95
77 86 98
87 97 109
84 93 105
92 102 115
91 102 115
88 97 110
90 99 111
98 108 122
97 107 121
96 106 120
90 100 114
91 101 114
85 94 106
83 91 102
81 90 102
75 83 94
71 78 88
67 74 83
67 74 84
69 76 86
72 79 90
65 72 81
58 65 73
45 50 57
24 26 30
20 22 25
43 48 54
50 56 63
49 54 61
45 50 56
44 49 56
47 52 59
52 58 65
60 66 74
58 65 74
62 69 79
63 70 79
65 72 81
61 68 77
66 73 82
70 78 88
69 77 87
66 74 83
67 74 84
63 70 79
61 67 75
60 67 76
60 66 75
64 71 80
68 75 84
59 65 73
48 53 60
46 51 57
45 50 56
46 51 58
48 54 61
53 59 66
58 65 73
62 69 78
70 78 88
76 85 96
87 97 110
96 106 120
101 113 128
108 119 134
105 117 132
104 115 130
108 119 133
101 112 127
97 107 121
107 118 134
102 113 128
108 120 136
114 127 145
111 123 139
109 121 137
108 120 136
110 121 136
109 120 135
107 118 134
107 118 133
89 99 112
86 96 108
80 89 100
172 184 200
221 235 255
221 235 255
221 235 255
221 235 255
221 235 255
221 235 255
221 235 255
221 235 255
221 235 255
221 235 255
221 235 255
221 235 255
221 235 255
221 235 255
221 235 255
221 235 255
221 235 255
221 235 255
221 235 255
221 235 255
221 235 255
221 235 255
221 235 255
221 235 255
221 235 255
221 235 255
221 235 255
221 235 255
221 235 255
221 235 255
221 235 255
221 235 255
221 235 255
221 235 255
221 235 255
221 235 255
221 235 255
221 235 255
221 235 255
221 235 255
221 235 255
221 235 255
221 235 255
221 235 255
221 235 255
221 235 255
221 235 255
221 235 255
221 235 255
221 235 255
221 235 255
221 235 255
221 235 255
221 235 255
221 235 255
221 235 255
221 235 255
221 235 255
221 235 255
221 235 255
221 235 255
221 235 255
221 235 255
221 235 255
221 235 255
221 235 255
221 235 255
221 235 255
221 235 255
221 235 255
221 235 255
221 235 255
221 235 255
221 235 255
221 235 255
221 235 255
221 235 255
221 235 255
221 235 255
221 235 255
221 235 255
221 235 255
221 235 255
221 235 255
221 235 255
221 235 255
221 235 255
221 235 255
221 235 255
221 235 255
221 235 255
221 235 255
221 235 255
221 235 255
221 235 255
221 235 255
221 235 255
221 235 255
221 235 255
221 235 255
221 235 255
221 235 255
221 235 255
221 235 255
221 235 255
221 235 255
221 235 255
221 235 255
221 235 255
221 235 255
221 235 255
221 235 255
221 235 255
221 235 255
221 235 255
221 235 255
221 235 255
221 235 255
221 235 255
221 235 255
221 235 255
221 235 255
221 235 255
221 235 255
221 235 255
221 235 255
221 235 255
221 235 255
221 235 255
221 235 255
221 235 255
221 235 255
221 235 255
221 235 255
221 235 255
221 235 255
221 235 255
221 235 255
221 235 255
221 235 255
221 235 255
221 235 255
221 235 255
221 235 255
221 235 255
221 235 255
221 235 255
221 235 255
221 235 255
221 235 255
221 235 255
221 235 255
221 235 255
221 235 255
221 235 255
221 235 255
221 235 255
221 235 255
221 235 255
221 235 255
221 235 255
221 235 255
221 235 255
221 235 255
221 235 255
221 235 255
221 235 255
221 235 255
221 235 255
221 235 255
221 235 255
221 235 255
221 235 255
221 235 255
221 235 255
221 235 255
221 235 255
221 235 255
221 235 255
221 235 255
221 235 255
221 235 255
221 235 255
221 235 255
221 235 255
221 235 255
221 235 255
221 235 255
221 235 255
221 235 255
221 235 255
221 235 255
221 235 255
221 235 255
221 235 255
221 235 255
221 235 255
221 235 255
221 235 255
221 235 255
221 235 255
221 235 255
221 235 255
221 235 255
160 172 188
49 54 61
31 34 39
48 53 60
57 63 71
66 73 82
62 69 78
57 63 71
56 62 71
62 69 78
68 76 85
68 76 85
55 61 68
50 55 63
45 50 56
38 42 47
48 53 60
55 61 69
59 66 75
68 75 84
67 74 84
67 73 83
67 75 85
69 75 85
85 95 107
80 89 100
61 68 78
56 62 70
38 42 48
16 18 21
29 32 36
44 49 56
68 75 84
69 77 86
70 77 87
72 80 91
79 87 98
86 94 107
81 90 102
86 95 107
88 97 109
93 103 116
96 106 119
92 103 116
87 96 109
83 92 104
74 82 93
79 87 99
76 84 95
72 80 90
63 70 80
58 65 73
46 52 59
38 42 48
21 24 27
36 40 46
46 51 57
45 49 56
43 48 54
37 41 46
37 41 46
36 39 44
37 41 47
38 42 48
40 45 50
40 44 49
42 46 52
52 57 65
56 62 69
52 57 64
50 55 63
55 61 68
45 50 57
33 36 41
25 28 32
16 18 20
19 21 24
25 28 31
35 39 43
43 48 54
46 51 57
47 52 59
47 52 58
54 60 68
55 61 69
54 60 68
60 67 76
58 64 72
59 65 74
58 63 71
58 63 71
55 61 69
54 60 68
48 53 60
45 50 57
44 49 55
47 51 58
45 50 57
49 55 62
55 60 68
57 62 70
69 77 86
70 77 87
75 83 94
69 76 85
68 76 86
69 77 87
80 88 99
79 87 98
77 85 96
73 81 91
80 89 100
80 89 100
79 88 99
89 98 110
86 95 107
88 97 110
94 104 117
92 102 115
86 96 108
93 103 116
95 105 119
90 99 111
88 97 110
78 86 97
73 82 94
75 83 93
72 80 91
66 73 83
62 69 79
66 72 81
59 66 76
59 65 74
46 51 58
31 35 40
22 25 28
37 41 46
50 55 62
48 54 61
55 61 69
53 59 66
45 50 57
46 51 58
53 58 66
58 64 73
55 62 70
57 63 71
58 64 72
63 69 78
65 72 82
67 74 84
75 84 95
68 75 85
67 74 84
59 65 74
53 59 67
58 65 73
60 66 74
55 61 69
65 72 81
61 67 75
55 61 69
51 57 64
41 45 51
42 47 53
42 47 53
48 53 59
52 57 65
56 62 70
60 66 74
72 80 90
74 82 92
83 92 104
91 100 113
101 112 127
99 110 124
99 109 124
106 117 132
104 115 131
98 108 122
103 114 129
97 108 121
108 119 135
106 118 134
117 128 144
114 126 143
111 122 138
112 123 139
114 126 143
117 130 146
115 128 145
114 126 142
101 112 126
94 103 117
79 87 98
165 177 193
221 235 255
221 235 255
221 235 255
221 235 255
221 235 255
221 235 255
221 235 255
221 235 255
221 235 255
221 235 255
221 235 255
221 235 255
221 235 255
221 235 255
221 235 255
221 235 255
221 235 255
221 235 255
221 235 255
221 235 255
221 235 255
221 235 255
221 235 255
221 235 255
221 235 255
221 235 255
221 235 255
221 235 255
221 235 255
221 235 255
221 235 255
221 235 255
221 235 255
221 235 255
221 235 255
221 235 255
221 235 255
221 235 255
221 235 255
221 235 255
221 235 255
221 235 255
221 235 255
221 235 255
221 235 255
221 235 255
221 235 255
221 235 255
221 235 255
221 235 255
221 235 255
221 235 255
221 235 255
221 235 255
221 235 255
221 235 255
221 235 255
221 235 255
221 235 255
221 235 255
221 235 255
221 235 255
221 235 255
221 235 255
221 235 255
221 235 255
221 235 255
221 235 255
221 235 255
221 235 255
221 235 255
221 235 255
221 235 255
221 235 255
221 235 255
221 235 255
221 235 255
221 235 255
221 235 255
221 235 255
221 235 255
221 235 255
221 235 255
221 235 255
221 235 255
221 235 255
221 235 255
221 235 255
221 235 255
221 235 255
221 235 255
221 235 255
221 235 255
221 235 255
221 235 255
221 235 255
221 235 255
221 235 255
221 235 255
221 235 255
221 235 255
221 235 255
221 235 255
221 235 255
221 235 255
221 235 255
221 235 255
221 235 255
221 235 255
221 235 255
221 235 255
221 235 255
221 235 255
221 235 255
221 235 255
221 235 255
221 235 255
221 235 255
221 235 255
221 235 255
221 235 255
221 235 255
221 235 255
221 235 255
221 235 255
221 235 255
221 235 255
221 235 255
221 235 255
221 235 255
221 235 255
221 235 255
221 235 255
221 235 255
221 235 255
221 235 255
221 235 255
221 235 255
221 235 255
221 235 255
221 235 255
221 235 255
221 235 255
221 235 255
221 235 255
221 235 255
221 235 255
221 235 255
221 235 255
221 235 255
221 235 255
221 235 255
221 235 255
221 235 255
221 235 255
221 235 255
221 235 255
221 235 255
221 235 255
221 235 255
221 235 255
221 235 255
221 235 255
221 235 255
221 235 255
221 235 255
221 235 255
221 235 255
221 235 255
221 235 255
221 235 255
221 235 255
221 235 255
221 235 255
221 235 255
221 235 255
221 235 255
221 235 255
221 235 255
221 235 255
221 235 255
221 235 255
221 235 255
221 235 255
221 235 255
221 235 255
221 235 255
221 235 255
221 235 255
221 235 255
221 235 255
221 235 255
221 235 255
221 235 255
221 235 255
221 235 255
221 235 255
221 235 255
221 235 255
221 235 255
221 235 255
221 235 255
221 235 255
221 235 255
146 157 172
48 52 59
31 35 39
48 53 60
53 59 66
62 69 78
57 63 71
59 66 74
54 60 68
56 62 70
62 69 78
62 69 78
44 48 55
34 38 43
32 36 40
29 32 36
46 51 58
51 56 64
48 54 60
51 56 63
51 56 64
53 59 66
59 66 75
69 76 85
70 78 88
78 86 96
72 79 89
52 58 65
27 30 34
13 14 16
32 36 41
48 53 60
64 71 80
71 79 89
74 81 92
76 85 96
76 83 94
86 96 108
86 96 108
91 101 113
81 90 102
89 99 112
94 104 118
96 106 119
94 103 116
91 101 114
83 92 105
80 89 101
79 87 98
72 80 90
69 77 86
60 66 74
54 60 68
43 48 54
20 22 25
25 27 31
37 41 46
37 41 46
34 37 42
30 33 37
24 26 30
17 19 21
18 20 22
20 22 26
20 22 25
21 23 26
26 29 33
37 42 47
45 49 55
40 44 50
43 48 54
49 54 61
41 45 50
29 32 36
18 20 23
23 25 28
35 39 44
37 41 46
41 45 51
45 50 57
46 51 57
50 56 63
53 59 67
60 66 74
58 64 72
63 69 78
57 63 71
60 67 75
57 62 70
59 65 74
58 65 73
57 63 71
55 61 69
50 56 63
53 59 67
52 58 66
54 60 68
59 65 74
59 65 73
62 68 76
57 63 72
61 67 76
67 74 84
67 75 85
67 74 83
71 78 88
70 77 87
71 79 89
81 90 101
74 81 91
69 77 87
79 87 97
82 91 102
85 94 106
84 94 107
94 104 117
87 97 110
97 108 122
88 98 111
85 95 108
88 97 110
86 95 107
81 91 103
87 96 108
77 85 96
73 81 91
74 82 92
66 74 83
66 73 83
63 70 79
53 59 66
52 57 65
42 47 53
23 25 28
21 23 26
31 34 38
37 41 47
52 58 65
54 60 68
59 65 73
53 58 66
48 53 60
50 55 62
51 56 63
57 63 71
56 62 71
56 62 70
56 62 70
62 68 77
67 73 83
67 74 84
65 72 82
68 75 84
62 69 77
66 73 82
61 68 76
58 65 73
56 62 70
55 60 68
56 62 70
56 62 71
54 60 68
48 53 60
43 47 52
35 39 44
38 42 47
44 49 55
50 56 63
52 58 66
60 66 75
64 71 80
68 75 85
78 86 97
89 99 112
95 105 118
102 113 128
97 108 124
102 112 126
105 116 131
99 111 126
109 120 136
96 107 120
101 112 127
108 119 135
107 119 134
113 125 142
114 127 143
119 131 148
115 127 143
125 139 156
124 137 154
116 129 145
110 122 137
97 107 121
86 95 108
154 165 180
221 235 255
221 235 255
221 235 255
221 235 255
221 235 255
221 235 255
221 235 255
221 235 255
221 235 255
221 235 255
221 235 255
221 235 255
221 235 255
221 235 255
221 235 255
221 235 255
221 235 255
221 235 255
221 235 255
221 235 255
221 235 255
221 235 255
221 235 255
221 235 255
221 235 255
221 235 255
221 235 255
221 235 255
221 235 255
221 235 255
221 235 255
221 235 255
221 235 255
221 235 255
221 235 255
221 235 255
221 235 255
221 235 255
221 235 255
221 235 255
221 235 255
221 235 255
221 235 255
221 235 255
221 235 255
221 235 255
221 235 255
221 235 255
221 235 255
221 235 255
221 235 255
221 235 255
221 235 255
221 235 255
221 235 255
221 235 255
221 235 255
221 235 255
221 235 255
221 235 255
221 235 255
221 235 255
221 235 255
221 235 255
221 235 255
221 235 255
221 235 255
221 235 255
221 235 255
221 235 255
221 235 255
221 235 255
221 235 255
221 235 255
221 235 255
221 235 255
221 235 255
221 235 255
221 235 255
221 235 255
221 235 255
221 235 255
221 235 255
221 235 255
221 235 255
221 235 255
221 235 255
221 235 255
221 235 255
221 235 255
221 235 255
221 235 255
221 235 255
221 235 255
221 235 255
221 235 255
221 235 255
221 235 255
221 235 255
221 235 255
221 235 255
221 235 255
221 235 255
221 235 255
221 235 255
221 235 255
221 235 255
221 235 255
221 235 255
221 235 255
221 235 255
221 235 255
221 235 255
221 235 255
221 235 255
221 235 255
221 235 255
221 235 255
221 235 255
221 235 255
221 235 255
221 235 255
221 235 255
221 235 255
221 235 255
221 235 255
221 235 255
221 235 255
221 235 255
221 235 255
221 235 255
221 235 255
221 235 255
221 235 255
221 235 255
221 235 255
221 235 255
221 235 255
221 235 255
221 235 255
221 235 255
221 235 255
221 235 255
221 235 255
221 235 255
221 235 255
221 235 255
221 235 255
221 235 255
221 235 255
221 235 255
221 235 255
221 235 255
221 235 255
221 235 255
221 235 255
221 235 255
221 235 255
221 235 255
221 235 255
221 235 255
221 235 255
221 235 255
221 235 255
221 235 255
221 235 255
221 235 255
221 235 255
221 235 255
221 235 255
221 235 255
221 235 255
221 235 255
221 235 255
221 235 255
221 235 255
221 235 255
221 235 255
221 235 255
221 235 255
221 235 255
221 235 255
221 235 255
221 235 255
221 235 255
221 235 255
221 235 255
221 235 255
221 235 255
221 235 255
221 235 255
221 235 255
221 235 255
221 235 255
221 235 255
221 235 255
221 235 255
221 235 255
221 235 255
221 235 255
221 235 255
221 235 255
221 235 255
221 235 255
143 154 169
42 46 53
36 39 44
46 51 58
55 61 70
53 58 66
52 58 66
59 66 74
54 59 67
46 51 57
45 49 56
39 43 49
33 37 41
17 19 21
21 24 27
24 27 30
30 33 38
37 41 46
36 39 44
39 44 49
43 48 54
46 51 58
51 56 63
62 69 78
69 77 87
71 79 89
65 73 82
46 50 57
26 29 32
13 14 16
32 35 40
50 55 62
60 66 75
73 81 91
76 84 95
81 90 102
80 89 102
80 89 101
84 93 105
86 95 107
83 92 105
91 100 113
96 106 120
92 102 116
89 98 111
84 93 104
83 92 103
75 83 94
73 81 91
72 79 88
66 73 82
63 70 79
57 63 71
48 54 61
33 37 42
16 18 20
25 27 31
27 30 34
24 27 31
15 17 19
20 22 25
31 34 39
36 39 44
33 37 42
29 32 36
22 25 28
14 16 17
24 26 30
30 33 38
34 38 42
34 38 43
36 40 45
29 32 36
22 24 27
13 14 16
31 35 39
43 47 54
48 54 60
48 53 60
52 58 65
56 61 69
55 61 69
61 68 76
60 66 75
59 65 74
57 64 72
58 64 72
57 63 72
54 59 67
57 63 72
58 64 73
58 64 73
58 64 73
60 66 75
56 62 70
61 68 76
64 70 79
63 70 80
61 68 78
66 72 82
66 73 83
60 66 75
71 78 88
67 74 84
68 75 85
69 76 86
70 77 87
70 77 88
71 78 88
73 81 91
73 81 91
70 77 87
79 86 97
76 83 93
83 93 105
90 99 112
84 93 104
91 101 114
88 97 109
88 97 109
88 98 110
85 95 107
84 93 105
86 96 108
77 85 96
71 79 89
72 80 89
69 76 87
63 70 79
58 64 72
46 51 58
35 38 43
22 24 27
18 19 22
33 37 42
35 39 44
43 48 53
55 61 69
60 66 74
57 64 72
55 61 69
60 66 73
52 58 66
48 53 60
51 56 63
52 57 64
61 67 76
59 65 73
62 69 78
69 76 85
63 69 78
67 74 84
60 66 74
59 65 74
63 69 78
57 64 72
59 65 74
57 63 71
52 58 66
52 57 65
49 54 60
43 47 54
42 47 53
42 47 53
42 46 52
40 44 50
43 47 53
41 45 51
49 55 62
56 62 69
64 71 80
68 75 85
72 80 91
77 85 97
88 98 111
95 105 119
103 113 127
97 107 120
106 117 132
98 109 123
97 107 120
100 110 125
96 106 120
110 122 138
114 126 142
112 124 140
117 130 146
115 128 145
124 137 154
126 139 156
123 136 154
124 137 155
111 122 138
97 108 122
85 94 107
140 150 164
221 235 255
221 235 255
221 235 255
221 235 255
221 235 255
221 235 255
221 235 255
221 235 255
221 235 255
221 235 255
221 235 255
221 235 255
221 235 255
221 235 255
221 235 255
221 235 255
221 235 255
221 235 255
221 235 255
221 235 255
221 235 255
221 235 255
221 235 255
221 235 255
221 235 255
221 235 255
221 235 255
221 235 255
221 235 255
221 235 255
221 235 255
221 235 255
221 235 255
221 235 255
221 235 255
221 235 255
221 235 255
221 235 255
221 235 255
221 235 255
221 235 255
221 235 255
221 235 255
221 235 255
221 235 255
221 235 255
221 235 255
221 235 255
221 235 255
221 235 255
221 235 255
221 235 255
221 235 255
221 235 255
221 235 255
221 235 255
221 235 255
221 235 255
221 235 255
221 235 255
221 235 255
221 235 255
221 235 255
221 235 255
221 235 255
221 235 255
221 235 255
221 235 255
221 235 255
221 235 255
221 235 255
221 235 255
221 235 255
221 235 255
221 235 255
221 235 255
221 235 255
221 235 255
221 235 255
221 235 255
221 235 255
221 235 255
221 235 255
221 235 255
221 235 255
221 235 255
221 235 255
221 235 255
221 235 255
221 235 255
221 235 255
221 235 255
221 235 255
221 235 255
221 235 255
221 235 255
221 235 255
221 235 255
221 235 255
221 235 255
221 235 255
221 235 255
221 235 255
221 235 255
221 235 255
221 235 255
221 235 255
221 235 255
221 235 255
221 235 255
221 235 255
221 235 255
221 235 255
221 235 255
221 235 255
221 235 255
221 235 255
221 235 255
221 235 255
221 235 255
221 235 255
221 235 255
221 235 255
221 235 255
221 235 255
221 235 255
221 235 255
221 235 255
221 235 255
221 235 255
221 235 255
221 235 255
221 235 255
221 235 255
221 235 255
221 235 255
221 235 255
221 235 255
221 235 255
221 235 255
221 235 255
221 235 255
221 235 255
221 235 255
221 235 255
221 235 255
221 235 255
221 235 255
221 235 255
221 235 255
221 235 255
221 235 255
221 235 255
221 235 255
221 235 255
221 235 255
221 235 255
221 235 255
221 235 255
221 235 255
221 235 255
221 235 255
221 235 255
221 235 255
221 235 255
221 235 255
221 235 255
221 235 255
221 235 255
221 235 255
221 235 255
221 235 255
221 235 255
221 235 255
221 235 255
221 235 255
221 235 255
221 235 255
221 235 255
221 235 255
221 235 255
221 235 255
221 235 255
221 235 255
221 235 255
221 235 255
221 235 255
221 235 255
221 235 255
221 235 255
221 235 255
221 235 255
221 235 255
221 235 255
221 235 255
221 235 255
221 235 255
221 235 255
221 235 255
221 235 255
221 235 255
221 235 255
221 235 255
221 235 255
126 136 149
39 43 49
39 43 48
47 51 58
52 57 64
52 58 65
59 65 74
56 62 70
54 60 69
40 45 51
27 30 34
19 22 24
17 19 22
25 28 32
25 28 32
14 16 18
18 20 22
27 30 33
26 29 33
29 32 37
37 41 46
39 44 49
45 49 56
54 59 67
70 78 88
71 79 89
56 62 70
45 50 56
36 39 44
21 23 26
34 38 43
51 57 64
60 66 74
66 73 82
73 81 91
84 93 105
82 91 103
80 88 100
79 87 99
91 100 113
86 96 109
94 103 116
93 104 118
84 93 105
85 94 107
91 100 113
87 96 108
80 89 101
77 84 95
69 77 86
65 72 82
62 68 77
51 56 64
46 51 57
42 46 52
22 24 27
12 13 15
15 16 19
15 17 19
23 25 29
30 33 38
38 42 47
41 45 51
38 42 48
35 39 44
30 33 38
24 26 30
16 18 20
19 21 24
26 29 33
25 28 32
15 17 19
12 13 15
10 11 13
18 20 23
37 41 46
46 52 59
50 55 61
50 56 63
51 57 65
53 58 66
60 66 75
58 65 74
63 70 79
68 75 85
59 66 75
61 67 76
58 65 73
58 64 72
58 64 72
57 64 73
61 67 76
62 69 78
64 71 81
68 76 86
71 78 88
62 69 77
66 74 83
71 79 89
74 82 93
68 75 84
64 71 80
62 69 77
70 77 87
65 72 82
70 77 87
68 75 85
72 79 89
66 72 82
68 75 85
64 71 80
71 78 88
75 83 94
83 91 103
85 94 105
91 100 113
86 96 108
90 99 111
83 92 103
89 98 110
82 90 102
84 93 104
81 89 101
84 93 105
75 83 93
63 69 78
67 74 83
65 72 82
63 69 78
47 52 59
35 39 44
16 18 20
17 19 21
30 34 38
37 41 46
40 45 51
49 54 61
61 67 76
61 67 76
57 63 72
58 64 72
62 69 77
54 59 67
48 53 60
46 51 58
49 54 61
57 64 72
60 67 76
57 63 70
59 65 74
57 64 72
58 64 73
57 63 71
59 66 74
58 64 73
62 69 78
61 67 76
54 60 68
52 58 65
52 57 64
44 49 55
41 45 50
38 42 47
42 46 52
41 46 52
44 48 55
36 39 44
36 40 45
45 50 56
55 61 70
65 72 81
63 70 79
69 77 87
81 89 100
84 93 105
97 107 122
96 106 120
93 102 116
98 108 123
103 114 128
103 114 128
98 108 122
106 117 132
109 120 136
112 124 140
120 133 149
111 123 138
118 129 145
120 134 151
128 142 160
119 132 149
123 135 151
103 114 129
98 108 122
92 101 115
127 137 150
221 235 255
221 235 255
221 235 255
221 235 255
221 235 255
221 235 255
221 235 255
221 235 255
221 235 255
221 235 255
221 235 255
221 235 255
221 235 255
221 235 255
221 235 255
221 235 255
221 235 255
221 235 255
221 235 255
221 235 255
221 235 255
221 235 255
221 235 255
221 235 255
221 235 255
221 235 255
221 235 255
221 235 255
221 235 255
221 235 255
221 235 255
221 235 255
221 235 255
221 235 255
221 235 255
221 235 255
221 235 255
221 235 255
221 235 255
221 235 255
221 235 255
221 235 255
221 235 255
221 235 255
221 235 255
221 235 255
221 235 255
221 235 255
221 235 255
221 235 255
221 235 255
221 235 255
221 235 255
221 235 255
221 235 255
221 235 255
221 235 255
221 235 255
221 235 255
221 235 255
221 235 255
221 235 255
221 235 255
221 235 255
221 235 255
221 235 255
221 235 255
221 235 255
221 235 255
221 235 255
221 235 255
221 235 255
221 235 255
221 235 255
221 235 255
221 235 255
221 235 255
221 235 255
221 235 255
221 235 255
221 235 255
221 235 255
221 235 255
221 235 255
221 235 255
221 235 255
221 235 255
221 235 255
221 235 255
221 235 255
221 235 255
221 235 255
221 235 255
221 235 255
221 235 255
221 235 255
221 235 255
221 235 255
221 235 255
221 235 255
221 235 255
221 235 255
221 235 255
221 235 255
221 235 255
221 235 255
221 235 255
221 235 255
221 235 255
221 235 255
221 235 255
221 235 255
221 235 255
221 235 255
221 235 255
221 235 255
221 235 255
221 235 255
221 235 255
221 235 255
221 235 255
221 235 255
221 235 255
221 235 255
221 235 255
221 235 255
221 235 255
221 235 255
221 235 255
221 235 255
221 235 255
221 235 255
221 235 255
221 235 255
221 235 255
221 235 255
221 235 255
221 235 255
221 235 255
221 235 255
221 235 255
221 235 255
221 235 255
221 235 255
221 235 255
221 235 255
221 235 255
221 235 255
221 235 255
221 235 255
221 235 255
221 235 255
221 235 255
221 235 255
221 235 255
221 235 255
221 235 255
221 235 255
221 235 255
221 235 255
221 235 255
221 235 255
221 235 255
221 235 255
221 235 255
221 235 255
221 235 255
221 235 255
221 235 255
221 235 255
221 235 255
221 235 255
221 235 255
221 235 255
221 235 255
221 235 255
221 235 255
221 235 255
221 235 255
221 235 255
221 235 255
221 235 255
221 235 255
221 235 255
221 235 255
221 235 255
221 235 255
221 235 255
221 235 255
221 235 255
221 235 255
221 235 255
221 235 255
221 235 255
221 235 255
221 235 255
221 235 255
221 235 255
221 235 255
221 235 255
221 235 255
221 235 255
221 235 255
221 235 255
123 132 145
35 38 44
39 43 49
44 50 57
51 56 62
46 51 57
55 61 70
59 66 74
52 58 66
36 39 44
16 17 20
27 30 34
20 22 25
33 36 41
37 41 47
22 25 28
28 31 35
19 21 23
19 20 23
29 32 36
34 38 43
41 46 51
40 44 50
56 61 69
61 68 77
61 68 77
58 64 72
47 52 58
30 34 38
20 23 25
36 40 46
44 48 54
55 60 68
65 71 81
75 82 93
75 83 94
80 89 100
86 95 107
81 90 103
88 98 111
90 99 112
94 104 118
88 98 111
91 100 113
88 98 111
83 92 104
77 85 97
74 82 93
72 80 90
69 76 86
66 73 82
58 64 72
53 59 67
47 52 58
44 49 55
33 37 42
24 26 30
20 22 25
27 30 34
33 37 42
37 41 46
45 49 56
45 50 56
44 49 56
36 41 46
29 32 36
26 29 33
26 29 33
21 23 26
18 20 23
17 19 21
20 22 24
17 19 22
23 25 28
28 31 35
39 44 49
42 47 54
52 58 65
57 63 71
54 59 67
59 65 73
62 69 79
58 64 72
59 66 75
61 67 75
60 66 74
57 64 72
60 67 76
64 70 79
54 60 68
64 70 80
64 72 81
74 81 92
73 81 91
68 75 85
70 77 87
71 78 88
64 70 79
67 74 84
71 78 88
68 75 84
64 71 80
70 77 87
69 77 87
68 76 87
67 74 83
67 75 85
70 78 88
68 76 86
66 73 82
68 75 85
68 76 86
76 83 93
83 91 103
80 88 99
81 90 101
83 92 104
81 89 100
82 91 102
85 94 106
81 90 102
82 91 103
77 85 95
73 81 91
70 78 88
61 67 75
58 64 72
60 66 75
51 56 63
34 38 43
20 23 26
22 24 27
29 32 36
35 39 44
44 48 55
46 51 57
50 55 62
61 68 76
60 66 75
55 60 68
56 62 70
55 61 69
52 58 65
47 52 59
43 47 53
46 51 58
53 58 66
54 60 68
50 55 62
53 59 67
54 60 68
59 65 74
57 64 72
59 65 74
59 65 73
63 70 79
58 64 72
51 56 64
48 53 60
45 50 57
37 41 46
33 36 41
31 34 39
36 40 46
38 41 47
38 42 47
29 32 37
34 37 41
46 50 57
53 59 67
65 72 81
70 78 89
69 76 86
77 86 97
85 94 105
89 99 111
93 103 116
93 103 116
93 102 116
95 105 118
99 110 124
100 111 125
97 108 122
106 117 133
104 115 130
108 119 134
114 125 141
102 114 130
119 131 148
122 134 151
125 137 154
123 135 152
111 122 137
97 107 121
91 99 112
124 133 147
221 235 255
221 235 255
221 235 255
221 235 255
221 235 255
221 235 255
221 235 255
221 235 255
221 235 255
221 235 255
221 235 255
221 235 255
221 235 255
221 235 255
221 235 255
221 235 255
221 235 255
221 235 255
221 235 255
221 235 255
221 235 255
221 235 255
221 235 255
221 235 255
221 235 255
221 235 255
221 235 255
221 235 255
221 235 255
221 235 255
221 235 255
221 235 255
221 235 255
221 235 255
221 235 255
221 235 255
221 235 255
221 235 255
221 235 255
221 235 255
221 235 255
221 235 255
221 235 255
221 235 255
221 235 255
221 235 255
221 235 255
221 235 255
221 235 255
221 235 255
221 235 255
221 235 255
221 235 255
221 235 255
221 235 255
221 235 255
221 235 255
221 235 255
221 235 255
221 235 255
221 235 255
221 235 255
221 235 255
221 235 255
221 235 255
221 235 255
221 235 255
221 235 255
221 235 255
221 235 255
221 235 255
221 235 255
221 235 255
221 235 255
221 235 255
221 235 255
221 235 255
221 235 255
221 235 255
221 235 255
221 235 255
221 235 255
221 235 255
221 235 255
221 235 255
221 235 255
221 235 255
221 235 255
221 235 255
221 235 255
221 235 255
221 235 255
221 235 255
221 235 255
221 235 255
221 235 255
221 235 255
221 235 255
221 235 255
221 235 255
221 235 255
221 235 255
221 235 255
221 235 255
221 235 255
221 235 255
221 235 255
221 235 255
221 235 255
221 235 255
221 235 255
221 235 255
221 235 255
221 235 255
221 235 255
221 235 255
221 235 255
221 235 255
221 235 255
221 235 255
221 235 255
221 235 255
221 235 255
221 235 255
221 235 255
221 235 255
221 235 255
221 235 255
221 235 255
221 235 255
221 235 255
221 235 255
221 235 255
221 235 255
221 235 255
221 235 255
221 235 255
221 235 255
221 235 255
221 235 255
221 235 255
221 235 255
221 235 255
221 235 255
221 235 255
221 235 255
221 235 255
221 235 255
221 235 255
221 235 255
221 235 255
221 235 255
221 235 255
221 235 255
221 235 255
221 235 255
221 235 255
221 235 255
221 235 255
221 235 255
221 235 255
221 235 255
221 235 255
221 235 255
221 235 255
221 235 255
221 235 255
221 235 255
221 235 255
221 235 255
221 235 255
221 235 255
221 235 255
221 235 255
221 235 255
221 235 255
221 235 255
221 235 255
221 235 255
221 235 255
221 235 255
221 235 255
221 235 255
221 235 255
221 235 255
221 235 255
221 235 255
221 235 255
221 235 255
221 235 255
221 235 255
221 235 255
221 235 255
221 235 255
221 235 255
221 235 255
221 235 255
221 235 255
221 235 255
221 235 255
221 235 255
221 235 255
221 235 255
221 235 255
120 129 141
26 29 33
41 45 51
41 45 52
43 47 53
42 47 53
55 61 68
53 59 67
48 53 59
27 30 34
27 29 33
33 37 42
35 38 43
39 43 48
43 47 54
42 47 53
38 42 48
26 29 33
18 20 22
32 35 40
33 37 42
40 45 50
43 47 53
47 52 59
60 66 75
56 62 70
50 56 63
39 43 49
27 30 34
16 18 21
33 37 42
41 45 51
50 55 63
61 67 76
71 78 88
78 86 97
81 90 102
81 90 103
85 95 107
86 95 107
91 100 112
92 102 116
87 97 109
90 100 113
90 100 112
84 93 104
79 88 100
73 80 91
66 74 84
62 69 78
59 65 73
57 63 71
53 59 66
47 53 60
54 59 67
44 49 55
37 41 46
37 41 46
37 41 46
41 45 51
43 47 53
48 53 60
48 53 59
48 53 60
37 41 46
31 34 39
30 33 38
32 35 39
33 37 42
33 37 42
32 36 40
27 29 33
29 32 36
33 36 41
38 42 47
39 43 49
47 52 58
50 56 63
48 53 60
52 58 66
62 68 76
63 69 78
59 65 73
60 66 74
65 72 81
60 66 75
63 70 79
69 75 85
64 70 79
66 72 81
67 75 85
74 82 92
76 84 95
76 84 95
77 86 97
78 86 96
76 84 94
69 76 86
73 81 92
63 70 79
71 79 89
69 75 85
65 72 82
69 76 86
70 77 86
69 76 86
72 79 89
71 79 89
67 74 84
71 78 88
71 78 87
71 78 88
79 88 100
79 88 99
74 82 93
81 89 100
75 83 94
78 87 99
74 83 94
81 89 101
80 89 101
79 87 98
76 84 95
70 78 88
64 71 81
61 67 76
50 56 63
51 56 64
35 39 44
22 25 28
32 35 40
39 43 48
36 40 45
36 39 44
43 48 54
49 54 61
52 57 65
57 64 73
59 65 74
60 66 75
60 66 74
58 64 72
51 56 64
48 53 59
44 48 55
52 57 64
53 59 67
52 57 64
47 52 59
51 57 64
54 60 68
60 66 75
62 68 77
58 64 72
60 66 74
57 63 72
59 65 73
52 58 66
44 49 56
36 40 45
27 29 33
25 28 32
21 23 26
30 33 37
35 38 43
34 37 42
25 28 31
33 36 41
47 52 58
57 63 71
66 74 84
79 87 98
72 79 89
75 82 93
82 91 104
90 99 113
96 106 120
95 106 120
95 105 119
97 108 122
99 110 124
98 109 124
102 113 127
102 113 127
108 120 135
112 124 140
117 130 146
114 125 141
111 122 137
121 135 153
119 132 149
123 135 152
117 129 145
96 107 120
95 104 117
122 132 145
221 235 255
221 235 255
221 235 255
221 235 255
221 235 255
221 235 255
221 235 255
221 235 255
221 235 255
221 235 255
221 235 255
221 235 255
221 235 255
221 235 255
221 235 255
221 235 255
221 235 255
221 235 255
221 235 255
221 235 255
221 235 255
221 235 255
221 235 255
221 235 255
221 235 255
221 235 255
221 235 255
221 235 255
221 235 255
221 235 255
221 235 255
221 235 255
221 235 255
221 235 255
221 235 255
221 235 255
221 235 255
221 235 255
221 235 255
221 235 255
221 235 255
221 235 255
221 235 255
221 235 255
221 235 255
221 235 255
221 235 255
221 235 255
221 235 255
221 235 255
221 235 255
221 235 255
221 235 255
221 235 255
221 235 255
221 235 255
221 235 255
221 235 255
221 235 255
221 235 255
221 235 255
221 235 255
221 235 255
221 235 255
221 235 255
221 235 255
221 235 255
221 235 255
221 235 255
221 235 255
221 235 255
221 235 255
221 235 255
221 235 255
221 235 255
221 235 255
221 235 255
221 235 255
221 235 255
221 235 255
221 235 255
221 235 255
221 235 255
221 235 255
221 235 255
221 235 255
221 235 255
221 235 255
221 235 255
221 235 255
221 235 255
221 235 255
221 235 255
221 235 255
221 235 255
221 235 255
221 235 255
221 235 255
221 235 255
221 235 255
221 235 255
221 235 255
221 235 255
221 235 255
221 235 255
221 235 255
221 235 255
221 235 255
221 235 255
221 235 255
221 235 255
221 235 255
221 235 255
221 235 255
221 235 255
221 235 255
221 235 255
221 235 255
221 235 255
221 235 255
221 235 255
221 235 255
221 235 255
221 235 255
221 235 255
221 235 255
221 235 255
221 235 255
221 235 255
221 235 255
221 235 255
221 235 255
221 235 255
221 235 255
221 235 255
221 235 255
221 235 255
221 235 255
221 235 255
221 235 255
221 235 255
221 235 255
221 235 255
221 235 255
221 235 255
221 235 255
221 235 255
221 235 255
221 235 255
221 235 255
221 235 255
221 235 255
221 235 255
221 235 255
221 235 255
221 235 255
221 235 255
221 235 255
221 235 255
221 235 255
221 235 255
221 235 255
221 235 255
221 235 255
221 235 255
221 235 255
221 235 255
221 235 255
221 235 255
221 235 255
221 235 255
221 235 255
221 235 255
221 235 255
221 235 255
221 235 255
221 235 255
221 235 255
221 235 255
221 235 255
221 235 255
221 235 255
221 235 255
221 235 255
221 235 255
221 235 255
221 235 255
221 235 255
221 235 255
221 235 255
221 235 255
221 235 255
221 235 255
221 235 255
221 235 255
221 235 255
221 235 255
221 235 255
221 235 255
221 235 255
221 235 255
221 235 255
221 235 255
221 235 255
101 108 119
26 29 33
39 43 49
45 50 56
35 38 44
30 33 37
42 47 54
44 49 55
37 41 47
21 24 27
37 41 47
39 43 49
41 46 52
44 49 55
47 52 59
51 56 64
43 48 55
38 42 47
21 23 26
29 33 37
37 41 46
37 41 47
40 45 51
43 48 54
45 50 57
44 49 56
40 45 50
34 37 42
23 25 29
18 20 22
31 35 39
36 40 45
44 49 55
57 63 71
67 74 84
68 75 85
75 83 94
78 86 96
80 89 101
82 91 102
82 91 102
82 90 102
86 96 108
84 92 104
86 95 107
81 89 100
77 85 95
68 75 84
62 68 77
59 65 74
60 67 76
58 64 72
56 62 70
54 59 67
57 63 71
53 58 66
48 53 60
48 53 60
45 50 56
45 50 57
51 56 64
50 55 62
50 55 62
46 51 57
38 42 48
34 38 42
35 38 43
39 43 49
43 48 54
47 52 59
40 45 50
31 35 40
31 35 40
38 42 48
43 48 54
46 50 57
43 47 54
46 51 57
52 57 65
62 69 78
64 71 80
64 71 80
58 64 73
62 69 77
62 69 78
65 71 81
67 74 84
68 75 84
69 76 85
77 85 96
79 88 99
74 82 93
78 86 97
81 89 101
82 91 104
77 85 96
83 92 103
83 91 102
72 79 89
73 81 91
76 83 94
78 85 96
72 80 90
69 76 86
67 75 85
71 78 88
77 85 96
74 82 93
75 82 92
74 81 92
73 81 92
73 81 92
72 80 91
76 84 94
71 78 88
72 79 89
74 81 92
71 78 88
81 89 100
77 85 96
75 83 94
74 82 92
75 83 93
64 71 79
57 63 71
53 59 67
46 51 57
31 35 39
18 20 22
29 32 36
42 46 52
43 48 54
46 50 56
43 48 54
45 50 56
48 53 60
47 53 60
55 61 69
57 63 71
60 66 75
57 63 71
50 56 63
51 57 65
52 57 64
46 51 58
50 55 62
48 53 59
42 47 53
40 45 50
47 52 59
55 61 69
59 66 75
61 67 75
53 59 67
57 62 69
54 60 68
54 60 67
52 58 66
44 49 56
25 28 31
15 16 18
17 19 22
15 16 18
20 22 25
33 36 41
34 37 42
21 23 26
30 33 38
44 49 55
57 63 71
74 82 92
78 86 97
76 84 95
73 81 92
81 90 102
94 103 116
88 97 109
94 104 117
97 107 121
101 111 125
100 112 127
108 118 132
103 114 129
105 117 133
108 119 135
103 114 128
115 126 142
122 134 150
118 130 146
129 144 163
121 134 152
122 134 150
111 123 139
107 117 132
92 102 115
118 127 140
221 235 255
221 235 255
221 235 255
221 235 255
221 235 255
221 235 255
221 235 255
221 235 255
221 235 255
221 235 255
221 235 255
221 235 255
221 235 255
221 235 255
221 235 255
221 235 255
221 235 255
221 235 255
221 235 255
221 235 255
221 235 255
221 235 255
221 235 255
221 235 255
221 235 255
221 235 255
221 235 255
221 235 255
221 235 255
221 235 255
221 235 255
221 235 255
221 235 255
221 235 255
221 235 255
221 235 255
221 235 255
221 235 255
221 235 255
221 235 255
221 235 255
221 235 255
221 235 255
221 235 255
221 235 255
221 235 255
221 235 255
221 235 255
221 235 255
221 235 255
221 235 255
221 235 255
221 235 255
221 235 255
221 235 255
221 235 255
221 235 255
221 235 255
221 235 255
221 235 255
221 235 255
221 235 255
221 235 255
221 235 255
221 235 255
221 235 255
221 235 255
221 235 255
221 235 255
221 235 255
221 235 255
221 235 255
221 235 255
221 235 255
221 235 255
221 235 255
221 235 255
221 235 255
221 235 255
221 235 255
221 235 255
221 235 255
221 235 255
221 235 255
221 235 255
221 235 255
221 235 255
221 235 255
221 235 255
221 235 255
221 235 255
221 235 255
221 235 255
221 235 255
221 235 255
221 235 255
221 235 255
221 235 255
221 235 255
221 235 255
221 235 255
221 235 255
221 235 255
221 235 255
221 235 255
221 235 255
221 235 255
221 235 255
221 235 255
221 235 255
221 235 255
221 235 255
221 235 255
221 235 255
221 235 255
221 235 255
221 235 255
221 235 255
221 235 255
221 235 255
221 235 255
221 235 255
221 235 255
221 235 255
221 235 255
221 235 255
221 235 255
221 235 255
221 235 255
221 235 255
221 235 255
221 235 255
221 235 255
221 235 255
221 235 255
221 235 255
221 235 255
221 235 255
221 235 255
221 235 255
221 235 255
221 235 255
221 235 255
221 235 255
221 235 255
221 235 255
221 235 255
221 235 255
221 235 255
221 235 255
221 235 255
221 235 255
221 235 255
221 235 255
221 235 255
221 235 255
221 235 255
221 235 255
221 235 255
221 235 255
221 235 255
221 235 255
221 235 255
221 235 255
221 235 255
221 235 255
221 235 255
221 235 255
221 235 255
221 235 255
221 235 255
221 235 255
221 235 255
221 235 255
221 235 255
221 235 255
221 235 255
221 235 255
221 235 255
221 235 255
221 235 255
221 235 255
221 235 255
221 235 255
221 235 255
221 235 255
221 235 255
221 235 255
221 235 255
221 235 255
221 235 255
221 235 255
221 235 255
221 235 255
221 235 255
221 235 255
221 235 255
221 235 255
221 235 255
221 235 255
221 235 255
221 235 255
221 235 255
221 235 255
97 105 115
29 32 36
36 40 45
39 43 48
18 20 22
17 18 21
37 41 47
46 51 57
33 36 40
27 30 33
47 51 58
40 44 50
41 45 51
45 50 57
52 58 65
60 67 75
49 54 61
43 48 54
30 33 37
22 25 28
38 43 48
42 47 52
44 48 55
41 45 51
42 46 52
42 47 53
41 45 51
32 35 40
26 29 33
15 17 19
30 33 38
33 36 41
41 46 52
45 50 56
61 68 76
68 75 85
69 76 85
74 82 92
80 88 100
78 86 97
80 89 101
85 94 107
84 93 106
83 92 104
80 88 99
81 90 102
78 85 96
69 76 86
64 71 80
55 61 69
59 66 75
52 57 65
49 55 62
52 58 65
49 55 62
54 60 67
52 58 65
56 62 70
50 55 63
46 52 59
51 57 64
51 56 63
53 59 66
50 56 63
46 51 58
39 43 48
35 39 44
43 48 54
50 55 63
50 55 62
48 53 60
37 41 46
34 37 42
38 43 48
47 52 59
47 52 59
42 47 53
40 44 50
50 56 62
60 66 75
63 70 79
63 69 78
58 64 72
57 63 71
62 68 77
62 69 78
64 72 81
70 77 87
69 77 86
73 81 92
80 89 101
83 92 104
91 101 113
82 91 103
86 94 106
80 89 101
85 94 107
81 89 100
80 88 98
80 88 100
76 84 95
76 84 95
75 83 93
74 82 94
72 79 89
73 80 90
65 72 81
71 79 89
84 93 104
73 81 91
71 79 90
72 79 89
73 81 91
71 78 89
76 84 94
77 84 95
71 78 89
68 76 85
70 77 87
73 81 91
69 76 86
73 81 91
67 75 84
62 69 78
53 58 66
46 51 57
31 34 38
18 20 22
30 33 37
37 41 47
47 52 58
47 52 58
45 50 57
44 48 54
43 47 53
46 51 58
48 53 60
51 56 64
52 58 65
56 62 70
53 59 66
48 53 60
46 51 57
48 54 61
49 54 61
42 47 53
37 40 46
36 40 46
36 40 45
42 46 52
51 57 64
57 64 73
56 62 70
55 61 69
57 64 72
53 58 66
51 57 64
48 54 61
40 44 50
15 17 19
9 10 11
18 20 22
26 29 32
17 19 21
30 34 38
30 32 36
21 23 26
31 35 39
44 49 55
59 65 74
75 83 93
73 80 91
70 77 87
76 84 94
76 84 95
80 89 100
87 97 109
91 101 114
98 108 122
101 111 125
108 119 134
110 121 137
106 117 132
103 114 128
104 115 130
100 111 125
111 123 138
117 129 146
115 128 146
120 133 150
124 138 155
128 141 158
117 130 147
113 125 140
97 106 119
126 136 150
221 235 255
221 235 255
221 235 255
221 235 255
221 235 255
221 235 255
221 235 255
221 235 255
221 235 255
221 235 255
221 235 255
221 235 255
221 235 255
221 235 255
221 235 255
221 235 255
221 235 255
221 235 255
221 235 255
221 235 255
221 235 255
221 235 255
221 235 255
221 235 255
221 235 255
221 235 255
221 235 255
221 235 255
221 235 255
221 235 255
221 235 255
221 235 255
221 235 255
221 235 255
221 235 255
221 235 255
221 235 255
221 235 255
221 235 255
221 235 255
221 235 255
221 235 255
221 235 255
221 235 255
221 235 255
221 235 255
221 235 255
221 235 255
221 235 255
221 235 255
221 235 255
221 235 255
221 235 255
221 235 255
221 235 255
221 235 255
221 235 255
221 235 255
221 235 255
221 235 255
221 235 255
221 235 255
221 235 255
221 235 255
221 235 255
221 235 255
221 235 255
221 235 255
221 235 255
221 235 255
221 235 255
221 235 255
221 235 255
221 235 255
221 235 255
221 235 255
221 235 255
221 235 255
221 235 255
221 235 255
221 235 255
221 235 255
221 235 255
221 235 255
221 235 255
221 235 255
221 235 255
221 235 255
221 235 255
221 235 255
221 235 255
221 235 255
221 235 255
221 235 255
221 235 255
221 235 255
221 235 255
221 235 255
221 235 255
221 235 255
221 235 255
221 235 255
221 235 255
221 235 255
221 235 255
221 235 255
221 235 255
221 235 255
221 235 255
221 235 255
221 235 255
221 235 255
221 235 255
221 235 255
221 235 255
221 235 255
221 235 255
221 235 255
221 235 255
221 235 255
221 235 255
221 235 255
221 235 255
221 235 255
221 235 255
221 235 255
221 235 255
221 235 255
221 235 255
221 235 255
221 235 255
221 235 255
221 235 255
221 235 255
221 235 255
221 235 255
221 235 255
221 235 255
221 235 255
221 235 255
221 235 255
221 235 255
221 235 255
221 235 255
221 235 255
221 235 255
221 235 255
221 235 255
221 235 255
221 235 255
221 235 255
221 235 255
221 235 255
221 235 255
221 235 255
221 235 255
221 235 255
221 235 255
221 235 255
221 235 255
221 235 255
221 235 255
221 235 255
221 235 255
221 235 255
221 235 255
221 235 255
221 235 255
221 235 255
221 235 255
221 235 255
221 235 255
221 235 255
221 235 255
221 235 255
221 235 255
221 235 255
221 235 255
221 235 255
221 235 255
221 235 255
221 235 255
221 235 255
221 235 255
221 235 255
221 235 255
221 235 255
221 235 255
221 235 255
221 235 255
221 235 255
221 235 255
221 235 255
221 235 255
221 235 255
221 235 255
221 235 255
221 235 255
221 235 255
221 235 255
221 235 255
221 235 255
221 235 255
221 235 255
105 113 123
30 33 38
33 36 41
37 41 47
24 27 31
24 27 31
31 34 39
41 46 52
29 32 37
22 24 28
48 53 60
46 51 58
52 57 64
49 54 62
56 62 70
61 68 77
56 62 70
45 49 56
33 36 41
23 25 28
39 43 48
45 50 56
46 51 58
45 50 56
42 47 53
43 48 54
42 46 52
37 41 46
27 29 33
17 19 22
20 23 26
32 35 40
32 36 41
37 41 47
55 60 68
66 72 82
69 76 86
73 81 91
76 84 94
76 84 95
87 96 108
85 94 106
82 91 103
84 93 105
81 90 101
72 79 89
68 76 86
65 72 82
60 66 75
51 56 63
49 55 61
47 52 59
45 50 56
45 50 57
55 61 69
52 58 66
54 60 68
55 61 68
51 56 64
57 63 71
55 60 68
54 60 67
54 59 67
51 56 63
51 57 64
45 50 57
45 50 56
41 46 52
46 51 58
49 54 61
49 54 61
43 48 54
38 43 48
40 44 50
48 53 60
44 48 55
41 45 52
43 48 54
48 53 60
53 59 66
55 61 69
55 61 69
58 63 71
55 61 69
56 62 70
61 68 77
62 69 77
70 78 89
81 90 101
85 94 106
84 94 107
88 97 109
92 102 115
88 97 109
92 102 115
85 95 107
88 98 111
87 96 108
79 88 100
81 90 101
78 86 97
71 79 90
72 80 90
72 80 90
73 81 91
73 81 92
75 83 94
81 89 101
79 87 98
82 89 100
76 84 94
74 82 92
69 77 87
70 76 85
66 73 82
73 80 90
65 72 81
68 75 84
71 78 88
62 69 78
71 78 88
64 71 81
63 69 78
54 60 68
40 44 49
30 33 37
24 26 29
37 40 45
37 41 46
44 49 55
46 51 58
52 57 64
51 56 63
46 51 58
45 50 56
43 47 54
44 48 54
47 52 58
53 58 65
56 62 70
57 63 71
47 52 59
47 52 59
48 53 60
39 43 48
33 37 42
33 37 42
31 35 39
36 40 45
43 47 54
52 57 64
53 58 66
51 56 63
52 58 65
49 54 61
50 56 63
48 53 60
43 47 54
31 35 39
13 15 16
20 22 25
23 26 29
26 29 33
19 21 24
21 23 26
25 28 31
26 29 32
34 38 43
43 47 53
60 67 75
66 73 83
72 80 91
71 78 88
63 70 80
73 80 90
80 88 99
87 96 108
88 97 110
98 108 122
109 120 135
101 112 127
109 121 137
105 117 132
108 120 135
102 113 127
103 113 127
110 123 139
113 124 140
119 131 146
124 137 155
127 140 159
121 134 152
109 120 135
103 113 127
92 102 115
103 112 124
221 235 255
221 235 255
221 235 255
221 235 255
221 235 255
221 235 255
221 235 255
221 235 255
221 235 255
221 235 255
221 235 255
221 235 255
221 235 255
221 235 255
221 235 255
221 235 255
221 235 255
221 235 255
221 235 255
221 235 255
221 235 255
221 235 255
221 235 255
221 235 255
221 235 255
221 235 255
221 235 255
221 235 255
221 235 255
221 235 255
221 235 255
221 235 255
221 235 255
221 235 255
221 235 255
221 235 255
221 235 255
221 235 255
221 235 255
221 235 255
221 235 255
221 235 255
221 235 255
221 235 255
221 235 255
221 235 255
221 235 255
221 235 255
221 235 255
221 235 255
221 235 255
221 235 255
221 235 255
221 235 255
221 235 255
221 235 255
221 235 255
221 235 255
221 235 255
221 235 255
221 235 255
221 235 255
221 235 255
221 235 255
221 235 255
221 235 255
221 235 255
221 235 255
221 235 255
221 235 255
221 235 255
221 235 255
221 235 255
221 235 255
221 235 255
221 235 255
221 235 255
221 235 255
221 235 255
221 235 255
221 235 255
221 235 255
221 235 255
221 235 255
221 235 255
221 235 255
221 235 255
221 235 255
221 235 255
221 235 255
221 235 255
221 235 255
221 235 255
221 235 255
221 235 255
221 235 255
221 235 255
221 235 255
221 235 255
221 235 255
221 235 255
221 235 255
221 235 255
221 235 255
221 235 255
221 235 255
221 235 255
221 235 255
221 235 255
221 235 255
221 235 255
221 235 255
221 235 255
221 235 255
221 235 255
221 235 255
221 235 255
221 235 255
221 235 255
221 235 255
221 235 255
221 235 255
221 235 255
221 235 255
221 235 255
221 235 255
221 235 255
221 235 255
221 235 255
221 235 255
221 235 255
221 235 255
221 235 255
221 235 255
221 235 255
221 235 255
221 235 255
221 235 255
221 235 255
221 235 255
221 235 255
221 235 255
221 235 255
221 235 255
221 235 255
221 235 255
221 235 255
221 235 255
221 235 255
221 235 255
221 235 255
221 235 255
221 235 255
221 235 255
221 235 255
221 235 255
221 235 255
221 235 255
221 235 255
221 235 255
221 235 255
221 235 255
221 235 255
221 235 255
221 235 255
221 235 255
221 235 255
221 235 255
221 235 255
221 235 255
221 235 255
221 235 255
221 235 255
221 235 255
221 235 255
221 235 255
221 235 255
221 235 255
221 235 255
221 235 255
221 235 255
221 235 255
221 235 255
221 235 255
221 235 255
221 235 255
221 235 255
221 235 255
221 235 255
221 235 255
221 235 255
221 235 255
221 235 255
221 235 255
221 235 255
221 235 255
221 235 255
221 235 255
221 235 255
221 235 255
221 235 255
221 235 255
221 235 255
221 235 255
95 102 111
30 32 36
30 33 37
35 39 44
32 35 39
36 40 45
18 20 23
34 38 43
27 30 34
27 30 33
40 45 51
38 42 48
49 54 61
50 55 62
54 60 67
58 64 72
61 67 75
48 53 60
28 31 35
21 23 26
39 43 49
45 50 56
49 54 61
47 52 59
46 50 56
42 46 52
42 46 52
34 38 44
27 30 35
20 23 26
13 14 16
17 19 21
16 17 20
26 29 33
45 50 56
51 56 63
63 69 78
65 72 81
65 71 80
72 79 89
74 82 92
81 89 101
77 85 95
75 83 94
73 80 91
69 76 85
63 70 78
60 67 75
48 53 60
46 52 59
43 48 55
45 49 55
38 42 48
45 50 56
47 52 59
59 65 73
50 55 63
55 61 69
55 61 69
55 60 68
54 60 68
55 61 69
56 62 70
56 62 69
45 50 57
48 53 60
47 52 58
42 47 53
42 46 52
38 42 48
43 47 53
46 51 57
47 51 58
42 46 52
41 46 52
45 50 57
43 47 54
45 50 56
47 52 59
43 48 54
42 47 53
47 51 58
49 54 61
52 58 65
53 58 66
62 68 77
67 74 83
76 83 94
78 86 97
88 98 111
91 100 112
91 100 113
97 107 120
95 105 118
84 93 105
88 97 109
86 95 108
88 98 111
88 97 109
83 92 103
75 83 94
77 85 95
71 78 87
71 79 89
71 79 90
72 80 90
80 89 100
79 88 99
77 85 97
79 88 100
79 88 99
79 87 97
73 80 91
70 78 88
68 75 85
71 78 88
76 84 94
67 74 83
55 61 69
63 70 79
58 64 72
56 62 70
50 55 63
44 48 53
25 28 32
26 29 33
38 41 47
45 50 57
45 50 56
45 50 57
47 52 59
50 55 62
57 62 70
43 48 54
46 51 57
43 48 54
40 45 50
46 51 58
52 58 65
56 62 70
55 61 69
62 69 77
45 49 56
39 44 49
33 37 42
25 28 32
26 29 33
33 37 42
38 42 47
48 52 58
49 54 62
50 55 62
50 55 62
51 56 63
50 55 62
54 59 67
43 47 53
37 41 46
26 29 32
13 14 16
21 23 26
21 24 27
29 32 37
24 27 30
12 13 15
19 21 24
28 31 35
39 43 48
50 55 63
57 63 71
65 72 81
60 66 75
69 76 85
63 70 79
73 81 91
73 81 91
87 96 109
86 96 108
93 103 116
98 108 122
109 121 137
109 120 135
113 125 140
100 110 124
97 107 120
101 111 124
111 122 138
117 129 145
122 135 153
128 142 161
129 143 160
122 134 151
103 114 129
106 117 133
96 106 120
123 132 145
221 235 255
221 235 255
221 235 255
221 235 255
221 235 255
221 235 255
221 235 255
221 235 255
221 235 255
221 235 255
221 235 255
221 235 255
221 235 255
221 235 255
221 235 255
221 235 255
221 235 255
221 235 255
221 235 255
221 235 255
221 235 255
221 235 255
221 235 255
221 235 255
221 235 255
221 235 255
221 235 255
221 235 255
221 235 255
221 235 255
221 235 255
221 235 255
221 235 255
221 235 255
221 235 255
221 235 255
221 235 255
221 235 255
221 235 255
221 235 255
221 235 255
221 235 255
221 235 255
221 235 255
221 235 255
221 235 255
221 235 255
221 235 255
221 235 255
221 235 255
221 235 255
221 235 255
221 235 255
221 235 255
221 235 255
221 235 255
221 235 255
221 235 255
221 235 255
221 235 255
221 235 255
221 235 255
221 235 255
221 235 255
221 235 255
221 235 255
221 235 255
221 235 255
221 235 255
221 235 255
221 235 255
221 235 255
221 235 255
221 235 255
221 235 255
221 235 255
221 235 255
221 235 255
221 235 255
221 235 255
221 235 255
221 235 255
221 235 255
221 235 255
221 235 255
221 235 255
221 235 255
221 235 255
221 235 255
221 235 255
221 235 255
221 235 255
221 235 255
221 235 255
221 235 255
221 235 255
221 235 255
221 235 255
221 235 255
221 235 255
221 235 255
221 235 255
221 236 255
221 236 255
221 236 255
221 236 255
221 236 255
221 236 255
221 236 255
221 236 255
221 236 255
221 236 255
221 236 255
221 236 255
221 236 255
221 236 255
221 236 255
221 236 255
221 236 255
221 236 255
221 236 255
221 236 255
221 236 255
221 236 255
221 236 255
221 236 255
221 236 255
221 236 255
221 236 255
221 236 255
221 236 255
221 236 255
221 236 255
221 236 255
221 236 255
221 236 255
221 236 255
221 236 255
221 236 255
221 236 255
221 236 255
221 236 255
221 236 255
221 236 255
221 236 255
221 236 255
221 236 255
221 236 255
221 236 255
221 236 255
221 236 255
221 236 255
221 236 255
221 236 255
221 236 255
221 236 255
221 236 255
221 236 255
221 236 255
221 236 255
221 236 255
221 236 255
221 236 255
221 236 255
221 236 255
221 236 255
221 236 255
221 236 255
221 236 255
221 236 255
221 236 255
221 236 255
221 236 255
221 236 255
221 236 255
221 236 255
221 236 255
221 236 255
221 236 255
221 236 255
221 236 255
221 236 255
221 236 255
221 236 255
221 236 255
221 236 255
221 236 255
221 236 255
221 236 255
221 236 255
221 236 255
221 236 255
221 236 255
221 236 255
221 236 255
221 236 255
221 236 255
221 236 255
221 236 255
221 236 255
221 236 255
221 236 255
221 236 255
221 236 255
93 100 109
28 30 34
29 32 36
33 36 41
28 31 35
39 42 48
18 20 23
32 35 40
27 30 33
24 27 30
29 32 36
39 43 49
45 50 56
51 56 64
60 66 73
57 63 71
61 67 75
44 48 54
26 28 32
16 18 21
38 42 48
51 56 64
50 55 62
56 62 70
48 53 59
49 54 61
46 51 57
39 43 49
34 38 43
30 33 38
22 24 27
23 25 29
17 19 21
16 18 21
26 28 32
40 44 50
49 54 61
53 59 66
58 64 73
61 68 77
67 74 84
66 73 82
74 82 92
72 79 89
72 79 89
67 74 84
58 65 73
53 58 66
46 51 57
42 46 52
36 40 46
37 41 46
37 41 47
39 44 49
43 47 53
47 52 59
49 54 61
50 56 62
52 57 64
54 60 68
53 58 66
58 64 72
56 62 70
54 59 67
50 54 61
48 53 59
46 50 57
40 44 50
36 40 45
35 39 44
43 47 53
45 50 57
47 53 59
44 49 55
41 46 52
40 44 49
45 50 56
49 55 62
44 49 55
38 42 47
36 40 46
38 42 48
42 47 53
43 48 54
54 60 67
57 63 72
66 73 82
82 90 101
78 86 97
91 100 112
94 104 117
95 106 120
92 102 114
93 102 115
89 99 112
95 105 119
93 102 115
90 100 113
84 93 105
83 91 102
76 83 94
70 78 88
69 76 85
71 79 89
73 80 90
75 83 94
78 86 97
81 90 101
82 90 102
84 92 104
82 90 101
73 81 91
64 70 80
67 74 84
73 81 91
73 80 90
70 77 87
63 70 79
60 67 77
61 67 76
57 64 72
50 55 63
42 46 52
22 24 28
27 30 33
37 41 47
45 49 56
48 53 60
47 53 59
44 49 54
52 57 65
51 57 64
58 65 73
50 56 63
41 45 51
38 42 48
44 48 54
50 56 63
56 62 70
58 63 71
60 67 76
58 64 72
50 56 63
41 45 51
25 27 31
14 15 17
20 23 25
34 37 42
44 48 54
42 47 53
44 49 55
46 51 57
44 49 55
43 47 53
48 54 61
49 54 61
43 48 55
37 41 46
24 27 30
13 14 16
23 26 29
33 37 42
32 36 41
25 27 31
12 13 15
11 12 14
27 29 33
41 46 52
49 54 60
53 59 66
61 68 77
62 69 77
63 70 79
64 71 81
69 76 86
68 75 85
79 87 98
87 96 108
92 101 114
103 114 128
107 118 132
107 118 134
115 127 143
100 110 124
96 107 121
92 103 116
105 116 130
107 119 135
118 130 147
121 134 150
126 139 157
108 118 133
113 124 140
104 114 129
93 103 116
107 115 127
221 236 255
221 236 255
221 236 255
221 236 255
221 236 255
221 236 255
221 236 255
221 236 255
221 236 255
221 236 255
221 236 255
221 236 255
221 236 255
221 236 255
221 236 255
221 236 255
221 236 255
221 236 255
221 236 255
221 236 255
221 236 255
221 236 255
221 236 255
221 236 255
221 236 255
221 236 255
221 236 255
221 236 255
221 236 255
221 236 255
221 236 255
221 236 255
221 236 255
221 236 255
221 236 255
221 236 255
221 236 255
221 236 255
221 236 255
221 236 255
221 236 255
221 236 255
221 236 255
221 236 255
221 236 255
221 236 255
221 236 255
221 236 255
221 236 255
221 236 255
221 236 255
221 236 255
221 236 255
221 236 255
221 236 255
221 236 255
221 236 255
221 236 255
221 236 255
221 236 255
221 236 255
221 236 255
221 236 255
221 236 255
221 236 255
221 236 255
221 236 255
221 236 255
221 236 255
221 236 255
221 236 255
221 236 255
221 236 255
221 236 255
221 236 255
221 236 255
221 236 255
221 236 255
221 236 255
221 236 255
221 236 255
221 236 255
221 236 255
221 236 255
221 236 255
221 236 255
221 236 255
221 236 255
221 236 255
221 236 255
221 236 255
221 236 255
221 236 255
221 236 255
221 236 255
221 236 255
221 236 255
221 236 255
221 236 255
221 236 255
221 236 255
221 236 255
221 236 255
221 236 255
221 236 255
221 236 255
221 236 255
221 236 255
221 236 255
221 236 255
221 236 255
221 236 255
221 236 255
221 236 255
221 236 255
221 236 255
221 236 255
221 236 255
221 236 255
221 236 255
221 236 255
221 236 255
221 236 255
221 236 255
221 236 255
221 236 255
221 236 255
221 236 255
221 236 255
221 236 255
221 236 255
221 236 255
221 236 255
221 236 255
221 236 255
221 236 255
221 236 255
221 236 255
221 236 255
221 236 255
221 236 255
221 236 255
221 236 255
221 236 255
221 236 255
221 236 255
221 236 255
221 236 255
221 236 255
221 236 255
221 236 255
221 236 255
221 236 255
221 236 255
221 236 255
221 236 255
221 236 255
221 236 255
221 236 255
221 236 255
221 236 255
221 236 255
221 236 255
221 236 255
221 236 255
221 236 255
221 236 255
221 236 255
221 236 255
221 236 255
221 236 255
221 236 255
221 236 255
221 236 255
221 236 255
221 236 255
221 236 255
221 236 255
221 236 255
221 236 255
221 236 255
221 236 255
221 236 255
221 236 255
221 236 255
221 236 255
221 236 255
221 236 255
221 236 255
221 236 255
221 236 255
221 236 255
221 236 255
221 236 255
221 236 255
221 236 255
221 236 255
221 236 255
221 236 255
221 236 255
221 236 255
221 236 255
221 236 255
221 236 255
102 109 119
34 37 42
28 31 35
29 32 37
26 29 32
34 38 42
21 23 26
29 32 36
23 25 28
13 15 17
18 20 23
34 38 43
42 46 52
51 56 63
54 59 67
55 61 69
56 62 69
44 48 55
22 25 28
18 20 23
38 42 47
45 50 57
50 56 63
53 58 64
48 53 60
45 50 56
41 45 51
44 49 55
34 38 43
31 35 39
24 26 30
24 26 30
23 25 28
18 20 22
16 17 19
25 28 32
30 33 38
44 48 55
49 54 62
55 61 69
58 63 71
58 64 73
63 69 77
65 72 81
67 74 84
68 75 84
57 63 71
52 58 66
46 51 58
38 42 47
35 39 44
34 38 42
38 42 47
41 45 51
41 46 52
45 50 56
50 55 62
52 58 65
49 54 61
49 54 61
53 58 65
55 61 68
53 58 66
49 55 62
46 51 58
44 49 56
47 52 58
38 42 47
35 39 44
34 38 42
40 44 50
46 51 57
49 54 60
44 48 54
37 40 45
34 38 43
42 46 52
43 48 54
39 43 48
34 37 43
32 36 41
32 36 40
39 43 49
43 48 54
46 50 57
57 63 71
66 72 81
77 85 96
83 92 104
81 89 101
88 97 110
95 105 118
99 108 121
96 106 119
93 103 116
85 94 107
87 96 108
79 87 98
74 82 93
79 87 98
70 77 88
70 78 88
65 72 81
73 81 91
73 81 92
79 87 98
75 82 92
80 89 100
84 92 104
78 87 98
71 79 90
68 76 86
67 74 83
69 76 86
68 75 84
70 77 87
70 77 86
59 65 73
61 67 75
56 62 70
51 56 63
46 51 57
32 35 39
28 31 35
40 44 50
41 45 51
44 48 54
47 52 59
50 55 62
51 55 62
54 59 66
54 60 67
52 57 65
49 54 61
41 45 51
39 43 48
48 53 59
52 58 65
54 60 68
56 63 71
55 60 68
54 60 68
46 51 58
35 39 45
21 23 26
8 9 10
22 24 27
31 35 40
40 45 50
38 42 48
40 44 49
45 50 56
40 44 50
42 47 53
46 50 56
45 50 56
42 46 52
40 44 50
29 33 37
19 20 23
24 27 30
37 41 46
32 36 40
22 25 28
12 13 15
12 14 16
22 25 28
38 43 48
44 49 56
53 59 66
56 62 70
57 62 70
55 61 69
65 71 80
64 71 80
68 75 84
73 80 90
85 94 106
89 98 110
98 109 123
108 119 135
112 124 139
106 118 133
92 102 115
90 100 112
87 97 109
98 108 121
103 114 129
111 123 139
108 119 135
112 124 141
113 125 141
97 107 121
97 107 121
95 106 119
118 126 139
221 236 255
221 236 255
221 236 255
221 236 255
221 236 255
221 236 255
221 236 255
221 236 255
221 236 255
221 236 255
221 236 255
221 236 255
221 236 255
221 236 255
221 236 255
221 236 255
221 236 255
221 236 255
221 236 255
221 236 255
221 236 255
221 236 255
221 236 255
221 236 255
221 236 255
221 236 255
221 236 255
221 236 255
221 236 255
221 236 255
221 236 255
221 236 255
221 236 255
221 236 255
221 236 255
221 236 255
221 236 255
221 236 255
221 236 255
221 236 255
221 236 255
221 236 255
221 236 255
221 236 255
221 236 255
221 236 255
221 236 255
221 236 255
221 236 255
221 236 255
221 236 255
221 236 255
221 236 255
221 236 255
221 236 255
221 236 255
221 236 255
221 236 255
221 236 255
221 236 255
221 236 255
221 236 255
221 236 255
221 236 255
221 236 255
221 236 255
221 236 255
221 236 255
221 236 255
221 236 255
221 236 255
221 236 255
221 236 255
221 236 255
221 236 255
221 236 255
221 236 255
221 236 255
221 236 255
221 236 255
221 236 255
221 236 255
221 236 255
221 236 255
221 236 255
221 236 255
221 236 255
221 236 255
221 236 255
221 236 255
221 236 255
221 236 255
221 236 255
221 236 255
221 236 255
221 236 255
221 236 255
221 236 255
221 236 255
221 236 255
221 236 255
221 236 255
221 236 255
221 236 255
221 236 255
221 236 255
221 236 255
221 236 255
221 236 255
221 236 255
221 236 255
221 236 255
221 236 255
221 236 255
221 236 255
221 236 255
221 236 255
221 236 255
221 236 255
221 236 255
221 236 255
221 236 255
221 236 255
221 236 255
221 236 255
221 236 255
221 236 255
221 236 255
221 236 255
221 236 255
221 236 255
221 236 255
221 236 255
221 236 255
221 236 255
221 236 255
221 236 255
221 236 255
221 236 255
221 236 255
221 236 255
221 236 255
221 236 255
221 236 255
221 236 255
221 236 255
221 236 255
221 236 255
221 236 255
221 236 255
221 236 255
221 236 255
221 236 255
221 236 255
221 236 255
221 236 255
221 236 255
221 236 255
221 236 255
221 236 255
221 236 255
221 236 255
221 236 255
221 236 255
221 236 255
221 236 255
221 236 255
221 236 255
221 236 255
221 236 255
221 236 255
221 236 255
221 236 255
221 236 255
221 236 255
221 236 255
221 236 255
221 236 255
221 236 255
221 236 255
221 236 255
221 236 255
221 236 255
221 236 255
221 236 255
221 236 255
221 236 255
221 236 255
221 236 255
221 236 255
221 236 255
221 236 255
221 236 255
221 236 255
221 236 255
221 236 255
221 236 255
221 236 255
221 236 255
221 236 255
221 236 255
221 236 255
221 236 255
221 236 255
119 127 138
37 41 47
35 39 44
23 26 29
26 29 33
31 34 39
9 10 11
27 29 33
29 32 36
14 15 17
11 12 14
31 34 38
45 50 56
51 56 63
52 57 65
50 56 63
56 61 69
45 49 56
22 25 28
17 18 21
36 40 45
50 55 62
48 53 60
44 49 55
42 46 52
41 46 52
40 45 50
40 44 50
37 41 47
30 33 37
26 28 32
30 33 38
30 34 38
24 26 29
16 18 20
13 14 16
14 15 17
29 32 37
39 43 49
46 51 58
48 53 59
47 53 60
57 64 72
60 66 74
65 71 80
60 66 75
57 63 70
49 54 61
43 48 54
37 41 46
34 38 43
35 39 44
39 43 49
46 51 58
52 57 64
49 54 61
50 55 62
53 58 66
56 62 70
58 64 72
48 53 60
52 57 65
49 55 63
46 51 57
47 52 58
44 49 55
41 45 51
40 44 49
38 42 47
32 36 40
33 37 42
39 43 49
51 57 64
46 51 57
41 46 52
40 44 49
44 49 55
42 46 52
36 40 45
30 33 37
30 33 37
33 36 41
36 40 45
39 43 49
42 47 53
51 56 63
66 73 83
64 70 79
75 83 94
80 88 99
87 97 109
94 104 117
94 103 116
94 104 117
89 98 111
81 90 101
75 83 94
78 86 98
79 87 99
73 80 90
75 83 94
78 86 96
75 83 93
72 80 90
71 79 89
80 89 102
80 89 100
77 85 96
74 82 93
71 78 88
69 76 86
72 79 89
65 72 82
64 71 80
59 66 74
68 75 84
65 71 80
62 69 78
56 62 70
56 62 70
46 51 57
33 36 41
19 21 24
36 40 45
48 53 60
48 53 60
47 52 60
54 60 67
50 56 63
48 53 60
53 59 67
54 60 67
49 55 62
46 50 56
44 48 54
42 46 52
46 51 58
47 51 58
48 54 61
51 57 64
51 56 63
47 52 59
39 43 48
32 35 40
17 19 21
15 17 19
13 14 16
25 27 31
31 35 39
32 35 40
36 40 45
44 48 54
43 47 53
41 45 51
39 44 49
42 46 52
35 39 44
36 40 45
36 40 45
24 26 29
16 18 20
33 36 41
30 33 37
22 24 27
23 25 28
26 29 33
18 20 23
30 33 37
40 44 50
44 49 55
48 53 60
49 54 61
53 59 67
62 69 77
60 66 75
67 74 84
75 83 92
81 89 101
88 98 110
93 104 117
100 111 125
104 115 129
104 115 129
98 108 121
86 96 109
92 102 115
98 108 121
102 113 128
104 115 130
103 114 129
109 120 134
89 98 110
91 100 112
97 107 120
93 103 116
114 122 134
221 236 255
221 236 255
221 236 255
221 236 255
221 236 255
221 236 255
221 236 255
221 236 255
221 236 255
221 236 255
221 236 255
221 236 255
221 236 255
221 236 255
221 236 255
221 236 255
221 236 255
221 236 255
221 236 255
221 236 255
221 236 255
221 236 255
221 236 255
221 236 255
221 236 255
221 236 255
221 236 255
221 236 255
221 236 255
221 236 255
221 236 255
221 236 255
221 236 255
221 236 255
221 236 255
221 236 255
221 236 255
221 236 255
221 236 255
221 236 255
221 236 255
221 236 255
221 236 255
221 236 255
221 236 255
221 236 255
221 236 255
221 236 255
221 236 255
221 236 255
221 236 255
221 236 255
221 236 255
221 236 255
221 236 255
221 236 255
221 236 255
221 236 255
221 236 255
221 236 255
221 236 255
221 236 255
221 236 255
221 236 255
221 236 255
221 236 255
221 236 255
221 236 255
221 236 255
221 236 255
221 236 255
221 236 255
221 236 255
221 236 255
221 236 255
221 236 255
221 236 255
221 236 255
221 236 255
221 236 255
221 236 255
221 236 255
221 236 255
221 236 255
221 236 255
221 236 255
221 236 255
221 236 255
221 236 255
221 236 255
221 236 255
221 236 255
221 236 255
221 236 255
221 236 255
221 236 255
221 236 255
221 236 255
221 236 255
221 236 255
221 236 255
221 236 255
221 236 255
221 236 255
221 236 255
221 236 255
221 236 255
221 236 255
221 236 255
221 236 255
221 236 255
221 236 255
221 236 255
221 236 255
221 236 255
221 236 255
221 236 255
221 236 255
221 236 255
221 236 255
221 236 255
221 236 255
221 236 255
221 236 255
221 236 255
221 236 255
221 236 255
221 236 255
221 236 255
221 236 255
221 236 255
221 236 255
221 236 255
221 236 255
221 236 255
221 236 255
221 236 255
221 236 255
221 236 255
221 236 255
221 236 255
221 236 255
221 236 255
221 236 255
221 236 255
221 236 255
221 236 255
221 236 255
221 236 255
221 236 255
221 236 255
221 236 255
221 236 255
221 236 255
221 236 255
221 236 255
221 236 255
221 236 255
221 236 255
221 236 255
221 236 255
221 236 255
221 236 255
221 236 255
221 236 255
221 236 255
221 236 255
221 236 255
221 236 255
221 236 255
221 236 255
221 236 255
221 236 255
221 236 255
221 236 255
221 236 255
221 236 255
221 236 255
221 236 255
221 236 255
221 236 255
221 236 255
221 236 255
221 236 255
221 236 255
221 236 255
221 236 255
221 236 255
221 236 255
221 236 255
221 236 255
221 236 255
221 236 255
221 236 255
221 236 255
221 236 255
221 236 255
221 236 255
221 236 255
221 236 255
221 236 255
221 236 255
221 236 255
221 236 255
130 139 151
45 49 55
36 40 45
25 27 31
31 35 39
32 36 40
16 18 20
20 22 25
19 21 23
14 15 17
18 20 22
37 41 46
51 56 63
57 63 70
57 63 71
57 63 71
54 59 67
41 45 51
18 19 22
12 13 15
25 27 31
41 45 51
43 47 53
35 39 45
35 39 44
34 38 42
36 40 45
37 41 46
32 35 40
35 38 43
34 38 43
38 42 48
40 44 49
30 33 37
26 29 32
14 16 18
16 18 20
25 27 31
34 38 42
43 48 54
47 52 59
50 55 62
53 59 67
59 65 73
61 67 77
56 62 70
49 54 61
41 46 52
43 47 53
39 43 48
35 39 44
40 45 51
45 49 55
50 55 62
54 60 67
52 58 65
56 61 69
55 61 69
57 63 71
60 66 75
54 59 67
55 61 69
51 56 63
49 55 62
44 49 55
39 43 48
40 44 49
40 44 50
33 37 41
34 37 42
38 43 49
43 47 53
46 51 58
47 51 58
51 56 63
48 53 60
44 48 54
44 48 54
38 42 47
32 36 40
29 33 37
41 45 51
42 47 53
48 53 59
45 50 57
58 64 72
63 70 79
66 72 81
75 82 92
82 91 102
86 94 106
87 96 108
92 102 114
88 97 109
87 96 108
89 98 111
81 90 102
78 86 98
74 81 91
74 81 91
72 80 90
75 83 94
71 79 88
72 79 88
71 79 89
71 78 88
70 78 88
71 79 89
69 76 85
69 76 86
66 72 81
64 70 79
63 70 78
60 66 75
58 64 72
61 67 76
58 64 72
54 59 66
47 52 59
44 49 56
36 40 45
20 22 25
32 36 40
45 49 55
50 55 62
52 57 65
54 60 68
54 59 67
52 58 65
49 54 61
55 61 69
51 57 64
48 53 60
48 53 60
47 52 58
49 54 61
47 52 59
48 53 60
42 47 53
48 53 60
49 54 62
44 49 55
37 41 46
26 29 32
16 18 20
19 21 24
11 12 14
23 25 29
27 30 34
27 30 34
37 41 47
42 47 53
37 41 46
36 40 45
37 40 46
41 45 51
40 45 51
34 38 43
33 36 41
27 30 34
16 17 20
27 30 33
25 28 31
24 27 30
34 37 41
34 37 42
29 32 36
16 17 19
30 33 38
39 43 49
42 47 53
51 56 64
50 56 63
59 66 74
63 69 78
70 78 87
74 82 92
76 85 96
81 90 102
95 105 118
99 110 124
101 112 128
102 113 128
95 104 117
89 99 112
89 98 111
104 115 130
93 103 116
100 111 126
96 106 119
98 109 123
92 102 115
88 98 110
94 104 118
93 102 114
133 143 156
221 236 255
221 236 255
221 236 255
221 236 255
221 236 255
221 236 255
221 236 255
221 236 255
221 236 255
221 236 255
221 236 255
221 236 255
221 236 255
221 236 255
221 236 255
221 236 255
221 236 255
221 236 255
221 236 255
221 236 255
221 236 255
221 236 255
221 236 255
221 236 255
221 236 255
221 236 255
221 236 255
221 236 255
221 236 255
221 236 255
221 236 255
221 236 255
221 236 255
221 236 255
221 236 255
221 236 255
221 236 255
221 236 255
221 236 255
221 236 255
221 236 255
221 236 255
221 236 255
221 236 255
221 236 255
221 236 255
221 236 255
221 236 255
221 236 255
221 236 255
221 236 255
221 236 255
221 236 255
221 236 255
221 236 255
221 236 255
221 236 255
221 236 255
221 236 255
221 236 255
221 236 255
221 236 255
221 236 255
221 236 255
221 236 255
221 236 255
221 236 255
221 236 255
221 236 255
221 236 255
221 236 255
221 236 255
221 236 255
221 236 255
221 236 255
221 236 255
221 236 255
221 236 255
221 236 255
221 236 255
221 236 255
221 236 255
221 236 255
221 236 255
221 236 255
221 236 255
221 236 255
221 236 255
221 236 255
221 236 255
221 236 255
221 236 255
221 236 255
221 236 255
221 236 255
221 236 255
221 236 255
221 236 255
221 236 255
221 236 255
221 236 255
221 236 255
221 236 255
221 236 255
221 236 255
221 236 255
221 236 255
221 236 255
221 236 255
221 236 255
221 236 255
221 236 255
221 236 255
221 236 255
221 236 255
221 236 255
221 236 255
221 236 255
221 236 255
221 236 255
221 236 255
221 236 255
221 236 255
221 236 255
221 236 255
221 236 255
221 236 255
221 236 255
221 236 255
221 236 255
221 236 255
221 236 255
221 236 255
221 236 255
221 236 255
221 236 255
221 236 255
221 236 255
221 236 255
221 236 255
221 236 255
221 236 255
221 236 255
221 236 255
221 236 255
221 236 255
221 236 255
221 236 255
221 236 255
221 236 255
221 236 255
221 236 255
221 236 255
221 236 255
221 236 255
221 236 255
221 236 255
221 236 255
221 236 255
221 236 255
221 236 255
221 236 255
221 236 255
221 236 255
221 236 255
221 236 255
221 236 255
221 236 255
221 236 255
221 236 255
221 236 255
221 236 255
221 236 255
221 236 255
221 236 255
221 236 255
221 236 255
221 236 255
221 236 255
221 236 255
221 236 255
221 236 255
221 236 255
221 236 255
221 236 255
221 236 255
221 236 255
221 236 255
221 236 255
221 236 255
221 236 255
221 236 255
221 236 255
221 236 255
221 236 255
221 236 255
221 236 255
221 236 255
221 236 255
221 236 255
221 236 255
221 236 255
221 236 255
221 236 255
137 146 159
49 54 61
39 43 49
26 29 33
33 36 41
28 31 36
25 27 31
20 22 25
12 14 15
16 18 21
38 42 47
46 50 57
52 58 65
55 60 68
56 62 70
53 59 66
53 58 66
40 44 50
18 20 23
13 14 16
13 14 16
27 30 33
32 36 40
31 34 39
30 33 38
30 34 38
32 36 40
31 34 38
28 31 35
39 43 49
45 49 56
44 49 55
40 44 50
35 39 45
35 39 44
18 20 22
20 22 25
26 29 33
29 32 37
36 40 44
44 49 55
46 51 58
51 57 64
56 62 69
52 57 65
48 52 59
43 48 54
42 46 52
35 39 44
36 40 45
38 42 47
44 49 55
50 55 62
51 57 64
57 63 71
55 62 70
60 66 75
64 71 79
62 69 79
66 72 81
58 65 73
58 64 72
54 59 66
52 57 64
45 50 56
39 43 48
39 43 49
36 40 45
31 34 39
33 36 41
39 43 48
49 54 60
46 52 59
46 52 59
48 53 61
47 52 59
47 52 58
46 51 57
42 46 52
42 47 53
44 49 55
50 55 63
52 57 65
51 57 64
53 58 66
58 64 72
66 73 81
68 75 85
72 80 90
78 85 95
79 87 98
85 94 106
82 91 102
86 96 109
83 91 102
80 88 100
78 87 99
74 82 93
71 79 89
72 80 90
75 82 93
71 79 89
81 89 99
75 83 93
67 73 83
69 77 87
67 74 83
65 72 80
65 72 81
62 68 77
62 69 78
66 73 82
62 68 77
57 63 71
59 65 73
52 58 66
56 62 69
48 54 61
42 46 52
32 35 39
19 21 23
31 34 39
43 48 54
42 47 53
55 61 69
56 62 70
59 66 74
61 68 76
56 62 70
51 56 64
54 59 65
49 54 61
48 53 60
47 52 59
47 51 58
48 53 60
44 49 55
45 50 56
38 42 48
36 40 45
35 39 44
35 39 44
26 29 33
15 17 19
16 18 20
24 27 30
19 21 24
18 19 22
20 22 25
31 34 38
39 43 49
35 39 44
34 38 43
38 42 47
41 46 51
41 45 50
37 41 46
31 34 39
25 27 31
26 29 33
13 15 17
25 27 31
28 31 35
34 37 41
40 44 50
49 54 60
32 36 40
23 25 29
15 17 19
19 21 24
38 42 48
46 51 57
53 59 67
56 62 70
57 63 71
65 72 81
74 82 92
73 81 91
84 92 104
87 96 107
111 122 137
104 115 130
100 110 125
98 109 122
89 98 110
93 103 117
93 102 114
95 104 117
98 109 123
100 111 125
89 99 111
84 94 106
84 93 105
94 104 118
87 95 106
137 147 160
221 236 255
221 236 255
221 236 255
221 236 255
221 236 255
221 236 255
221 236 255
221 236 255
221 236 255
221 236 255
221 236 255
221 236 255
221 236 255
221 236 255
221 236 255
221 236 255
221 236 255
221 236 255
221 236 255
221 236 255
221 236 255
221 236 255
221 236 255
221 236 255
221 236 255
221 236 255
221 236 255
221 236 255
221 236 255
221 236 255
221 236 255
221 236 255
221 236 255
221 236 255
221 236 255
221 236 255
221 236 255
221 236 255
221 236 255
221 236 255
221 236 255
221 236 255
221 236 255
221 236 255
221 236 255
221 236 255
221 236 255
221 236 255
221 236 255
221 236 255
221 236 255
221 236 255
221 236 255
221 236 255
221 236 255
221 236 255
221 236 255
221 236 255
221 236 255
221 236 255
221 236 255
221 236 255
221 236 255
221 236 255
221 236 255
221 236 255
221 236 255
221 236 255
221 236 255
221 236 255
221 236 255
221 236 255
221 236 255
221 236 255
221 236 255
221 236 255
221 236 255
221 236 255
221 236 255
221 236 255
221 236 255
221 236 255
221 236 255
221 236 255
221 236 255
221 236 255
221 236 255
221 236 255
221 236 255
221 236 255
221 236 255
221 236 255
221 236 255
221 236 255
221 236 255
221 236 255
221 236 255
221 236 255
221 236 255
221 236 255
221 236 255
221 236 255
221 236 255
221 236 255
221 236 255
221 236 255
221 236 255
221 236 255
221 236 255
221 236 255
221 236 255
221 236 255
221 236 255
221 236 255
221 236 255
221 236 255
221 236 255
221 236 255
221 236 255
221 236 255
221 236 255
221 236 255
221 236 255
221 236 255
221 236 255
221 236 255
221 236 255
221 236 255
221 236 255
221 236 255
221 236 255
221 236 255
221 236 255
221 236 255
221 236 255
221 236 255
221 236 255
221 236 255
221 236 255
221 236 255
221 236 255
221 236 255
221 236 255
221 236 255
221 236 255
221 236 255
221 236 255
221 236 255
221 236 255
221 236 255
221 236 255
221 236 255
221 236 255
221 236 255
221 236 255
221 236 255
221 236 255
221 236 255
221 236 255
221 236 255
221 236 255
221 236 255
221 236 255
221 236 255
221 236 255
221 236 255
221 236 255
221 236 255
221 236 255
221 236 255
221 236 255
221 236 255
221 236 255
221 236 255
221 236 255
221 236 255
221 236 255
221 236 255
221 236 255
221 236 255
221 236 255
221 236 255
221 236 255
221 236 255
221 236 255
221 236 255
221 236 255
221 236 255
221 236 255
221 236 255
221 236 255
221 236 255
221 236 255
221 236 255
221 236 255
221 236 255
221 236 255
221 236 255
221 236 255
221 236 255
221 236 255
221 236 255
221 236 255
221 236 255
151 161 175
58 64 72
39 43 48
27 30 34
32 36 40
29 33 37
27 29 33
34 37 42
32 36 40
40 44 49
46 51 57
51 56 63
62 68 77
56 62 70
57 63 71
58 64 72
60 66 74
45 49 56
31 34 39
23 25 29
18 20 22
20 22 25
16 18 20
19 22 24
29 32 36
33 36 41
24 26 30
21 24 27
26 28 32
35 39 44
39 43 49
44 49 55
40 44 50
39 43 48
33 37 41
20 22 25
19 21 24
25 28 32
24 26 30
31 34 38
41 45 50
51 56 63
49 54 61
47 52 58
44 49 55
46 50 57
42 46 52
42 46 52
39 43 48
38 42 47
43 47 53
53 59 66
58 64 72
58 64 71
61 68 77
63 69 78
57 63 71
62 69 78
63 70 79
68 74 84
72 79 89
67 74 83
54 60 68
51 57 64
48 53 59
43 47 54
42 47 52
42 46 52
40 44 49
42 46 52
47 52 58
45 50 57
48 53 60
48 53 60
51 56 64
52 57 65
50 55 61
49 55 62
53 59 66
51 57 64
54 60 67
58 64 72
59 65 74
58 64 72
63 69 77
58 64 73
68 76 85
67 74 83
67 74 84
70 77 86
80 89 100
85 94 105
75 83 94
77 85 96
78 86 97
74 82 93
75 83 94
74 82 92
72 79 89
71 78 87
69 76 85
67 74 83
73 81 91
73 81 92
63 70 80
69 76 85
63 71 80
64 71 79
63 70 78
66 72 81
62 69 77
60 66 74
61 67 75
56 62 70
55 61 68
56 61 69
49 54 60
41 46 52
30 34 38
19 21 23
31 34 39
36 40 45
47 52 59
51 56 63
58 64 71
63 69 78
68 75 85
63 69 78
58 65 74
54 60 68
56 62 69
52 58 65
48 53 60
47 52 58
47 52 59
48 53 60
38 42 48
35 39 44
28 31 35
26 29 33
26 29 32
23 25 29
12 13 15
19 21 24
28 32 36
31 35 39
25 28 31
14 15 17
17 19 21
27 30 34
31 34 38
27 29 33
31 34 38
33 37 42
33 37 42
30 34 38
28 31 35
20 22 25
14 16 18
14 16 18
15 17 19
17 19 21
30 33 37
42 46 53
50 55 62
49 55 62
38 42 47
34 37 41
24 27 30
12 14 16
28 31 35
41 45 51
46 51 57
57 63 71
66 73 83
69 77 87
71 79 90
73 80 90
78 87 98
93 103 117
100 111 125
95 105 118
102 113 127
89 98 110
91 100 112
95 106 119
93 102 115
84 93 105
88 98 110
100 110 125
93 102 115
84 91 102
90 99 112
91 101 114
86 95 107
150 161 175
221 236 255
221 236 255
221 236 255
221 236 255
221 236 255
221 236 255
221 236 255
221 236 255
221 236 255
221 236 255
221 236 255
221 236 255
221 236 255
221 236 255
221 236 255
221 236 255
221 236 255
221 236 255
221 236 255
221 236 255
221 236 255
221 236 255
221 236 255
221 236 255
221 236 255
221 236 255
221 236 255
221 236 255
221 236 255
221 236 255
221 236 255
221 236 255
221 236 255
221 236 255
221 236 255
221 236 255
221 236 255
221 236 255
221 236 255
221 236 255
221 236 255
221 236 255
221 236 255
221 236 255
221 236 255
221 236 255
221 236 255
221 236 255
221 236 255
221 236 255
221 236 255
221 236 255
221 236 255
221 236 255
221 236 255
221 236 255
221 236 255
221 236 255
221 236 255
221 236 255
221 236 255
221 236 255
221 236 255
221 236 255
221 236 255
221 236 255
221 236 255
221 236 255
221 236 255
221 236 255
221 236 255
221 236 255
221 236 255
221 236 255
221 236 255
221 236 255
221 236 255
221 236 255
221 236 255
221 236 255
221 236 255
221 236 255
221 236 255
221 236 255
221 236 255
221 236 255
221 236 255
221 236 255
221 236 255
221 236 255
221 236 255
221 236 255
221 236 255
221 236 255
221 236 255
221 236 255
221 236 255
221 236 255
221 236 255
221 236 255
221 236 255
221 236 255
222 236 255
222 236 255
222 236 255
222 236 255
222 236 255
222 236 255
222 236 255
222 236 255
222 236 255
222 236 255
222 236 255
222 236 255
222 236 255
222 236 255
222 236 255
222 236 255
222 236 255
222 236 255
222 236 255
222 236 255
222 236 255
222 236 255
222 236 255
222 236 255
222 236 255
222 236 255
222 236 255
222 236 255
222 236 255
222 236 255
222 236 255
222 236 255
222 236 255
222 236 255
222 236 255
222 236 255
222 236 255
222 236 255
222 236 255
222 236 255
222 236 255
222 236 255
222 236 255
222 236 255
222 236 255
222 236 255
222 236 255
222 236 255
222 236 255
222 236 255
222 236 255
222 236 255
222 236 255
222 236 255
222 236 255
222 236 255
222 236 255
222 236 255
222 236 255
222 236 255
222 236 255
222 236 255
222 236 255
222 236 255
222 236 255
222 236 255
222 236 255
222 236 255
222 236 255
222 236 255
222 236 255
222 236 255
222 236 255
222 236 255
222 236 255
222 236 255
222 236 255
222 236 255
222 236 255
222 236 255
222 236 255
222 236 255
222 236 255
222 236 255
222 236 255
222 236 255
222 236 255
222 236 255
222 236 255
222 236 255
222 236 255
222 236 255
222 236 255
222 236 255
222 236 255
222 236 255
222 236 255
222 236 255
222 236 255
222 236 255
222 236 255
222 236 255
156 166 181
60 66 75
37 41 46
29 32 36
32 35 40
32 35 39
35 38 43
43 47 54
51 56 63
46 51 57
52 58 65
62 68 77
63 69 77
56 62 71
60 66 74
63 69 78
63 70 78
53 59 66
46 51 57
34 37 41
32 36 40
31 34 38
29 32 36
14 15 17
19 21 24
29 32 36
20 22 25
11 13 14
18 20 23
32 36 40
36 40 45
35 39 44
32 36 40
35 39 44
30 34 38
15 17 19
11 12 13
19 21 24
18 20 22
23 26 30
34 38 43
41 45 51
44 49 55
48 53 59
48 52 59
44 49 55
44 49 55
49 53 60
50 55 62
50 55 62
51 56 63
59 66 74
59 65 73
64 70 79
64 71 80
65 72 82
61 67 75
65 72 81
66 72 82
67 74 84
76 84 94
69 76 85
61 68 76
60 66 74
54 60 67
52 58 65
47 51 58
47 52 58
49 54 61
49 54 61
52 58 66
49 55 62
54 60 68
51 56 63
49 54 61
54 59 67
55 61 69
55 61 69
56 62 70
59 65 73
64 71 80
58 64 72
71 78 87
72 79 89
68 75 85
71 78 88
74 81 91
68 75 85
68 75 85
74 82 92
75 83 93
79 87 98
81 89 101
68 75 85
66 73 83
66 73 83
66 73 83
69 77 87
68 75 85
68 76 86
71 79 89
69 77 87
74 81 92
69 77 87
75 83 93
71 78 87
74 81 92
68 75 85
62 69 77
65 72 81
58 64 72
52 58 66
54 60 67
58 64 72
52 58 65
50 55 62
42 46 52
28 31 35
18 20 22
29 32 36
36 40 45
46 51 57
49 55 62
49 54 62
58 64 72
66 72 81
66 73 82
74 82 92
64 71 80
70 78 88
58 64 72
52 58 66
51 57 64
49 54 61
43 48 54
36 40 45
27 29 33
24 27 30
25 27 31
17 19 21
14 15 17
20 23 26
21 23 26
23 26 29
32 35 40
31 34 39
32 35 40
31 34 39
21 24 27
13 15 17
15 16 18
19 22 24
24 26 29
28 31 35
30 33 37
20 23 26
18 20 23
10 11 12
21 24 27
29 32 36
27 30 34
26 29 32
41 45 51
50 55 62
54 60 67
49 54 60
47 51 57
33 37 42
28 31 35
18 20 23
21 23 26
46 50 56
52 58 65
63 69 78
70 77 87
68 76 85
81 89 100
77 85 96
85 93 105
91 101 115
102 112 126
101 112 126
97 107 121
96 106 119
90 99 112
94 104 117
90 99 111
90 100 112
98 108 121
93 103 117
88 96 108
89 98 109
89 99 111
87 96 108
82 91 103
150 160 175
222 236 255
222 236 255
222 236 255
222 236 255
222 236 255
222 236 255
222 236 255
222 236 255
222 236 255
222 236 255
222 236 255
222 236 255
222 236 255
222 236 255
222 236 255
222 236 255
222 236 255
222 236 255
222 236 255
222 236 255
222 236 255
222 236 255
222 236 255
222 236 255
222 236 255
222 236 255
222 236 255
222 236 255
222 236 255
222 236 255
222 236 255
222 236 255
222 236 255
222 236 255
222 236 255
222 236 255
222 236 255
222 236 255
222 236 255
222 236 255
222 236 255
222 236 255
222 236 255
222 236 255
222 236 255
222 236 255
222 236 255
222 236 255
222 236 255
222 236 255
222 236 255
222 236 255
222 236 255
222 236 255
222 236 255
222 236 255
222 236 255
222 236 255
222 236 255
222 236 255
222 236 255
222 236 255
222 236 255
222 236 255
222 236 255
222 236 255
222 236 255
222 236 255
222 236 255
222 236 255
222 236 255
222 236 255
222 236 255
222 236 255
222 236 255
222 236 255
222 236 255
222 236 255
222 236 255
222 236 255
222 236 255
222 236 255
222 236 255
222 236 255
222 236 255
222 236 255
222 236 255
222 236 255
222 236 255
222 236 255
222 236 255
222 236 255
222 236 255
222 236 255
222 236 255
222 236 255
222 236 255
222 236 255
222 236 255
222 236 255
222 236 255
222 236 255
222 236 255
222 236 255
222 236 255
222 236 255
222 236 255
222 236 255
222 236 255
222 236 255
222 236 255
222 236 255
222 236 255
222 236 255
222 236 255
222 236 255
222 236 255
222 236 255
222 236 255
222 236 255
222 236 255
222 236 255
222 236 255
222 236 255
222 236 255
222 236 255
222 236 255
222 236 255
222 236 255
222 236 255
222 236 255
222 236 255
222 236 255
222 236 255
222 236 255
222 236 255
222 236 255
222 236 255
222 236 255
222 236 255
222 236 255
222 236 255
222 236 255
222 236 255
222 236 255
222 236 255
222 236 255
222 236 255
222 236 255
222 236 255
222 236 255
222 236 255
222 236 255
222 236 255
222 236 255
222 236 255
222 236 255
222 236 255
222 236 255
222 236 255
222 236 255
222 236 255
222 236 255
222 236 255
222 236 255
222 236 255
222 236 255
222 236 255
222 236 255
222 236 255
222 236 255
222 236 255
222 236 255
222 236 255
222 236 255
222 236 255
222 236 255
222 236 255
222 236 255
222 236 255
222 236 255
222 236 255
222 236 255
222 236 255
222 236 255
222 236 255
222 236 255
222 236 255
222 236 255
222 236 255
222 236 255
222 236 255
222 236 255
222 236 255
222 236 255
222 236 255
222 236 255
222 236 255
222 236 255
222 236 255
222 236 255
222 236 255
222 236 255
222 236 255
162 173 188
68 75 85
43 47 53
35 39 44
30 33 37
43 47 53
39 43 48
52 57 64
58 64 72
57 63 71
56 62 70
70 78 88
69 76 86
68 75 85
61 68 77
69 76 86
68 74 84
62 69 77
61 68 77
46 51 57
43 48 54
35 39 44
34 38 42
18 20 23
15 17 19
27 30 34
25 28 31
11 12 13
11 12 13
23 25 28
28 31 35
24 26 30
31 35 39
31 34 38
26 28 32
23 26 29
17 18 21
12 13 15
16 17 20
20 22 24
23 25 28
33 37 41
37 41 47
44 48 54
45 49 55
44 49 55
50 55 62
55 61 68
55 60 67
56 61 69
61 67 76
64 70 79
62 69 78
61 68 77
67 73 82
68 75 84
66 73 82
62 68 77
63 70 79
66 73 82
73 81 90
71 79 89
67 73 83
70 77 86
59 65 73
60 66 74
54 59 67
51 56 63
59 64 72
59 65 73
61 68 77
56 61 69
58 64 72
56 61 69
62 69 78
62 68 76
58 65 73
59 65 74
65 72 80
67 74 83
65 72 82
63 70 80
66 73 82
72 80 90
72 79 89
75 83 93
77 85 96
73 81 91
77 85 96
78 86 97
81 89 101
80 89 101
76 85 95
74 82 93
62 69 78
69 76 85
69 76 86
70 77 87
72 80 90
68 75 85
66 73 82
74 81 90
67 74 83
69 76 86
68 75 84
71 78 87
69 76 86
67 74 83
60 67 75
57 63 71
57 62 70
56 62 70
54 60 68
56 62 70
52 57 65
48 54 61
36 40 45
23 25 29
25 27 31
30 33 38
42 46 52
47 53 59
53 58 66
60 66 75
69 76 85
70 78 88
68 76 86
77 85 96
72 80 90
68 75 85
63 69 78
59 65 73
57 62 70
54 59 67
36 40 45
28 30 34
22 24 27
14 16 18
14 15 18
12 13 15
24 26 29
28 31 35
27 30 33
29 32 37
31 34 38
37 41 47
42 46 52
35 39 44
31 34 38
21 23 26
15 16 18
12 14 15
13 14 16
18 19 22
16 17 19
7 8 9
16 18 20
19 21 24
31 35 39
41 45 50
35 39 44
35 38 43
42 47 53
52 58 66
55 60 68
51 57 65
55 61 68
40 44 50
32 35 40
25 27 31
21 23 26
47 52 58
54 59 67
58 65 73
66 73 82
73 81 92
80 89 100
77 85 97
84 93 104
94 104 117
101 111 125
104 114 129
100 110 125
106 118 133
99 109 123
97 106 120
91 101 114
84 94 106
93 102 116
88 97 110
88 97 110
89 98 110
92 101 114
83 91 102
79 88 100
185 197 214
222 236 255
222 236 255
222 236 255
222 236 255
222 236 255
222 236 255
222 236 255
222 236 255
222 236 255
222 236 255
222 236 255
222 236 255
222 236 255
222 236 255
222 236 255
222 236 255
222 236 255
222 236 255
222 236 255
222 236 255
222 236 255
222 236 255
222 236 255
222 236 255
222 236 255
222 236 255
222 236 255
222 236 255
222 236 255
222 236 255
222 236 255
222 236 255
222 236 255
222 236 255
222 236 255
222 236 255
222 236 255
222 236 255
222 236 255
222 236 255
222 236 255
222 236 255
222 236 255
222 236 255
222 236 255
222 236 255
222 236 255
222 236 255
222 236 255
222 236 255
222 236 255
222 236 255
222 236 255
222 236 255
222 236 255
222 236 255
222 236 255
222 236 255
222 236 255
222 236 255
222 236 255
222 236 255
222 236 255
222 236 255
222 236 255
222 236 255
222 236 255
222 236 255
222 236 255
222 236 255
222 236 255
222 236 255
222 236 255
222 236 255
222 236 255
222 236 255
222 236 255
222 236 255
222 236 255
222 236 255
222 236 255
222 236 255
222 236 255
222 236 255
222 236 255
222 236 255
222 236 255
222 236 255
222 236 255
222 236 255
222 236 255
222 236 255
222 236 255
222 236 255
222 236 255
222 236 255
222 236 255
222 236 255
222 236 255
222 236 255
222 236 255
222 236 255
222 236 255
222 236 255
222 236 255
222 236 255
222 236 255
222 236 255
222 236 255
222 236 255
222 236 255
222 236 255
222 236 255
222 236 255
222 236 255
222 236 255
222 236 255
222 236 255
222 236 255
222 236 255
222 236 255
222 236 255
222 236 255
222 236 255
222 236 255
222 236 255
222 236 255
222 236 255
222 236 255
222 236 255
222 236 255
222 236 255
222 236 255
222 236 255
222 236 255
222 236 255
222 236 255
222 236 255
222 236 255
222 236 255
222 236 255
222 236 255
222 236 255
222 236 255
222 236 255
222 236 255
222 236 255
222 236 255
222 236 255
222 236 255
222 236 255
222 236 255
222 236 255
222 236 255
222 236 255
222 236 255
222 236 255
222 236 255
222 236 255
222 236 255
222 236 255
222 236 255
222 236 255
222 236 255
222 236 255
222 236 255
222 236 255
222 236 255
222 236 255
222 236 255
222 236 255
222 236 255
222 236 255
222 236 255
222 236 255
222 236 255
222 236 255
222 236 255
222 236 255
222 236 255
222 236 255
222 236 255
222 236 255
222 236 255
222 236 255
222 236 255
222 236 255
222 236 255
222 236 255
222 236 255
222 236 255
222 236 255
222 236 255
222 236 255
222 236 255
222 236 255
222 236 255
222 236 255
222 236 255
222 236 255
222 236 255
222 236 255
222 236 255
222 236 255
187 199 216
65 72 81
45 50 56
40 45 50
25 28 32
40 44 50
45 50 57
59 65 73
68 75 85
65 72 81
63 69 77
66 73 82
69 76 86
68 75 84
77 85 96
71 78 87
78 87 98
73 80 90
63 69 78
55 60 68
51 56 63
44 48 55
36 40 45
21 24 27
12 14 16
26 29 32
30 33 37
18 20 23
19 21 24
21 24 27
21 23 27
23 26 29
31 34 39
27 29 33
28 31 35
32 35 40
29 33 37
31 34 38
19 21 24
12 13 15
15 17 19
17 19 21
28 30 34
31 34 38
37 41 47
49 54 62
52 58 65
51 57 64
52 58 65
60 66 75
60 66 74
67 73 82
66 73 82
65 72 81
66 72 81
65 71 80
64 70 79
59 65 74
64 71 80
70 76 86
70 77 87
66 73 83
69 77 87
74 81 91
68 75 84
60 67 75
64 70 78
56 62 71
61 68 77
64 71 80
65 71 80
60 67 75
63 70 79
69 76 85
70 78 88
68 75 85
69 76 85
68 75 84
66 73 83
68 75 84
71 78 89
71 79 89
75 83 93
76 84 94
80 88 99
74 82 93
79 87 98
77 86 97
73 81 91
81 89 100
72 79 89
80 88 99
74 81 92
71 79 89
74 82 92
69 76 86
67 74 83
69 76 86
66 73 83
65 71 80
68 75 84
65 71 80
61 67 76
65 72 81
64 70 79
69 76 86
74 81 91
64 71 79
59 66 75
58 64 71
52 57 65
54 60 68
53 58 66
57 63 71
54 60 67
54 60 68
37 41 45
23 25 28
30 33 37
36 39 44
46 50 57
56 61 69
60 67 75
68 76 85
78 86 97
71 78 88
79 88 99
79 88 99
77 85 95
75 83 93
69 77 86
66 72 82
56 62 69
45 50 56
37 41 47
21 24 27
13 14 16
11 12 14
20 22 25
23 25 28
24 27 30
32 35 40
38 42 47
37 41 47
39 43 49
35 39 44
35 39 44
38 42 47
41 45 50
31 34 38
21 24 27
24 26 30
30 33 37
29 31 35
21 24 27
23 26 29
27 30 33
30 33 37
40 45 50
43 48 54
44 49 55
46 50 57
50 55 62
55 60 67
53 59 67
57 63 71
54 60 67
46 50 56
43 47 52
35 38 43
20 23 26
37 41 46
54 60 67
60 66 74
67 74 84
73 80 90
79 87 98
83 91 102
83 91 103
84 93 105
100 111 125
98 108 122
95 105 119
106 116 131
103 114 129
101 112 126
91 100 113
81 89 101
90 99 111
88 97 110
81 89 101
84 93 105
91 100 113
81 90 102
82 91 103
185 197 213
222 236 255
222 236 255
222 236 255
222 236 255
222 236 255
222 236 255
222 236 255
222 236 255
222 236 255
222 236 255
222 236 255
222 236 255
222 236 255
222 236 255
222 236 255
222 236 255
222 236 255
222 236 255
222 236 255
222 236 255
222 236 255
222 236 255
222 236 255
222 236 255
222 236 255
222 236 255
222 236 255
222 236 255
222 236 255
222 236 255
222 236 255
222 236 255
222 236 255
222 236 255
222 236 255
222 236 255
222 236 255
222 236 255
222 236 255
222 236 255
222 236 255
222 236 255
222 236 255
222 236 255
222 236 255
222 236 255
222 236 255
222 236 255
222 236 255
222 236 255
222 236 255
222 236 255
222 236 255
222 236 255
222 236 255
222 236 255
222 236 255
222 236 255
222 236 255
222 236 255
222 236 255
222 236 255
222 236 255
222 236 255
222 236 255
222 236 255
222 236 255
222 236 255
222 236 255
222 236 255
222 236 255
222 236 255
222 236 255
222 236 255
222 236 255
222 236 255
222 236 255
222 236 255
222 236 255
222 236 255
222 236 255
222 236 255
222 236 255
222 236 255
222 236 255
222 236 255
222 236 255
222 236 255
222 236 255
222 236 255
222 236 255
222 236 255
222 236 255
222 236 255
222 236 255
222 236 255
222 236 255
222 236 255
222 236 255
222 236 255
222 236 255
222 236 255
222 236 255
222 236 255
222 236 255
222 236 255
222 236 255
222 236 255
222 236 255
222 236 255
222 236 255
222 236 255
222 236 255
222 236 255
222 236 255
222 236 255
222 236 255
222 236 255
222 236 255
222 236 255
222 236 255
222 236 255
222 236 255
222 236 255
222 236 255
222 236 255
222 236 255
222 236 255
222 236 255
222 236 255
222 236 255
222 236 255
222 236 255
222 236 255
222 236 255
222 236 255
222 236 255
222 236 255
222 236 255
222 236 255
222 236 255
222 236 255
222 236 255
222 236 255
222 236 255
222 236 255
222 236 255
222 236 255
222 236 255
222 236 255
222 236 255
222 236 255
222 236 255
222 236 255
222 236 255
222 236 255
222 236 255
222 236 255
222 236 255
222 236 255
222 236 255
222 236 255
222 236 255
222 236 255
222 236 255
222 236 255
222 236 255
222 236 255
222 236 255
222 236 255
222 236 255
222 236 255
222 236 255
222 236 255
222 236 255
222 236 255
222 236 255
222 236 255
222 236 255
222 236 255
222 236 255
222 236 255
222 236 255
222 236 255
222 236 255
222 236 255
222 236 255
222 236 255
222 236 255
222 236 255
222 236 255
222 236 255
222 236 255
222 236 255
222 236 255
222 236 255
222 236 255
222 236 255
222 236 255
222 236 255
222 236 255
222 236 255
222 236 255
222 236 255
191 204 221
70 77 87
47 52 59
39 43 48
23 26 29
39 43 49
48 53 60
62 68 77
76 83 94
77 85 95
65 72 82
69 76 85
69 77 88
78 86 97
79 88 99
74 82 94
73 81 91
70 78 88
72 80 91
66 73 82
59 65 73
54 60 67
48 54 60
33 36 41
15 16 18
26 29 33
31 34 39
26 29 32
17 19 21
17 19 22
17 18 21
15 16 18
25 27 31
30 33 36
30 33 37
34 38 43
40 44 50
35 39 43
27 30 34
25 28 32
26 29 32
13 15 17
15 17 19
27 30 34
38 42 47
45 49 55
56 62 69
55 60 68
58 64 72
65 72 81
63 70 79
64 70 79
70 78 87
62 69 78
65 72 80
64 70 78
62 68 77
64 70 79
65 72 81
72 80 90
72 80 90
68 75 84
74 81 92
75 83 93
67 74 83
69 76 86
71 79 88
67 75 85
72 79 89
69 76 86
71 78 88
67 75 84
69 76 86
68 75 84
72 79 89
79 87 97
73 81 91
75 82 93
71 79 89
69 76 86
73 81 91
74 82 92
72 80 91
74 82 93
77 84 95
81 89 100
83 92 103
87 96 108
85 94 106
80 88 99
73 81 92
72 79 89
75 82 92
72 80 90
67 74 82
69 76 85
65 71 81
67 73 82
66 73 82
66 72 81
64 71 79
66 73 83
71 78 88
68 75 85
61 68 77
63 69 78
64 71 80
61 67 76
64 71 80
60 67 75
61 67 76
55 60 68
61 67 75
56 62 69
52 58 65
48 53 59
42 46 52
28 31 35
20 22 25
38 42 47
54 60 67
62 68 77
71 79 89
73 81 92
77 85 96
82 91 102
77 85 96
88 97 108
79 87 99
79 87 98
74 81 92
71 79 88
62 67 75
49 54 61
39 43 49
23 25 28
11 12 14
13 14 16
28 31 35
33 37 42
29 32 36
34 37 42
38 42 47
39 44 49
39 43 49
39 43 48
34 37 42
39 43 49
41 45 51
41 45 50
33 36 41
39 43 49
40 45 50
39 43 48
34 37 42
37 41 46
32 36 40
33 36 41
41 45 51
44 49 55
43 48 54
47 52 58
48 53 60
53 58 66
56 62 70
52 57 64
51 56 63
48 53 59
46 51 57
41 45 51
22 25 28
34 38 42
51 56 63
59 65 73
66 73 82
77 86 97
78 86 97
81 90 101
81 89 101
90 100 112
96 106 120
100 110 124
103 113 127
101 111 124
114 125 141
98 108 123
90 100 113
93 103 117
89 98 110
84 92 104
89 98 110
86 95 107
88 98 110
85 95 107
77 85 96
198 210 228
222 236 255
222 236 255
222 236 255
222 236 255
222 236 255
222 236 255
222 236 255
222 236 255
222 236 255
222 236 255
222 236 255
222 236 255
222 236 255
222 236 255
222 236 255
222 236 255
222 236 255
222 236 255
222 236 255
222 236 255
222 236 255
222 236 255
222 236 255
222 236 255
222 236 255
222 236 255
222 236 255
222 236 255
222 236 255
222 236 255
222 236 255
222 236 255
222 236 255
222 236 255
222 236 255
222 236 255
222 236 255
222 236 255
222 236 255
222 236 255
222 236 255
222 236 255
222 236 255
222 236 255
222 236 255
222 236 255
222 236 255
222 236 255
222 236 255
222 236 255
222 236 255
222 236 255
222 236 255
222 236 255
222 236 255
222 236 255
222 236 255
222 236 255
222 236 255
222 236 255
222 236 255
222 236 255
222 236 255
222 236 255
222 236 255
222 236 255
222 236 255
222 236 255
222 236 255
222 236 255
222 236 255
222 236 255
222 236 255
222 236 255
222 236 255
222 236 255
222 236 255
222 236 255
222 236 255
222 236 255
222 236 255
222 236 255
222 236 255
222 236 255
222 236 255
222 236 255
222 236 255
222 236 255
222 236 255
222 236 255
222 236 255
222 236 255
222 236 255
222 236 255
222 236 255
222 236 255
222 236 255
222 236 255
222 236 255
222 236 255
222 236 255
222 236 255
222 236 255
222 236 255
222 236 255
222 236 255
222 236 255
222 236 255
222 236 255
222 236 255
222 236 255
222 236 255
222 236 255
222 236 255
222 236 255
222 236 255
222 236 255
222 236 255
222 236 255
222 236 255
222 236 255
222 236 255
222 236 255
222 236 255
222 236 255
222 236 255
222 236 255
222 236 255
222 236 255
222 236 255
222 236 255
222 236 255
222 236 255
222 236 255
222 236 255
222 236 255
222 236 255
222 236 255
222 236 255
222 236 255
222 236 255
222 236 255
222 236 255
222 236 255
222 236 255
222 236 255
222 236 255
222 236 255
222 236 255
222 236 255
222 236 255
222 236 255
222 236 255
222 236 255
222 236 255
222 236 255
222 236 255
222 236 255
222 236 255
222 236 255
222 236 255
222 236 255
222 236 255
222 236 255
222 236 255
222 236 255
222 236 255
222 236 255
222 236 255
222 236 255
222 236 255
222 236 255
222 236 255
222 236 255
222 236 255
222 236 255
222 236 255
222 236 255
222 236 255
222 236 255
222 236 255
222 236 255
222 236 255
222 236 255
222 236 255
222 236 255
222 236 255
222 236 255
222 236 255
222 236 255
222 236 255
222 236 255
222 236 255
222 236 255
222 236 255
222 236 255
222 236 255
222 236 255
222 236 255
222 236 255
222 236 255
222 236 255
222 236 255
222 236 255
208 222 240
65 73 82
51 56 63
36 40 45
26 29 32
43 48 54
56 62 70
66 73 82
82 91 102
78 86 97
70 77 87
73 80 90
63 70 79
70 77 87
85 94 106
81 89 100
79 88 98
79 86 97
76 84 94
72 80 90
64 71 80
57 63 71
50 55 62
38 41 46
26 29 33
21 23 26
25 28 32
22 25 28
12 14 15
12 14 15
12 13 15
11 12 14
12 13 15
24 26 30
34 38 42
39 43 49
40 44 49
36 39 45
28 31 35
30 33 37
29 32 36
18 20 23
14 15 17
27 30 34
37 41 46
45 50 56
52 58 65
65 71 81
59 66 75
63 70 79
63 69 77
68 75 85
67 74 84
67 74 84
65 72 80
69 76 85
59 66 74
60 66 74
61 67 76
66 74 83
70 77 86
76 84 95
83 92 104
77 85 95
85 93 105
77 85 95
71 79 90
71 79 89
68 75 84
75 83 93
72 80 90
63 69 78
65 71 80
70 78 88
68 74 83
73 81 90
78 86 96
74 82 92
80 88 98
77 85 96
68 75 84
75 83 93
72 79 89
78 86 97
82 91 103
76 84 95
83 92 104
83 91 103
85 94 105
82 90 102
73 81 92
73 81 92
71 78 88
65 71 80
70 77 87
71 78 87
66 73 82
66 73 82
61 68 76
64 71 79
65 71 80
66 73 82
65 72 81
59 65 73
63 70 79
55 61 69
60 66 74
61 68 76
63 69 78
63 70 79
60 66 74
62 68 77
62 68 76
56 63 71
53 58 65
47 52 59
44 48 54
37 41 46
19 21 24
36 39 44
52 57 64
60 66 75
70 77 87
82 89 100
76 84 94
85 94 105
80 88 99
91 101 113
90 99 112
78 85 96
73 80 90
69 76 86
62 68 76
55 61 68
44 49 55
28 31 35
15 17 19
16 18 20
28 31 35
28 31 35
29 32 36
31 35 39
35 39 44
40 44 50
39 43 49
39 44 49
42 47 53
46 50 57
47 52 59
45 50 56
46 50 56
50 56 63
45 49 56
44 49 55
39 43 49
41 45 51
38 42 48
37 41 46
38 42 47
44 49 55
42 46 52
44 48 54
44 48 54
50 56 63
61 68 77
60 67 75
54 59 67
53 58 65
48 53 60
42 46 52
20 22 25
28 31 35
47 52 58
64 71 80
66 73 82
68 75 85
87 96 108
84 92 104
86 95 106
89 98 110
91 100 113
105 116 131
102 113 128
104 114 129
105 116 131
92 102 114
88 97 109
82 91 102
84 92 104
83 92 103
86 95 107
88 97 110
90 99 111
84 93 104
76 83 94
206 219 237
222 236 255
222 236 255
222 236 255
222 236 255
222 236 255
222 236 255
222 236 255
222 236 255
222 236 255
222 236 255
222 236 255
222 236 255
222 236 255
222 236 255
222 236 255
222 236 255
222 236 255
222 236 255
222 236 255
222 236 255
222 236 255
222 236 255
222 236 255
222 236 255
222 236 255
222 236 255
222 236 255
222 236 255
222 236 255
222 236 255
222 236 255
222 236 255
222 236 255
222 236 255
222 236 255
222 236 255
222 236 255
222 236 255
222 236 255
222 236 255
222 236 255
222 236 255
222 236 255
222 236 255
222 236 255
222 236 255
222 236 255
222 236 255
222 236 255
222 236 255
222 236 255
222 236 255
222 236 255
222 236 255
222 236 255
222 236 255
222 236 255
222 236 255
222 236 255
222 236 255
222 236 255
222 236 255
222 236 255
222 236 255
222 236 255
222 236 255
222 236 255
222 236 255
222 236 255
222 236 255
222 236 255
222 236 255
222 236 255
222 236 255
222 236 255
222 236 255
222 236 255
222 236 255
222 236 255
222 236 255
222 236 255
222 236 255
222 236 255
222 236 255
222 236 255
222 236 255
222 236 255
222 236 255
222 236 255
222 236 255
222 236 255
222 236 255
222 236 255
222 236 255
222 236 255
222 236 255
222 236 255
222 236 255
222 236 255
222 236 255
222 236 255
222 236 255
222 236 255
222 236 255
222 236 255
222 236 255
222 236 255
222 236 255
222 236 255
222 236 255
222 236 255
222 236 255
222 236 255
222 236 255
222 236 255
222 236 255
222 236 255
222 236 255
222 236 255
222 236 255
222 236 255
222 236 255
222 236 255
222 236 255
222 236 255
222 236 255
222 236 255
222 236 255
222 236 255
222 236 255
222 236 255
222 236 255
222 236 255
222 236 255
222 236 255
222 236 255
222 236 255
222 236 255
222 236 255
222 236 255
222 236 255
222 236 255
222 236 255
222 236 255
222 236 255
222 236 255
222 236 255
222 236 255
222 236 255
222 236 255
222 236 255
222 236 255
222 236 255
222 236 255
222 236 255
222 236 255
222 236 255
222 236 255
222 236 255
222 236 255
222 236 255
222 236 255
222 236 255
222 236 255
222 236 255
222 236 255
222 236 255
222 236 255
222 236 255
222 236 255
222 236 255
222 236 255
222 236 255
222 236 255
222 236 255
222 236 255
222 236 255
222 236 255
222 236 255
222 236 255
222 236 255
222 236 255
222 236 255
222 236 255
222 236 255
222 236 255
222 236 255
222 236 255
222 236 255
222 236 255
222 236 255
222 236 255
222 236 255
222 236 255
222 236 255
222 236 255
222 236 255
222 236 255
222 236 255
222 236 255
222 236 255
222 236 255
222 236 255
222 236 255
221 235 254
72 80 89
55 61 69
34 38 43
27 30 33
52 57 64
65 72 81
73 81 91
83 91 103
78 86 97
72 80 90
71 79 88
73 80 90
79 87 97
84 93 105
86 94 106
78 87 98
81 89 99
73 80 91
78 86 97
69 76 86
61 67 75
54 60 67
44 49 55
37 40 46
22 24 27
19 21 24
19 21 24
12 13 15
10 11 12
13 14 16
11 12 14
8 9 10
23 26 29
37 41 46
41 46 51
43 47 53
39 44 49
28 31 35
31 35 39
31 34 39
28 31 35
13 14 16
22 24 28
34 38 42
44 48 55
52 57 65
59 66 75
66 72 81
60 66 75
58 64 72
66 73 83
72 80 90
68 75 84
69 76 86
73 81 90
68 76 86
68 75 85
68 75 84
68 75 84
70 77 87
74 82 93
82 91 102
82 90 102
82 90 101
85 94 106
85 94 106
78 86 97
76 83 92
71 79 89
71 78 87
69 76 86
72 79 89
66 73 82
66 73 82
73 81 91
81 89 100
76 84 94
81 90 102
78 86 97
78 85 96
76 84 95
79 86 97
80 88 99
88 97 109
84 92 104
91 101 113
92 101 113
88 97 109
86 95 108
79 88 100
80 88 99
76 84 93
69 76 85
64 71 80
64 71 80
68 75 84
68 75 85
61 68 76
65 72 81
68 75 85
58 64 72
63 70 78
64 71 79
65 72 81
64 71 80
59 65 73
59 66 75
61 67 75
67 73 82
58 64 72
54 60 68
58 65 74
51 56 64
48 53 59
45 49 55
48 53 60
42 46 52
24 26 30
35 38 43
51 57 64
63 70 78
71 78 88
78 86 97
77 85 96
89 98 110
84 93 106
95 105 118
85 94 106
75 84 95
76 85 96
76 84 94
64 71 79
53 59 67
50 55 62
38 41 46
22 24 27
13 14 16
21 23 26
24 26 29
21 23 26
20 22 25
30 33 38
43 47 53
41 45 51
43 48 54
45 49 56
52 57 63
57 63 71
56 61 69
50 55 63
59 65 74
62 68 76
52 58 65
42 47 53
40 44 50
36 39 44
34 38 43
38 42 47
45 50 56
46 51 58
45 50 56
49 54 60
55 61 69
66 73 82
64 70 79
59 65 73
56 62 71
45 50 56
38 42 47
19 21 24
31 34 38
50 55 62
58 63 71
59 65 73
75 82 92
83 91 101
72 80 90
76 84 94
83 91 102
82 92 104
98 108 121
101 111 125
99 109 124
100 110 124
94 104 118
92 101 114
94 103 116
93 102 116
78 86 97
86 94 105
89 98 111
90 99 111
78 86 97
73 80 89
222 236 255
222 236 255
222 236 255
222 236 255
222 236 255
222 236 255
222 236 255
222 236 255
222 236 255
222 236 255
222 236 255
222 236 255
222 236 255
222 236 255
222 236 255
222 236 255
222 236 255
222 236 255
222 236 255
222 236 255
222 236 255
222 236 255
222 236 255
222 236 255
222 236 255
222 236 255
222 236 255
222 236 255
222 236 255
222 236 255
222 236 255
222 236 255
222 236 255
222 236 255
222 236 255
222 236 255
222 236 255
222 236 255
222 236 255
222 236 255
222 236 255
222 236 255
222 236 255
222 236 255
222 236 255
222 236 255
222 236 255
222 236 255
222 236 255
222 236 255
222 236 255
222 236 255
222 236 255
222 236 255
222 236 255
222 236 255
222 236 255
222 236 255
222 236 255
222 236 255
222 236 255
222 236 255
222 236 255
222 236 255
222 236 255
222 236 255
222 236 255
222 236 255
222 236 255
222 236 255
222 236 255
222 236 255
222 236 255
222 236 255
222 236 255
222 236 255
222 236 255
222 236 255
222 236 255
222 236 255
222 236 255
222 236 255
222 236 255
222 236 255
222 236 255
222 236 255
222 236 255
222 236 255
222 236 255
222 236 255
222 236 255
222 236 255
222 236 255
222 236 255
222 236 255
222 236 255
222 236 255
222 236 255
222 236 255
222 236 255
222 236 255
222 236 255
222 236 255
222 236 255
222 236 255
222 236 255
222 236 255
222 236 255
222 236 255
222 236 255
222 236 255
222 236 255
222 236 255
222 236 255
222 236 255
222 236 255
222 236 255
222 236 255
222 236 255
222 236 255
222 236 255
222 236 255
222 236 255
222 236 255
222 236 255
222 236 255
222 236 255
222 236 255
222 236 255
222 236 255
222 236 255
222 236 255
222 236 255
222 236 255
222 236 255
222 236 255
222 236 255
222 236 255
222 236 255
222 236 255
222 236 255
222 236 255
222 236 255
222 236 255
222 236 255
222 236 255
222 236 255
222 236 255
222 236 255
222 236 255
222 236 255
222 236 255
222 236 255
222 236 255
222 236 255
222 236 255
222 236 255
222 236 255
222 236 255
222 236 255
222 236 255
222 236 255
222 236 255
222 236 255
222 236 255
222 236 255
222 236 255
222 236 255
222 236 255
222 236 255
222 236 255
222 236 255
222 236 255
222 236 255
222 236 255
222 236 255
222 236 255
222 236 255
222 236 255
222 236 255
222 236 255
222 236 255
222 236 255
222 236 255
222 236 255
222 236 255
222 236 255
222 236 255
222 236 255
222 236 255
222 236 255
222 236 255
222 236 255
222 236 255
222 236 255
222 236 255
222 236 255
222 236 255
222 236 255
222 236 255
222 236 255
222 236 255
222 236 255
222 236 255
222 236 255
222 236 255
98 106 117
60 66 75
41 45 51
21 23 26
57 62 70
75 82 92
73 81 92
81 89 99
81 89 101
77 84 95
76 84 95
80 89 100
79 88 99
95 104 116
93 102 114
87 96 108
84 93 105
83 92 103
81 89 100
73 80 90
62 68 77
54 60 68
51 56 63
40 44 50
39 43 48
28 31 34
13 14 16
12 13 15
18 20 22
21 23 26
17 19 21
11 12 13
24 27 31
38 42 47
44 49 55
44 49 55
40 44 49
37 41 46
30 34 38
34 38 43
33 36 40
21 23 26
16 18 21
37 41 46
49 54 61
56 62 69
66 73 82
63 69 78
65 72 81
65 71 80
58 64 72
72 79 89
72 79 89
71 79 89
77 85 95
78 86 97
72 79 90
65 71 81
71 78 88
71 78 89
78 86 97
84 92 104
89 98 110
84 93 106
81 89 100
82 91 103
79 87 98
83 92 103
76 83 94
78 86 96
72 80 90
72 79 90
71 78 88
74 82 92
76 84 94
82 91 102
83 91 104
84 92 103
91 100 112
77 86 97
77 86 97
80 89 100
85 93 105
82 91 103
88 97 109
79 87 98
80 89 100
86 95 107
90 99 111
82 91 103
70 77 86
71 79 89
65 73 83
70 77 86
62 68 77
74 82 92
74 82 92
72 79 89
68 76 86
65 72 81
59 65 73
61 67 75
59 66 74
65 71 80
63 69 78
58 64 72
57 63 71
58 64 72
60 66 75
56 62 70
54 60 67
50 56 62
45 50 56
48 53 60
42 47 53
39 43 48
35 39 43
22 24 27
31 34 38
45 50 56
62 68 76
71 78 88
80 88 98
83 92 104
84 93 105
87 96 108
91 100 112
92 101 113
84 92 104
88 97 110
75 83 93
70 77 86
62 69 77
49 54 61
42 46 52
32 35 39
23 26 30
14 16 18
22 24 27
17 18 21
16 17 20
22 25 28
35 38 43
38 42 48
45 50 57
49 54 60
52 57 64
60 66 74
54 60 67
62 69 77
64 70 79
65 71 80
53 59 66
49 54 60
39 43 48
32 36 41
28 31 35
33 36 41
46 50 56
44 49 56
50 55 61
56 61 68
65 72 81
63 70 79
64 71 80
60 66 75
56 62 70
48 53 60
42 46 51
25 27 31
29 32 36
45 50 56
53 59 66
62 68 77
70 76 86
73 80 90
77 84 94
80 88 100
84 93 106
89 99 111
88 98 110
97 108 122
101 111 125
97 107 121
95 105 118
88 97 109
85 93 105
85 94 106
80 88 99
84 93 106
86 95 107
88 97 110
69 76 86
108 116 127
222 236 255
222 236 255
222 236 255
222 236 255
222 236 255
222 236 255
222 236 255
222 236 255
222 236 255
222 236 255
222 236 255
222 236 255
222 236 255
222 236 255
222 236 255
222 236 255
222 236 255
222 236 255
222 236 255
222 236 255
222 236 255
222 236 255
222 236 255
222 236 255
222 236 255
222 236 255
222 236 255
222 236 255
222 236 255
222 236 255
222 236 255
222 236 255
222 236 255
222 236 255
222 236 255
222 236 255
222 236 255
222 236 255
222 236 255
222 236 255
222 236 255
222 236 255
222 236 255
222 236 255
222 236 255
222 236 255
222 236 255
222 236 255
222 236 255
222 236 255
222 236 255
222 236 255
222 236 255
222 236 255
222 236 255
222 236 255
222 236 255
222 236 255
222 236 255
222 236 255
222 236 255
222 236 255
222 236 255
222 236 255
222 236 255
222 236 255
222 236 255
222 236 255
222 236 255
222 236 255
222 236 255
222 236 255
222 236 255
222 236 255
222 236 255
222 236 255
222 236 255
222 236 255
222 236 255
222 236 255
222 236 255
222 236 255
222 236 255
222 236 255
222 236 255
222 236 255
222 236 255
222 236 255
222 236 255
222 236 255
222 236 255
222 236 255
222 236 255
222 236 255
222 236 255
222 236 255
222 236 255
222 236 255
222 236 255
222 236 255
222 236 255
222 236 255
222 236 255
222 236 255
222 236 255
222 236 255
222 236 255
222 236 255
222 236 255
222 236 255
222 236 255
222 236 255
222 236 255
222 236 255
222 236 255
222 236 255
222 236 255
222 236 255
222 236 255
222 236 255
222 236 255
222 236 255
222 236 255
222 236 255
222 236 255
222 236 255
222 236 255
222 236 255
222 236 255
222 236 255
222 236 255
222 236 255
222 236 255
222 236 255
222 236 255
222 236 255
222 236 255
222 236 255
222 236 255
222 236 255
222 236 255
222 236 255
222 236 255
222 236 255
222 236 255
222 236 255
222 236 255
222 236 255
222 236 255
222 236 255
222 236 255
222 236 255
222 236 255
222 236 255
222 236 255
222 236 255
222 236 255
222 236 255
222 236 255
222 236 255
222 236 255
222 236 255
222 236 255
222 236 255
222 236 255
222 236 255
222 236 255
222 236 255
222 236 255
222 236 255
222 236 255
222 236 255
222 236 255
222 236 255
222 236 255
222 236 255
222 236 255
222 236 255
222 236 255
222 236 255
222 236 255
222 236 255
222 236 255
222 236 255
222 236 255
222 236 255
222 236 255
222 236 255
222 236 255
222 236 255
222 236 255
222 236 255
222 236 255
222 236 255
222 236 255
222 236 255
222 236 255
222 236 255
222 236 255
222 236 255
222 236 255
222 236 255
222 236 255
222 236 255
222 236 255
222 236 255
122 131 143
61 68 76
51 56 63
18 20 22
52 58 65
71 78 88
81 89 100
85 93 104
79 87 99
78 86 97
81 89 100
85 93 104
90 99 111
94 103 116
84 93 105
84 93 105
85 93 104
78 86 97
72 79 90
72 80 91
67 74 83
58 64 72
49 54 61
48 53 60
46 51 57
38 42 47
25 28 32
23 25 29
27 30 33
26 29 33
17 19 21
12 13 15
23 25 28
32 35 39
39 43 48
39 43 49
37 41 46
34 38 42
28 31 34
29 32 36
30 33 38
19 21 24
28 31 35
42 46 52
54 60 67
53 59 66
60 67 75
63 69 78
61 68 76
70 77 86
68 75 85
76 84 95
77 84 95
81 89 101
73 81 91
82 90 100
68 75 85
77 85 96
79 87 98
79 87 98
80 88 99
77 84 94
82 91 103
88 97 110
77 85 95
83 92 103
82 91 102
76 83 94
79 88 100
72 79 89
76 84 95
73 80 90
75 84 95
72 79 89
85 94 106
85 94 106
78 87 98
81 89 100
80 88 100
72 79 90
78 86 96
77 85 95
83 92 104
78 87 98
86 95 106
87 96 108
91 101 113
88 98 110
77 85 96
79 87 98
77 84 95
64 70 79
64 71 81
59 65 74
70 77 86
75 82 92
74 81 91
72 79 89
76 83 94
69 76 86
59 66 74
56 62 70
57 63 71
61 68 76
68 75 85
62 68 76
53 58 66
54 60 68
49 54 61
52 57 64
47 51 58
45 49 55
41 45 51
45 49 55
39 44 49
35 39 44
27 29 33
15 17 19
33 36 41
46 51 57
51 56 63
68 75 84
77 85 95
81 89 100
93 103 116
94 104 117
98 108 122
94 104 116
89 98 109
83 92 104
73 81 92
68 75 85
60 67 75
56 62 69
46 51 57
39 43 48
34 38 43
14 16 18
11 13 14
10 11 13
22 25 28
23 26 29
30 33 37
36 40 45
42 47 53
46 51 58
51 57 64
62 68 77
60 66 74
65 72 81
68 75 84
69 76 85
59 65 73
47 52 58
41 45 51
32 36 40
31 34 38
35 39 44
41 45 50
46 51 57
56 61 69
56 62 70
61 68 76
70 78 87
67 74 83
65 72 81
61 67 76
52 58 65
39 43 48
24 27 30
31 34 38
42 47 53
54 59 67
63 69 77
66 73 82
69 76 86
74 81 91
73 81 91
82 91 102
79 87 98
91 100 113
96 105 118
96 106 119
95 105 118
88 96 108
91 101 114
79 87 99
86 95 107
86 94 106
88 97 110
82 91 103
82 90 101
76 84 94
129 138 151
222 236 255
222 236 255
222 236 255
222 236 255
222 236 255
222 236 255
222 236 255
222 236 255
222 236 255
222 236 255
222 236 255
222 236 255
222 236 255
222 236 255
222 236 255
222 236 255
222 236 255
222 236 255
222 236 255
222 236 255
222 236 255
222 236 255
222 236 255
222 236 255
222 236 255
222 236 255
222 236 255
222 236 255
222 236 255
222 236 255
222 236 255
222 236 255
222 236 255
222 236 255
222 236 255
222 236 255
222 236 255
222 236 255
222 236 255
222 236 255
222 236 255
222 236 255
222 236 255
222 236 255
222 236 255
222 236 255
222 236 255
222 236 255
222 236 255
222 236 255
222 236 255
222 236 255
222 236 255
222 236 255
222 236 255
222 236 255
222 236 255
222 236 255
222 236 255
222 236 255
222 236 255
222 236 255
222 236 255
222 236 255
222 236 255
222 236 255
222 236 255
222 236 255
222 236 255
222 236 255
222 236 255
222 236 255
222 236 255
222 236 255
222 236 255
222 236 255
222 236 255
222 236 255
222 236 255
222 236 255
222 236 255
222 236 255
222 236 255
222 236 255
222 236 255
222 236 255
222 236 255
222 236 255
222 236 255
222 236 255
222 236 255
222 236 255
222 236 255
222 236 255
222 236 255
222 236 255
222 236 255
222 236 255
222 236 255
222 236 255
222 236 255
222 236 255
222 236 255
222 236 255
222 236 255
222 236 255
222 236 255
222 236 255
222 236 255
222 236 255
222 236 255
222 236 255
222 236 255
222 236 255
222 236 255
222 236 255
222 236 255
222 236 255
222 236 255
222 236 255
222 236 255
222 236 255
222 236 255
222 236 255
222 236 255
222 236 255
222 236 255
222 236 255
222 236 255
222 236 255
222 236 255
222 236 255
222 236 255
222 236 255
222 236 255
222 236 255
222 236 255
222 236 255
222 236 255
222 236 255
222 236 255
222 236 255
222 236 255
222 236 255
222 236 255
222 236 255
222 236 255
222 236 255
222 236 255
222 236 255
222 236 255
222 236 255
222 236 255
222 236 255
222 236 255
222 236 255
222 236 255
222 236 255
222 236 255
222 236 255
222 236 255
222 236 255
222 236 255
222 236 255
222 236 255
222 236 255
222 236 255
222 236 255
222 236 255
222 236 255
222 236 255
222 236 255
222 236 255
222 236 255
222 236 255
222 236 255
222 236 255
222 236 255
222 236 255
222 236 255
222 236 255
222 236 255
222 236 255
222 236 255
222 236 255
222 236 255
222 236 255
222 236 255
222 236 255
222 236 255
222 236 255
222 236 255
222 236 255
222 236 255
222 236 255
222 236 255
222 236 255
222 236 255
222 236 255
222 236 255
222 236 255
222 236 255
222 236 255
222 236 255
222 236 255
222 236 255
150 160 174
68 75 84
47 52 58
21 24 27
52 57 64
68 76 86
85 94 105
84 92 104
75 83 94
78 86 97
87 96 108
78 86 98
86 93 104
85 94 105
85 93 105
86 95 107
85 93 105
77 85 96
67 74 82
70 77 86
64 70 79
64 70 79
59 65 73
51 56 63
47 52 59
44 49 54
37 41 46
29 32 36
31 35 39
24 27 30
15 17 19
25 27 31
28 30 34
36 40 45
35 39 43
33 37 41
31 34 38
27 30 34
29 32 36
24 26 30
22 24 28
21 23 26
34 37 42
43 47 53
54 59 67
52 57 64
56 63 71
57 63 71
65 72 80
70 77 86
73 80 91
75 83 93
78 86 96
78 85 96
78 87 98
86 94 106
80 89 100
83 92 103
87 96 108
82 91 103
79 87 98
81 89 100
81 90 101
73 81 92
77 84 95
80 88 99
85 93 105
79 87 98
67 75 84
71 79 89
75 82 92
72 79 89
72 79 90
75 82 92
85 93 105
83 91 103
83 92 104
89 99 111
88 97 109
85 94 106
87 96 108
87 96 108
80 88 99
84 92 104
81 90 101
89 99 111
85 94 107
83 92 103
79 88 99
83 92 103
77 85 96
75 83 94
71 78 88
75 82 92
72 80 90
70 77 87
69 76 85
74 82 92
79 87 97
70 78 88
68 74 83
63 69 78
60 66 75
70 77 86
66 72 81
55 60 68
56 62 69
50 55 62
44 48 54
43 47 53
39 43 49
41 45 50
40 43 49
36 40 45
36 40 45
28 31 34
17 19 21
22 25 28
35 38 43
43 47 53
50 56 63
64 70 79
72 80 90
84 93 105
86 95 107
90 100 114
87 96 109
90 99 112
81 88 99
75 83 94
74 82 92
73 81 91
64 71 80
61 67 76
55 61 69
45 50 56
36 40 45
25 28 32
18 20 23
10 11 13
20 22 25
22 25 28
27 30 34
33 36 41
44 48 55
44 49 56
54 59 67
64 71 80
66 73 82
70 78 87
67 73 83
62 68 76
60 66 75
56 62 70
48 53 59
38 42 48
43 47 53
43 47 53
41 45 51
47 51 58
59 64 72
63 70 79
61 67 76
69 76 86
73 81 91
74 81 91
63 70 79
56 61 69
43 47 53
28 31 35
28 31 35
44 48 55
48 53 60
52 57 64
60 66 74
61 67 75
73 80 91
72 79 90
79 87 98
69 77 88
89 98 110
94 104 117
91 100 113
98 108 121
91 100 112
88 97 109
99 109 123
87 96 108
89 98 111
71 79 90
88 96 108
76 84 96
68 75 84
154 164 178
222 236 255
222 236 255
222 236 255
222 236 255
222 236 255
222 236 255
222 236 255
222 236 255
222 236 255
222 236 255
222 236 255
222 236 255
222 236 255
222 236 255
222 236 255
222 236 255
222 236 255
222 236 255
222 236 255
222 236 255
222 236 255
222 236 255
222 236 255
222 236 255
222 236 255
222 236 255
222 236 255
222 236 255
222 236 255
222 236 255
222 236 255
222 236 255
222 236 255
222 236 255
222 236 255
222 236 255
222 236 255
222 236 255
222 236 255
222 236 255
222 236 255
222 236 255
222 236 255
222 236 255
222 236 255
222 236 255
222 236 255
222 236 255
222 236 255
222 236 255
222 236 255
222 236 255
222 236 255
222 236 255
222 236 255
222 236 255
222 236 255
222 236 255
222 236 255
222 236 255
222 236 255
222 236 255
222 236 255
222 236 255
222 236 255
222 236 255
222 236 255
222 236 255
222 236 255
222 236 255
222 236 255
222 236 255
222 236 255
222 236 255
222 236 255
222 236 255
222 236 255
222 236 255
222 236 255
222 236 255
222 236 255
222 236 255
222 236 255
222 236 255
222 236 255
222 236 255
222 236 255
222 236 255
222 236 255
222 236 255
222 236 255
222 236 255
222 236 255
222 236 255
222 236 255
222 236 255
222 236 255
222 236 255
222 236 255
222 236 255
222 236 255
222 236 255
222 236 255
222 236 255
222 236 255
222 236 255
222 236 255
222 236 255
222 236 255
222 236 255
222 236 255
222 236 255
222 236 255
222 236 255
222 236 255
222 236 255
222 236 255
222 236 255
222 236 255
222 236 255
222 236 255
222 236 255
222 236 255
222 236 255
222 236 255
222 236 255
222 236 255
222 236 255
222 236 255
222 236 255
222 236 255
222 236 255
222 236 255
222 236 255
222 236 255
222 236 255
222 236 255
222 236 255
222 236 255
222 236 255
222 236 255
222 236 255
222 236 255
222 236 255
222 236 255
222 236 255
222 236 255
222 236 255
222 236 255
222 236 255
222 236 255
222 236 255
222 236 255
222 236 255
222 236 255
222 236 255
222 236 255
222 236 255
222 236 255
222 236 255
222 236 255
222 236 255
222 236 255
222 236 255
222 236 255
222 236 255
222 236 255
222 236 255
222 236 255
222 236 255
222 236 255
222 236 255
222 236 255
222 236 255
222 236 255
222 236 255
222 236 255
222 236 255
222 236 255
222 236 255
222 236 255
222 236 255
222 236 255
222 236 255
222 236 255
222 236 255
222 236 255
222 236 255
222 236 255
222 236 255
222 236 255
222 236 255
222 236 255
222 236 255
222 236 255
222 236 255
222 236 255
222 236 255
222 236 255
222 236 255
222 236 255
222 236 255
222 236 255
222 236 255
222 236 255
222 236 255
169 180 196
77 84 94
49 54 61
25 28 32
42 46 52
67 74 83
78 86 97
80 88 98
78 86 96
86 94 105
86 94 106
95 104 117
82 91 103
90 99 111
91 101 114
92 102 115
91 101 114
80 88 99
70 77 87
65 72 80
64 70 79
56 63 71
58 64 72
54 60 68
47 52 58
49 54 61
42 47 53
35 39 44
27 29 33
20 22 25
26 29 33
31 35 40
39 42 47
43 47 53
36 39 44
29 32 36
19 21 23
17 19 22
22 25 28
16 18 20
14 15 17
30 33 38
42 46 52
44 48 54
52 58 65
46 51 57
53 58 66
56 63 71
63 69 77
61 67 75
72 80 91
73 80 91
81 89 101
89 97 108
85 94 106
76 83 93
86 94 106
75 83 94
81 89 100
81 89 100
82 91 102
74 82 92
86 95 106
75 83 93
76 84 94
74 81 91
84 92 104
79 87 98
71 78 87
72 79 89
79 86 97
73 82 93
76 84 95
74 82 93
86 94 105
84 93 105
86 95 106
81 89 100
91 101 114
89 98 110
93 102 115
88 98 110
84 92 104
82 90 101
79 88 99
80 88 99
76 84 95
77 85 96
83 92 104
72 79 89
68 75 84
75 83 93
74 81 91
67 75 84
73 81 91
63 69 78
68 75 84
70 77 87
75 83 93
74 82 93
75 83 93
68 75 85
67 74 83
66 73 83
62 68 77
63 69 77
54 59 67
54 60 68
38 42 48
39 43 48
37 41 46
36 40 45
36 40 45
32 35 39
27 30 33
19 20 23
15 17 19
23 25 28
32 36 40
43 47 53
48 53 59
57 63 70
79 86 97
82 90 102
86 95 107
89 97 109
88 97 110
83 92 103
78 86 98
77 85 96
76 84 95
79 87 97
70 77 87
58 64 71
55 60 68
46 50 57
44 49 55
35 38 43
25 28 31
15 16 18
14 16 18
24 27 30
30 33 37
35 38 43
47 52 58
57 62 70
59 65 73
69 76 85
69 76 86
62 69 77
71 78 88
68 75 84
71 78 88
60 66 74
51 57 64
53 59 66
53 59 67
52 57 65
51 56 63
56 61 69
60 66 73
66 72 81
70 77 86
68 75 84
64 71 80
70 77 87
69 76 85
55 61 69
47 52 58
28 31 35
17 19 22
34 38 42
43 47 53
45 50 56
57 63 71
56 62 69
66 73 83
72 79 88
74 81 92
71 78 88
82 90 101
95 105 119
94 103 115
88 98 112
100 110 124
96 107 121
86 95 107
92 101 114
87 96 108
97 107 120
80 88 100
85 94 107
71 78 88
172 183 199
222 236 255
222 236 255
222 236 255
222 236 255
222 236 255
222 236 255
222 236 255
222 236 255
222 236 255
222 236 255
222 236 255
222 236 255
222 236 255
222 236 255
222 236 255
222 236 255
222 236 255
222 236 255
222 236 255
222 236 255
222 236 255
222 236 255
222 236 255
222 236 255
222 236 255
222 236 255
222 236 255
222 236 255
222 236 255
222 236 255
222 236 255
222 236 255
222 236 255
222 236 255
222 236 255
222 236 255
222 236 255
222 236 255
222 236 255
222 236 255
222 236 255
222 236 255
222 236 255
222 236 255
222 236 255
222 236 255
222 236 255
222 236 255
222 236 255
222 236 255
222 236 255
222 236 255
222 236 255
222 236 255
222 236 255
222 236 255
222 236 255
222 236 255
222 236 255
222 236 255
222 236 255
222 236 255
222 236 255
222 236 255
222 236 255
222 236 255
222 236 255
222 236 255
222 236 255
222 236 255
222 236 255
222 236 255
222 236 255
222 236 255
222 236 255
222 236 255
222 236 255
222 236 255
222 236 255
222 236 255
222 236 255
222 236 255
222 236 255
222 236 255
222 236 255
222 236 255
222 236 255
222 236 255
222 236 255
222 236 255
222 236 255
222 236 255
222 236 255
222 236 255
222 236 255
222 236 255
222 236 255
222 236 255
222 236 255
222 236 255
222 236 255
222 236 255
222 236 255
222 236 255
222 236 255
222 236 255
222 236 255
222 236 255
222 236 255
222 236 255
222 236 255
222 236 255
222 236 255
222 236 255
222 236 255
222 236 255
222 236 255
222 236 255
222 236 255
222 236 255
222 236 255
222 236 255
222 236 255
222 236 255
222 236 255
222 236 255
222 236 255
222 236 255
222 236 255
222 236 255
222 236 255
222 236 255
222 236 255
222 236 255
222 236 255
222 236 255
222 236 255
222 236 255
222 236 255
222 236 255
222 236 255
222 236 255
222 236 255
222 236 255
222 236 255
222 236 255
222 236 255
222 236 255
222 236 255
222 236 255
222 236 255
222 236 255
222 236 255
222 236 255
222 236 255
222 236 255
222 236 255
222 236 255
222 236 255
222 236 255
222 236 255
222 236 255
222 236 255
222 236 255
222 236 255
222 236 255
222 236 255
222 236 255
222 236 255
222 236 255
222 236 255
222 236 255
222 236 255
222 236 255
222 236 255
222 236 255
222 236 255
222 236 255
222 236 255
222 236 255
222 236 255
222 236 255
222 236 255
222 236 255
222 236 255
222 236 255
222 236 255
222 236 255
222 236 255
222 236 255
222 236 255
222 236 255
222 236 255
222 236 255
222 236 255
222 236 255
222 236 255
222 236 255
222 236 255
222 236 255
222 236 255
222 236 255
222 236 255
222 236 255
222 236 255
222 236 255
198 211 229
72 79 89
48 54 60
28 31 35
36 40 46
72 79 88
80 89 100
83 92 103
81 89 100
79 88 99
85 93 104
96 106 120
94 104 117
83 91 103
99 109 122
93 103 116
84 93 105
85 94 105
73 81 91
64 71 81
68 75 85
64 70 79
55 60 68
54 59 66
51 57 64
48 53 59
42 47 53
30 34 38
18 20 23
14 16 18
28 31 34
39 43 48
43 48 54
43 48 55
39 43 48
31 34 39
24 26 29
18 20 22
20 23 26
19 22 25
15 16 18
29 32 36
45 50 56
39 43 49
44 48 54
44 49 55
47 52 59
54 59 67
55 61 68
65 72 81
74 82 93
76 84 94
79 87 99
85 93 105
82 90 102
83 91 103
75 83 93
80 88 99
79 88 99
89 98 110
86 95 107
83 91 103
81 89 100
74 81 92
68 75 85
72 80 89
76 84 94
82 91 102
80 88 98
70 78 88
76 84 95
83 91 103
71 79 89
71 79 89
75 83 93
87 96 108
82 90 101
85 94 106
88 97 109
87 96 108
84 93 105
81 90 101
86 94 105
79 88 99
74 81 91
81 89 100
76 84 94
69 76 85
74 81 91
68 75 85
71 78 88
68 76 85
70 77 87
72 80 90
73 81 91
68 75 85
74 81 91
70 76 85
68 75 85
72 80 90
72 79 89
68 75 85
70 76 86
66 73 83
64 71 79
58 64 72
58 64 72
52 58 65
47 52 59
42 46 52
35 38 43
32 35 40
27 30 34
26 28 32
22 25 28
10 11 12
19 21 24
24 26 30
33 37 41
45 50 56
52 57 65
62 69 77
66 73 82
81 89 100
85 95 107
91 101 113
86 95 106
81 89 100
80 88 99
78 86 97
69 77 86
69 76 86
64 72 81
70 77 87
51 57 64
48 53 60
41 45 51
37 41 47
33 36 41
27 29 33
13 14 16
26 29 33
32 36 41
37 41 46
47 52 59
55 61 68
65 72 81
66 73 82
71 79 89
72 80 90
71 78 87
67 74 83
64 70 79
58 64 72
57 63 71
59 65 73
56 61 69
56 62 70
56 62 69
67 73 82
64 71 80
67 75 84
73 81 91
76 83 93
75 82 92
70 78 87
57 63 72
53 59 66
46 51 57
31 34 38
15 16 18
26 29 32
36 40 45
48 52 59
52 58 65
59 66 75
72 79 89
62 68 76
71 78 88
77 85 95
86 95 107
94 103 116
94 104 117
97 106 119
90 100 113
83 92 104
81 89 100
96 105 118
91 100 113
94 104 116
87 96 108
77 85 97
71 78 88
197 209 227
222 236 255
222 236 255
222 236 255
222 236 255
222 236 255
222 236 255
222 236 255
222 236 255
222 236 255
222 236 255
222 236 255
222 236 255
222 236 255
222 236 255
222 236 255
222 236 255
222 236 255
222 236 255
222 236 255
222 236 255
222 236 255
222 236 255
222 236 255
222 236 255
222 236 255
222 236 255
222 236 255
222 236 255
222 236 255
222 236 255
222 236 255
222 236 255
222 236 255
222 236 255
222 236 255
222 236 255
222 236 255
222 236 255
222 236 255
222 236 255
222 236 255
222 236 255
222 236 255
222 236 255
222 236 255
222 236 255
222 236 255
222 236 255
222 236 255
222 236 255
222 236 255
222 236 255
222 236 255
222 236 255
222 236 255
222 236 255
222 236 255
222 236 255
222 236 255
222 236 255
222 236 255
222 236 255
222 236 255
222 236 255
222 236 255
222 236 255
222 236 255
222 236 255
222 236 255
222 236 255
222 236 255
222 236 255
222 236 255
222 236 255
222 236 255
222 236 255
222 236 255
222 236 255
222 236 255
222 236 255
222 236 255
222 236 255
222 236 255
222 236 255
222 236 255
222 236 255
222 236 255
222 236 255
222 236 255
222 236 255
222 236 255
222 236 255
222 236 255
222 236 255
222 236 255
222 236 255
222 236 255
222 236 255
222 236 255
222 236 255
222 236 255
222 236 255
222 236 255
222 236 255
222 236 255
222 236 255
222 236 255
222 236 255
222 236 255
222 236 255
222 236 255
222 236 255
222 236 255
222 236 255
222 236 255
222 236 255
222 236 255
222 236 255
222 236 255
222 236 255
222 236 255
222 236 255
222 236 255
222 236 255
222 236 255
222 236 255
222 236 255
222 236 255
222 236 255
222 236 255
222 236 255
222 236 255
222 236 255
222 236 255
222 236 255
222 236 255
222 236 255
222 236 255
222 236 255
222 236 255
222 236 255
222 236 255
222 236 255
222 236 255
222 236 255
222 236 255
222 236 255
222 236 255
222 236 255
222 236 255
222 236 255
222 236 255
222 236 255
222 236 255
222 236 255
222 236 255
222 236 255
222 236 255
222 236 255
222 236 255
222 236 255
222 236 255
222 236 255
222 236 255
222 236 255
222 236 255
222 236 255
222 236 255
222 236 255
222 236 255
222 236 255
222 236 255
222 236 255
222 236 255
222 236 255
222 236 255
222 236 255
222 236 255
222 236 255
222 236 255
222 236 255
222 236 255
222 236 255
222 236 255
222 236 255
222 236 255
222 236 255
222 236 255
222 236 255
222 236 255
222 236 255
222 236 255
222 236 255
222 236 255
222 236 255
222 236 255
222 236 255
222 236 255
222 236 255
222 236 255
222 236 255
222 236 255
222 236 255
222 236 255
222 236 255
222 236 255
220 234 253
74 81 91
50 56 62
29 33 37
22 24 28
65 71 80
81 89 100
86 95 107
84 92 104
87 96 108
88 97 110
98 109 123
96 107 120
94 104 117
96 105 118
91 100 113
93 102 115
88 97 109
76 83 93
66 73 83
65 72 81
67 74 83
57 63 71
47 52 59
46 51 57
44 48 55
45 49 56
30 34 38
16 17 20
20 22 25
31 34 39
45 49 55
47 51 58
52 57 64
47 52 59
43 47 53
43 47 53
36 40 44
23 26 29
23 26 29
15 17 19
21 24 27
39 43 49
42 46 52
42 47 53
42 47 53
46 51 58
50 55 62
51 57 64
56 62 70
62 69 77
61 67 76
77 84 94
70 77 86
72 79 89
81 89 101
80 88 99
83 90 101
78 86 97
78 86 98
76 83 94
79 88 99
82 90 102
78 87 98
74 81 91
78 86 97
72 80 91
79 87 97
78 87 98
72 80 90
74 82 94
80 88 100
76 84 95
83 92 105
79 87 98
87 96 108
78 87 98
84 92 104
89 98 110
84 93 104
83 92 104
84 92 104
80 89 100
83 92 103
68 76 87
77 85 95
75 82 93
73 80 89
65 72 81
72 79 89
74 82 92
72 80 90
75 83 93
76 83 94
77 85 96
78 87 98
64 71 79
69 77 87
75 82 92
63 70 79
63 70 79
69 76 86
61 68 77
59 65 73
58 65 73
63 69 77
60 66 75
53 59 67
48 53 59
46 51 57
41 45 50
30 34 38
29 32 36
29 32 37
24 26 30
13 14 16
22 24 27
33 37 42
37 41 46
43 47 53
54 60 68
66 73 82
74 82 92
75 83 93
83 91 103
89 98 110
79 88 99
91 101 113
84 93 105
76 84 95
74 81 92
72 80 90
69 76 85
68 75 85
57 63 71
46 50 57
44 48 54
39 43 49
37 40 45
29 32 36
16 18 20
29 32 36
36 40 45
40 44 49
48 53 59
57 63 71
68 75 85
70 77 87
71 78 87
69 75 84
73 80 89
66 73 83
68 74 84
59 65 74
54 60 67
56 61 69
56 62 69
57 62 70
62 69 77
69 77 87
66 73 82
69 76 85
73 80 90
72 80 90
70 77 87
63 70 78
61 67 76
49 54 61
42 47 53
37 41 46
20 22 25
21 23 26
34 38 43
46 51 57
52 57 64
58 64 73
61 67 76
67 74 83
76 84 94
88 97 109
84 93 105
93 102 115
99 108 120
102 112 125
92 102 116
89 98 110
83 93 105
91 100 113
89 98 110
84 93 105
84 92 104
79 86 97
64 71 79
219 232 252
222 236 255
222 236 255
222 236 255
222 236 255
222 236 255
222 236 255
222 236 255
222 236 255
222 236 255
222 236 255
222 236 255
222 236 255
222 236 255
222 236 255
222 236 255
222 236 255
222 236 255
222 236 255
222 236 255
222 236 255
222 236 255
222 236 255
222 236 255
222 236 255
222 236 255
222 236 255
222 236 255
222 236 255
222 236 255
222 236 255
222 236 255
222 236 255
222 236 255
222 236 255
222 236 255
222 236 255
222 236 255
222 236 255
222 236 255
222 236 255
222 236 255
222 236 255
222 236 255
222 236 255
222 236 255
222 236 255
222 236 255
222 236 255
222 236 255
222 236 255
222 236 255
222 236 255
222 236 255
222 236 255
222 236 255
222 236 255
222 236 255
222 236 255
222 236 255
222 236 255
222 236 255
222 236 255
222 236 255
222 236 255
222 236 255
222 236 255
222 236 255
222 236 255
222 236 255
222 236 255
222 236 255
222 236 255
222 236 255
222 236 255
222 236 255
222 236 255
222 236 255
222 236 255
222 236 255
222 236 255
222 236 255
222 236 255
222 236 255
222 236 255
222 236 255
222 236 255
222 236 255
222 236 255
222 236 255
222 236 255
222 236 255
222 236 255
222 236 255
222 236 255
222 236 255
222 236 255
222 236 255
222 236 255
222 236 255
222 236 255
222 236 255
222 236 255
222 236 255
222 236 255
222 236 255
222 236 255
222 236 255
222 236 255
222 236 255
222 236 255
222 236 255
222 236 255
222 236 255
222 236 255
222 236 255
222 236 255
222 236 255
222 236 255
222 236 255
222 236 255
222 236 255
222 236 255
222 236 255
222 236 255
222 236 255
222 236 255
222 236 255
222 236 255
222 236 255
222 236 255
222 236 255
222 236 255
222 236 255
222 236 255
222 236 255
222 236 255
222 236 255
222 236 255
222 236 255
222 236 255
222 236 255
222 236 255
222 236 255
222 236 255
222 236 255
222 236 255
222 236 255
222 236 255
222 236 255
222 236 255
222 236 255
222 236 255
222 236 255
222 236 255
222 236 255
222 236 255
222 236 255
222 236 255
222 236 255
222 236 255
222 236 255
222 236 255
222 236 255
222 236 255
222 236 255
222 236 255
222 236 255
222 236 255
222 236 255
222 236 255
222 236 255
222 236 255
222 236 255
222 236 255
222 236 255
222 236 255
222 236 255
222 236 255
222 236 255
222 236 255
222 236 255
222 236 255
222 236 255
222 236 255
222 236 255
222 236 255
222 236 255
222 236 255
222 236 255
222 236 255
222 236 255
222 236 255
222 236 255
222 236 255
222 236 255
222 236 255
222 236 255
222 236 255
222 236 255
222 236 255
222 236 255
222 236 255
222 236 255
222 236 255
222 236 255
222 236 255
222 236 255
92 100 111
55 61 68
32 36 40
18 20 22
51 57 64
69 76 85
87 96 108
79 87 98
86 95 107
85 95 107
94 104 117
97 108 122
93 102 115
86 95 108
96 106 119
94 103 116
87 95 107
69 76 86
65 72 80
60 66 75
59 65 74
57 63 70
41 46 52
47 52 59
45 50 56
41 45 51
29 32 36
9 10 12
24 26 30
35 39 44
50 55 61
53 58 65
56 62 70
57 63 70
52 57 65
52 58 65
45 50 57
38 41 47
29 32 35
27 30 33
16 18 20
21 24 27
34 38 42
34 38 42
35 38 43
40 44 50
40 44 50
51 56 63
57 63 71
60 67 76
67 74 83
71 78 87
74 81 92
70 78 87
75 83 94
83 91 102
84 93 105
79 87 99
87 96 107
83 92 103
75 83 93
78 86 97
77 85 96
74 81 91
74 81 91
70 77 87
74 82 93
78 86 96
79 87 98
77 84 95
80 89 100
85 93 105
89 98 110
84 92 104
77 85 95
84 93 105
81 90 102
83 91 103
81 89 101
82 92 104
81 89 100
81 90 101
82 90 101
75 82 92
84 92 104
68 75 84
68 76 86
71 78 87
71 79 89
68 75 85
73 81 91
81 90 102
78 86 96
82 91 102
74 81 90
72 79 89
65 71 80
64 71 80
69 76 85
68 75 84
67 73 82
61 67 76
62 68 77
60 66 74
54 60 67
59 65 73
48 53 60
47 52 58
45 50 56
42 46 52
33 37 42
29 32 35
26 29 33
26 29 32
22 25 28
15 16 19
38 41 47
46 51 58
53 59 66
58 64 72
70 77 87
75 83 93
76 83 93
81 89 100
80 88 98
91 100 113
86 95 106
79 87 98
78 87 98
77 85 96
72 79 89
72 79 89
68 74 84
58 64 72
50 55 61
43 47 53
41 45 51
35 39 44
26 28 32
19 21 23
29 32 35
28 31 35
37 41 46
50 55 62
57 63 71
64 71 80
67 74 84
66 72 81
70 78 88
75 83 93
67 74 83
58 64 72
64 70 79
54 60 68
49 54 61
51 57 64
62 69 77
61 67 76
64 71 80
72 79 88
64 71 80
69 76 86
64 71 81
65 72 80
57 63 71
55 61 69
49 54 60
46 51 58
40 44 49
23 26 29
15 17 19
27 29 33
47 51 57
53 58 66
62 67 75
59 65 74
71 79 89
80 88 98
89 99 112
86 95 107
94 104 117
93 103 117
100 110 124
89 97 109
94 103 115
84 93 105
89 98 111
89 98 110
86 94 105
87 96 108
81 89 100
102 110 121
222 236 255
222 236 255
222 236 255
222 236 255
222 236 255
222 236 255
222 236 255
222 236 255
222 236 255
222 236 255
222 236 255
222 236 255
222 236 255
222 236 255
222 236 255
222 236 255
222 236 255
222 236 255
222 236 255
222 236 255
222 236 255
222 236 255
222 236 255
222 236 255
222 236 255
222 236 255
222 236 255
222 236 255
222 236 255
222 236 255
222 236 255
222 236 255
222 236 255
222 236 255
222 236 255
222 236 255
222 236 255
222 236 255
222 236 255
222 236 255
222 236 255
222 236 255
222 236 255
222 236 255
222 236 255
222 236 255
222 236 255
222 236 255
222 236 255
222 236 255
222 236 255
222 236 255
222 236 255
222 236 255
222 236 255
222 236 255
222 236 255
222 236 255
222 236 255
222 236 255
222 236 255
222 236 255
222 236 255
222 236 255
222 236 255
222 236 255
222 236 255
222 236 255
222 236 255
222 236 255
222 236 255
222 236 255
222 236 255
222 236 255
222 236 255
222 236 255
222 236 255
222 236 255
222 236 255
222 236 255
222 236 255
222 236 255
222 236 255
222 236 255
222 236 255
222 236 255
222 236 255
222 236 255
222 236 255
222 236 255
222 236 255
222 236 255
222 236 255
222 236 255
222 236 255
222 236 255
222 236 255
222 236 255
222 236 255
222 236 255
222 236 255
222 236 255
222 236 255
222 236 255
222 236 255
222 236 255
222 236 255
222 236 255
222 236 255
222 236 255
222 236 255
222 236 255
222 236 255
222 236 255
222 236 255
222 236 255
222 236 255
222 236 255
222 236 255
222 236 255
222 236 255
222 236 255
222 236 255
222 236 255
222 236 255
222 236 255
222 236 255
222 236 255
222 236 255
222 236 255
222 236 255
222 236 255
222 236 255
222 236 255
222 236 255
222 236 255
222 236 255
222 236 255
222 236 255
222 236 255
222 236 255
222 236 255
222 236 255
222 236 255
222 236 255
222 236 255
222 236 255
222 236 255
222 236 255
222 236 255
222 236 255
222 236 255
222 236 255
222 236 255
222 236 255
222 236 255
222 236 255
222 236 255
222 236 255
222 236 255
222 236 255
222 236 255
222 236 255
222 236 255
222 236 255
222 236 255
222 236 255
222 236 255
222 236 255
222 236 255
222 236 255
222 236 255
222 236 255
222 236 255
222 236 255
222 236 255
222 236 255
222 236 255
222 236 255
222 236 255
222 236 255
222 236 255
222 236 255
222 236 255
222 236 255
222 236 255
222 236 255
222 236 255
222 236 255
222 236 255
222 236 255
222 236 255
222 236 255
222 236 255
222 236 255
222 236 255
222 236 255
222 236 255
222 236 255
222 236 255
222 236 255
222 236 255
222 236 255
222 236 255
222 236 255
222 236 255
222 236 255
222 236 255
152 162 176
66 72 81
39 43 49
20 23 25
49 54 61
74 82 92
82 91 102
87 95 107
87 96 108
90 100 112
95 105 118
102 113 127
89 98 109
93 103 116
97 107 120
96 106 119
78 86 96
75 82 92
69 77 87
58 64 72
53 59 67
48 53 60
48 53 60
45 50 56
41 45 51
38 42 47
27 29 33
14 16 18
30 33 38
40 44 50
50 55 62
55 61 68
65 72 81
64 71 80
63 70 78
65 71 80
59 65 74
47 52 58
37 41 46
38 42 47
25 28 32
15 16 18
16 18 21
27 29 33
30 33 37
36 39 44
38 42 47
45 49 55
49 54 60
56 62 69
57 63 71
62 68 77
66 73 82
69 76 85
72 79 90
78 86 97
80 88 99
83 91 102
79 87 97
76 84 94
73 81 91
76 84 94
76 84 94
73 81 91
75 82 92
69 77 86
75 83 93
70 77 86
77 84 95
79 87 98
77 85 96
73 81 91
83 91 102
82 89 100
78 87 98
78 86 97
80 89 100
84 92 103
84 92 102
82 91 103
81 89 100
74 82 94
77 85 94
77 85 96
70 77 88
68 75 85
65 71 80
66 73 83
71 79 89
73 81 90
76 84 94
88 97 109
77 85 96
71 78 88
75 83 94
70 77 87
69 76 86
72 80 91
72 79 88
65 72 80
67 74 83
63 70 79
61 68 76
61 68 76
57 63 71
57 63 71
54 60 68
53 59 66
48 53 59
44 49 55
41 46 51
34 38 42
29 32 35
22 24 27
19 21 23
25 28 31
36 39 44
47 52 59
55 60 68
58 64 72
73 80 90
73 81 92
79 87 97
84 92 103
76 83 94
89 99 111
82 90 101
89 98 110
75 84 95
73 81 91
74 81 92
75 82 91
71 79 88
63 70 79
55 61 68
49 54 61
41 45 50
30 34 38
16 17 20
20 22 25
24 26 30
29 32 36
41 45 50
49 54 61
54 60 67
61 67 75
65 71 80
62 69 78
65 72 82
69 75 84
65 72 81
60 66 74
54 60 68
54 59 67
53 59 66
55 60 68
57 63 71
61 68 76
67 73 82
70 77 86
66 72 81
66 73 82
65 72 81
65 71 80
55 61 68
56 62 70
50 55 61
48 53 60
42 46 52
27 30 34
16 18 20
29 32 35
43 48 54
50 55 62
58 64 72
65 71 80
72 80 90
82 90 100
95 104 117
90 100 113
93 103 116
89 98 111
98 108 121
96 105 118
83 91 102
90 100 113
94 104 117
83 92 103
76 85 95
82 90 101
79 87 98
153 163 177
222 236 255
222 236 255
222 236 255
222 236 255
222 236 255
222 236 255
222 236 255
222 236 255
222 236 255
222 236 255
222 236 255
222 236 255
222 236 255
222 236 255
222 236 255
222 236 255
222 236 255
222 236 255
222 236 255
222 236 255
222 236 255
222 236 255
222 236 255
222 236 255
222 236 255
222 236 255
222 236 255
222 236 255
222 236 255
222 236 255
222 236 255
222 236 255
222 236 255
222 236 255
222 236 255
222 236 255
222 236 255
222 236 255
222 236 255
222 236 255
222 236 255
222 236 255
222 236 255
222 236 255
222 236 255
222 236 255
222 236 255
222 236 255
222 236 255
222 236 255
222 236 255
222 236 255
222 236 255
222 236 255
222 236 255
222 236 255
222 236 255
222 236 255
222 236 255
222 236 255
222 236 255
222 236 255
222 236 255
222 236 255
222 236 255
222 236 255
222 236 255
222 236 255
222 236 255
222 236 255
222 236 255
222 236 255
222 236 255
222 236 255
222 236 255
222 236 255
222 236 255
222 236 255
222 236 255
222 236 255
222 236 255
222 236 255
222 236 255
222 236 255
222 236 255
222 236 255
222 236 255
222 236 255
222 236 255
222 236 255
222 236 255
222 236 255
222 236 255
222 236 255
222 236 255
222 236 255
222 236 255
222 236 255
222 236 255
222 236 255
222 236 255
222 236 255
222 236 255
222 236 255
222 236 255
222 236 255
222 236 255
222 236 255
222 236 255
222 236 255
222 236 255
222 236 255
222 236 255
222 236 255
222 236 255
222 236 255
222 236 255
222 236 255
222 236 255
222 236 255
222 236 255
222 236 255
222 236 255
222 236 255
222 236 255
222 236 255
222 236 255
222 236 255
222 236 255
222 236 255
222 236 255
222 236 255
222 236 255
222 236 255
222 236 255
222 236 255
222 236 255
222 236 255
222 236 255
222 236 255
222 236 255
222 236 255
222 236 255
222 236 255
222 236 255
222 236 255
222 236 255
222 236 255
222 236 255
222 236 255
222 236 255
222 236 255
222 236 255
222 236 255
222 236 255
222 236 255
222 236 255
222 236 255
222 236 255
222 236 255
222 236 255
222 236 255
222 236 255
222 236 255
222 236 255
222 236 255
222 236 255
222 236 255
222 236 255
222 236 255
222 236 255
222 236 255
222 236 255
222 236 255
222 236 255
222 236 255
222 236 255
222 236 255
222 236 255
222 236 255
222 236 255
222 236 255
222 236 255
222 236 255
222 236 255
222 236 255
222 236 255
222 236 255
222 236 255
222 236 255
222 236 255
222 236 255
222 236 255
222 236 255
222 236 255
222 236 255
222 236 255
222 236 255
222 236 255
222 236 255
222 236 255
222 236 255
222 236 255
222 236 255
222 236 255
222 236 255
222 236 255
222 236 255
176 187 203
68 75 84
44 49 54
24 26 30
45 50 56
63 70 79
85 94 106
85 94 106
94 104 117
89 98 110
92 101 114
103 113 128
101 111 124
87 96 108
92 102 114
85 94 106
84 92 103
82 90 101
71 79 88
70 77 86
52 58 65
51 56 63
47 52 59
48 53 59
44 49 55
38 42 47
28 30 34
19 21 24
32 35 39
38 42 47
51 56 63
61 68 76
63 69 78
68 75 85
73 81 92
67 74 83
64 71 79
53 58 65
45 49 56
38 42 47
33 37 41
31 34 39
23 25 28
18 20 22
27 29 33
32 36 40
38 42 47
37 41 47
44 49 55
47 52 59
54 59 66
58 64 72
71 78 87
71 79 89
75 82 92
74 82 92
78 86 96
84 93 104
77 85 95
86 95 106
83 91 103
77 85 95
81 89 99
72 79 89
69 76 85
70 77 86
71 79 89
73 80 90
69 76 86
73 81 91
75 83 94
77 85 96
81 89 101
81 90 101
72 79 89
75 83 92
81 89 99
80 88 98
76 84 94
77 85 95
75 83 94
76 83 94
85 94 105
61 68 77
73 80 90
69 76 86
74 81 91
66 72 81
70 77 87
76 84 94
77 85 96
74 82 93
81 89 101
79 87 97
76 84 94
76 83 93
71 79 88
66 73 83
72 79 88
65 72 81
67 74 82
60 66 75
63 69 78
62 69 78
59 64 72
53 59 66
53 59 66
52 57 64
43 48 54
50 55 62
45 49 56
37 41 46
24 26 30
11 12 14
22 25 28
33 36 40
40 44 49
47 52 59
55 61 68
60 66 74
75 83 93
70 78 88
78 86 97
77 85 95
78 86 96
80 88 100
77 85 96
71 79 90
79 87 98
74 81 92
73 80 90
67 73 82
64 71 79
61 68 77
55 61 69
49 54 61
40 44 50
24 26 30
8 9 11
17 18 21
29 32 36
32 35 40
46 51 57
53 59 66
57 63 72
59 65 72
63 69 78
55 61 69
55 61 68
58 64 71
61 67 76
57 63 71
50 55 62
44 49 55
48 53 59
52 58 65
55 61 68
59 65 73
62 68 77
66 72 81
61 68 76
69 76 86
69 76 85
59 65 74
56 62 69
54 59 66
51 55 62
51 57 64
41 46 51
36 39 44
19 21 24
28 31 36
44 49 55
51 56 63
59 66 74
68 75 84
74 82 93
89 99 111
94 103 116
95 105 119
94 104 118
100 110 124
96 106 119
82 91 103
82 91 102
90 99 112
83 92 103
73 80 90
77 84 95
76 83 94
74 81 91
176 187 203
222 236 255
222 236 255
222 236 255
222 236 255
222 236 255
222 236 255
222 236 255
222 236 255
222 236 255
222 236 255
222 236 255
222 236 255
222 236 255
222 236 255
222 236 255
222 236 255
222 236 255
222 236 255
222 236 255
222 236 255
222 236 255
222 236 255
222 236 255
222 236 255
222 236 255
222 236 255
222 236 255
222 236 255
222 236 255
222 236 255
222 236 255
222 236 255
222 236 255
222 236 255
222 236 255
222 236 255
222 236 255
222 236 255
222 236 255
222 236 255
222 236 255
222 236 255
222 236 255
222 236 255
222 236 255
222 236 255
222 236 255
222 236 255
222 236 255
222 236 255
222 236 255
222 236 255
222 236 255
222 236 255
222 236 255
222 236 255
222 236 255
222 236 255
222 236 255
222 236 255
222 236 255
222 236 255
222 236 255
222 236 255
222 236 255
222 236 255
222 236 255
222 236 255
222 236 255
222 236 255
222 236 255
222 236 255
222 236 255
222 236 255
222 236 255
222 236 255
222 236 255
222 236 255
222 236 255
222 236 255
222 236 255
222 236 255
222 236 255
222 236 255
222 236 255
222 236 255
222 236 255
222 236 255
222 236 255
222 236 255
222 236 255
222 236 255
222 236 255
222 236 255
222 236 255
222 236 255
222 236 255
222 236 255
222 236 255
222 236 255
222 236 255
222 236 255
222 236 255
222 236 255
222 236 255
222 236 255
222 236 255
222 236 255
222 236 255
222 236 255
222 236 255
222 236 255
222 236 255
222 236 255
222 236 255
222 236 255
222 236 255
222 236 255
222 236 255
222 236 255
222 236 255
222 236 255
222 236 255
222 236 255
222 236 255
222 236 255
222 236 255
222 236 255
222 236 255
222 236 255
222 236 255
222 236 255
222 236 255
222 236 255
222 236 255
222 236 255
222 236 255
222 236 255
222 236 255
222 236 255
222 236 255
222 236 255
222 236 255
222 236 255
222 236 255
222 236 255
222 236 255
222 236 255
222 236 255
222 236 255
222 236 255
222 236 255
222 236 255
222 236 255
222 236 255
222 236 255
222 236 255
222 236 255
222 236 255
222 236 255
222 236 255
222 236 255
222 236 255
222 236 255
222 236 255
222 236 255
222 236 255
222 236 255
222 236 255
222 236 255
222 236 255
222 236 255
222 236 255
222 236 255
222 236 255
222 236 255
222 236 255
222 236 255
222 236 255
222 236 255
222 236 255
222 236 255
222 236 255
222 236 255
222 236 255
222 236 255
222 236 255
222 236 255
222 236 255
222 236 255
222 236 255
222 236 255
222 236 255
222 236 255
222 236 255
222 236 255
222 236 255
222 236 255
222 236 255
222 236 255
222 236 255
222 236 255
222 236 255
222 236 255
222 236 255
222 236 255
222 236 255
222 236 255
195 207 225
64 70 79
50 55 62
34 37 42
39 43 48
59 65 72
74 81 91
81 90 102
92 101 115
95 105 118
93 102 115
103 114 128
92 101 114
93 102 115
94 103 116
87 96 108
83 91 102
79 87 97
69 76 85
62 68 76
51 57 64
45 49 56
48 53 60
46 51 57
44 48 55
36 40 44
20 23 26
18 20 22
34 38 43
44 49 55
58 64 72
68 74 83
74 82 93
77 85 95
82 90 101
77 85 96
72 79 89
64 70 79
48 52 59
39 43 48
32 35 40
30 33 37
28 31 34
18 20 23
16 18 20
25 28 31
26 29 33
26 29 32
33 37 41
42 46 52
47 51 58
52 57 64
67 74 83
67 74 83
75 82 92
72 80 90
83 92 103
75 82 92
76 83 94
74 82 93
71 79 88
76 84 94
81 89 99
74 81 91
72 80 90
61 68 77
64 70 79
65 72 82
69 76 86
70 77 86
76 84 94
80 88 99
74 81 91
76 84 94
72 79 89
73 80 90
70 77 87
75 83 93
76 83 93
76 85 95
74 81 91
79 87 98
75 83 94
74 82 92
71 78 87
71 78 88
74 82 93
72 80 90
66 73 81
76 84 94
76 84 95
81 89 100
72 80 90
76 84 94
74 81 91
75 82 92
70 78 88
67 74 83
69 75 85
65 72 81
64 71 79
60 66 75
60 66 74
60 66 74
57 63 71
54 59 66
48 53 60
48 53 60
49 54 61
46 50 56
39 43 49
27 30 34
19 21 23
17 19 22
32 35 39
35 38 43
44 49 55
48 53 60
55 61 68
67 73 82
71 79 88
81 89 100
80 88 100
78 86 97
84 91 102
78 86 97
76 84 95
72 80 90
75 83 93
73 80 91
71 78 88
66 73 82
64 70 78
59 65 73
56 61 69
47 52 59
39 43 48
27 29 33
14 16 18
26 28 32
36 40 45
45 50 55
49 54 60
53 58 66
49 55 62
57 63 70
52 58 65
54 59 66
47 51 57
50 55 61
58 64 72
53 58 65
44 49 55
45 49 55
48 53 59
55 60 68
55 61 69
56 62 70
60 66 75
64 70 78
59 65 74
61 67 76
71 78 88
68 75 84
60 66 74
55 61 69
57 63 71
50 55 62
43 48 54
38 42 47
26 29 32
32 35 40
41 45 50
53 58 65
63 70 78
72 80 89
76 85 96
88 97 110
95 105 118
84 93 105
91 100 113
84 93 105
94 104 116
80 88 99
81 89 100
91 100 112
81 90 101
79 88 99
72 80 90
79 88 100
79 87 99
201 213 231
222 236 255
222 236 255
222 236 255
222 236 255
222 236 255
222 236 255
222 236 255
222 236 255
222 236 255
222 236 255
222 236 255
222 236 255
222 236 255
222 236 255
222 236 255
222 236 255
222 236 255
222 236 255
222 236 255
222 236 255
222 236 255
222 236 255
222 236 255
222 236 255
222 236 255
222 236 255
222 236 255
222 236 255
222 236 255
222 236 255
222 236 255
222 236 255
222 236 255
222 236 255
222 236 255
222 236 255
222 236 255
222 236 255
222 236 255
222 236 255
222 236 255
222 236 255
222 236 255
222 236 255
222 236 255
222 236 255
222 236 255
222 236 255
222 236 255
222 236 255
222 236 255
222 236 255
222 236 255
222 236 255
222 236 255
222 236 255
222 236 255
222 236 255
222 236 255
222 236 255
222 236 255
222 236 255
222 236 255
222 236 255
222 236 255
222 236 255
222 236 255
222 236 255
222 236 255
222 236 255
222 236 255
222 236 255
222 236 255
222 236 255
222 236 255
222 236 255
222 236 255
222 236 255
222 236 255
222 236 255
222 236 255
222 236 255
222 236 255
222 236 255
222 236 255
222 236 255
222 236 255
222 236 255
222 236 255
222 236 255
222 236 255
222 236 255
222 236 255
222 236 255
222 236 255
222 236 255
222 236 255
222 236 255
222 236 255
222 236 255
222 236 255
222 236 255
222 236 255
222 236 255
222 236 255
222 236 255
222 236 255
222 236 255
222 236 255
222 236 255
222 236 255
222 236 255
222 236 255
222 236 255
222 236 255
222 236 255
222 236 255
222 236 255
222 236 255
222 236 255
222 236 255
222 236 255
222 236 255
222 236 255
222 236 255
222 236 255
222 236 255
222 236 255
222 236 255
222 236 255
222 236 255
222 236 255
222 236 255
222 236 255
222 236 255
222 236 255
222 236 255
222 236 255
222 236 255
222 236 255
222 236 255
222 236 255
222 236 255
222 236 255
222 236 255
222 236 255
222 236 255
222 236 255
222 236 255
222 236 255
222 236 255
222 236 255
222 236 255
222 236 255
222 236 255
222 236 255
222 236 255
222 236 255
222 236 255
222 236 255
222 236 255
222 236 255
222 236 255
222 236 255
222 236 255
222 236 255
222 236 255
222 236 255
222 236 255
222 236 255
222 236 255
222 236 255
222 236 255
222 236 255
222 236 255
222 236 255
222 236 255
222 236 255
222 236 255
222 236 255
222 236 255
222 236 255
222 236 255
222 236 255
222 236 255
222 236 255
222 236 255
222 236 255
222 236 255
222 236 255
222 236 255
222 236 255
222 236 255
222 236 255
222 236 255
222 236 255
222 236 255
222 236 255
222 236 255
222 236 255
222 236 255
222 236 255
222 236 255
222 236 255
222 236 255
222 236 255
222 236 255
222 236 255
221 235 254
73 80 89
63 69 77
47 52 58
36 40 44
61 67 76
70 78 88
91 100 112
83 91 102
97 108 121
99 109 123
94 103 116
101 111 124
95 105 119
97 107 120
83 91 103
79 87 97
73 80 90
65 72 82
59 65 74
50 56 63
45 50 56
47 51 57
45 50 57
44 49 56
39 44 50
22 24 27
20 22 25
37 41 46
47 52 58
57 62 69
66 73 82
70 77 87
80 88 99
68 75 85
70 77 87
65 72 81
60 66 74
48 53 60
40 44 50
36 39 44
28 31 35
23 25 28
15 17 19
14 15 17
18 20 22
20 22 25
22 25 28
20 22 25
28 31 35
45 50 56
54 59 67
56 61 69
65 72 81
67 74 84
74 82 92
80 88 99
77 85 96
75 83 94
72 80 90
75 83 93
68 75 85
68 75 85
68 75 85
61 67 75
65 71 80
70 77 87
71 78 88
74 81 91
69 76 85
66 73 83
69 76 86
80 88 99
73 81 91
70 77 86
75 82 93
77 85 96
73 81 91
72 80 90
72 80 90
73 81 91
71 79 89
69 77 87
76 83 93
75 83 93
75 82 92
74 82 92
72 79 89
75 83 95
76 83 93
82 90 101
82 90 101
69 76 86
72 80 89
74 82 92
79 87 97
68 75 85
67 73 82
68 75 84
67 74 82
61 67 76
64 71 80
64 71 80
62 68 77
53 58 66
52 58 65
50 55 62
43 47 53
44 48 54
43 47 53
32 35 40
26 29 33
12 14 15
22 24 27
36 40 45
44 49 55
46 51 57
46 50 57
52 57 64
57 63 71
65 72 81
71 78 88
72 79 89
76 84 94
70 77 87
78 86 96
76 84 94
70 77 88
76 83 92
65 72 82
67 74 83
61 67 75
57 64 73
55 61 68
53 58 66
48 53 60
35 38 43
27 30 33
18 19 22
33 36 41
35 39 44
43 47 53
48 52 59
53 58 65
54 59 66
48 53 60
45 50 56
40 44 50
38 43 48
47 52 58
54 59 67
48 53 59
43 47 53
43 48 54
49 54 60
51 56 63
52 57 64
56 62 70
63 70 78
64 70 79
60 66 75
57 63 71
63 69 78
59 65 73
57 63 71
57 63 71
58 64 71
50 55 62
44 49 55
36 40 45
22 25 28
29 32 36
40 45 51
48 53 60
61 67 75
71 78 88
82 90 102
87 95 107
81 90 101
86 95 107
88 97 108
98 108 121
79 87 98
84 92 104
83 92 103
76 84 95
85 93 105
81 89 100
81 89 99
81 90 100
88 96 106
221 235 254
222 236 255
222 236 255
222 236 255
222 236 255
222 236 255
222 236 255
222 236 255
222 236 255
222 236 255
222 236 255
222 236 255
222 236 255
222 236 255
222 236 255
222 236 255
222 236 255
222 236 255
222 236 255
222 236 255
222 236 255
222 236 255
222 236 255
222 236 255
222 236 255
222 236 255
222 236 255
222 236 255
222 236 255
222 236 255
222 236 255
222 236 255
222 236 255
222 236 255
222 236 255
222 236 255
222 236 255
222 236 255
222 236 255
222 236 255
222 236 255
222 236 255
222 236 255
222 236 255
222 236 255
222 236 255
222 236 255
222 236 255
222 236 255
222 236 255
222 236 255
222 236 255
222 236 255
222 236 255
222 236 255
222 236 255
222 236 255
222 236 255
222 236 255
222 236 255
222 236 255
222 236 255
222 236 255
222 236 255
222 236 255
222 236 255
222 236 255
222 236 255
222 236 255
222 236 255
222 236 255
222 236 255
222 236 255
222 236 255
222 236 255
222 236 255
222 236 255
222 236 255
222 236 255
222 236 255
222 236 255
222 236 255
222 236 255
222 236 255
222 236 255
222 236 255
222 236 255
222 236 255
222 236 255
222 236 255
222 236 255
222 236 255
222 236 255
222 236 255
222 236 255
222 236 255
222 236 255
222 236 255
222 236 255
222 236 255
222 236 255
222 236 255
222 236 255
222 236 255
222 236 255
222 236 255
222 236 255
222 236 255
222 236 255
222 236 255
222 236 255
222 236 255
222 236 255
222 236 255
222 236 255
222 236 255
222 236 255
222 236 255
222 236 255
222 236 255
222 236 255
222 236 255
222 236 255
222 236 255
222 236 255
222 236 255
222 236 255
222 236 255
222 236 255
222 236 255
222 236 255
222 236 255
222 236 255
222 236 255
222 236 255
222 236 255
222 236 255
222 236 255
222 236 255
222 236 255
222 236 255
222 236 255
222 236 255
222 236 255
222 236 255
222 236 255
222 236 255
222 236 255
222 236 255
222 236 255
222 236 255
222 236 255
222 236 255
222 236 255
222 236 255
222 236 255
222 236 255
222 236 255
222 236 255
222 236 255
222 236 255
222 236 255
222 236 255
222 236 255
222 236 255
222 236 255
222 236 255
222 236 255
222 236 255
222 236 255
222 236 255
222 236 255
222 236 255
222 236 255
222 236 255
222 236 255
222 236 255
222 236 255
222 236 255
222 236 255
222 236 255
222 236 255
222 236 255
222 236 255
222 236 255
222 236 255
222 236 255
222 236 255
222 236 255
222 236 255
222 236 255
222 236 255
222 236 255
222 236 255
222 236 255
222 236 255
222 236 255
222 236 255
222 236 255
222 236 255
222 236 255
222 236 255
222 236 255
222 236 255
222 236 255
222 236 255
222 236 255
222 236 255
222 236 255
222 236 255
129 138 150
64 71 79
58 64 72
35 39 44
55 61 69
62 68 76
78 86 97
91 100 113
89 98 110
100 110 123
100 111 125
102 112 126
91 100 113
89 98 109
82 90 101
79 88 99
74 82 92
65 72 81
55 61 68
55 60 68
39 43 48
49 54 60
50 55 62
50 55 62
46 51 57
23 25 29
23 25 28
38 42 47
47 52 58
57 62 70
75 83 92
72 80 90
82 91 102
75 83 94
71 78 88
71 78 88
62 68 77
51 57 63
41 45 51
33 36 41
23 26 29
10 12 13
8 9 10
11 12 14
11 12 14
12 13 15
12 14 16
11 12 14
19 21 24
30 33 37
49 54 61
56 62 70
65 71 81
77 85 95
79 87 98
85 93 105
86 94 106
80 88 99
66 73 82
76 83 94
73 80 90
69 77 87
65 72 81
67 74 83
67 73 82
67 73 83
65 71 80
71 78 88
69 77 86
70 77 87
64 71 80
74 82 91
72 79 88
71 77 87
68 75 85
78 85 96
67 74 84
70 78 87
64 71 80
77 84 95
65 72 81
73 80 91
79 86 97
70 78 87
78 85 96
72 79 89
75 84 95
76 84 95
77 85 96
76 84 94
75 82 92
65 72 82
66 73 82
68 74 84
64 71 80
72 79 90
66 73 82
71 78 88
64 70 79
55 61 69
63 70 78
63 69 78
53 58 66
49 53 60
49 55 62
45 49 56
38 42 47
37 41 46
26 28 32
18 20 22
15 17 19
19 21 24
27 30 34
35 39 44
43 47 53
48 53 60
49 54 60
54 59 66
52 57 63
59 65 73
63 69 78
65 72 81
66 73 82
77 85 95
73 80 90
69 76 85
72 79 90
70 78 88
70 77 87
65 71 80
63 70 79
65 71 80
60 66 74
54 60 67
53 58 65
39 43 48
19 21 24
25 28 31
40 44 49
43 48 54
43 48 54
47 52 58
46 51 58
50 55 62
46 51 57
43 47 53
31 34 39
38 41 46
41 46 51
49 54 61
49 54 61
46 51 58
45 50 56
48 52 58
56 62 70
56 62 69
68 75 84
64 70 79
63 69 77
59 66 75
62 69 78
59 65 73
57 62 70
53 59 67
57 62 70
53 59 66
49 54 60
40 44 50
27 29 33
15 16 19
37 40 45
45 49 56
54 59 66
70 77 87
70 78 87
87 95 106
72 80 90
87 96 108
86 95 106
92 102 114
91 100 113
90 99 111
89 97 109
89 98 111
81 89 101
81 90 101
78 86 96
82 91 102
82 90 100
129 138 150
222 236 255
222 236 255
222 236 255
222 236 255
222 236 255
222 236 255
222 236 255
222 236 255
222 236 255
222 236 255
222 236 255
222 236 255
222 236 255
222 236 255
222 236 255
222 236 255
222 236 255
222 236 255
222 236 255
222 236 255
222 236 255
222 236 255
222 236 255
222 236 255
222 236 255
222 236 255
222 236 255
222 236 255
222 236 255
222 236 255
222 236 255
222 236 255
222 236 255
222 236 255
222 236 255
222 236 255
222 236 255
222 236 255
222 236 255
222 236 255
222 236 255
222 236 255
222 236 255
222 236 255
222 236 255
222 236 255
222 236 255
222 236 255
222 236 255
222 236 255
222 236 255
222 236 255
222 236 255
222 236 255
222 236 255
222 236 255
222 236 255
222 236 255
222 236 255
222 236 255
222 236 255
222 236 255
222 236 255
222 236 255
222 236 255
222 236 255
222 236 255
222 236 255
222 236 255
222 236 255
222 236 255
222 236 255
222 236 255
222 236 255
222 236 255
222 236 255
222 236 255
222 236 255
222 236 255
222 236 255
222 236 255
222 236 255
222 236 255
222 236 255
222 236 255
222 236 255
222 236 255
222 236 255
222 236 255
222 236 255
222 236 255
222 236 255
222 236 255
222 236 255
222 236 255
222 236 255
222 236 255
222 236 255
222 236 255
222 236 255
222 236 255
222 236 255
222 236 255
222 236 255
222 236 255
222 236 255
222 236 255
222 236 255
222 236 255
222 236 255
222 236 255
222 236 255
222 236 255
222 236 255
222 236 255
222 236 255
222 236 255
222 236 255
222 236 255
222 236 255
222 236 255
222 236 255
222 236 255
222 236 255
222 236 255
222 236 255
222 236 255
222 236 255
222 236 255
222 236 255
222 236 255
222 236 255
223 236 255
223 236 255
223 236 255
222 236 255
222 236 255
223 236 255
223 236 255
222 236 255
223 236 255
223 236 255
223 236 255
223 236 255
223 236 255
223 236 255
223 236 255
223 236 255
223 236 255
223 236 255
223 236 255
223 236 255
223 236 255
223 236 255
223 236 255
223 236 255
223 236 255
223 236 255
223 236 255
223 236 255
223 236 255
223 236 255
223 236 255
223 236 255
223 236 255
223 236 255
223 236 255
223 236 255
223 236 255
223 236 255
223 236 255
223 236 255
223 236 255
223 236 255
223 236 255
223 236 255
223 236 255
223 236 255
223 236 255
223 236 255
223 236 255
223 236 255
223 236 255
223 236 255
223 236 255
223 236 255
223 236 255
223 236 255
223 236 255
223 236 255
223 236 255
223 236 255
223 236 255
223 236 255
223 236 255
223 236 255
223 236 255
223 236 255
223 236 255
223 236 255
223 236 255
223 236 255
223 236 255
223 236 255
223 236 255
223 236 255
223 236 255
223 236 255
223 236 255
223 236 255
169 179 194
67 74 83
62 69 77
34 38 43
46 51 57
59 65 73
75 82 92
80 88 99
95 105 118
95 105 117
102 112 127
97 106 120
98 108 121
91 100 112
85 94 105
78 86 96
76 84 95
68 74 83
63 69 78
45 50 57
37 41 45
39 44 49
44 49 55
49 54 61
44 49 54
25 28 31
27 29 33
37 41 46
46 51 57
56 61 69
64 70 79
78 87 98
77 85 95
74 81 91
77 85 96
67 74 83
60 66 74
48 53 60
37 41 46
33 37 42
22 24 27
17 19 21
18 20 22
17 18 21
14 15 17
10 11 13
15 16 18
14 16 18
11 12 14
28 31 35
41 45 51
56 62 70
71 78 88
77 85 96
83 92 103
79 87 98
75 83 94
77 85 96
76 84 95
62 69 78
71 79 89
68 75 85
58 64 72
61 67 76
59 65 74
64 70 79
66 73 82
66 73 82
72 79 88
65 72 81
68 74 84
71 78 88
73 80 90
68 75 85
68 75 85
66 72 81
62 69 78
71 78 88
67 74 83
65 72 81
71 78 88
71 78 88
69 75 85
75 82 92
70 77 86
71 79 88
70 78 87
73 80 90
74 82 92
73 81 91
72 79 89
71 78 88
69 76 86
72 79 88
69 76 85
61 67 75
66 73 82
68 75 84
69 76 85
65 71 80
61 67 76
59 65 72
54 59 66
49 54 61
40 44 50
45 50 56
28 32 36
25 28 31
15 17 19
27 30 33
31 35 39
33 36 40
35 39 44
40 44 49
39 43 49
49 54 61
48 53 60
53 58 65
44 49 56
55 61 69
52 58 65
57 63 71
66 72 81
71 78 88
64 70 78
63 69 78
63 70 79
63 70 79
64 70 79
64 71 79
66 72 81
58 64 72
53 59 66
50 55 62
43 47 53
29 31 35
15 17 19
32 35 40
44 48 54
46 51 57
45 49 56
45 49 56
43 48 54
46 51 57
38 42 48
32 36 40
23 25 28
29 32 36
42 46 52
44 48 54
49 54 60
45 50 56
45 49 55
50 55 62
52 57 65
58 64 72
65 72 80
64 70 78
56 61 69
55 61 68
60 66 73
58 64 72
50 55 63
50 55 62
47 51 58
51 57 63
50 55 61
34 37 42
20 22 25
29 32 36
36 40 45
46 50 56
60 66 75
71 79 89
82 91 102
87 96 109
86 94 106
87 96 108
95 105 118
95 104 117
93 102 114
89 98 111
83 91 103
77 85 95
80 88 98
88 97 109
77 85 96
81 89 100
73 80 90
190 202 218
223 236 255
223 236 255
223 236 255
223 236 255
223 236 255
223 236 255
223 236 255
223 236 255
223 236 255
223 236 255
223 236 255
223 236 255
223 236 255
223 236 255
223 236 255
223 236 255
223 236 255
223 236 255
223 236 255
223 236 255
223 236 255
223 236 255
223 236 255
223 236 255
223 236 255
223 236 255
223 236 255
223 236 255
223 236 255
223 236 255
223 236 255
223 236 255
223 236 255
223 236 255
223 236 255
223 236 255
223 236 255
223 236 255
223 236 255
223 236 255
223 236 255
223 236 255
223 236 255
223 236 255
223 236 255
223 236 255
223 236 255
223 236 255
223 236 255
223 236 255
223 236 255
223 236 255
223 236 255
223 236 255
223 236 255
223 236 255
223 236 255
223 236 255
223 236 255
223 236 255
223 236 255
223 236 255
223 236 255
223 236 255
223 236 255
223 236 255
223 236 255
223 236 255
223 236 255
223 236 255
223 236 255
223 236 255
222 236 255
223 236 255
222 236 255
222 236 255
222 236 255
222 236 255
222 236 255
222 236 255
222 236 255
222 236 255
222 236 255
222 236 255
222 236 255
222 236 255
222 236 255
222 236 255
222 236 255
222 236 255
222 236 255
222 236 255
222 236 255
222 236 255
222 236 255
222 236 255
222 236 255
222 236 255
222 236 255
222 236 255
222 236 255
222 236 255
222 236 255
222 236 255
222 236 255
223 236 255
223 236 255
223 236 255
223 236 255
223 236 255
223 236 255
223 236 255
223 236 255
223 236 255
223 236 255
223 236 255
223 236 255
223 236 255
223 236 255
223 236 255
223 236 255
223 236 255
223 236 255
223 236 255
223 236 255
223 236 255
223 236 255
223 236 255
223 236 255
223 236 255
223 236 255
223 236 255
223 236 255
223 236 255
223 236 255
223 236 255
223 236 255
223 236 255
223 236 255
223 236 255
223 236 255
223 236 255
223 236 255
223 236 255
223 236 255
223 236 255
223 236 255
223 236 255
223 236 255
223 236 255
223 236 255
223 236 255
223 236 255
223 236 255
223 236 255
223 236 255
223 236 255
223 236 255
223 236 255
223 236 255
223 236 255
223 236 255
223 236 255
223 236 255
223 236 255
223 236 255
223 236 255
223 236 255
223 236 255
223 236 255
223 236 255
223 236 255
223 236 255
223 236 255
223 236 255
223 236 255
223 236 255
223 236 255
223 236 255
223 236 255
223 236 255
223 236 255
223 236 255
223 236 255
223 236 255
223 236 255
223 236 255
223 236 255
223 236 255
223 236 255
223 236 255
223 236 255
223 236 255
223 236 255
223 236 255
223 236 255
223 236 255
223 236 255
223 236 255
223 236 255
223 236 255
223 236 255
223 236 255
223 236 255
223 236 255
223 236 255
223 236 255
223 236 255
223 236 255
223 236 255
205 218 236
51 56 63
62 68 77
45 50 56
42 46 52
61 67 76
70 77 87
76 84 95
97 107 120
98 107 120
103 113 127
94 103 116
91 100 112
86 95 108
88 96 108
76 84 94
79 88 99
69 77 87
67 73 82
46 51 57
37 40 46
37 40 45
39 43 48
41 45 50
38 42 47
18 20 22
30 34 38
41 45 51
51 57 64
59 65 73
66 72 81
72 79 90
78 86 97
78 86 97
75 82 92
67 74 83
56 61 69
49 54 61
42 47 53
31 34 39
25 27 31
21 23 26
22 24 27
22 25 28
12 13 15
9 10 12
10 11 12
14 16 18
17 19 21
20 23 26
35 38 43
53 58 66
63 70 79
73 80 89
75 83 94
75 83 94
80 88 98
76 84 94
68 75 84
66 73 82
64 70 79
62 69 77
61 67 75
61 67 76
59 65 73
63 69 77
64 70 78
60 66 74
70 77 86
67 73 82
64 71 80
61 67 76
68 76 85
71 79 88
67 74 84
71 78 87
66 73 82
68 75 84
73 80 89
67 73 83
61 68 76
65 71 80
63 70 79
69 75 84
68 76 85
70 78 87
71 79 89
73 80 90
73 81 92
67 74 84
73 80 90
65 73 83
67 73 82
62 68 77
62 69 78
67 73 82
64 70 79
64 71 80
65 72 82
64 70 78
63 69 78
56 61 69
47 52 59
38 42 47
38 42 47
31 34 38
21 23 26
13 15 17
18 20 22
29 32 36
36 40 45
38 42 48
41 45 50
37 41 47
39 43 49
45 49 56
45 49 55
41 45 51
39 43 48
44 48 54
53 58 65
55 61 68
56 62 69
66 73 82
64 70 78
63 70 79
65 71 80
62 69 78
59 65 73
60 66 74
60 66 75
50 55 62
50 55 61
42 47 53
33 36 41
18 20 23
24 27 30
37 41 46
44 49 55
45 50 57
45 50 56
41 45 51
39 43 49
39 43 49
34 37 42
19 21 24
11 12 14
18 20 22
32 35 39
39 43 48
47 51 58
50 55 61
51 56 63
51 56 63
59 65 73
67 73 82
64 70 79
57 63 71
56 63 71
54 60 68
51 56 63
52 57 64
50 54 61
51 56 64
43 48 54
45 49 56
45 50 56
35 38 43
16 18 20
32 35 39
38 42 47
54 59 66
68 75 85
75 83 94
82 91 103
83 91 103
90 99 111
89 98 109
84 93 105
91 101 113
94 103 116
91 101 113
85 94 106
74 81 91
86 95 106
84 92 103
74 81 91
75 83 93
70 77 88
195 208 225
223 236 255
223 236 255
223 236 255
223 236 255
223 236 255
223 236 255
223 236 255
223 236 255
223 236 255
223 236 255
223 236 255
223 236 255
223 236 255
223 236 255
223 236 255
223 236 255
223 236 255
223 236 255
223 236 255
223 236 255
223 236 255
223 236 255
223 236 255
223 236 255
223 236 255
223 236 255
223 236 255
223 236 255
223 236 255
223 236 255
223 236 255
223 236 255
223 236 255
223 236 255
223 236 255
223 236 255
223 236 255
223 236 255
223 236 255
223 236 255
223 236 255
223 236 255
223 236 255
223 236 255
223 236 255
223 236 255
223 236 255
223 236 255
223 236 255
223 236 255
223 236 255
223 236 255
223 236 255
223 236 255
223 236 255
223 236 255
223 236 255
223 236 255
223 236 255
223 236 255
223 236 255
223 236 255
223 236 255
223 236 255
223 236 255
223 236 255
223 236 255
223 236 255
223 236 255
223 236 255
223 236 255
223 236 255
223 236 255
223 236 255
223 236 255
223 236 255
223 236 255
223 236 255
223 236 255
223 236 255
223 236 255
223 236 255
223 236 255
223 236 255
223 236 255
223 236 255
223 236 255
223 236 255
223 236 255
223 236 255
223 236 255
223 236 255
223 236 255
223 236 255
223 236 255
223 236 255
223 236 255
223 236 255
223 236 255
223 236 255
223 236 255
223 236 255
223 236 255
223 236 255
223 236 255
223 236 255
223 236 255
223 236 255
223 236 255
223 236 255
223 236 255
223 236 255
223 236 255
223 236 255
223 236 255
223 236 255
223 236 255
223 236 255
223 236 255
223 236 255
223 236 255
223 236 255
223 236 255
223 236 255
223 236 255
223 236 255
223 236 255
223 236 255
223 236 255
223 236 255
223 236 255
223 236 255
223 236 255
223 236 255
223 236 255
223 236 255
223 236 255
223 236 255
223 236 255
223 236 255
223 236 255
223 236 255
223 236 255
223 236 255
223 236 255
223 236 255
223 236 255
223 236 255
223 236 255
223 236 255
223 236 255
223 236 255
223 236 255
223 236 255
223 236 255
223 236 255
223 236 255
223 236 255
223 236 255
223 236 255
223 236 255
223 236 255
223 236 255
223 236 255
223 236 255
223 236 255
223 236 255
223 236 255
223 236 255
223 236 255
223 236 255
223 236 255
223 236 255
223 236 255
223 236 255
223 236 255
223 236 255
223 236 255
223 236 255
223 236 255
223 236 255
223 236 255
223 236 255
223 236 255
223 236 255
223 236 255
223 236 255
223 236 255
223 236 255
223 236 255
223 236 255
223 236 255
223 236 255
223 236 255
223 236 255
223 236 255
223 236 255
223 236 255
223 236 255
223 236 255
223 236 255
223 236 255
223 236 255
223 236 255
223 236 255
223 236 255
223 236 255
223 236 255
223 236 255
223 236 255
223 236 255
101 107 117
54 60 67
47 52 58
33 36 40
52 57 63
72 79 88
72 80 90
86 94 105
90 99 112
97 107 120
83 92 103
93 102 114
92 101 114
84 92 104
80 88 100
77 85 95
77 85 95
65 72 81
55 61 68
45 49 55
34 38 42
31 34 39
33 37 41
25 27 31
20 22 25
31 34 39
44 49 56
53 59 66
59 65 73
65 72 81
74 81 92
72 79 89
79 87 98
70 77 87
66 73 82
56 62 69
52 57 65
51 56 63
43 47 53
34 37 42
29 32 36
21 23 26
14 16 18
10 11 13
15 17 19
10 11 13
10 12 13
11 13 14
19 21 23
33 36 41
45 49 56
56 61 69
66 73 82
67 74 83
73 80 89
66 72 81
68 75 84
64 71 81
64 70 78
58 64 72
63 70 78
62 69 77
62 68 76
66 72 82
64 70 79
66 73 81
71 78 87
65 72 81
67 73 83
61 67 75
64 71 80
67 74 83
64 70 79
66 72 81
66 72 81
57 63 71
60 66 74
59 65 73
64 70 79
60 66 75
53 59 67
65 72 80
65 72 81
60 67 75
71 79 88
70 77 86
74 82 91
67 75 85
73 80 89
60 67 75
59 66 74
59 65 73
60 66 74
60 66 75
60 66 74
61 67 75
67 73 82
62 68 76
61 68 76
52 57 65
51 56 63
44 49 55
40 44 50
31 34 39
22 25 28
11 12 13
14 16 18
16 18 20
23 25 29
33 37 41
37 41 46
43 47 53
42 46 51
37 41 46
37 41 46
35 38 43
36 39 44
34 37 42
41 45 51
44 49 55
47 51 58
57 63 71
52 57 64
68 75 84
62 68 76
63 69 77
60 66 75
64 70 78
54 59 66
49 54 60
49 54 61
45 49 55
38 42 47
27 30 34
17 19 21
27 30 34
39 43 48
45 50 56
43 47 53
42 46 52
36 40 45
32 35 40
28 31 35
30 33 37
22 24 27
8 8 10
10 11 13
26 29 33
39 43 48
48 53 60
51 56 63
53 59 66
56 62 70
65 72 81
70 77 87
59 65 73
58 64 72
62 68 77
53 59 65
44 49 55
44 49 55
46 51 57
45 49 56
48 52 59
43 47 52
42 46 52
35 39 43
19 20 23
31 34 38
50 55 62
58 64 73
73 80 90
79 87 97
86 94 106
83 91 103
94 104 116
93 102 114
89 97 109
93 103 116
86 95 107
85 93 105
71 78 89
75 83 93
82 90 101
76 84 94
70 77 87
78 85 96
93 101 111
222 235 254
223 236 255
223 236 255
223 236 255
223 236 255
223 236 255
223 236 255
223 236 255
223 236 255
223 236 255
223 236 255
223 236 255
223 236 255
223 236 255
223 236 255
223 236 255
223 236 255
223 236 255
223 236 255
223 236 255
223 236 255
223 236 255
223 236 255
223 236 255
223 236 255
223 236 255
223 236 255
223 236 255
223 236 255
223 236 255
223 236 255
223 236 255
223 236 255
223 236 255
223 236 255
223 236 255
223 236 255
223 236 255
223 236 255
223 236 255
223 236 255
223 236 255
223 236 255
223 236 255
223 236 255
223 236 255
223 236 255
223 236 255
223 236 255
223 236 255
223 236 255
223 236 255
223 236 255
223 236 255
223 236 255
223 236 255
223 236 255
223 236 255
223 236 255
223 236 255
223 236 255
223 236 255
223 236 255
223 236 255
223 236 255
223 236 255
223 236 255
223 236 255
223 236 255
223 236 255
223 236 255
223 236 255
223 236 255
223 236 255
223 236 255
223 236 255
223 236 255
223 236 255
223 236 255
223 236 255
223 236 255
223 236 255
223 236 255
223 236 255
223 236 255
223 236 255
223 236 255
223 236 255
223 236 255
223 236 255
223 236 255
223 236 255
223 236 255
223 236 255
223 236 255
223 236 255
223 236 255
223 236 255
223 236 255
223 236 255
223 236 255
223 236 255
223 236 255
223 236 255
223 236 255
223 236 255
223 236 255
223 236 255
223 236 255
223 236 255
223 236 255
223 236 255
223 236 255
223 236 255
223 236 255
223 236 255
223 236 255
223 236 255
223 236 255
223 236 255
223 236 255
223 236 255
223 236 255
223 236 255
223 236 255
223 236 255
223 236 255
223 236 255
223 236 255
223 236 255
223 236 255
223 236 255
223 236 255
223 236 255
223 236 255
223 236 255
223 236 255
223 236 255
223 236 255
223 236 255
223 236 255
223 236 255
223 236 255
223 236 255
223 236 255
223 236 255
223 236 255
223 236 255
223 236 255
223 236 255
223 236 255
223 236 255
223 236 255
223 236 255
223 236 255
223 236 255
223 236 255
223 236 255
223 236 255
223 236 255
223 236 255
223 236 255
223 236 255
223 236 255
223 236 255
223 236 255
223 236 255
223 236 255
223 236 255
223 236 255
223 236 255
223 236 255
223 236 255
223 236 255
223 236 255
223 236 255
223 236 255
223 236 255
223 236 255
223 236 255
223 236 255
223 236 255
223 236 255
223 236 255
223 236 255
223 236 255
223 236 255
223 236 255
223 236 255
223 236 255
223 236 255
223 236 255
223 236 255
223 236 255
223 236 255
223 236 255
223 236 255
223 236 255
223 236 255
223 236 255
223 236 255
223 236 255
223 236 255
223 236 255
223 236 255
223 236 255
223 236 255
223 236 255
223 236 255
223 236 255
223 236 255
223 236 255
152 162 175
51 56 63
48 53 59
26 28 32
45 50 56
61 68 77
66 72 81
75 83 94
88 97 110
93 103 116
94 103 116
94 103 115
89 98 110
86 95 107
86 95 106
85 94 106
83 91 102
72 79 89
61 67 76
48 53 60
37 41 46
30 33 37
26 29 33
18 20 23
26 29 32
30 33 37
45 50 56
54 59 67
58 64 72
60 66 75
66 73 82
72 79 88
78 86 96
73 81 91
65 71 80
56 62 70
59 65 74
57 63 71
50 55 61
41 45 51
36 40 44
22 24 27
14 15 17
20 22 24
22 24 27
20 22 24
15 16 18
8 9 10
25 28 31
32 36 40
45 50 56
51 56 63
56 61 69
61 67 75
61 68 76
63 69 78
68 75 85
67 74 83
65 72 81
58 64 72
60 66 75
57 63 70
65 71 80
73 80 90
77 85 95
68 75 84
67 73 82
68 75 84
64 70 79
62 69 77
54 60 67
57 63 71
63 69 77
62 69 78
64 70 79
61 67 76
60 66 74
63 69 77
62 68 77
55 61 69
55 60 67
59 65 74
62 69 78
58 64 73
66 73 83
64 70 79
66 73 83
59 65 74
66 73 82
60 66 75
61 67 75
52 58 65
56 62 69
58 64 71
58 63 71
59 65 73
56 63 71
58 65 73
59 65 74
52 57 64
54 60 67
51 56 62
34 38 43
26 29 33
21 23 26
11 12 14
15 17 19
12 13 14
12 14 15
22 24 27
34 38 43
40 45 50
38 41 47
37 41 47
30 33 37
27 29 33
28 30 34
29 31 35
38 42 48
44 48 54
47 51 57
47 52 59
47 52 59
55 61 69
62 68 77
61 67 76
57 62 70
55 60 68
55 61 69
51 56 63
46 52 58
37 41 46
29 32 36
16 18 20
25 27 31
29 32 36
31 35 39
31 34 38
31 35 39
33 36 41
29 32 36
23 25 28
27 30 33
26 29 32
18 20 23
12 13 15
15 17 19
27 30 34
34 37 41
40 45 51
48 53 60
53 59 66
62 69 77
66 73 82
64 70 79
65 71 80
62 68 76
57 62 70
53 59 66
50 54 61
45 49 56
49 54 60
44 49 55
47 51 58
44 48 54
41 44 50
32 35 39
21 23 25
43 48 54
52 57 64
61 68 76
67 74 84
74 82 93
83 91 103
87 96 108
82 90 101
86 94 106
92 102 114
83 91 103
84 92 103
73 80 90
78 86 96
74 81 92
82 90 101
80 87 97
70 77 86
68 75 85
139 148 161
223 236 255
223 236 255
223 236 255
223 236 255
223 236 255
223 236 255
223 236 255
223 236 255
223 236 255
223 236 255
223 236 255
223 236 255
223 236 255
223 236 255
223 236 255
223 236 255
223 236 255
223 236 255
223 236 255
223 236 255
223 236 255
223 236 255
223 236 255
223 236 255
223 236 255
223 236 255
223 236 255
223 236 255
223 236 255
223 236 255
223 236 255
223 236 255
223 236 255
223 236 255
223 236 255
223 236 255
223 236 255
223 236 255
223 236 255
223 236 255
223 236 255
223 236 255
223 236 255
223 236 255
223 236 255
223 236 255
223 236 255
223 236 255
223 236 255
223 236 255
223 236 255
223 236 255
223 236 255
223 236 255
223 236 255
223 236 255
223 236 255
223 236 255
223 236 255
223 236 255
223 236 255
223 236 255
223 236 255
223 236 255
223 236 255
223 236 255
223 236 255
223 236 255
223 236 255
223 236 255
223 236 255
223 236 255
223 236 255
223 236 255
223 236 255
223 236 255
223 236 255
223 236 255
223 236 255
223 236 255
223 236 255
223 236 255
223 236 255
223 236 255
223 236 255
223 236 255
223 236 255
223 236 255
223 236 255
223 236 255
223 236 255
223 236 255
223 236 255
223 236 255
223 236 255
223 236 255
223 236 255
223 236 255
223 236 255
223 236 255
223 236 255
223 236 255
223 236 255
223 236 255
223 236 255
223 236 255
223 236 255
223 236 255
223 236 255
223 236 255
223 236 255
223 236 255
223 236 255
223 236 255
223 236 255
223 236 255
223 236 255
223 236 255
223 236 255
223 236 255
223 236 255
223 236 255
223 236 255
223 236 255
223 236 255
223 236 255
223 236 255
223 236 255
223 236 255
223 236 255
223 236 255
223 236 255
223 236 255
223 236 255
223 236 255
223 236 255
223 236 255
223 236 255
223 236 255
223 236 255
223 236 255
223 236 255
223 236 255
223 236 255
223 236 255
223 236 255
223 236 255
223 236 255
223 236 255
223 236 255
223 236 255
223 236 255
223 236 255
223 236 255
223 236 255
223 236 255
223 236 255
223 236 255
223 236 255
223 236 255
223 236 255
223 236 255
223 236 255
223 236 255
223 236 255
223 236 255
223 236 255
223 236 255
223 236 255
223 236 255
223 236 255
223 236 255
223 236 255
223 236 255
223 236 255
223 236 255
223 236 255
223 236 255
223 236 255
223 236 255
223 236 255
223 236 255
223 236 255
223 236 255
223 236 255
223 236 255
223 236 255
223 236 255
223 236 255
223 236 255
223 236 255
223 236 255
223 236 255
223 236 255
223 236 255
223 236 255
223 236 255
223 236 255
223 236 255
223 236 255
223 236 255
223 236 255
223 236 255
223 236 255
223 236 255
223 236 255
223 236 255
223 236 255
223 236 255
223 236 255
223 236 255
223 236 255
187 198 214
41 45 51
41 45 51
26 29 32
31 34 38
64 70 78
61 68 76
75 83 93
85 93 104
94 103 115
89 98 110
91 100 112
79 87 98
79 87 99
82 90 101
81 89 101
80 88 99
70 77 87
54 60 68
53 58 65
39 43 48
29 32 36
22 24 27
21 23 25
34 38 43
38 41 47
52 57 64
54 59 66
58 64 71
59 65 73
70 77 86
68 75 84
68 75 85
74 82 93
62 68 76
56 61 69
59 64 72
56 62 70
50 55 62
42 47 53
36 39 44
26 28 32
19 22 24
30 34 38
26 29 33
19 21 24
13 14 16
9 10 11
22 24 27
33 36 41
36 40 45
41 45 51
48 53 60
53 59 66
59 65 72
63 70 78
63 69 77
61 67 75
67 74 83
55 61 68
64 71 79
66 73 82
69 76 85
72 79 88
69 76 85
70 77 87
64 71 80
70 77 86
69 76 86
60 67 75
62 68 77
61 67 75
66 72 81
63 69 78
65 72 81
58 64 72
57 62 70
53 59 67
59 64 72
54 59 67
55 61 69
54 60 68
59 65 73
57 63 71
56 61 69
64 70 79
69 76 86
61 67 75
65 71 79
58 64 72
61 67 76
59 64 72
50 55 62
51 56 62
55 60 67
58 63 71
58 65 73
55 61 69
54 60 67
56 61 69
47 52 59
40 44 50
40 43 49
31 34 38
21 23 25
11 13 14
17 19 21
11 12 13
16 18 20
11 12 13
22 25 28
34 37 42
35 38 43
28 31 35
22 24 27
18 20 22
20 22 25
23 25 28
31 34 38
39 43 49
38 42 47
41 45 51
49 54 61
48 53 60
53 58 65
55 60 67
52 58 65
53 58 66
54 60 68
53 59 66
49 53 60
34 38 42
17 19 22
18 20 23
27 30 33
29 32 36
31 34 38
23 26 29
21 23 26
22 24 27
25 27 31
22 24 27
25 27 31
25 27 31
13 14 16
9 10 12
21 23 26
29 32 35
36 39 44
35 39 44
45 49 55
51 56 64
55 60 67
62 68 77
60 67 76
65 72 81
59 66 74
55 61 69
53 58 65
50 55 62
44 48 54
43 47 53
44 48 54
46 50 56
39 44 49
39 43 49
26 29 33
31 34 38
53 58 64
59 65 73
62 69 77
71 78 88
75 82 92
82 91 102
78 86 96
89 98 110
83 91 103
86 94 105
84 93 104
81 90 101
77 85 96
73 80 90
74 81 92
79 87 99
62 69 77
63 69 77
58 64 72
194 207 223
223 236 255
223 236 255
223 236 255
223 236 255
223 236 255
223 236 255
223 236 255
223 236 255
223 236 255
223 236 255
223 236 255
223 236 255
223 236 255
223 236 255
223 236 255
223 236 255
223 236 255
223 236 255
223 236 255
223 236 255
223 236 255
223 236 255
223 236 255
223 236 255
223 236 255
223 236 255
223 236 255
223 236 255
223 236 255
223 236 255
223 236 255
223 236 255
223 236 255
223 236 255
223 236 255
223 236 255
223 236 255
223 236 255
223 236 255
223 236 255
223 236 255
223 236 255
223 236 255
223 236 255
223 236 255
223 236 255
223 236 255
223 236 255
223 236 255
223 236 255
223 236 255
223 236 255
223 236 255
223 236 255
223 236 255
223 236 255
223 236 255
223 236 255
223 236 255
223 236 255
223 236 255
223 236 255
223 236 255
223 236 255
223 236 255
223 236 255
223 236 255
223 236 255
223 236 255
223 236 255
223 236 255
223 236 255
223 236 255
223 236 255
223 236 255
223 236 255
223 236 255
223 236 255
223 236 255
223 236 255
223 236 255
223 236 255
223 236 255
223 236 255
223 236 255
223 236 255
223 236 255
223 236 255
223 236 255
223 236 255
223 236 255
223 236 255
223 236 255
223 236 255
223 236 255
223 236 255
223 236 255
223 236 255
223 236 255
223 236 255
223 236 255
223 236 255
223 236 255
223 236 255
223 236 255
223 236 255
223 236 255
223 236 255
223 236 255
223 236 255
223 236 255
223 236 255
223 236 255
223 236 255
223 236 255
223 236 255
223 236 255
223 236 255
223 236 255
223 236 255
223 236 255
223 236 255
223 236 255
223 236 255
223 236 255
223 236 255
223 236 255
223 236 255
223 236 255
223 236 255
223 236 255
223 236 255
223 236 255
223 236 255
223 236 255
223 236 255
223 236 255
223 236 255
223 236 255
223 236 255
223 236 255
223 236 255
223 236 255
223 236 255
223 236 255
223 236 255
223 236 255
223 236 255
223 236 255
223 236 255
223 236 255
223 236 255
223 236 255
223 236 255
223 236 255
223 236 255
223 236 255
223 236 255
223 236 255
223 236 255
223 236 255
223 236 255
223 236 255
223 236 255
223 236 255
223 236 255
223 236 255
223 236 255
223 236 255
223 236 255
223 236 255
223 236 255
223 236 255
223 236 255
223 236 255
223 236 255
223 236 255
223 236 255
223 236 255
223 236 255
223 236 255
223 236 255
223 236 255
223 236 255
223 236 255
223 236 255
223 236 255
223 236 255
223 236 255
223 236 255
223 236 255
223 236 255
223 236 255
223 236 255
223 236 255
223 236 255
223 236 255
223 236 255
223 236 255
223 236 255
223 236 255
223 236 255
223 236 255
223 236 255
223 236 255
223 236 255
223 236 255
223 236 255
223 236 255
223 236 255
223 236 255
223 236 255
222 235 254
77 82 89
40 44 50
22 24 27
20 22 25
55 60 67
70 77 86
75 83 94
81 89 101
94 104 118
103 114 128
89 98 109
82 90 101
88 96 107
95 104 116
84 93 105
74 81 92
65 72 81
63 70 79
54 59 66
42 47 52
24 26 30
16 17 20
24 26 29
42 46 51
42 46 52
52 57 64
63 69 78
60 67 75
66 73 81
69 76 85
73 80 90
66 74 84
70 77 87
67 75 85
66 72 81
57 62 70
50 55 62
47 52 59
41 45 51
38 42 47
27 30 33
14 15 17
23 26 29
22 25 28
14 15 17
13 15 17
13 15 16
14 16 18
21 23 26
22 25 28
33 36 41
39 43 49
47 52 58
53 59 67
47 52 58
55 61 68
60 66 74
60 66 73
60 66 75
61 68 76
65 71 80
59 65 74
68 74 83
68 75 84
67 74 83
70 77 86
77 84 94
72 79 89
67 74 84
64 70 79
63 69 78
55 61 69
55 61 69
57 63 71
58 63 71
56 61 69
55 60 67
51 56 63
51 57 64
55 61 68
53 58 65
56 61 69
48 53 60
56 61 69
55 61 69
65 71 80
59 65 74
64 69 77
60 67 75
59 65 73
57 63 71
59 64 72
52 58 65
52 57 64
51 56 63
51 57 64
50 55 61
49 54 61
46 51 57
43 48 54
39 43 48
37 41 46
32 35 39
19 21 24
11 12 14
14 15 17
8 9 10
9 10 11
9 10 12
9 10 11
19 20 23
23 25 28
14 15 17
14 15 17
10 11 13
14 15 17
17 19 21
18 20 22
28 31 35
34 38 43
44 49 55
47 51 58
45 50 56
45 50 56
52 58 65
55 61 68
55 60 68
49 54 61
46 50 56
40 44 49
35 39 43
13 15 17
21 24 27
28 31 35
28 30 34
20 22 25
14 16 18
13 15 17
16 17 19
21 23 26
19 21 23
24 27 30
20 22 25
13 14 16
10 11 12
20 22 25
28 30 34
33 37 41
34 38 43
42 46 52
49 55 62
50 55 62
50 55 61
62 68 77
60 65 73
59 65 73
60 66 75
54 59 67
49 55 62
48 53 60
46 50 56
51 56 63
44 49 54
51 56 63
43 47 53
22 25 28
30 33 38
55 61 68
58 63 71
62 68 76
63 70 79
76 84 95
85 94 105
78 86 97
82 90 101
86 95 106
80 89 100
89 98 110
78 86 97
76 84 93
71 78 88
79 88 99
73 80 90
72 79 88
57 63 71
78 84 92
223 236 255
223 236 255
223 236 255
223 236 255
223 236 255
223 236 255
223 236 255
223 236 255
223 236 255
223 236 255
223 236 255
223 236 255
223 236 255
223 236 255
223 236 255
223 236 255
223 236 255
223 236 255
223 236 255
223 236 255
223 236 255
223 236 255
223 236 255
223 236 255
223 236 255
223 236 255
223 236 255
223 236 255
223 236 255
223 236 255
223 236 255
223 236 255
223 236 255
223 236 255
223 236 255
223 236 255
223 236 255
223 236 255
223 236 255
223 236 255
223 236 255
223 236 255
223 236 255
223 236 255
223 236 255
223 236 255
223 236 255
223 236 255
223 236 255
223 236 255
223 236 255
223 236 255
223 236 255
223 236 255
223 236 255
223 236 255
223 236 255
223 236 255
223 236 255
223 236 255
223 236 255
223 236 255
223 236 255
223 236 255
223 236 255
223 236 255
223 236 255
223 236 255
223 236 255
223 236 255
223 236 255
223 236 255
223 236 255
223 236 255
223 236 255
223 236 255
223 236 255
223 236 255
223 236 255
223 236 255
223 236 255
223 236 255
223 236 255
223 236 255
223 236 255
223 236 255
223 236 255
223 236 255
223 236 255
223 236 255
223 236 255
223 236 255
223 236 255
223 236 255
223 236 255
223 236 255
223 236 255
223 236 255
223 236 255
223 236 255
223 236 255
223 236 255
223 236 255
223 236 255
223 236 255
223 236 255
223 236 255
223 236 255
223 236 255
223 236 255
223 236 255
223 236 255
223 236 255
223 236 255
223 236 255
223 236 255
223 236 255
223 236 255
223 236 255
223 236 255
223 236 255
223 236 255
223 236 255
223 236 255
223 236 255
223 236 255
223 236 255
223 236 255
223 236 255
223 236 255
223 236 255
223 236 255
223 236 255
223 236 255
223 236 255
223 236 255
223 236 255
223 236 255
223 236 255
223 236 255
223 236 255
223 236 255
223 236 255
223 236 255
223 236 255
223 236 255
223 236 255
223 236 255
223 236 255
223 236 255
223 236 255
223 236 255
223 236 255
223 236 255
223 236 255
223 236 255
223 236 255
223 236 255
223 236 255
223 236 255
223 236 255
223 236 255
223 236 255
223 236 255
223 236 255
223 236 255
223 236 255
223 236 255
223 236 255
223 236 255
223 236 255
223 236 255
223 236 255
223 236 255
223 236 255
223 236 255
223 236 255
223 236 255
223 236 255
223 236 255
223 236 255
223 236 255
223 236 255
223 236 255
223 236 255
223 236 255
223 236 255
223 236 255
223 236 255
223 236 255
223 236 255
223 236 255
223 236 255
223 236 255
223 236 255
223 236 255
223 236 255
223 236 255
223 236 255
223 236 255
223 236 255
223 236 255
223 236 255
223 236 255
223 236 255
223 236 255
223 236 255
223 236 255
223 236 255
223 236 255
223 236 255
223 236 255
223 236 255
223 236 255
157 167 180
33 37 41
16 18 20
14 16 17
42 46 51
65 72 80
71 78 88
85 93 104
90 99 111
87 95 106
81 90 101
74 82 92
79 88 99
78 86 97
83 91 102
73 80 91
70 77 87
62 68 76
57 63 70
40 44 49
21 23 25
17 19 21
31 35 39
43 48 54
49 54 61
52 58 65
59 65 73
61 67 75
65 71 79
69 76 86
73 80 90
69 75 85
74 81 91
71 78 88
63 69 78
57 62 70
49 54 61
45 49 56
42 46 52
38 42 47
29 32 36
19 21 24
19 21 23
22 24 27
16 18 20
19 21 24
16 18 20
9 10 11
16 17 20
10 11 12
22 24 27
37 41 46
44 48 54
47 52 58
44 49 55
45 50 57
53 58 66
57 63 71
58 64 72
56 62 70
66 73 81
64 70 79
66 72 80
69 75 84
67 74 84
72 79 89
71 78 88
75 82 92
65 71 79
62 68 77
66 73 81
53 59 66
51 56 63
41 46 52
43 47 53
49 54 60
51 57 64
49 55 62
52 57 63
48 53 60
52 57 64
45 49 56
48 53 60
55 61 68
56 62 71
61 67 75
64 70 79
62 69 77
59 66 74
58 64 72
53 58 65
54 59 66
48 53 59
44 48 54
45 49 55
45 50 56
40 44 49
37 41 46
40 44 49
40 44 49
39 43 48
37 41 46
35 39 43
34 38 42
30 33 36
26 28 31
21 24 27
19 21 24
14 16 18
11 12 14
9 9 11
12 14 15
14 16 18
13 14 16
13 15 17
22 25 28
27 30 33
21 23 26
17 19 21
28 31 35
43 47 53
45 50 56
44 49 55
45 50 56
48 53 60
53 59 66
47 52 58
51 56 63
46 51 57
43 47 53
32 36 40
23 26 29
16 18 20
15 16 18
12 13 15
14 15 17
21 23 26
21 23 26
12 14 15
21 23 26
24 26 29
23 25 28
21 23 27
22 24 27
19 21 24
23 26 29
30 33 37
32 36 40
36 40 44
42 46 52
45 50 56
48 53 60
53 59 67
66 72 81
58 64 71
52 57 64
53 59 66
57 62 70
55 60 68
52 57 64
46 50 57
50 55 61
45 50 56
47 52 58
39 43 49
22 24 27
38 41 47
54 59 66
61 67 75
57 63 71
64 70 79
72 79 88
90 99 111
83 91 101
76 84 95
83 91 101
84 92 104
79 87 97
75 82 92
74 82 92
66 72 81
70 76 86
72 79 89
60 66 74
54 59 66
132 141 153
223 236 255
223 236 255
223 236 255
223 236 255
223 236 255
223 236 255
223 236 255
223 236 255
223 236 255
223 236 255
223 236 255
223 236 255
223 236 255
223 236 255
223 236 255
223 236 255
223 236 255
223 236 255
223 236 255
223 236 255
223 236 255
223 236 255
223 236 255
223 236 255
223 236 255
223 236 255
223 236 255
223 236 255
223 236 255
223 236 255
223 236 255
223 236 255
223 236 255
223 236 255
223 236 255
223 236 255
223 236 255
223 236 255
223 236 255
223 236 255
223 236 255
223 236 255
223 236 255
223 236 255
223 236 255
223 236 255
223 236 255
223 236 255
223 236 255
223 236 255
223 236 255
223 236 255
223 236 255
223 236 255
223 236 255
223 236 255
223 236 255
223 236 255
223 236 255
223 236 255
223 236 255
223 236 255
223 236 255
223 236 255
223 236 255
223 236 255
223 236 255
223 236 255
223 236 255
223 236 255
223 236 255
223 236 255
223 236 255
223 236 255
223 236 255
223 236 255
223 236 255
223 236 255
223 236 255
223 236 255
223 236 255
223 236 255
223 236 255
223 236 255
223 236 255
223 236 255
223 236 255
223 236 255
223 236 255
223 236 255
223 236 255
223 236 255
223 236 255
223 236 255
223 236 255
223 236 255
223 236 255
223 236 255
223 236 255
223 236 255
223 236 255
223 236 255
223 236 255
223 236 255
223 236 255
223 236 255
223 236 255
223 236 255
223 236 255
223 236 255
223 236 255
223 236 255
223 236 255
223 236 255
223 236 255
223 236 255
223 236 255
223 236 255
223 236 255
223 236 255
223 236 255
223 236 255
223 236 255
223 236 255
223 236 255
223 236 255
223 236 255
223 236 255
223 236 255
223 236 255
223 236 255
223 236 255
223 236 255
223 236 255
223 236 255
223 236 255
223 236 255
223 236 255
223 236 255
223 236 255
223 236 255
223 236 255
223 236 255
223 236 255
223 236 255
223 236 255
223 236 255
223 236 255
223 236 255
223 236 255
223 236 255
223 236 255
223 236 255
223 236 255
223 236 255
223 236 255
223 236 255
223 236 255
223 236 255
223 236 255
223 236 255
223 236 255
223 236 255
223 236 255
223 236 255
223 236 255
223 236 255
223 236 255
223 236 255
223 236 255
223 236 255
223 236 255
223 236 255
223 236 255
223 236 255
223 236 255
223 236 255
223 236 255
223 236 255
223 236 255
223 236 255
223 236 255
223 236 255
223 236 255
223 236 255
223 236 255
223 236 255
223 236 255
223 236 255
223 236 255
223 236 255
223 236 255
223 236 255
223 236 255
223 236 255
223 236 255
223 236 255
223 236 255
223 236 255
223 236 255
223 236 255
223 236 255
223 236 255
223 236 255
223 236 255
223 236 255
223 236 255
223 236 255
223 236 255
223 236 255
223 236 255
223 236 255
223 236 255
223 236 255
190 202 218
23 25 28
19 21 23
21 23 26
33 36 41
65 71 80
70 77 86
82 90 100
79 87 97
83 92 105
75 83 93
73 81 91
81 89 99
68 75 85
79 87 98
75 82 92
62 68 77
59 65 73
62 68 77
46 50 57
26 29 32
24 26 30
40 44 50
46 51 57
58 64 72
54 59 66
59 65 73
62 68 76
63 70 79
65 71 80
71 78 88
68 75 85
66 73 81
66 73 83
59 65 74
60 66 74
53 58 65
50 55 62
43 47 53
34 38 42
31 33 37
22 25 28
13 14 16
20 22 25
10 11 12
18 20 22
14 16 18
12 14 15
18 20 23
14 16 18
17 18 21
29 31 35
33 36 40
33 37 41
40 44 49
40 45 50
44 49 55
50 55 62
55 60 68
53 58 65
51 56 63
62 68 76
66 72 81
70 76 86
67 74 83
72 79 89
71 78 88
70 77 87
68 74 84
65 72 81
61 67 75
56 61 68
49 55 62
42 47 53
43 47 53
42 47 53
43 47 53
46 50 56
48 53 59
49 54 60
51 56 63
50 55 61
51 56 63
51 56 63
59 65 72
58 64 72
58 64 72
64 70 79
63 69 78
60 65 73
46 51 57
47 51 58
47 52 58
47 51 58
43 47 53
36 40 45
31 34 38
29 32 36
30 33 38
33 37 41
35 39 44
35 38 43
40 43 48
40 44 50
39 43 48
37 41 46
31 35 39
21 23 26
13 14 16
6 7 8
10 11 13
17 19 21
20 22 24
13 14 16
19 21 24
30 33 37
27 30 34
24 27 30
15 17 19
29 33 37
36 39 44
40 44 49
40 44 50
47 51 57
51 56 63
48 53 60
54 59 67
56 62 69
48 53 60
45 50 56
36 40 45
31 34 39
28 31 34
10 11 13
18 19 22
23 25 28
29 32 36
26 28 32
14 15 17
16 17 19
19 21 23
22 25 28
29 32 36
28 31 35
20 22 25
20 22 25
29 32 36
35 38 43
37 41 46
42 46 52
45 49 56
54 59 67
60 66 73
53 59 66
54 60 68
45 49 55
48 53 60
47 52 58
57 63 71
52 58 65
48 53 59
44 48 54
45 50 56
43 47 53
37 41 46
19 21 24
37 41 46
49 54 61
56 62 69
57 63 71
63 69 77
75 82 91
79 87 98
74 82 92
78 87 98
82 90 101
80 88 99
72 79 89
84 93 104
78 86 96
75 83 94
68 75 84
67 74 84
56 62 70
46 50 56
192 204 220
223 236 255
223 236 255
223 236 255
223 236 255
223 236 255
223 236 255
223 236 255
223 236 255
223 236 255
223 236 255
223 236 255
223 236 255
223 236 255
223 236 255
223 236 255
223 236 255
223 236 255
223 236 255
223 236 255
223 236 255
223 236 255
223 236 255
223 236 255
223 236 255
223 236 255
223 236 255
223 236 255
223 236 255
223 236 255
223 236 255
223 236 255
223 236 255
223 236 255
223 236 255
223 236 255
223 236 255
223 236 255
223 236 255
223 236 255
223 236 255
223 236 255
223 236 255
223 236 255
223 236 255
223 236 255
223 236 255
223 236 255
223 236 255
223 236 255
223 236 255
223 236 255
223 236 255
223 236 255
223 236 255
223 236 255
223 236 255
223 236 255
223 236 255
223 236 255
223 236 255
223 236 255
223 236 255
223 236 255
223 236 255
223 236 255
223 236 255
223 236 255
223 236 255
223 236 255
223 236 255
223 236 255
223 236 255
223 236 255
223 236 255
223 236 255
223 236 255
223 236 255
223 236 255
223 236 255
223 236 255
223 236 255
223 236 255
223 236 255
223 236 255
223 236 255
223 236 255
223 236 255
223 236 255
223 236 255
223 236 255
223 236 255
223 236 255
223 236 255
223 236 255
223 236 255
223 236 255
223 236 255
223 236 255
223 236 255
223 236 255
223 236 255
223 236 255
223 236 255
223 236 255
223 236 255
223 236 255
223 236 255
223 236 255
223 236 255
223 236 255
223 236 255
223 236 255
223 236 255
223 236 255
223 236 255
223 236 255
223 236 255
223 236 255
223 236 255
223 236 255
223 236 255
223 236 255
223 236 255
223 236 255
223 236 255
223 236 255
223 236 255
223 236 255
223 236 255
223 236 255
223 236 255
223 236 255
223 236 255
223 237 255
223 237 255
223 236 255
223 237 255
223 237 255
223 237 255
223 237 255
223 237 255
223 237 255
223 237 255
223 237 255
223 237 255
223 237 255
223 237 255
223 237 255
223 237 255
223 237 255
223 237 255
223 237 255
223 237 255
223 237 255
223 237 255
223 237 255
223 237 255
223 237 255
223 237 255
223 237 255
223 237 255
223 237 255
223 237 255
223 237 255
223 237 255
223 237 255
223 237 255
223 237 255
223 237 255
223 237 255
223 237 255
223 237 255
223 237 255
223 237 255
223 237 255
223 237 255
223 237 255
223 237 255
223 237 255
223 237 255
223 237 255
223 237 255
223 237 255
223 237 255
223 237 255
223 237 255
223 237 255
223 237 255
223 237 255
223 237 255
223 237 255
223 237 255
223 237 255
223 237 255
223 237 255
223 237 255
223 237 255
223 237 255
223 237 255
223 237 255
223 237 255
223 237 255
223 237 255
223 237 255
223 237 255
223 237 255
223 237 255
223 237 255
223 237 255
223 237 255
223 237 255
223 237 255
223 237 255
223 237 255
220 233 252
71 75 82
20 22 25
29 32 36
40 44 50
55 61 68
67 73 82
72 79 90
81 89 100
83 91 102
77 84 94
64 71 80
74 81 92
69 75 85
71 78 87
71 78 88
59 65 73
61 67 75
52 57 64
41 45 51
32 35 39
27 31 35
49 54 61
52 58 65
66 73 82
56 61 69
61 68 76
67 74 83
72 78 88
67 73 82
67 74 83
68 76 86
71 78 88
58 64 72
59 65 73
63 69 78
57 63 71
53 58 65
46 51 57
41 45 51
33 36 41
23 26 29
15 17 19
11 12 13
14 15 17
15 16 18
17 19 22
14 15 17
15 17 19
10 11 13
11 12 14
14 15 17
18 19 22
19 21 24
19 21 24
23 25 28
38 42 47
44 49 54
51 56 62
52 57 65
55 60 68
55 60 68
60 66 74
60 66 74
63 69 78
62 68 76
65 71 81
66 73 82
61 68 76
60 66 74
56 61 69
52 58 65
49 53 60
40 44 49
38 42 47
32 35 40
45 49 55
41 46 51
43 48 53
47 51 57
46 51 57
46 51 57
45 49 55
49 54 60
53 58 65
57 62 70
59 65 73
63 69 77
54 60 67
48 53 60
44 49 56
43 48 54
39 43 48
40 43 49
40 44 50
34 37 42
25 28 31
21 23 26
26 28 32
29 32 36
36 39 44
41 45 51
46 51 57
46 51 57
44 49 55
36 40 45
33 37 41
23 26 29
16 17 20
10 11 12
14 15 17
18 20 23
9 10 11
18 20 22
25 28 31
27 30 34
22 24 28
16 17 20
18 19 22
24 26 30
30 34 38
35 38 43
48 53 60
45 49 55
54 59 66
53 58 65
51 56 64
57 63 71
52 57 64
49 53 60
47 51 58
38 42 47
29 32 36
18 20 23
22 24 26
26 28 32
26 29 32
24 27 30
22 24 27
20 22 25
13 14 16
23 25 28
26 28 32
29 32 36
23 25 28
23 26 29
33 36 41
37 41 46
35 39 44
46 50 57
52 57 64
53 58 66
55 60 68
49 54 60
46 51 58
50 56 63
43 47 54
47 52 59
52 57 64
52 57 64
43 48 54
39 43 49
45 50 56
42 46 52
36 39 44
21 23 26
44 49 55
49 54 61
59 65 73
53 58 66
53 59 67
77 85 95
68 75 84
78 86 96
79 87 98
82 91 102
80 88 99
75 83 94
79 87 98
74 81 92
71 79 89
69 76 85
64 70 78
59 65 72
70 75 81
223 237 255
223 237 255
223 237 255
223 237 255
223 237 255
223 237 255
223 237 255
223 237 255
223 237 255
223 237 255
223 237 255
223 237 255
223 237 255
223 237 255
223 237 255
223 237 255
223 237 255
223 237 255
223 237 255
223 237 255
223 237 255
223 237 255
223 237 255
223 237 255
223 237 255
223 237 255
223 237 255
223 237 255
223 237 255
223 237 255
223 237 255
223 237 255
223 237 255
223 237 255
223 237 255
223 237 255
223 237 255
223 237 255
223 237 255
223 237 255
223 237 255
223 237 255
223 237 255
223 237 255
223 237 255
223 237 255
223 237 255
223 237 255
223 237 255
223 237 255
223 237 255
223 237 255
223 237 255
223 237 255
223 237 255
223 237 255
223 237 255
223 237 255
223 237 255
223 237 255
223 237 255
223 237 255
223 237 255
223 237 255
223 237 255
223 237 255
223 237 255
223 237 255
223 237 255
223 237 255
223 237 255
223 237 255
223 237 255
223 237 255
223 237 255
223 237 255
223 237 255
223 237 255
223 236 255
223 236 255
223 236 255
223 236 255
223 236 255
223 236 255
223 236 255
223 236 255
223 236 255
223 236 255
223 236 255
223 236 255
223 236 255
223 236 255
223 236 255
223 236 255
223 236 255
223 236 255
223 236 255
223 236 255
223 236 255
223 236 255
223 236 255
223 236 255
223 236 255
223 236 255
223 236 255
223 236 255
223 236 255
223 236 255
223 237 255
223 237 255
223 237 255
223 237 255
223 237 255
223 237 255
223 237 255
223 237 255
223 237 255
223 237 255
223 237 255
223 237 255
223 237 255
223 237 255
223 237 255
223 237 255
223 237 255
223 237 255
223 237 255
223 237 255
223 237 255
223 237 255
223 237 255
223 237 255
223 237 255
223 237 255
223 237 255
223 237 255
223 237 255
223 237 255
223 237 255
223 237 255
223 237 255
223 237 255
223 237 255
223 237 255
223 237 255
223 237 255
223 237 255
223 237 255
223 237 255
223 237 255
223 237 255
223 237 255
223 237 255
223 237 255
223 237 255
223 237 255
223 237 255
223 237 255
223 237 255
223 237 255
223 237 255
223 237 255
223 237 255
223 237 255
223 237 255
223 237 255
223 237 255
223 237 255
223 237 255
223 237 255
223 237 255
223 237 255
223 237 255
223 237 255
223 237 255
223 237 255
223 237 255
223 237 255
223 237 255
223 237 255
223 237 255
223 237 255
223 237 255
223 237 255
223 237 255
223 237 255
223 237 255
223 237 255
223 237 255
223 237 255
223 237 255
223 237 255
223 237 255
223 237 255
223 237 255
223 237 255
223 237 255
223 237 255
223 237 255
223 237 255
223 237 255
223 237 255
223 237 255
223 237 255
223 237 255
223 237 255
223 237 255
223 237 255
223 237 255
223 237 255
223 237 255
223 237 255
223 237 255
223 237 255
223 237 255
223 237 255
139 148 160
30 32 36
28 31 35
45 50 57
49 54 61
54 59 66
67 74 83
80 88 99
85 93 105
80 88 99
71 78 87
66 73 82
70 77 86
69 76 86
63 69 77
61 67 76
58 63 71
52 58 65
45 49 55
33 37 41
25 28 31
46 51 57
52 58 65
61 67 76
61 67 75
63 69 78
66 73 82
72 79 88
68 75 85
58 63 71
68 75 84
63 69 78
64 70 78
54 60 67
59 65 73
59 65 73
57 63 71
52 57 63
46 51 57
38 42 47
27 29 33
20 22 25
19 21 24
22 24 27
20 22 25
22 24 27
22 24 27
18 20 23
12 13 15
19 21 23
20 22 25
20 22 25
19 21 24
22 24 27
16 18 20
18 20 22
33 36 41
44 49 55
46 50 57
45 50 56
48 53 59
44 49 55
51 56 63
55 61 68
61 67 76
58 64 72
60 66 74
55 61 68
53 59 66
47 52 59
47 52 59
45 50 57
42 47 52
40 44 49
35 39 44
35 38 43
39 43 48
44 48 54
45 49 55
43 48 54
42 46 52
42 46 52
43 48 54
54 59 66
52 57 64
54 60 67
52 58 65
56 62 69
46 51 57
43 48 54
43 47 53
39 43 48
34 38 42
33 37 41
29 32 35
16 18 20
17 19 21
24 27 30
34 37 42
40 44 49
37 41 46
49 53 59
48 53 60
48 53 59
41 46 52
37 40 45
28 31 35
15 16 18
12 14 15
9 11 12
11 12 14
14 16 18
26 29 33
28 31 34
21 23 26
19 21 24
9 10 12
15 16 18
26 29 32
28 31 35
40 44 49
46 50 57
47 52 59
52 58 65
57 63 71
52 58 65
54 60 67
54 59 66
52 58 65
47 51 58
44 49 55
36 40 44
28 30 34
24 27 30
26 28 32
27 29 33
29 32 36
25 28 32
22 24 27
10 10 12
21 23 26
23 26 29
24 27 30
18 20 22
20 23 26
29 32 36
36 39 44
42 46 51
53 58 65
51 56 64
54 59 66
55 61 69
61 67 76
55 60 67
52 57 64
52 57 64
50 55 62
54 59 67
50 55 62
43 47 53
47 52 58
42 47 53
38 42 47
27 30 34
31 34 39
48 53 59
55 60 67
54 60 67
65 71 80
72 79 89
70 78 88
72 79 89
76 84 94
78 86 96
81 90 101
67 73 82
75 83 93
68 75 84
75 83 93
72 79 88
69 75 85
59 65 72
47 52 59
142 151 163
223 237 255
223 237 255
223 237 255
223 237 255
223 237 255
223 237 255
223 237 255
223 237 255
223 237 255
223 237 255
223 237 255
223 237 255
223 237 255
223 237 255
223 237 255
223 237 255
223 237 255
223 237 255
223 237 255
223 237 255
223 237 255
223 237 255
223 237 255
223 237 255
223 237 255
223 237 255
223 237 255
223 237 255
223 237 255
223 237 255
223 237 255
223 237 255
223 237 255
223 237 255
223 237 255
223 237 255
223 237 255
223 237 255
223 237 255
223 237 255
223 237 255
223 237 255
223 237 255
223 237 255
223 237 255
223 237 255
223 237 255
223 237 255
223 237 255
223 237 255
223 237 255
223 237 255
223 237 255
223 237 255
223 237 255
223 237 255
223 237 255
223 237 255
223 237 255
223 237 255
223 237 255
223 237 255
223 237 255
223 237 255
223 237 255
223 237 255
223 237 255
223 237 255
223 237 255
223 237 255
223 237 255
223 237 255
223 237 255
223 237 255
223 237 255
223 237 255
223 237 255
223 237 255
223 237 255
223 237 255
223 237 255
223 237 255
223 237 255
223 237 255
223 237 255
223 237 255
223 237 255
223 237 255
223 237 255
223 237 255
223 237 255
223 237 255
223 237 255
223 237 255
223 237 255
223 237 255
223 237 255
223 237 255
223 237 255
223 237 255
223 237 255
223 237 255
223 237 255
223 237 255
223 237 255
223 237 255
223 237 255
223 237 255
223 237 255
223 237 255
223 237 255
223 237 255
223 237 255
223 237 255
223 237 255
223 237 255
223 237 255
223 237 255
223 237 255
223 237 255
223 237 255
223 237 255
223 237 255
223 237 255
223 237 255
223 237 255
223 237 255
223 237 255
223 237 255
223 237 255
223 237 255
223 237 255
223 237 255
223 237 255
223 237 255
223 237 255
223 237 255
223 237 255
223 237 255
223 237 255
223 237 255
223 237 255
223 237 255
223 237 255
223 237 255
223 237 255
223 237 255
223 237 255
223 237 255
223 237 255
223 237 255
223 237 255
223 237 255
223 237 255
223 237 255
223 237 255
223 237 255
223 237 255
223 237 255
223 237 255
223 237 255
223 237 255
223 237 255
223 237 255
223 237 255
223 237 255
223 237 255
223 237 255
223 237 255
223 237 255
223 237 255
223 237 255
223 237 255
221 235 254
220 234 253
220 233 252
219 232 251
219 233 251
211 224 242
212 225 244
215 228 247
212 225 244
208 221 239
206 219 236
206 219 237
206 219 236
211 224 243
211 224 243
199 212 229
196 208 226
196 208 225
196 208 225
193 205 222
195 207 224
197 209 227
195 208 226
186 199 216
191 204 222
188 200 217
194 207 225
186 198 215
186 198 215
189 201 219
175 187 204
178 190 206
174 185 201
178 190 206
175 187 203
158 169 184
167 179 194
165 176 192
175 187 204
168 179 195
176 188 204
165 176 192
174 185 202
159 170 185
33 36 41
28 31 35
47 52 59
48 53 59
55 60 68
66 72 81
70 76 85
76 83 94
77 85 96
65 72 81
60 66 75
66 72 81
59 65 72
60 65 73
53 59 66
53 58 65
46 50 56
43 47 53
26 28 32
15 16 18
39 43 49
47 52 58
62 68 77
58 64 72
69 75 84
65 72 81
72 79 88
66 73 81
61 67 75
63 70 79
64 70 78
64 70 79
60 65 73
59 65 73
60 66 74
63 69 78
50 55 61
48 53 59
47 51 58
35 38 43
27 30 34
27 30 33
27 29 33
25 28 31
17 18 21
18 19 22
21 23 25
17 19 21
22 25 28
29 31 35
29 31 35
29 32 36
25 28 31
28 31 35
19 21 24
18 20 23
36 40 45
40 44 49
45 49 55
43 47 53
44 49 55
48 52 59
54 60 67
53 58 65
51 56 62
51 57 63
50 55 62
54 59 66
47 51 57
39 43 48
43 47 53
42 46 52
38 42 47
33 36 40
30 33 37
36 40 45
37 40 45
39 42 47
41 45 51
37 40 45
36 40 45
42 46 52
45 49 55
46 51 57
48 53 59
49 54 61
46 51 57
44 48 54
35 39 44
32 35 40
31 34 38
26 29 32
24 26 29
21 24 27
14 16 18
11 13 14
25 27 30
30 33 38
40 44 49
50 54 61
44 48 55
45 50 56
48 53 59
44 48 54
36 40 45
28 31 35
28 30 34
25 27 31
17 19 21
13 14 16
18 20 22
23 25 28
24 26 30
22 24 27
17 18 21
7 8 9
20 22 24
24 27 30
32 36 40
44 48 54
42 46 52
48 53 60
54 59 67
54 59 66
53 58 65
47 52 58
52 57 64
53 58 65
48 53 60
45 49 55
42 46 52
28 31 35
25 27 31
29 32 36
33 36 41
31 34 39
27 30 34
15 17 19
15 17 19
11 12 13
14 16 18
20 22 25
21 23 26
24 27 30
31 34 38
34 38 43
45 49 56
49 54 61
50 55 62
54 59 66
57 63 71
58 63 71
50 55 62
53 58 65
55 60 68
54 60 67
59 65 73
53 59 66
50 55 62
52 57 63
48 53 59
39 43 49
23 26 29
38 42 47
49 54 61
56 62 69
54 60 67
67 73 82
69 76 86
73 80 89
73 80 90
84 92 104
85 93 104
84 93 104
74 81 91
72 79 89
73 80 91
71 78 87
71 78 87
61 67 75
46 51 58
34 37 42
112 121 132
165 176 191
170 182 198
162 174 189
171 182 199
168 179 195
168 180 196
185 197 214
180 192 208
171 183 199
171 182 199
180 192 208
188 200 217
177 189 204
180 191 208
182 194 211
183 194 211
188 200 217
196 209 227
187 200 217
191 203 220
204 217 235
193 206 223
193 206 223
199 212 229
198 211 228
195 208 225
195 207 225
195 208 225
198 211 228
202 215 232
211 224 242
199 212 230
212 225 243
211 225 243
212 225 243
212 225 244
213 227 245
220 233 252
212 225 244
216 229 248
219 232 251
219 232 251
219 233 252
223 237 255
223 237 255
223 237 255
223 237 255
223 237 255
223 237 255
223 237 255
223 237 255
223 237 255
223 237 255
223 237 255
223 237 255
223 237 255
223 237 255
223 237 255
223 237 255
223 237 255
223 237 255
223 237 255
223 237 255
223 237 255
223 237 255
223 237 255
223 237 255
223 237 255
223 237 255
223 237 255
223 237 255
223 237 255
223 237 255
223 237 255
223 237 255
223 237 255
223 237 255
223 237 255
223 237 255
223 237 255
223 237 255
223 237 255
223 237 255
223 237 255
223 237 255
223 237 255
223 237 255
223 237 255
223 237 255
223 237 255
223 237 255
223 237 255
223 237 255
223 237 255
223 237 255
223 237 255
223 237 255
223 237 255
223 237 255
223 237 255
223 237 255
223 237 255
223 237 255
223 237 255
223 237 255
223 237 255
223 237 255
223 237 255
223 237 255
223 237 255
223 237 255
221 234 253
221 235 254
219 232 251
217 230 248
212 225 243
206 219 237
210 223 242
211 224 242
206 218 236
207 219 237
204 216 234
200 213 230
193 205 223
201 214 232
187 199 216
196 209 226
196 209 226
187 199 216
190 203 220
190 202 219
184 196 213
177 189 205
178 190 207
187 200 217
177 188 205
178 190 206
169 180 196
166 178 194
169 181 196
156 166 181
154 165 179
141 150 164
163 173 189
141 151 165
163 174 190
157 169 184
155 166 182
151 162 178
146 157 173
132 143 158
145 156 172
151 162 177
147 158 174
142 153 169
129 140 155
132 142 156
120 130 144
123 132 145
119 129 143
114 124 138
110 119 133
120 130 143
121 132 147
108 118 131
91 100 113
87 95 108
93 102 114
76 85 98
80 89 102
85 95 108
84 95 110
82 93 107
88 100 115
83 94 109
82 93 107
71 80 93
72 82 95
73 83 96
69 79 92
68 77 88
64 73 84
63 72 83
64 73 84
73 82 95
73 83 96
68 78 90
66 75 87
66 75 87
65 74 86
67 76 89
65 74 85
65 73 85
61 69 79
64 73 84
64 73 84
74 83 95
74 85 98
78 89 103
89 101 117
92 105 121
90 102 119
96 108 125
91 103 119
93 104 120
90 102 118
83 95 110
74 83 96
71 80 92
68 77 89
72 82 95
75 85 98
84 95 110
89 101 116
87 99 114
86 98 113
86 98 114
46 51 58
36 40 44
41 45 50
51 57 64
56 61 69
66 72 81
69 76 85
73 80 91
70 77 86
76 83 94
64 70 79
62 68 77
58 64 72
51 57 64
52 57 64
49 54 61
47 51 57
46 50 56
36 39 44
17 19 21
34 37 42
43 47 53
52 58 65
66 72 81
68 75 84
62 68 77
66 72 81
71 78 88
68 75 84
58 64 72
58 65 73
53 59 66
63 69 77
58 64 72
60 66 74
66 72 81
61 67 75
54 60 67
49 54 61
42 46 51
30 33 37
23 25 28
30 33 38
23 26 29
21 23 26
16 18 20
18 19 22
22 24 28
24 27 30
27 30 33
27 30 34
26 29 32
20 22 25
25 27 31
21 23 26
13 14 16
14 15 17
27 30 33
37 41 46
36 39 44
40 45 50
37 41 47
41 45 51
41 45 51
47 52 58
50 55 62
45 49 55
46 51 57
40 44 49
39 42 47
35 39 43
41 45 50
34 37 42
29 32 36
25 27 30
26 29 33
32 35 39
33 37 41
33 36 41
36 40 45
37 41 46
37 41 46
37 41 46
41 45 51
43 47 53
43 47 53
39 42 48
25 28 31
19 21 24
20 22 25
17 19 22
12 14 16
16 17 19
23 25 28
26 28 32
25 28 31
26 29 33
37 41 46
43 48 54
50 56 62
47 51 58
43 47 53
43 48 54
39 42 48
34 38 42
34 37 41
34 37 42
33 36 41
26 29 33
24 26 29
21 24 27
20 22 25
23 26 29
14 15 17
11 13 14
11 12 14
17 19 21
28 30 34
35 38 43
40 44 50
43 48 54
55 60 67
53 58 64
52 57 65
56 62 69
48 53 59
49 54 61
50 54 61
47 52 58
47 52 59
46 50 56
30 33 37
26 28 32
31 34 39
36 39 44
29 32 35
22 25 28
10 11 12
9 10 12
13 14 16
13 15 17
18 19 22
22 25 28
22 24 27
28 30 34
36 40 45
48 52 59
46 51 58
50 55 62
54 59 67
64 70 78
55 60 68
45 49 56
47 52 58
50 55 62
56 62 70
58 64 73
59 65 73
58 64 71
52 58 65
51 56 63
32 35 40
24 27 30
45 49 55
59 64 72
57 63 71
64 70 78
69 76 85
74 81 91
69 76 86
77 85 95
79 87 98
83 91 102
77 84 95
64 71 80
62 69 77
63 70 79
62 68 76
67 74 83
54 59 67
40 44 50
39 44 50
73 83 97
71 81 95
73 82 95
77 88 102
79 88 102
79 90 104
83 95 110
89 101 118
86 97 112
90 102 118
79 90 104
77 88 102
70 79 91
70 79 92
66 75 87
66 75 87
71 81 94
71 80 93
82 92 106
68 77 89
72 82 94
70 80 93
66 75 86
63 72 82
65 74 85
70 79 91
71 81 94
71 80 93
71 81 93
75 85 98
79 90 104
73 83 96
76 87 101
78 88 102
78 89 103
75 85 98
72 82 96
59 67 78
62 71 82
76 86 99
76 87 100
83 94 108
79 90 104
78 89 102
75 85 98
81 92 107
75 85 99
81 91 104
86 97 111
104 115 130
108 119 134
100 111 125
99 110 123
108 118 132
104 114 128
113 124 138
117 129 144
128 140 156
116 127 142
131 142 157
132 143 158
143 154 170
129 140 154
136 146 160
135 146 160
125 135 148
130 140 153
147 158 172
151 162 177
135 145 160
149 160 175
156 168 183
155 166 181
160 171 185
158 169 184
158 169 184
155 165 180
168 179 194
153 163 178
173 184 200
170 181 197
176 187 203
175 186 202
183 195 212
181 193 209
166 177 193
183 195 212
183 195 211
189 201 218
185 197 213
197 210 227
185 197 214
203 216 234
195 208 226
199 211 229
206 218 236
210 223 241
203 216 234
214 227 245
217 230 249
213 226 244
217 230 249
217 230 248
218 232 250
222 235 254
222 235 254
223 237 255
223 237 255
223 237 255
86 96 109
81 92 105
79 89 103
86 97 112
81 92 106
80 91 105
68 77 89
64 72 83
65 74 85
62 71 82
56 64 74
62 70 81
79 89 103
84 95 110
93 105 122
89 100 116
88 99 115
88 101 117
79 90 104
71 81 94
69 78 90
71 81 93
65 73 85
67 76 88
77 88 101
80 91 105
88 100 116
93 105 121
88 99 114
93 105 121
91 103 119
94 107 123
83 95 111
74 83 96
63 71 83
62 70 80
66 74 85
76 86 99
91 103 119
96 108 124
99 112 130
101 115 134
109 124 144
104 118 136
91 104 119
78 89 103
71 81 93
68 77 89
65 73 85
68 77 89
72 81 94
72 82 94
77 87 100
75 86 100
75 85 98
78 88 103
81 92 106
83 94 109
80 90 103
78 89 103
69 78 90
66 74 86
65 74 86
69 78 90
82 93 107
80 91 105
87 99 115
91 104 120
104 117 135
93 106 123
97 111 128
93 105 122
96 109 126
95 108 124
99 112 129
92 105 121
82 93 107
77 87 101
72 81 94
80 91 104
81 91 105
83 95 109
89 101 117
96 109 126
99 112 129
96 108 124
85 97 112
76 87 100
75 85 99
82 93 108
82 93 107
81 93 107
94 107 124
105 119 137
91 103 119
113 128 148
103 117 135
100 113 130
93 105 122
83 94 109
76 86 100
66 75 87
61 69 79
64 72 83
71 80 93
82 94 109
83 94 109
90 102 119
87 99 114
65 74 86
45 49 56
33 37 41
56 62 69
64 71 79
66 73 82
64 70 79
69 76 85
65 72 82
69 76 86
70 76 86
62 69 77
62 68 77
56 62 69
52 58 65
45 50 56
46 50 57
41 45 51
35 38 43
19 21 24
26 28 32
42 46 52
51 57 64
58 64 71
67 74 83
71 78 88
67 73 82
74 81 91
65 72 81
66 73 82
57 63 70
53 59 66
59 65 73
55 60 68
63 69 77
59 65 74
58 64 71
59 65 73
49 54 61
52 57 64
38 42 47
32 35 40
33 36 41
30 33 37
29 31 35
18 20 23
11 12 14
18 20 22
23 25 29
19 22 24
25 28 31
26 28 32
17 18 21
20 22 25
23 26 29
25 27 31
17 19 21
15 16 18
30 33 37
32 35 39
38 42 47
34 37 42
35 39 43
35 39 44
41 45 51
37 41 46
39 42 48
41 44 50
39 44 49
37 41 46
30 33 37
31 34 38
28 31 35
27 30 34
26 28 31
25 28 31
27 30 34
33 37 41
32 35 40
38 42 47
38 43 48
40 44 49
34 38 43
34 37 41
36 40 45
32 35 39
31 34 38
20 22 24
8 9 10
11 12 13
16 18 20
14 15 17
18 20 22
26 29 33
31 34 38
29 32 37
29 32 36
36 39 44
48 53 59
39 43 48
42 47 52
44 49 54
41 45 50
38 41 46
34 38 42
35 39 43
37 40 45
38 42 47
36 40 45
29 32 35
21 23 26
22 24 27
14 16 18
11 12 14
15 17 19
19 21 24
27 30 34
32 35 40
34 38 42
43 47 53
50 55 62
48 53 60
52 57 64
51 57 64
53 59 66
51 56 63
43 47 53
49 54 61
52 57 64
46 50 57
38 42 47
26 28 32
27 29 33
28 31 35
26 29 33
24 26 29
19 21 24
9 10 11
9 10 12
10 11 13
15 16 18
23 25 29
19 21 23
19 21 24
31 35 39
40 44 50
40 44 50
47 52 58
53 58 65
53 58 66
54 59 67
56 61 68
48 52 59
42 46 52
50 56 63
56 62 69
53 59 67
63 69 78
56 62 69
54 59 66
43 47 53
20 22 24
36 40 45
50 55 61
55 61 68
56 62 70
69 76 85
72 79 88
72 79 89
75 82 92
74 82 93
82 90 101
78 86 96
73 80 91
72 79 89
62 68 77
56 61 69
66 72 81
63 69 77
42 46 52
24 27 31
69 78 89
77 88 102
86 98 114
88 100 116
81 92 106
83 94 109
80 92 106
86 98 113
86 98 114
97 110 127
99 113 132
107 121 139
113 128 149
111 126 145
104 118 137
106 120 139
100 114 132
99 112 129
93 106 122
93 105 121
85 96 111
78 89 103
69 78 89
64 72 83
75 85 97
72 81 94
72 82 95
69 79 91
78 89 102
79 90 104
83 95 109
80 91 105
90 101 117
92 105 121
89 101 116
85 97 112
86 97 112
95 107 123
86 98 113
76 86 100
76 86 100
71 81 93
63 71 82
70 79 92
71 80 92
72 82 95
76 86 99
86 98 113
85 96 110
89 101 116
88 99 114
89 101 117
87 98 114
92 104 120
86 97 112
81 91 106
84 94 109
78 88 101
79 89 103
71 81 94
74 84 96
79 90 104
80 91 105
73 83 96
76 86 99
81 92 107
81 91 105
83 94 108
87 98 114
88 99 115
78 89 102
82 93 107
74 83 96
74 84 97
68 77 89
65 74 86
63 72 83
64 73 84
62 70 81
61 69 80
54 61 71
58 66 76
59 67 78
69 79 91
73 84 97
78 89 103
79 90 104
79 90 103
71 80 93
69 78 89
66 75 87
61 69 81
76 86 100
81 92 106
88 100 115
92 105 121
95 108 124
90 102 118
96 109 126
94 106 123
83 94 108
80 91 105
76 86 100
79 90 104
74 84 97
77 88 101
75 86 99
78 88 101
79 89 101
79 89 102
83 94 109
89 101 116
86 98 114
85 97 112
88 101 116
90 102 118
78 88 102
87 99 114
89 100 116
84 95 110
78 88 102
77 87 101
74 84 97
71 81 94
75 85 98
73 83 95
78 89 103
82 94 108
77 87 101
81 91 105
78 88 102
86 97 112
86 98 114
85 96 111
81 93 107
81 91 105
70 79 91
63 72 83
69 78 90
71 80 92
67 76 88
68 77 89
65 75 87
76 86 99
83 94 108
88 100 115
97 110 126
88 100 115
81 92 106
75 85 99
73 82 95
72 82 94
77 88 102
82 92 106
81 92 106
85 97 112
85 98 113
81 92 106
85 96 110
80 91 105
85 96 111
79 90 105
83 93 107
83 94 108
79 90 104
86 98 113
84 95 110
80 91 104
69 78 90
73 82 95
73 84 97
78 88 101
78 89 102
78 89 103
88 101 116
94 107 123
91 103 119
91 104 121
98 111 128
92 104 120
94 107 123
80 90 104
76 86 100
74 84 98
74 84 96
74 84 96
76 86 100
82 92 105
72 82 96
77 88 102
77 88 101
84 95 109
82 93 108
79 90 105
84 95 110
83 94 109
97 110 126
81 91 106
73 83 97
70 80 92
58 65 75
53 60 69
47 54 62
55 62 72
59 67 78
67 76 87
70 80 92
74 84 97
75 85 98
72 82 96
68 77 88
65 74 86
59 67 78
58 65 75
57 64 74
61 68 79
65 73 84
72 81 93
76 87 101
68 77 90
43 48 54
36 40 45
46 51 57
69 76 85
73 80 90
65 71 80
69 76 85
68 75 84
69 76 86
70 77 86
64 70 79
63 69 78
53 58 66
52 57 64
47 52 58
47 52 58
41 45 51
31 35 39
25 27 31
22 25 28
42 46 52
49 54 61
58 64 72
52 58 66
66 72 81
66 73 81
68 74 84
68 75 85
65 71 79
63 70 78
56 61 69
56 61 69
60 66 74
59 65 73
66 73 83
65 71 80
57 63 70
56 62 69
53 58 65
41 45 50
37 40 46
32 35 39
31 34 38
28 31 34
23 25 28
18 20 22
22 24 27
25 28 31
24 27 30
22 24 27
28 31 34
25 28 31
27 30 33
24 26 30
19 21 23
15 17 19
16 18 20
23 25 28
24 27 30
26 28 32
28 30 34
31 35 39
34 37 42
31 35 39
38 42 46
38 42 47
37 40 45
35 38 43
39 42 47
31 34 38
31 34 38
24 26 30
20 22 25
31 34 38
28 31 35
29 32 37
28 30 34
33 37 41
35 39 44
35 38 42
35 39 43
29 32 36
27 30 34
27 30 33
25 28 31
17 19 21
20 22 25
21 23 26
20 23 26
22 25 28
18 20 22
16 18 20
28 31 34
30 33 37
31 34 38
36 39 44
42 46 52
40 44 50
41 45 51
44 48 54
44 48 54
41 45 50
42 46 52
39 43 48
38 42 47
39 43 48
44 48 54
42 46 51
33 37 41
25 27 31
17 18 21
12 13 14
21 23 26
23 26 29
29 32 36
35 38 43
39 42 47
45 49 55
51 56 63
50 54 61
52 57 64
55 60 67
54 59 66
54 59 66
50 56 63
52 57 64
49 54 61
50 55 62
42 47 52
35 39 44
24 26 29
18 19 22
12 14 16
15 17 19
16 17 19
11 12 14
15 16 18
20 22 25
26 28 32
26 29 32
22 25 28
21 23 26
24 26 29
35 38 43
41 45 51
36 40 45
49 54 61
52 58 65
51 56 63
54 59 66
53 58 65
47 52 59
49 54 61
56 61 69
65 71 79
64 70 79
64 71 80
60 66 74
43 48 54
34 38 43
17 19 21
40 44 50
50 55 61
56 62 70
62 69 77
70 77 86
74 81 91
74 81 91
80 88 98
82 90 100
74 82 92
74 82 92
61 68 76
56 63 71
55 61 68
51 56 62
54 59 66
47 51 58
31 34 39
32 36 41
111 127 147
107 122 140
101 114 132
91 104 120
89 101 117
83 95 110
81 92 106
81 91 105
83 94 109
80 91 105
81 92 106
81 92 106
87 98 113
95 109 126
97 109 126
97 110 126
100 114 132
104 119 137
103 116 134
97 110 127
88 101 117
73 83 97
81 92 106
71 81 93
72 82 95
74 84 97
86 98 114
89 101 116
84 95 109
86 98 114
87 98 113
87 99 114
83 94 109
84 95 109
82 94 108
85 97 112
85 96 111
79 89 102
77 87 100
69 78 90
78 88 102
78 88 102
76 85 98
83 94 109
79 90 105
90 102 118
92 103 118
97 111 128
93 106 122
93 106 123
85 96 111
86 97 111
78 88 102
77 88 102
79 91 105
83 94 109
88 100 115
94 107 123
95 107 124
99 112 129
93 105 122
94 107 124
84 96 111
81 92 106
73 83 97
75 86 99
81 91 105
82 93 107
77 87 100
78 89 104
79 90 104
80 91 105
82 93 108
83 93 108
78 88 102
71 81 94
74 84 96
74 85 98
78 89 103
86 97 113
81 92 105
84 96 111
86 98 113
92 105 122
93 105 121
99 112 130
107 121 140
96 109 125
95 108 125
92 105 122
77 88 101
78 88 102
79 90 104
82 93 107
83 94 109
80 91 105
81 92 105
84 95 110
78 88 101
80 90 104
75 84 97
74 84 98
83 95 109
87 99 115
92 105 121
85 97 112
93 106 123
92 104 120
91 103 120
88 100 116
67 76 88
62 70 81
64 73 85
66 75 86
75 85 98
72 81 94
68 77 89
68 77 89
69 79 91
68 77 90
64 72 83
68 77 90
66 75 87
66 76 88
68 77 89
73 83 96
72 82 95
69 78 90
63 72 84
67 76 87
59 66 77
57 65 75
55 63 73
56 63 73
58 66 76
61 69 80
67 77 89
75 85 98
75 85 99
77 87 101
79 90 105
83 94 108
82 93 107
79 90 104
81 92 106
79 91 105
80 92 106
79 90 105
82 93 107
84 95 110
80 91 105
82 92 106
76 86 100
76 87 102
68 78 90
64 73 84
64 72 82
61 69 79
56 64 75
60 69 79
63 72 83
62 70 81
64 73 84
71 81 93
66 75 87
54 61 71
45 51 59
47 53 62
51 58 67
52 60 69
53 60 70
54 62 71
56 63 73
54 61 71
54 60 69
62 70 81
71 81 94
74 84 98
77 87 101
77 88 101
80 90 104
72 82 95
81 92 106
77 87 101
73 83 95
66 74 85
67 76 88
62 70 81
60 68 79
59 67 77
70 79 92
73 83 95
73 82 95
79 90 104
75 86 100
68 78 90
67 76 87
69 79 92
75 85 98
70 79 91
73 83 96
77 87 101
76 87 100
71 80 92
64 74 85
62 70 81
70 80 92
78 88 102
85 96 111
79 89 103
78 88 102
73 84 97
76 86 100
82 93 108
77 87 101
76 86 99
80 90 104
75 86 100
68 78 90
63 71 82
51 57 66
38 42 47
50 55 62
61 67 76
69 76 86
64 70 78
60 66 74
62 68 76
70 77 86
62 69 77
69 75 84
67 73 82
53 58 66
54 59 66
45 50 56
42 46 51
37 41 46
23 25 28
15 16 19
26 29 33
35 38 43
46 51 57
55 61 68
59 65 73
65 71 80
76 83 93
68 75 84
73 81 90
70 77 86
56 62 70
55 61 69
55 61 68
63 70 78
61 67 75
61 67 75
63 70 78
64 70 79
65 71 79
56 61 69
49 53 60
47 51 57
39 43 48
36 40 45
33 37 41
28 31 34
26 29 32
21 23 27
21 24 27
21 23 26
25 27 31
26 29 32
28 31 35
29 31 35
25 28 32
22 25 28
19 20 23
10 11 12
19 21 23
17 19 21
17 19 22
19 21 24
25 28 31
30 33 38
30 33 37
34 37 41
31 34 39
36 39 44
41 45 50
41 45 50
44 49 55
33 36 41
24 27 30
28 31 35
27 30 33
27 29 33
27 30 34
32 35 39
32 35 40
28 31 36
32 35 39
27 29 33
27 29 33
22 24 27
21 23 26
18 20 23
15 16 18
26 28 32
30 33 37
27 30 34
21 24 26
18 20 22
11 13 14
13 15 17
22 24 27
28 30 34
34 37 41
41 45 50
41 45 51
46 51 57
37 41 46
35 39 43
36 40 45
40 44 49
41 45 51
37 41 46
41 45 50
44 48 54
46 50 56
33 36 41
30 33 37
16 18 20
19 20 23
29 32 36
36 39 44
39 43 48
40 44 49
43 47 53
45 50 56
57 62 70
53 59 66
51 56 64
57 63 71
54 60 67
58 64 72
51 56 63
54 60 67
51 56 63
52 57 63
45 49 55
35 39 44
25 27 31
18 20 23
13 14 16
14 15 17
13 14 16
12 13 15
22 24 27
27 30 34
26 28 32
24 27 30
19 21 24
22 24 27
30 33 37
35 39 44
31 34 38
36 40 44
42 46 52
50 55 62
58 63 71
51 56 64
59 65 74
53 59 66
53 58 65
56 62 70
64 70 78
69 76 85
58 64 72
57 63 71
42 46 52
31 34 39
20 22 25
39 43 49
54 60 67
62 68 78
69 75 85
70 77 86
70 77 87
73 80 90
73 79 89
75 82 92
71 79 88
62 68 77
61 68 76
51 56 63
42 47 52
39 43 48
39 43 48
33 37 41
22 24 27
69 77 89
98 111 128
101 115 134
104 118 137
102 116 134
97 110 127
89 101 116
85 97 113
84 95 109
86 98 114
86 97 113
87 99 114
78 88 102
74 84 96
80 90 104
83 95 110
83 94 109
91 104 121
90 101 117
95 109 126
98 112 129
94 106 122
90 103 119
83 95 110
87 99 114
88 100 115
92 105 122
80 90 104
78 89 103
76 86 100
78 88 101
76 86 99
81 92 106
85 97 111
90 103 119
96 109 126
90 103 119
104 118 136
100 113 130
103 118 136
109 123 142
98 111 128
89 101 117
79 89 103
72 81 93
74 84 97
83 94 108
86 98 114
83 94 109
81 93 108
88 100 116
86 98 113
83 94 109
88 100 116
89 100 115
89 101 117
92 104 119
99 113 130
106 121 140
98 112 130
91 104 121
92 104 120
89 101 117
88 100 116
89 101 117
92 105 122
94 107 124
99 111 128
91 103 118
83 94 108
85 96 111
88 100 116
94 107 124
91 103 119
88 99 114
76 87 101
77 88 101
79 90 104
81 92 106
78 88 101
89 102 117
100 114 132
99 112 129
105 119 137
109 124 143
108 122 141
112 127 146
109 123 142
107 122 141
106 120 139
104 118 137
99 112 130
80 92 107
86 98 113
86 98 113
78 89 103
83 94 108
89 101 117
92 104 120
99 112 130
101 114 132
94 107 124
96 109 127
91 103 119
84 95 109
88 100 116
92 104 120
87 100 116
92 105 121
94 107 123
93 105 122
92 104 120
96 108 125
93 105 122
84 96 111
93 105 121
86 98 113
84 96 111
77 88 101
83 94 108
82 93 108
88 100 116
94 107 124
95 108 124
92 105 122
92 104 120
98 111 128
89 101 117
92 104 120
92 104 120
96 109 126
94 107 123
83 95 110
83 94 109
79 89 104
71 81 94
70 79 92
60 68 79
59 67 77
62 71 82
70 79 92
77 88 102
84 95 110
84 95 110
84 95 110
72 82 94
77 88 101
77 88 101
74 84 97
76 86 99
69 78 90
64 73 84
56 64 74
56 63 73
63 71 81
64 73 84
69 79 92
72 81 93
78 88 101
81 92 106
83 94 109
85 96 112
85 97 112
96 109 126
97 111 128
96 110 127
92 105 121
81 92 106
70 80 93
63 71 82
58 66 76
56 64 74
66 75 86
76 86 99
78 88 101
80 91 106
75 85 98
76 86 100
76 86 100
79 89 102
74 84 97
81 93 108
70 79 92
81 92 106
74 84 96
68 77 89
71 80 92
72 82 95
77 88 102
84 95 109
85 96 112
79 90 105
83 94 109
65 74 86
65 74 86
64 73 85
75 85 98
71 81 93
70 80 93
63 72 83
68 77 89
71 80 93
68 77 90
73 83 96
75 85 99
78 89 102
78 88 102
82 93 107
80 91 105
83 94 109
75 85 99
80 90 104
81 92 106
78 89 103
71 81 94
83 94 109
78 89 103
81 92 107
85 97 112
86 98 113
85 97 112
81 92 106
27 30 34
43 48 54
52 57 64
64 71 79
70 77 87
64 70 78
67 73 82
71 78 87
61 67 76
68 75 84
69 76 85
59 64 72
53 58 66
45 50 56
42 46 53
35 39 44
13 14 16
15 16 18
32 36 40
43 47 53
42 47 53
50 55 62
57 63 71
63 70 79
68 75 85
70 77 86
70 77 87
65 72 81
69 76 86
66 73 81
62 68 77
60 65 73
60 66 74
68 74 83
57 64 72
61 67 76
56 62 69
62 68 77
55 61 68
49 54 60
47 51 58
46 51 57
37 41 46
29 32 36
27 30 34
26 29 32
27 29 33
31 34 38
31 34 38
29 32 36
31 34 38
29 32 36
31 35 39
28 31 35
26 29 32
19 21 24
14 16 17
14 15 17
16 18 20
13 15 17
20 22 25
26 28 32
28 30 34
27 30 33
28 31 35
33 37 41
33 37 41
39 43 48
43 47 53
40 44 50
35 38 43
35 38 43
33 36 41
32 35 39
27 29 33
26 29 33
30 34 38
29 32 36
29 32 36
25 27 31
26 28 32
26 29 32
27 30 33
20 22 24
18 20 22
34 37 42
28 31 35
30 34 38
29 33 37
32 35 39
24 26 30
18 20 22
13 14 16
24 27 30
33 36 41
38 41 46
43 47 53
42 47 53
42 46 52
33 36 41
30 33 38
31 34 39
40 43 48
39 43 48
43 48 54
41 45 51
41 46 51
41 45 50
31 34 38
16 17 20
24 27 30
33 36 40
41 45 51
42 47 53
44 49 55
47 52 58
57 63 70
54 60 67
52 58 65
59 65 73
56 62 70
64 71 79
64 70 79
57 63 71
53 58 65
53 59 66
44 49 55
42 46 51
40 44 50
20 22 25
12 13 14
21 23 26
23 26 29
22 25 28
29 31 35
30 33 37
35 39 43
26 28 32
25 28 31
25 27 31
28 31 35
31 34 38
35 38 43
38 42 47
44 48 54
47 52 58
52 57 64
51 56 63
62 68 76
57 62 69
58 63 71
59 65 73
57 63 71
65 71 80
59 65 73
58 64 72
49 55 61
38 42 47
31 34 39
18 20 23
34 37 42
49 54 61
61 68 76
69 76 86
61 67 76
66 73 81
71 78 87
72 80 90
70 77 87
62 69 77
55 61 69
58 64 72
42 47 52
33 37 41
32 36 40
25 28 31
20 22 25
30 33 37
72 82 94
73 83 96
66 75 86
71 81 93
63 71 82
74 84 97
73 82 95
76 86 100
78 88 102
82 93 107
82 94 108
75 85 98
74 83 96
68 78 91
66 74 86
61 69 80
50 58 68
52 58 68
49 56 65
53 61 70
67 76 88
69 78 90
78 89 102
79 90 105
85 96 112
78 89 104
74 85 99
76 86 99
73 83 97
76 86 99
81 92 106
85 96 111
98 111 129
96 109 126
94 107 124
100 113 130
96 109 125
89 101 116
80 91 105
84 95 109
74 84 97
74 84 98
71 81 93
79 90 103
85 97 112
91 103 119
92 105 121
95 108 125
91 103 119
91 103 119
89 101 117
95 108 124
98 111 128
89 102 118
92 105 122
90 102 118
90 102 118
89 100 116
89 101 117
87 99 115
93 105 122
88 100 115
82 92 106
78 88 101
79 90 104
76 86 100
72 82 94
81 93 108
85 96 111
89 100 116
87 99 114
90 102 117
92 104 120
93 105 121
94 107 123
99 113 131
112 128 148
110 125 144
119 135 155
120 136 157
118 134 155
109 124 143
108 122 141
101 115 133
101 115 132
97 110 127
93 106 122
94 107 124
91 103 119
83 94 109
80 90 104
73 83 96
71 80 93
77 87 100
90 103 119
95 107 122
94 105 121
90 102 119
87 99 114
88 100 116
88 99 115
82 94 108
80 91 104
70 80 93
61 69 81
56 64 74
63 71 82
67 76 89
72 82 94
69 78 90
68 77 89
69 78 90
72 82 95
76 86 100
83 94 108
81 92 107
83 95 111
82 93 108
84 95 110
81 93 108
83 94 109
78 89 103
79 89 103
75 86 100
70 79 91
67 76 88
61 69 79
57 64 74
55 63 73
63 72 83
64 73 84
67 77 89
62 70 81
64 73 84
59 67 77
55 62 71
45 52 60
45 51 59
52 59 68
51 57 66
48 54 63
51 58 67
50 57 66
49 56 65
52 59 68
56 63 74
56 63 73
54 61 71
54 62 72
57 64 74
54 62 72
64 72 83
69 78 90
71 81 95
71 81 94
78 89 104
80 90 104
76 86 100
70 79 91
64 72 84
55 62 72
61 69 80
62 71 82
64 73 84
62 70 81
49 55 63
47 53 61
45 51 59
47 53 61
45 51 59
56 64 74
75 85 98
81 92 106
90 102 118
93 106 122
91 103 119
94 107 124
96 109 126
98 111 128
95 107 123
91 103 119
79 90 104
73 82 95
64 72 84
66 75 87
61 69 79
58 66 76
70 80 93
84 95 110
90 102 118
92 105 121
92 104 120
96 109 126
97 110 128
89 101 117
90 102 118
92 104 121
97 109 126
99 112 129
93 105 122
91 103 119
82 93 107
79 90 104
67 76 88
62 69 79
53 60 70
61 69 80
67 77 89
78 89 103
89 100 116
93 105 121
91 103 119
90 102 118
84 95 110
93 105 122
88 100 115
92 103 118
80 91 106
68 77 89
75 86 99
68 77 89
64 73 84
45 51 58
34 37 42
57 63 70
64 70 79
80 87 97
66 73 81
67 73 82
65 72 80
64 70 79
67 73 82
63 70 78
58 63 71
52 57 65
43 48 54
46 51 57
34 37 42
15 17 19
16 17 20
29 32 36
41 45 50
44 49 55
46 51 57
55 61 69
66 73 82
74 81 91
85 93 104
75 82 92
70 77 87
68 74 84
55 61 68
62 68 76
61 67 76
61 67 75
66 73 82
58 64 72
65 71 80
58 64 72
63 69 78
62 68 76
60 66 75
56 61 68
47 52 59
50 54 61
36 40 45
35 39 44
32 35 39
32 35 40
36 39 44
32 35 39
33 37 42
31 34 39
29 32 36
33 37 41
33 36 41
40 44 49
35 39 44
32 36 40
30 34 38
30 33 36
25 27 30
11 12 13
21 23 26
23 25 28
18 20 23
27 30 33
31 34 38
32 35 39
37 41 46
41 45 51
41 45 50
39 42 47
37 41 46
34 38 42
32 35 40
29 33 37
36 39 44
30 33 37
29 32 36
26 29 32
24 26 30
30 33 37
25 28 31
23 25 29
14 15 17
23 26 29
36 40 45
36 40 44
36 40 45
34 37 42
38 42 47
32 35 39
24 27 30
18 20 23
13 15 17
25 28 32
34 37 42
40 43 48
41 45 51
35 39 44
28 31 34
28 31 35
26 29 32
31 34 38
38 41 46
41 46 51
40 44 49
41 46 52
42 47 53
28 31 35
13 14 16
28 31 35
42 46 52
45 50 56
49 54 60
49 54 61
54 59 67
56 62 70
58 64 72
66 72 81
65 71 80
71 78 88
67 74 83
63 69 78
58 64 72
54 59 67
45 49 55
47 52 59
38 42 47
37 40 45
20 22 25
18 20 22
29 32 36
30 33 37
32 35 39
35 39 44
41 45 51
36 39 44
30 33 37
32 36 40
33 36 41
34 37 41
28 31 35
37 41 46
45 50 56
44 49 55
50 55 62
53 59 67
55 61 69
59 65 73
53 58 65
55 60 68
53 58 66
55 60 68
60 66 74
60 66 74
51 56 62
47 51 58
35 38 43
29 32 36
17 19 22
38 42 46
50 55 62
61 67 75
64 70 79
59 65 73
66 72 81
71 78 87
61 68 77
61 68 76
59 65 73
48 53 59
48 53 59
32 35 40
25 27 31
20 22 25
16 18 20
15 16 18
57 64 73
84 96 110
77 87 100
69 78 90
68 77 89
63 71 82
53 60 69
52 59 69
52 59 68
60 68 78
63 72 83
68 77 89
60 68 79
50 57 66
51 58 67
51 58 67
67 77 89
74 84 97
87 98 114
83 94 108
84 95 110
80 91 105
80 91 106
74 83 96
67 76 88
61 69 79
58 66 77
64 73 84
64 73 85
64 72 83
60 68 79
56 63 73
53 61 71
53 60 69
43 49 56
42 47 54
54 62 72
68 77 89
78 89 103
85 96 110
84 95 110
80 91 104
80 90 103
75 85 98
67 75 87
59 67 77
61 69 80
70 79 91
71 80 92
78 89 102
78 88 102
79 89 103
80 91 105
81 92 107
76 87 101
80 91 105
74 85 99
77 88 102
85 97 112
90 102 118
82 93 108
89 101 116
83 94 108
87 99 115
88 100 115
88 100 115
90 103 119
83 94 109
81 91 105
86 97 113
83 95 111
95 107 124
89 101 117
83 95 110
81 91 105
76 87 101
83 94 109
92 105 121
95 108 125
102 115 133
104 118 137
105 120 138
100 113 131
95 108 125
92 105 121
86 98 113
75 85 99
69 78 90
57 66 77
65 74 85
58 66 76
67 75 87
60 69 79
57 65 75
69 78 90
71 80 92
64 73 84
60 69 79
58 66 76
62 70 81
70 80 93
77 88 102
80 91 105
86 97 112
85 96 111
84 94 108
87 98 113
92 104 120
82 94 109
94 107 124
93 106 122
93 106 123
64 73 84
65 74 86
75 85 98
76 86 100
74 84 98
65 73 85
63 72 83
57 64 73
52 59 68
57 65 75
51 58 67
50 57 66
53 60 70
56 64 74
54 61 70
59 67 78
59 67 77
69 78 90
65 74 85
64 73 84
64 73 84
64 72 84
68 77 89
67 76 88
70 79 91
67 76 88
70 80 92
67 76 89
61 69 80
51 58 67
44 50 57
49 55 64
58 67 77
67 76 87
75 85 97
86 98 113
91 104 120
96 109 126
98 110 127
91 103 119
95 108 125
103 116 134
109 124 144
112 127 147
115 131 152
113 129 149
110 125 145
103 117 135
92 104 120
87 99 114
87 99 115
82 93 108
87 98 113
82 93 108
85 96 111
84 95 109
88 100 115
95 108 125
100 113 131
104 118 137
102 116 134
100 114 132
95 107 124
96 108 125
88 100 116
79 90 104
76 86 100
68 78 90
60 69 80
62 70 81
73 83 96
77 87 100
82 92 106
84 95 110
85 96 111
90 103 119
86 97 112
88 100 115
83 94 109
76 86 100
75 85 99
76 86 99
86 98 113
86 97 112
92 104 120
89 100 115
93 106 122
98 111 128
92 104 120
86 98 113
83 94 108
69 79 91
69 78 90
75 86 99
71 81 93
66 75 87
64 73 85
61 70 81
74 85 98
84 95 109
92 105 121
97 109 126
105 119 137
102 116 134
103 116 134
97 110 127
108 123 143
112 126 145
107 121 139
108 124 143
106 121 140
77 87 101
22 25 28
53 58 65
63 69 77
62 68 77
68 74 83
58 64 72
65 71 80
68 75 84
61 67 76
63 69 77
61 67 75
57 63 71
45 50 56
40 44 49
31 34 38
12 13 15
13 14 16
22 25 28
34 38 42
35 39 44
49 54 60
55 60 67
59 65 73
60 66 75
72 79 89
79 87 98
74 81 91
67 74 84
62 68 77
56 62 69
62 69 77
61 67 76
65 72 81
63 69 77
59 65 73
68 74 82
55 60 67
61 67 75
61 67 75
62 68 77
59 64 71
55 60 67
49 54 61
45 50 56
36 39 45
36 40 45
39 43 48
40 45 50
38 42 47
42 46 52
37 41 45
37 41 46
41 45 50
42 47 52
41 45 50
36 40 45
40 44 49
37 40 46
29 31 35
15 17 19
13 15 16
16 18 20
22 24 27
26 29 33
34 37 42
36 40 45
41 44 50
43 47 53
43 47 52
42 46 51
40 44 49
37 41 46
34 38 42
32 36 40
38 42 47
36 40 45
32 35 40
23 26 29
22 24 27
25 27 31
20 22 25
15 16 19
16 17 19
32 35 39
41 45 51
38 42 47
41 46 52
38 42 47
39 43 49
37 41 46
33 36 40
29 31 35
18 20 22
18 20 23
34 37 42
33 37 42
32 35 40
33 36 41
33 36 40
26 29 33
24 26 29
26 28 32
30 33 37
38 42 47
35 39 43
38 42 47
32 35 39
21 23 26
15 17 19
29 32 36
40 44 50
49 54 60
56 61 67
59 65 73
55 61 68
59 65 72
63 69 77
73 81 91
66 73 82
68 75 83
71 78 88
66 73 82
57 63 71
53 58 65
47 52 58
46 50 56
40 44 49
25 27 31
12 14 15
20 22 25
27 30 34
33 36 41
38 42 47
40 44 50
36 40 45
35 38 43
37 41 46
36 39 45
40 43 48
36 40 45
35 38 43
43 47 53
46 50 56
43 47 53
48 53 59
55 60 68
55 61 69
58 64 72
58 64 72
54 60 67
58 63 71
59 65 73
59 65 73
55 61 68
48 53 59
48 53 60
38 42 48
28 31 35
17 19 21
40 44 50
51 56 63
56 62 70
66 72 81
68 75 84
73 80 89
63 69 77
52 58 65
49 55 62
46 51 58
42 46 51
38 41 46
29 32 36
16 18 20
11 12 14
18 20 22
28 31 35
56 64 73
57 65 76
67 75 87
70 79 91
76 87 100
77 88 102
81 92 106
75 85 98
76 87 100
70 80 92
61 70 81
53 60 69
57 65 75
51 58 67
51 58 67
56 63 73
62 70 81
63 71 82
53 60 70
51 57 66
51 57 66
59 67 78
69 78 90
79 90 104
76 86 99
75 85 99
77 88 102
87 99 114
84 96 111
89 101 116
83 94 109
83 94 108
78 89 102
78 88 102
71 80 92
53 60 69
52 59 69
53 59 68
62 71 82
74 84 97
74 83 96
74 83 96
73 83 96
74 84 97
75 85 98
76 85 98
70 81 94
71 80 92
78 89 102
81 91 105
84 96 111
88 100 116
83 94 108
94 107 124
93 106 123
89 101 117
89 101 117
81 91 105
67 76 88
62 70 81
68 77 88
68 78 90
78 89 104
88 100 116
90 103 119
94 106 123
97 110 127
98 111 127
92 104 120
90 101 116
88 99 114
90 102 118
89 101 117
94 107 123
92 104 120
78 89 103
68 78 90
67 76 88
60 68 79
61 69 80
67 76 88
59 67 78
57 64 75
58 65 75
59 67 77
54 61 70
56 64 74
58 66 77
61 69 80
60 67 78
59 67 77
60 68 79
69 78 90
77 87 101
82 94 109
74 84 98
70 80 92
66 75 87
73 83 96
66 75 87
71 81 93
71 81 93
72 81 94
79 89 103
78 88 101
81 92 106
83 94 109
91 103 120
96 109 126
103 116 134
112 127 146
113 128 148
48 55 63
52 60 69
49 55 63
52 60 69
58 66 76
57 65 75
65 73 85
69 79 92
77 87 101
74 83 96
68 77 89
71 80 92
77 87 100
81 92 106
84 95 110
79 90 104
80 91 105
65 73 84
66 75 87
58 66 76
60 69 79
59 67 78
59 66 77
56 64 75
58 66 76
50 57 65
45 52 60
45 51 59
48 54 63
56 64 73
65 74 86
74 84 98
80 90 104
83 94 109
83 94 110
89 100 115
84 94 109
78 89 103
63 71 83
60 69 80
58 66 76
66 76 88
63 72 84
71 80 93
73 83 96
79 89 103
74 84 97
82 93 108
88 99 114
95 107 124
103 116 134
101 114 132
103 117 135
106 121 140
103 118 138
103 117 136
95 107 124
84 95 110
79 90 103
71 81 93
68 78 90
63 72 83
64 72 84
59 67 78
59 67 77
56 64 73
52 59 69
48 55 63
63 72 83
63 72 83
64 72 83
63 72 83
78 89 103
79 90 103
82 93 107
85 96 111
88 99 114
85 96 111
80 91 105
83 94 108
79 90 104
79 90 103
76 86 100
76 86 100
75 86 99
76 86 100
76 86 100
84 96 110
89 101 116
90 102 119
98 111 128
99 113 130
102 116 134
101 114 132
104 118 137
106 120 139
105 120 139
102 116 134
99 113 131
103 117 135
100 112 129
90 103 120
80 91 105
70 79 91
62 70 81
56 63 73
48 54 62
47 53 61
58 66 76
65 74 86
74 84 96
73 83 96
34 39 45
41 45 50
63 69 78
68 75 84
59 65 74
57 63 71
56 61 68
69 76 85
68 74 83
69 76 85
60 66 74
67 74 83
46 50 57
36 39 44
26 29 32
16 18 20
19 21 23
24 27 30
26 29 33
27 29 33
38 41 46
43 47 53
52 57 64
61 67 75
69 76 85
71 78 87
71 79 90
71 78 88
66 72 81
65 71 80
58 64 71
65 72 81
64 70 78
64 70 79
63 69 77
54 60 67
55 61 68
60 66 74
60 66 74
67 73 82
66 73 82
58 64 72
60 66 73
49 54 61
42 46 51
35 39 44
36 40 45
34 37 42
34 38 43
36 39 44
34 37 42
30 33 37
31 34 38
37 41 46
36 39 44
40 44 49
40 44 49
35 39 43
27 29 33
16 18 20
10 11 12
11 12 14
15 16 18
25 28 31
33 36 41
34 38 42
38 41 47
45 50 55
46 50 57
43 47 52
43 48 54
37 41 46
35 38 43
37 41 46
42 46 52
41 45 51
36 40 44
33 36 40
25 27 30
21 23 26
17 18 21
14 16 18
20 22 24
35 38 43
41 45 50
45 50 56
41 45 51
40 44 50
37 41 46
37 41 45
41 45 51
38 42 47
27 30 34
15 16 18
19 21 24
30 33 37
38 42 47
38 41 46
37 40 45
34 37 41
24 26 30
20 22 25
22 24 27
22 24 27
25 28 31
21 23 26
16 17 20
15 16 19
24 27 30
36 39 44
37 41 47
52 57 65
57 62 69
57 63 71
66 72 81
60 66 74
59 65 75
70 77 87
67 74 83
68 75 84
57 63 71
65 71 80
59 65 74
55 61 69
54 59 67
43 47 53
26 29 33
13 14 16
15 17 19
22 24 27
29 32 35
37 41 46
40 44 49
34 38 42
34 38 43
36 39 44
37 41 46
42 47 53
38 42 47
36 40 45
44 49 55
47 52 59
38 42 48
46 50 57
48 53 59
59 65 73
56 62 70
56 62 69
61 67 75
63 69 77
65 71 80
63 69 77
54 59 66
52 57 64
51 56 63
47 51 58
40 44 49
30 33 38
21 24 26
36 40 45
52 58 65
55 61 69
57 63 70
61 67 76
61 67 76
56 61 69
52 58 65
51 56 63
44 48 54
34 37 42
31 34 38
17 19 22
11 12 13
17 19 21
23 26 29
53 60 69
90 102 117
84 96 111
72 81 94
63 72 83
60 68 78
55 62 72
57 65 75
60 68 79
59 67 77
70 80 92
74 84 97
87 99 115
84 96 111
87 98 112
78 89 103
76 86 100
72 82 94
66 75 86
59 67 77
62 71 82
68 77 90
69 79 91
72 82 96
74 84 97
77 88 102
82 92 106
84 95 110
74 84 97
75 85 98
74 83 95
81 92 106
71 81 93
75 85 98
75 85 99
79 91 105
81 92 107
83 94 108
72 81 93
74 84 97
72 81 94
72 81 94
75 85 99
75 85 98
74 84 97
80 90 104
90 101 117
92 105 121
89 101 117
89 101 116
87 98 114
85 96 112
75 85 98
69 78 90
70 79 92
68 77 90
61 69 81
67 76 88
74 84 97
71 81 93
63 71 82
51 58 67
47 53 62
50 57 66
61 69 80
72 81 94
72 81 94
69 77 89
65 73 85
63 72 84
53 60 70
53 60 70
57 65 74
54 61 70
59 67 77
58 66 77
62 70 81
65 74 85
62 71 82
58 66 76
54 62 71
61 69 80
70 80 92
80 90 104
75 84 97
83 94 108
77 88 102
75 85 98
60 68 78
56 63 73
45 51 59
54 62 71
68 77 89
80 91 106
85 96 112
84 95 110
79 90 104
78 88 102
71 81 94
73 83 96
77 87 101
73 83 95
71 80 92
63 72 83
70 79 90
74 84 97
78 88 102
80 90 104
73 83 96
63 72 83
59 67 78
62 71 82
59 67 77
95 107 124
94 106 122
92 104 120
90 102 118
86 97 113
83 94 108
83 94 109
78 89 103
81 93 107
85 97 112
84 94 108
88 100 115
86 97 112
83 93 107
84 96 111
89 101 117
89 102 118
87 99 115
92 105 122
90 102 117
94 107 124
101 114 132
94 107 124
100 113 130
90 102 118
86 98 113
81 92 106
91 103 119
88 100 115
80 91 105
84 95 110
84 96 111
91 103 119
84 94 109
82 93 107
82 93 108
74 84 97
70 80 92
66 75 86
66 74 86
67 76 88
72 81 94
71 81 94
75 85 98
80 90 105
83 94 108
90 102 118
92 104 119
87 99 114
90 102 117
90 102 118
87 100 116
84 96 111
76 86 100
64 73 85
62 71 81
65 74 85
63 71 83
68 78 90
69 77 89
74 84 97
68 78 90
69 78 91
77 87 101
82 93 108
84 96 111
97 110 127
98 110 127
101 115 133
105 119 137
103 116 134
105 120 139
109 124 143
106 120 139
112 128 148
109 123 142
106 121 140
105 120 139
108 122 142
106 120 139
103 117 135
100 114 133
97 111 128
89 101 116
94 107 123
94 107 123
96 109 125
93 106 122
92 104 121
85 96 111
82 93 107
95 107 124
96 109 126
97 110 127
93 105 121
84 95 110
81 91 106
76 86 100
72 82 94
68 77 89
63 72 83
60 69 80
66 74 86
65 74 85
67 76 88
71 81 93
78 89 103
89 101 116
96 109 126
91 103 119
94 106 122
98 112 129
96 108 124
31 34 39
57 63 70
63 69 77
60 66 74
62 67 75
57 63 70
59 65 73
58 65 73
68 75 85
64 71 79
60 66 75
53 58 65
40 44 49
21 23 26
16 18 20
22 24 27
23 25 28
27 30 33
24 26 29
25 28 32
41 45 51
45 49 55
55 61 68
65 72 81
66 72 82
67 74 84
64 70 78
61 67 75
66 72 81
56 61 69
52 57 64
53 59 66
54 59 67
52 57 64
53 58 65
52 58 65
51 56 63
56 62 70
62 69 77
65 72 82
63 69 77
62 68 77
51 57 64
50 55 61
43 47 52
37 41 46
33 36 40
32 35 40
25 27 31
25 27 31
23 26 29
27 30 34
33 36 41
35 38 42
38 41 47
39 42 47
38 41 46
27 30 34
21 23 25
18 20 22
22 24 27
12 13 15
20 22 25
29 32 36
29 32 36
37 41 46
40 44 50
40 45 50
41 45 51
40 44 50
35 39 44
40 43 49
45 50 56
40 44 49
41 45 51
38 42 47
34 38 42
31 34 38
22 25 28
10 11 12
16 18 20
29 32 36
35 39 43
39 43 49
42 46 52
39 43 48
45 49 55
43 47 53
36 40 45
39 43 48
41 45 51
35 38 43
21 23 26
15 16 18
24 26 29
38 42 47
35 38 43
33 36 41
27 30 33
24 26 29
14 15 17
13 14 16
20 22 25
24 27 30
28 31 35
28 30 34
33 36 41
45 49 55
49 54 60
50 55 62
62 68 76
58 64 71
71 78 87
67 73 81
69 76 85
75 82 92
70 77 87
77 84 94
65 71 79
69 76 85
60 66 74
55 61 68
51 56 62
43 48 54
36 40 44
22 24 27
14 16 18
20 23 25
27 30 33
35 38 43
35 39 44
30 33 37
31 34 38
28 31 35
30 33 38
29 32 36
29 32 36
38 42 48
46 51 57
45 50 56
45 50 56
47 52 58
53 58 65
54 59 66
55 61 69
64 70 78
57 62 70
58 64 72
62 68 76
61 67 75
56 61 69
52 57 64
48 53 60
53 58 65
51 56 63
48 53 59
36 39 44
16 17 20
32 35 39
49 54 60
59 65 73
61 67 75
59 64 72
53 58 66
47 52 59
42 46 52
40 44 49
36 40 45
29 32 36
29 32 36
10 11 13
16 18 20
22 25 28
33 36 41
75 85 97
82 93 107
72 82 95
78 89 102
74 84 97
72 82 95
74 84 98
70 80 92
64 72 84
64 72 83
63 72 83
63 71 82
72 82 95
76 86 100
76 86 100
73 83 97
71 80 92
62 71 82
57 65 76
61 69 80
64 73 85
67 76 88
72 81 93
77 87 100
82 94 109
80 91 106
83 94 109
87 98 113
79 90 104
66 75 87
55 62 72
58 66 76
62 71 81
61 69 80
63 72 83
63 71 82
63 72 83
75 86 99
85 96 111
86 97 112
89 102 118
99 113 130
97 111 128
103 116 134
104 118 136
99 112 130
104 118 136
101 114 132
105 119 137
102 115 133
97 110 128
96 109 126
87 99 114
80 91 105
73 83 96
64 73 85
53 61 71
54 62 71
54 61 70
52 59 69
55 62 72
57 64 74
62 70 81
61 69 80
70 79 91
74 85 98
83 95 110
77 87 101
80 91 106
73 82 95
60 68 78
47 53 62
33 37 43
43 49 57
52 59 68
56 64 74
66 75 86
71 80 93
84 96 111
87 99 115
94 106 123
98 112 130
96 109 125
94 107 124
99 112 129
110 125 144
105 119 138
103 116 134
99 112 130
92 105 121
89 101 117
87 98 113
84 95 110
78 89 103
75 84 97
73 83 96
77 87 101
78 88 102
77 87 100
65 74 85
53 60 69
50 56 65
53 60 69
47 54 63
55 63 73
61 69 80
61 69 80
58 66 77
57 65 75
61 70 80
58 66 76
54 61 71
60 68 78
76 86 99
85 97 112
90 102 117
94 107 124
90 102 119
96 110 127
99 112 130
100 113 131
88 100 115
90 102 117
89 101 117
92 105 121
88 100 116
81 92 107
80 91 105
83 94 109
77 87 101
76 87 100
75 84 96
82 93 108
65 74 86
69 79 91
69 79 92
69 78 89
66 74 86
56 64 74
48 54 62
45 52 60
64 73 85
75 85 98
81 92 106
88 100 115
89 101 118
102 116 133
97 110 127
97 110 127
90 102 118
92 104 120
83 94 109
75 85 99
79 90 104
78 88 102
75 85 99
69 78 90
72 82 95
76 86 99
78 88 102
82 93 107
90 102 117
104 118 136
107 122 141
115 131 151
113 128 148
112 128 148
115 131 151
109 123 142
110 125 144
111 126 146
114 130 150
114 130 150
113 129 149
111 126 146
115 131 152
118 134 154
115 131 152
106 121 140
97 110 128
86 98 114
71 80 93
59 67 77
56 64 74
56 63 73
57 64 75
57 64 75
68 77 89
65 74 85
60 68 79
57 65 75
65 73 84
69 78 90
67 76 88
66 75 87
64 73 84
75 85 97
69 78 91
65 73 85
55 63 73
59 67 77
70 80 92
77 87 101
75 85 98
80 90 104
85 97 112
84 96 111
78 89 103
74 84 97
68 78 90
64 72 83
59 66 76
50 57 66
48 55 63
39 44 51
44 49 57
42 48 56
39 45 52
47 54 62
56 63 72
64 72 83
69 79 92
75 85 98
80 91 106
84 95 109
85 96 111
52 59 67
49 54 61
62 68 76
67 74 83
60 66 74
46 51 57
55 61 69
54 60 67
55 60 68
57 63 70
59 65 74
52 58 64
46 50 56
18 20 22
15 16 18
25 27 30
21 23 26
18 20 22
30 33 37
27 29 33
33 36 41
40 44 49
43 48 54
51 56 63
59 64 72
63 70 78
65 71 80
66 73 82
66 73 82
61 67 75
51 56 62
46 51 58
52 57 64
53 58 66
55 61 69
53 59 65
50 54 61
59 65 72
62 68 75
62 69 78
62 68 77
59 65 72
59 64 72
46 51 58
45 50 56
36 40 45
35 38 43
31 34 39
23 25 28
18 20 23
21 24 27
23 25 29
25 27 30
23 26 29
32 35 40
39 42 47
42 46 52
37 41 47
26 28 31
24 26 30
30 33 38
20 22 25
14 15 17
28 31 35
35 39 44
37 41 46
42 46 52
43 47 53
42 46 51
42 46 52
43 47 53
46 51 57
49 54 61
47 52 59
43 48 54
41 45 51
37 41 46
31 34 39
27 30 34
15 17 19
26 29 32
33 36 41
39 43 48
46 50 57
42 46 52
47 52 58
45 49 55
48 52 59
38 42 47
40 44 50
39 42 47
32 35 39
21 23 26
15 17 19
23 25 28
29 32 36
26 29 32
26 28 32
15 16 19
13 15 17
17 19 21
28 31 34
32 35 39
35 39 44
37 40 45
34 37 42
42 46 51
45 50 56
55 61 68
59 65 73
64 70 79
69 76 85
64 71 79
67 73 82
68 75 85
68 74 83
71 78 87
66 73 83
72 79 89
64 71 79
58 64 72
60 66 74
50 55 61
41 45 50
33 36 41
19 21 23
16 17 20
23 25 29
28 30 34
31 35 39
31 35 39
29 32 36
33 36 41
33 36 40
26 29 33
22 24 27
30 33 37
39 43 48
48 53 60
50 55 62
54 59 67
53 58 65
53 58 66
56 62 69
60 66 74
71 77 87
60 67 76
67 74 83
60 66 74
61 67 75
53 58 65
51 56 62
54 60 67
55 61 69
55 61 68
47 52 59
45 49 55
23 26 29
22 25 28
47 52 58
53 58 65
52 57 64
51 56 62
45 50 56
43 47 53
39 42 48
39 43 48
23 26 29
29 32 36
27 30 34
11 12 13
14 15 17
28 31 34
46 51 58
53 60 69
52 59 69
62 70 81
69 78 90
77 87 100
80 90 104
76 86 100
78 89 103
74 84 97
68 78 91
69 78 90
71 81 94
75 85 98
77 88 101
85 96 110
94 106 123
93 106 123
100 113 130
83 95 110
78 89 102
70 80 92
71 81 94
65 74 86
58 65 75
62 70 81
64 72 84
71 81 93
75 85 98
84 95 110
92 104 120
100 112 128
107 122 141
111 126 146
113 129 149
109 124 143
103 117 136
98 112 129
92 104 119
91 102 117
90 103 119
93 106 122
88 100 115
87 99 114
82 92 107
79 89 102
75 85 99
73 82 95
69 79 92
68 77 89
69 78 91
65 74 85
63 71 82
66 75 87
61 69 80
55 63 74
55 62 72
59 67 78
61 70 80
61 69 80
63 71 82
65 74 85
81 92 107
75 85 98
79 90 104
76 86 99
85 96 110
85 97 112
93 106 123
98 111 128
95 108 125
90 102 118
81 92 106
77 87 100
73 83 96
82 93 107
90 102 119
100 113 131
99 112 129
100 113 131
98 111 128
89 101 117
85 97 112
83 94 110
82 93 107
78 89 102
69 78 90
53 60 70
44 50 58
37 42 49
38 43 49
45 51 59
56 63 72
59 68 79
72 81 94
70 80 93
72 82 94
69 78 90
57 65 75
61 69 80
53 61 70
53 60 69
58 66 75
62 70 81
67 76 88
77 88 102
80 91 105
86 98 113
86 98 114
89 102 118
91 104 120
87 98 113
76 86 99
63 71 83
62 71 83
78 88 102
81 92 106
79 90 104
82 93 108
84 95 109
75 85 99
79 90 104
79 89 103
72 82 95
72 82 95
76 86 100
76 87 100
80 91 105
71 81 94
69 79 91
68 77 90
66 74 86
64 73 84
57 65 76
54 62 71
46 53 61
43 48 56
48 54 62
52 59 69
54 61 71
68 77 89
70 79 91
83 94 108
88 100 116
93 106 123
105 119 138
108 123 142
113 129 150
113 129 149
122 138 160
117 133 154
116 131 151
114 129 150
115 130 151
118 135 157
123 140 162
112 127 146
120 136 157
121 138 159
116 131 151
109 124 143
106 120 139
102 116 135
98 111 128
96 109 126
90 102 118
84 95 110
76 86 99
70 79 91
80 91 105
78 88 101
81 91 106
78 88 101
80 90 104
75 85 99
65 74 86
70 79 91
74 84 97
68 77 89
64 73 85
55 63 72
50 57 65
44 50 58
69 78 90
76 86 99
89 101 117
95 108 124
95 108 124
101 114 132
103 117 135
97 110 126
93 105 121
95 108 125
89 101 117
84 96 111
76 86 100
79 90 104
76 86 100
80 92 106
75 86 100
76 87 100
72 82 94
71 80 92
65 74 85
68 77 89
65 74 85
64 72 83
59 67 77
53 60 69
52 59 69
54 61 71
62 70 81
69 78 91
74 84 96
75 85 99
74 84 97
77 87 100
72 82 95
79 89 103
77 87 101
76 87 100
75 85 98
74 84 96
81 93 108
80 90 104
84 95 110
81 92 107
67 77 89
33 36 40
59 65 73
58 64 72
62 68 76
48 53 59
55 60 67
51 56 63
54 60 67
53 59 67
53 59 66
59 65 73
41 46 51
20 22 25
31 34 38
30 33 38
28 31 35
16 18 20
23 25 28
35 38 43
30 34 38
36 40 45
42 46 52
49 53 60
57 63 71
55 60 68
60 66 74
67 73 81
61 67 75
52 56 63
49 54 60
50 55 62
48 53 59
46 51 57
46 50 56
51 56 63
48 53 59
52 57 63
54 60 67
56 62 69
63 69 77
63 69 77
56 62 70
51 56 63
43 48 53
38 42 47
34 38 42
31 34 39
26 29 32
14 16 18
10 11 12
15 17 19
21 23 26
23 25 28
24 27 30
31 34 38
37 40 46
33 37 41
28 31 35
29 32 36
28 31 35
26 29 32
14 15 17
27 30 33
32 35 40
38 42 47
47 52 58
49 54 61
46 51 57
44 48 54
45 49 55
44 48 53
46 50 57
47 52 58
43 47 53
38 43 48
36 40 45
29 32 37
23 26 29
17 18 21
26 28 31
40 44 49
48 53 59
49 54 60
47 51 57
46 51 57
48 53 59
43 47 53
42 46 52
38 42 47
35 39 43
30 33 37
28 31 35
15 16 18
11 12 14
18 20 23
16 18 20
19 22 24
23 25 28
26 28 32
25 27 31
30 33 37
36 40 45
40 44 49
47 52 58
46 51 57
41 46 51
51 56 63
62 68 76
63 69 78
66 72 81
63 69 77
65 72 81
72 79 88
73 80 90
58 64 73
63 69 78
70 77 87
63 70 79
71 78 88
58 64 72
53 58 65
47 52 58
41 45 50
34 37 41
21 24 26
13 14 16
20 22 25
23 25 28
26 28 32
25 28 31
31 34 38
33 36 41
30 33 37
26 29 33
21 24 27
36 40 45
43 48 53
48 52 59
54 59 67
56 62 70
55 61 69
53 58 65
59 65 74
66 72 81
63 70 79
62 67 76
59 65 73
61 67 75
54 59 66
61 67 75
62 68 76
55 61 68
62 68 77
56 61 69
54 59 66
43 48 54
30 33 38
22 24 27
42 46 52
49 54 61
53 58 65
39 43 48
35 39 44
33 36 40
39 43 48
29 32 36
31 33 37
39 43 48
18 19 22
11 12 14
21 23 25
34 38 43
60 67 77
45 52 60
47 53 62
47 54 62
50 56 65
55 62 71
62 71 82
67 75 87
76 86 99
81 91 105
89 102 118
92 105 122
100 114 132
105 119 137
103 117 135
101 115 133
99 112 129
96 109 126
94 106 122
86 98 113
80 91 104
73 84 97
70 79 91
55 63 73
50 56 65
42 47 55
44 51 59
40 46 53
42 47 55
44 49 57
51 58 67
50 57 65
45 51 59
46 52 60
49 55 63
56 63 73
69 78 90
80 91 105
90 101 117
89 100 116
93 106 122
96 110 127
86 98 113
80 90 104
78 89 102
65 74 85
55 62 72
50 57 66
57 65 74
66 74 86
71 81 93
74 84 97
79 89 103
75 86 99
76 87 101
76 87 100
80 90 104
75 85 97
81 92 106
75 85 98
65 74 85
69 79 91
67 76 87
75 85 98
84 95 110
89 101 118
86 97 113
85 96 111
76 86 99
69 79 91
57 64 74
51 58 68
57 64 74
66 76 88
79 89 103
92 105 121
86 98 113
81 93 107
82 94 109
78 88 102
73 83 95
62 71 82
67 76 88
74 85 98
77 88 102
77 87 101
80 90 104
85 97 112
73 83 96
71 81 93
69 78 90
78 89 102
82 93 107
85 96 112
88 99 114
91 104 120
95 108 124
91 103 119
84 96 110
73 83 95
64 72 84
62 70 81
67 76 88
69 78 90
70 79 91
65 73 85
67 76 88
76 86 99
77 88 102
76 86 99
81 92 106
83 94 108
88 99 114
93 106 122
77 87 100
69 79 91
82 92 106
73 83 96
72 81 94
69 79 91
76 86 99
84 95 109
86 97 112
85 96 111
75 85 98
73 83 97
67 76 87
56 63 73
57 65 75
63 72 83
65 74 85
69 77 89
73 83 96
75 85 99
82 94 109
95 108 124
98 111 129
97 111 129
95 108 125
94 107 123
93 106 123
81 92 107
81 92 107
84 95 110
80 91 105
79 90 105
71 80 93
86 97 112
87 98 114
89 101 117
80 91 106
84 96 111
87 98 113
86 97 112
84 95 109
83 94 109
87 98 113
83 94 109
82 93 107
75 85 99
58 66 77
53 60 69
50 56 65
53 60 69
61 69 80
68 77 88
71 81 93
74 85 98
80 91 105
78 88 101
77 87 100
77 88 102
72 82 94
65 74 86
54 61 71
49 56 65
46 53 61
54 61 71
65 74 85
74 84 97
78 89 103
80 91 105
83 94 108
81 92 106
79 90 104
75 85 99
72 81 94
66 75 87
59 67 78
56 64 74
48 54 63
45 51 60
46 53 61
48 55 63
48 55 63
51 58 68
53 60 69
59 68 79
61 70 81
58 65 76
60 69 80
61 70 81
55 63 73
54 62 71
55 63 73
61 70 81
71 80 93
81 93 107
87 98 113
90 102 118
93 105 122
91 103 120
90 102 118
99 113 130
103 117 136
109 124 143
108 123 143
102 116 134
93 106 123
100 114 131
83 95 110
85 98 114
75 85 98
66 74 86
52 59 68
47 53 61
59 66 77
60 68 78
53 60 69
44 48 54
59 65 72
65 71 80
52 57 65
48 53 59
47 52 59
44 48 54
49 54 60
51 56 63
54 59 67
41 44 50
19 21 24
33 36 41
35 39 43
37 40 45
25 27 31
24 26 29
40 44 49
36 39 44
37 40 45
37 40 45
39 43 48
42 47 53
46 50 57
55 61 68
57 63 70
59 64 72
54 59 66
46 50 56
45 50 56
49 54 61
41 45 51
50 55 61
45 49 56
47 52 58
47 52 59
53 58 66
52 58 65
54 59 66
50 55 62
53 59 66
49 54 61
47 51 58
40 44 49
32 36 40
37 40 45
29 33 37
22 24 27
20 22 25
17 18 21
24 26 29
25 28 32
23 25 28
22 25 28
28 31 34
33 36 41
33 36 41
33 37 41
27 30 33
18 20 23
10 11 12
25 27 31
34 38 42
42 46 51
47 51 58
39 43 49
42 46 51
44 48 54
41 45 50
44 49 54
37 41 46
42 47 53
43 47 53
40 43 49
29 32 36
24 26 29
15 17 19
18 20 23
30 33 37
33 37 41
44 49 55
55 61 69
51 56 64
51 56 62
46 51 57
47 51 58
40 45 50
38 42 47
35 38 42
34 37 41
30 33 37
25 27 30
21 23 26
23 26 29
29 31 35
35 38 43
35 39 43
31 34 38
31 34 39
35 39 44
46 50 56
46 50 56
46 51 57
49 54 61
54 60 67
58 64 72
57 63 71
67 74 83
65 71 80
72 79 88
74 81 92
71 78 88
76 83 93
74 82 92
73 80 90
74 81 91
72 79 89
59 65 73
54 60 66
49 54 60
46 51 57
43 47 53
33 37 42
28 31 35
19 21 23
14 16 18
18 20 22
24 26 30
24 26 30
26 28 31
27 29 33
30 34 38
32 35 39
33 36 41
37 40 46
50 55 61
56 61 68
62 68 76
62 68 76
62 68 76
61 67 75
63 69 78
64 71 79
75 82 92
66 73 81
64 70 78
57 62 70
49 55 62
51 56 63
63 70 78
58 64 71
56 61 68
56 61 69
54 59 67
40 44 50
33 37 41
22 25 28
39 43 48
45 49 56
38 42 47
22 24 27
29 32 36
36 40 45
35 39 43
33 36 40
39 43 49
34 38 43
18 20 22
22 24 27
21 23 26
65 72 83
83 93 107
87 99 114
84 95 111
80 91 105
72 82 94
65 74 86
63 71 82
52 60 69
60 68 78
61 69 80
68 78 90
74 83 96
64 73 84
73 83 96
75 86 99
79 90 104
77 88 101
82 93 107
77 88 102
73 83 97
74 83 96
64 73 85
50 57 66
50 57 66
62 71 82
61 70 81
70 79 92
74 83 96
75 85 98
80 91 104
81 93 108
83 94 108
77 88 102
78 89 103
79 89 102
76 87 101
78 89 103
69 79 91
68 78 90
69 78 90
75 85 99
85 96 110
89 101 117
97 109 126
103 116 135
99 112 130
106 119 137
99 113 131
104 118 137
100 113 130
90 102 118
86 97 112
77 88 102
75 86 100
72 82 94
69 78 90
60 68 79
48 54 62
39 44 51
45 51 59
59 67 77
67 76 88
77 88 101
87 99 115
99 112 128
103 116 134
101 116 134
102 117 135
103 117 136
106 119 138
103 118 137
94 107 124
91 103 120
84 95 109
83 94 109
77 87 100
71 81 95
71 81 93
64 73 84
52 59 68
56 64 74
64 72 84
67 76 87
65 73 85
63 72 83
71 81 94
77 88 101
83 95 110
82 93 108
82 93 107
86 97 112
81 92 106
82 93 107
83 93 107
92 104 120
91 103 119
89 102 119
91 104 120
91 103 119
86 97 111
87 98 114
86 97 112
77 87 100
69 78 91
63 71 82
73 83 95
76 86 99
83 94 109
84 96 111
83 94 109
76 86 99
70 80 92
69 79 91
73 82 95
63 72 84
64 73 84
63 72 83
65 74 85
77 87 101
76 86 100
84 96 111
83 95 110
82 93 107
91 104 120
94 106 122
95 108 125
90 102 117
90 103 119
97 110 127
97 110 127
100 114 132
101 114 132
99 112 130
96 109 126
94 106 123
92 105 122
87 98 113
74 84 97
70 79 91
68 77 89
66 75 87
65 74 86
54 61 71
50 57 66
56 63 73
65 74 85
74 84 96
84 95 109
89 101 116
86 98 113
87 99 114
81 91 104
69 79 91
67 76 87
59 66 76
55 63 72
54 62 72
51 58 67
47 53 61
49 56 65
62 70 81
65 74 86
78 88 101
81 92 107
84 95 111
87 99 115
80 91 106
73 82 95
67 76 88
56 63 73
51 58 67
56 63 72
56 63 73
54 61 71
51 58 66
55 62 72
51 58 67
44 50 58
34 39 45
40 45 52
51 57 66
62 70 81
69 78 90
79 89 102
81 92 106
86 97 112
83 95 109
87 99 115
84 95 109
87 99 115
80 90 104
75 85 99
69 78 91
65 74 85
57 64 75
56 63 73
62 71 82
70 80 92
77 87 100
85 96 112
88 100 116
91 103 118
87 98 113
81 91 105
77 87 100
67 76 88
69 77 89
60 68 79
62 70 82
56 64 74
58 66 76
59 67 78
63 72 83
66 75 87
66 74 86
64 73 84
62 70 80
62 71 82
62 70 81
60 69 80
66 75 86
71 80 93
63 73 85
68 77 89
63 72 83
58 66 76
59 67 78
59 67 78
59 66 76
32 35 39
58 64 72
57 62 69
54 59 66
49 54 62
52 57 63
48 53 60
44 49 55
47 51 57
43 47 53
40 44 50
14 16 18
32 35 40
38 42 47
39 43 49
37 41 46
36 39 44
38 41 46
38 42 48
35 38 43
33 36 40
36 40 44
39 43 48
43 47 52
51 56 63
51 56 63
52 57 64
51 56 63
42 46 51
42 46 51
41 45 51
42 46 51
41 45 50
40 44 50
45 49 55
46 50 56
43 47 53
46 50 56
52 57 64
53 58 65
48 53 59
51 56 62
47 52 58
34 37 42
29 32 36
28 31 35
31 35 39
31 34 38
26 29 33
24 26 29
23 25 28
20 23 25
20 22 24
16 18 20
20 22 25
27 30 34
38 42 47
35 38 43
33 36 40
27 29 33
14 15 17
15 17 19
29 32 36
41 44 50
37 41 46
40 44 49
36 40 45
39 43 49
39 42 47
37 40 45
39 43 48
40 44 49
32 36 40
26 29 33
21 23 26
13 14 16
20 23 25
27 30 33
29 32 36
38 42 47
46 51 57
55 60 66
58 64 72
53 58 65
44 48 55
46 51 57
50 54 61
43 48 54
37 40 46
34 38 42
38 42 47
35 39 43
33 36 41
31 34 39
41 45 51
39 43 48
36 40 45
35 38 43
40 44 49
42 46 52
47 51 58
47 52 59
56 62 69
55 60 68
56 62 69
59 65 73
69 76 85
64 71 79
73 80 90
70 77 87
74 81 91
72 79 89
74 81 91
75 83 93
73 81 91
70 77 86
59 65 73
65 72 81
57 63 71
56 62 70
45 50 57
43 47 53
39 43 49
36 40 45
27 30 34
13 14 16
8 9 10
14 16 18
18 19 22
21 23 26
29 32 36
35 39 43
39 43 48
42 47 52
49 53 60
52 58 65
55 60 67
61 66 74
67 73 81
57 63 71
65 72 81
75 83 93
64 70 78
65 71 80
54 60 68
53 58 65
56 62 70
57 63 70
58 63 71
66 72 81
59 65 73
53 59 67
55 60 68
54 59 66
50 54 61
30 34 38
15 16 18
34 37 41
38 42 47
18 20 23
14 16 18
25 27 30
37 41 46
32 35 40
41 45 50
45 50 56
37 41 47
26 29 32
25 28 31
35 38 43
71 80 93
64 72 84
60 68 79
56 63 73
57 65 75
58 66 77
64 72 84
76 86 99
72 83 96
71 80 93
62 71 82
60 68 79
54 61 71
57 64 74
58 65 76
68 77 89
79 90 103
91 104 121
96 110 127
100 113 130
102 115 133
110 126 145
104 119 138
110 125 144
109 123 141
102 115 132
95 108 124
96 108 124
85 97 112
74 85 98
71 81 93
79 90 103
74 84 97
79 90 104
81 92 106
83 94 109
94 106 123
95 108 125
103 117 135
97 110 127
94 107 125
87 99 114
81 92 107
81 92 106
83 94 109
84 95 110
82 93 108
86 98 113
88 100 116
90 102 117
90 102 118
83 94 108
77 88 102
67 76 89
56 64 74
51 58 67
43 49 57
46 53 61
57 65 75
64 73 84
75 85 98
80 91 105
81 92 106
83 93 107
85 97 113
91 103 120
94 106 123
92 104 120
87 99 114
82 93 107
77 87 100
72 82 94
78 89 102
77 87 101
74 85 98
75 86 99
79 90 105
78 89 103
77 88 102
80 91 105
72 82 94
72 82 95
70 79 91
68 77 88
68 77 89
69 78 91
64 73 84
63 71 83
67 77 89
74 84 97
84 95 110
93 106 123
103 116 133
107 122 141
112 126 146
113 129 148
114 129 149
113 129 150
116 131 151
106 120 138
112 127 147
108 122 141
107 121 140
103 116 134
93 106 122
81 92 106
66 75 87
62 70 81
58 66 76
54 61 71
57 64 74
63 72 83
62 70 81
61 70 81
59 67 78
93 105 121
93 105 121
95 108 124
100 113 131
99 113 131
96 109 126
100 114 132
98 111 128
100 113 131
107 121 141
107 121 139
107 121 140
103 117 135
98 111 129
90 102 117
83 94 108
81 92 106
73 83 96
66 75 87
56 64 73
56 63 73
47 53 62
50 56 65
55 63 72
55 62 72
57 65 75
59 67 78
62 71 81
64 73 84
67 76 87
65 74 85
65 74 86
70 80 93
75 86 99
86 97 112
88 100 116
89 100 116
90 102 119
90 102 117
93 105 122
93 105 121
93 105 122
91 103 119
91 103 119
85 96 111
74 84 96
76 86 99
73 83 95
70 79 91
67 76 88
64 73 84
55 62 72
51 58 67
45 52 60
40 45 52
46 53 61
56 63 73
61 69 80
69 79 90
67 77 89
73 83 95
75 85 97
77 88 101
78 88 102
86 97 113
83 95 110
82 92 106
80 91 104
71 80 92
68 77 90
65 73 84
61 70 80
61 69 80
67 76 87
70 79 91
72 81 92
80 90 103
82 93 107
87 98 113
89 100 116
91 103 119
91 104 120
94 107 124
85 97 112
82 93 108
74 84 98
70 79 91
72 81 94
66 75 86
60 68 78
52 59 68
50 57 66
52 59 68
49 56 65
51 58 67
56 64 75
59 67 78
63 72 82
65 74 85
57 65 75
57 65 75
42 47 54
49 56 65
46 52 60
47 54 62
52 59 68
57 64 74
66 75 86
69 79 92
71 81 94
79 89 103
83 94 109
81 93 107
72 81 94
64 72 83
46 52 59
37 41 46
61 67 75
53 59 66
49 54 61
52 57 63
46 50 56
45 50 56
47 52 58
39 42 48
36 40 44
21 23 26
33 36 40
46 50 55
46 51 57
42 47 52
47 51 57
42 46 51
43 47 52
39 43 48
32 35 40
34 37 42
34 38 43
43 47 52
45 50 56
56 62 69
58 63 71
54 60 67
47 52 58
39 43 48
35 39 43
37 41 46
36 40 45
39 43 48
42 47 52
41 45 51
39 43 48
36 40 45
46 51 57
51 56 63
51 56 63
51 56 62
50 55 62
45 49 55
39 43 48
33 36 40
34 38 43
34 38 43
32 35 40
32 35 40
25 28 31
23 26 29
25 27 31
19 20 23
19 21 24
27 30 34
39 43 48
44 49 55
42 47 52
30 33 37
25 27 31
11 12 14
15 16 19
23 26 29
32 35 40
34 37 41
33 37 42
38 42 47
36 39 44
28 31 34
33 36 40
33 36 40
26 29 32
22 24 27
16 18 20
16 17 19
31 34 38
34 37 41
39 43 48
49 54 60
47 52 58
61 66 74
64 70 79
57 62 70
50 55 62
48 53 60
47 51 58
41 45 51
41 45 50
41 45 50
42 46 52
39 43 48
41 44 49
43 48 54
44 49 55
45 49 55
42 46 52
43 47 52
46 51 57
46 51 57
49 54 61
52 57 64
53 58 66
58 64 72
63 69 77
58 64 72
67 74 83
77 84 94
75 82 92
83 92 103
82 90 101
74 82 92
67 75 85
75 83 93
75 83 93
72 79 89
76 83 94
70 77 87
62 68 76
55 61 68
48 53 60
49 53 60
43 48 53
42 46 52
30 33 38
18 20 23
6 7 8
6 7 8
18 20 22
29 32 35
37 40 45
41 45 51
39 43 49
47 51 58
50 55 62
52 57 64
64 71 80
62 68 76
66 73 83
63 69 77
62 69 78
65 71 81
64 70 78
68 75 84
54 59 67
55 60 67
51 57 64
58 64 71
63 69 77
59 65 73
64 71 80
60 66 74
60 66 74
58 63 71
45 50 56
31 34 38
13 14 16
22 25 27
18 20 22
19 21 24
12 13 15
26 29 33
37 41 46
42 46 51
47 52 58
47 51 58
36 39 44
30 33 37
26 28 32
60 67 78
75 85 99
76 86 100
71 81 94
66 75 86
68 77 90
75 85 99
69 78 90
71 80 92
65 74 86
61 69 80
54 61 70
52 59 68
59 67 77
62 71 82
71 80 93
72 82 95
72 82 95
77 88 102
78 88 102
83 94 109
76 86 100
76 87 100
70 79 92
74 84 97
71 81 94
69 79 91
70 79 91
81 92 106
85 96 112
84 96 110
85 96 111
89 101 117
88 100 116
87 98 113
81 93 107
81 92 107
79 90 104
70 80 92
62 71 82
56 64 75
52 59 68
51 59 68
51 58 68
60 68 78
64 73 84
67 76 88
74 84 97
75 85 98
76 86 99
81 91 105
80 90 103
79 89 103
79 90 103
85 97 112
93 106 123
101 114 132
104 118 136
106 120 138
100 113 131
89 101 116
76 87 100
72 82 95
66 75 86
68 77 90
63 71 82
71 81 94
78 88 102
83 94 108
88 100 115
91 102 117
88 100 116
82 93 107
77 88 102
78 89 102
76 86 99
75 85 98
72 82 94
71 81 94
71 80 92
74 84 97
59 67 77
51 58 67
54 61 71
58 66 77
64 73 84
66 75 87
77 87 100
77 88 102
84 96 112
88 99 115
88 100 116
85 97 112
82 93 108
84 95 110
83 94 109
81 92 107
78 89 103
73 83 95
71 81 93
74 83 96
72 81 94
78 88 102
82 93 108
90 103 119
93 106 122
103 116 134
100 113 131
96 109 126
91 103 119
90 101 117
86 97 112
75 85 98
73 83 96
62 70 81
55 63 72
66 74 86
65 74 86
64 73 84
64 72 83
56 64 75
51 58 67
45 51 59
53 60 69
52 59 68
55 63 73
57 65 75
60 69 80
65 74 85
61 69 80
63 71 82
64 72 83
60 69 80
79 90 103
92 103 118
96 109 126
100 114 132
99 113 131
108 123 142
108 122 141
114 129 149
109 124 144
109 123 142
109 123 142
102 116 135
91 104 121
90 103 119
89 101 116
77 88 102
74 84 97
69 79 91
65 74 86
74 84 97
79 90 104
82 93 107
84 95 109
84 95 109
91 103 119
84 95 110
83 94 109
76 86 99
67 76 89
59 67 78
53 60 70
52 59 68
61 69 80
61 69 80
61 69 79
64 73 84
73 83 96
81 92 106
83 94 108
88 100 115
96 108 125
99 112 129
95 108 125
94 107 123
89 101 117
83 94 109
78 88 102
74 84 98
77 87 100
73 83 95
69 78 90
68 77 89
73 83 96
79 89 103
87 99 114
86 98 113
92 104 121
94 107 125
96 109 127
101 115 133
99 113 130
100 113 131
96 109 127
88 100 116
81 92 107
82 93 107
74 83 96
68 77 89
66 75 87
58 66 77
58 66 77
61 69 80
57 65 75
60 68 78
64 72 84
69 79 92
76 86 99
81 92 106
88 100 116
87 99 114
85 96 112
79 89 103
72 82 95
63 72 83
68 76 88
70 79 91
68 77 89
74 84 97
79 90 103
80 91 105
81 92 107
82 93 107
80 91 105
83 95 110
82 93 108
80 91 105
77 88 101
75 85 98
65 74 86
35 39 45
55 61 68
57 62 69
55 60 67
56 62 69
48 52 59
43 48 54
45 50 56
45 49 55
32 35 40
16 18 20
34 37 42
43 47 53
49 54 61
49 53 60
49 54 60
48 53 59
42 46 52
38 42 47
29 32 36
30 33 37
38 41 46
41 45 51
46 51 57
48 53 60
56 61 68
55 60 68
52 57 65
46 50 57
39 43 48
34 38 42
37 40 45
33 36 40
37 41 46
35 38 43
36 39 44
38 42 47
43 48 54
49 53 60
52 58 65
53 58 65
53 59 66
52 58 65
47 52 58
45 50 56
38 42 47
39 43 49
37 41 46
35 39 44
28 31 36
29 31 35
27 29 33
30 33 37
34 37 42
36 39 44
40 44 49
39 43 48
39 43 48
37 40 45
25 27 30
19 21 24
11 12 13
13 15 16
18 20 23
22 24 27
24 26 30
27 29 33
26 28 32
22 24 27
22 25 28
19 21 24
16 17 19
12 14 15
18 20 22
27 30 33
33 37 41
41 45 51
40 44 50
46 51 57
58 63 71
47 53 59
60 66 74
59 65 73
51 56 63
53 58 65
47 51 58
47 51 57
44 48 54
44 49 54
41 45 51
47 52 58
46 50 56
36 40 45
44 48 54
49 54 61
43 48 53
45 50 56
47 52 58
46 51 57
52 57 64
50 56 62
60 66 73
60 65 72
61 67 75
66 73 82
63 70 79
68 75 85
80 88 98
86 94 105
87 95 107
83 92 104
83 90 101
77 84 95
70 76 86
78 86 96
73 80 89
68 74 84
59 64 72
57 63 71
54 59 66
45 49 56
48 53 59
47 52 58
32 36 40
22 25 28
14 15 17
11 12 13
21 23 26
31 34 39
33 37 42
42 47 53
43 47 53
52 58 65
48 52 59
59 65 73
58 64 73
68 74 83
64 70 78
68 75 84
58 64 72
68 75 84
65 72 80
58 64 72
56 61 69
45 50 56
57 62 70
56 62 69
61 68 77
62 68 77
69 75 84
61 67 75
54 60 68
52 57 64
46 51 57
33 36 41
20 22 25
16 18 20
20 22 24
26 28 32
13 14 16
32 35 39
38 42 47
51 56 63
46 51 57
41 46 51
34 37 41
32 36 40
40 44 50
103 116 134
108 123 142
117 132 152
113 128 148
112 128 148
111 126 147
110 125 144
105 119 137
97 110 127
94 108 125
95 107 124
87 99 115
83 94 109
69 78 90
64 72 84
62 70 81
57 64 74
64 73 84
74 84 97
84 95 109
85 97 113
83 94 109
76 87 101
67 76 88
65 74 86
64 73 84
65 74 86
52 59 68
52 59 68
55 62 72
63 72 83
64 72 84
62 70 81
60 68 79
68 77 89
75 85 98
70 79 92
65 74 86
69 78 90
74 84 97
77 88 102
78 88 102
83 94 109
88 100 116
102 115 133
103 117 135
105 118 136
107 121 139
101 114 131
100 113 131
95 108 126
97 110 127
91 103 119
79 89 103
69 78 90
61 69 79
53 60 70
58 66 76
65 74 85
64 73 85
63 72 84
63 72 83
59 68 79
66 75 86
65 74 85
62 70 81
57 65 74
54 61 71
54 62 71
49 55 64
43 49 56
44 50 58
38 43 49
38 43 49
48 55 63
41 46 54
34 39 45
36 41 48
50 57 65
57 64 75
63 71 82
71 81 93
78 88 102
76 86 99
78 89 103
70 79 91
80 91 105
77 88 102
78 88 102
76 86 100
73 82 94
61 69 80
60 68 78
46 53 61
51 57 66
54 61 70
60 68 78
75 86 99
79 89 104
84 95 109
86 98 113
86 97 112
89 101 117
88 99 115
93 106 123
95 108 124
99 112 129
99 112 129
102 116 134
101 116 134
100 114 132
99 113 131
100 114 131
96 108 125
90 102 118
81 93 108
64 72 83
61 70 81
65 73 85
62 70 81
61 69 80
61 69 80
64 72 84
62 71 81
59 67 78
64 73 84
68 78 90
67 76 88
75 85 98
85 96 111
86 97 113
84 96 111
84 95 110
84 96 111
85 96 111
92 104 121
96 109 126
94 106 123
91 104 120
96 108 125
97 110 127
94 106 123
92 104 120
87 98 113
90 103 119
94 107 124
89 102 118
85 96 111
74 84 97
59 67 78
47 53 62
53 60 70
54 62 71
59 67 78
68 77 89
70 80 92
67 77 89
67 75 86
71 80 92
74 84 97
80 91 105
86 98 113
92 104 120
99 111 127
98 111 128
99 111 128
98 112 130
92 104 120
96 109 125
91 104 120
85 97 112
80 91 105
69 78 89
52 60 69
49 56 65
59 68 78
66 75 86
67 76 88
64 73 84
62 71 82
66 75 87
65 74 86
65 73 85
62 70 81
58 65 75
56 63 73
57 65 75
70 79 91
81 92 106
80 90 104
82 93 108
78 89 103
79 90 104
86 97 112
87 98 113
80 91 106
79 89 104
76 87 101
78 88 102
75 84 97
71 81 93
73 83 96
76 86 99
71 81 94
76 86 99
83 94 109
83 95 109
72 81 93
72 82 94
65 74 85
54 61 70
49 56 65
57 65 75
63 71 82
68 78 90
65 74 85
66 75 87
69 78 89
72 82 95
77 87 101
85 97 112
88 99 115
79 89 103
83 94 109
74 84 97
65 73 83
49 55 63
50 56 65
60 68 78
68 77 89
73 83 96
76 86 99
73 83 96
29 32 36
48 53 59
52 58 65
61 67 75
56 61 69
42 46 51
40 44 49
41 45 51
30 34 38
15 16 18
27 29 33
41 45 50
45 50 56
53 59 66
48 53 60
58 64 71
42 46 52
45 50 56
39 43 49
32 36 40
34 38 43
37 41 46
41 45 51
50 55 62
52 57 63
57 63 71
52 57 64
47 51 57
34 38 42
29 32 36
25 27 30
23 25 29
31 34 39
34 38 42
31 34 38
37 41 46
42 46 51
46 51 57
51 56 63
52 58 65
55 60 68
49 54 61
51 56 62
47 52 59
43 47 53
40 44 50
40 44 49
38 42 47
31 35 39
29 31 35
28 30 34
27 29 33
31 34 38
34 37 42
44 48 54
42 47 53
46 51 57
42 46 52
34 37 42
28 31 35
23 25 28
19 21 24
24 26 29
22 24 27
13 15 17
16 18 20
17 19 21
11 12 14
9 10 12
10 12 13
21 23 26
22 24 27
26 29 33
34 37 41
38 42 47
46 51 57
51 56 62
51 56 62
52 57 64
62 68 76
54 59 66
56 61 68
52 57 63
50 55 61
48 53 60
45 50 56
45 49 55
48 53 59
48 53 59
47 52 58
48 53 60
41 45 51
57 62 70
53 58 66
48 53 59
51 56 63
54 60 67
51 55 62
53 58 65
52 57 64
55 60 68
68 74 83
58 64 72
63 69 77
71 78 87
73 80 90
71 78 87
82 89 100
75 82 92
82 90 102
83 91 101
72 79 88
89 97 108
70 78 88
69 76 86
66 72 81
60 65 73
62 68 76
53 58 66
56 61 68
52 56 63
44 48 54
35 39 44
29 32 36
28 31 35
24 26 29
16 18 20
26 28 32
30 33 37
37 41 46
38 41 47
44 49 54
49 54 61
52 57 64
67 73 82
67 74 82
61 68 76
67 74 83
65 72 81
61 67 75
61 67 75
55 61 69
52 58 65
56 61 68
61 67 76
63 69 78
60 66 74
64 70 79
62 68 77
61 67 75
61 67 75
51 56 63
47 51 57
35 38 43
27 30 34
28 31 35
29 32 36
28 31 34
15 16 18
30 33 37
48 53 59
44 49 55
44 48 54
46 50 56
27 30 34
24 26 29
81 92 106
88 99 114
82 93 107
83 94 109
76 86 100
80 91 105
74 85 98
80 91 104
83 94 109
78 88 102
77 87 101
72 82 96
64 73 85
58 66 76
57 65 75
52 59 69
56 63 73
52 60 69
57 65 74
48 55 64
51 58 67
46 52 60
50 56 64
53 61 70
56 64 74
56 64 74
59 67 78
60 68 78
67 76 87
72 81 94
75 85 98
80 92 106
80 91 106
78 88 102
82 93 107
88 99 114
91 103 119
92 105 122
101 114 132
101 115 133
107 121 140
108 122 140
109 124 143
105 119 138
114 129 150
112 127 147
117 133 154
121 137 157
117 132 152
111 126 146
108 123 142
108 122 141
110 125 144
109 124 143
110 124 144
110 124 144
107 121 140
100 114 131
98 111 128
93 106 123
91 103 119
93 105 122
92 104 120
90 102 117
85 96 111
79 89 103
65 74 86
63 71 81
66 75 87
64 73 84
56 63 73
59 67 77
64 73 84
67 76 88
74 84 98
79 89 103
83 94 109
89 100 116
95 108 124
99 112 129
95 108 125
86 99 115
81 92 106
74 84 98
68 78 90
63 71 82
70 79 92
75 85 98
84 95 110
82 93 107
83 95 109
85 96 112
87 98 113
82 93 108
89 101 117
93 106 123
104 118 137
106 120 138
108 123 142
107 121 139
106 120 138
105 119 137
103 117 135
101 115 133
98 110 127
100 113 131
100 113 130
100 113 131
98 111 128
100 113 130
107 121 140
103 117 134
105 119 138
104 118 136
104 118 136
99 113 130
94 107 124
70 79 92
77 88 101
73 83 96
71 80 93
72 82 95
73 83 96
70 79 91
64 73 85
56 63 73
48 54 62
43 49 57
42 47 55
43 49 57
58 66 76
67 76 87
66 75 87
64 73 85
61 69 80
61 69 79
60 68 79
59 67 78
57 65 75
61 69 79
68 76 88
64 72 83
67 76 88
71 80 92
67 76 88
70 80 92
70 80 93
67 76 89
62 70 81
48 54 63
40 45 53
36 41 48
44 49 57
46 53 61
43 49 56
41 47 54
43 49 57
45 51 59
45 51 58
44 50 57
49 55 64
46 53 61
57 64 74
69 79 91
75 85 99
84 95 109
88 100 115
91 103 118
94 107 124
98 111 128
102 115 133
105 119 138
106 120 139
104 118 137
97 111 129
94 107 123
90 102 118
88 100 116
87 99 115
82 93 108
85 96 111
85 97 112
87 98 113
79 90 104
73 83 96
64 73 84
57 65 75
57 65 75
67 76 88
76 87 101
83 95 110
93 105 121
97 110 126
93 105 122
85 96 112
84 95 110
84 95 110
84 95 110
82 93 107
88 100 116
91 104 121
97 110 128
99 113 130
99 113 130
102 115 133
102 115 133
100 114 132
105 119 138
100 113 130
92 104 121
84 95 110
74 83 96
59 67 78
62 70 81
57 65 75
58 65 75
69 78 91
71 81 94
73 82 95
74 84 98
77 87 101
78 88 102
80 91 106
81 92 106
78 89 103
80 90 104
79 90 104
79 89 103
74 83 97
68 77 90
62 71 82
64 73 84
65 74 85
64 73 84
45 50 57
36 40 45
52 57 63
55 61 69
55 61 68
50 55 61
49 54 61
50 55 61
37 41 46
18 20 23
30 33 36
40 44 49
40 45 50
50 55 62
60 66 74
52 58 65
54 59 67
52 57 64
43 47 53
33 37 41
38 42 47
46 51 57
44 49 55
50 55 61
47 52 58
54 59 66
54 59 66
49 54 61
39 43 47
29 32 36
23 26 29
14 15 17
17 18 21
30 33 37
34 38 43
35 39 44
36 39 44
44 49 55
49 54 60
57 63 71
62 68 76
62 69 77
61 67 75
49 54 61
49 54 60
42 46 52
38 42 47
40 43 48
36 40 44
34 38 42
35 38 42
31 34 39
36 40 45
42 46 52
47 51 58
50 55 61
47 51 57
46 50 56
43 47 53
39 43 49
40 43 48
29 32 36
31 34 39
33 36 41
28 31 35
22 24 28
17 18 20
18 20 22
12 14 15
16 17 20
24 26 30
26 29 32
30 33 38
31 34 38
41 45 50
43 47 53
44 49 54
48 53 60
58 63 71
60 66 73
48 53 60
51 56 63
54 59 67
56 62 69
48 53 60
52 57 64
49 53 59
48 53 59
41 45 52
48 53 59
49 54 60
50 55 62
51 56 62
55 60 67
58 64 71
56 61 68
56 62 69
52 58 65
58 64 72
64 70 79
65 71 79
69 75 84
68 74 83
68 75 84
68 74 83
71 78 87
73 81 91
78 85 96
75 83 93
84 91 102
84 92 102
78 86 97
74 81 91
75 82 92
74 80 90
63 70 78
54 59 67
56 61 68
51 56 63
54 60 67
56 62 69
50 55 62
39 43 48
39 43 49
36 39 44
29 32 36
17 19 21
18 19 22
27 30 33
31 34 38
37 41 45
39 43 48
49 54 60
55 61 68
56 61 69
65 71 80
60 66 75
65 71 80
58 64 71
61 67 76
62 68 76
50 55 62
57 62 70
57 63 72
57 63 71
74 81 92
61 67 75
69 76 85
64 71 80
69 76 86
59 65 73
49 53 60
42 46 52
39 43 49
38 41 47
36 39 44
34 38 43
30 34 38
23 25 28
40 44 50
50 55 61
49 54 60
44 48 54
39 43 48
29 32 36
39 43 49
57 65 75
46 52 60
39 44 50
46 52 61
56 63 73
63 72 83
75 85 98
83 94 108
84 96 111
90 102 118
85 96 111
80 91 105
72 82 95
62 70 81
45 52 60
42 48 55
56 63 73
71 80 93
76 86 99
78 89 103
76 86 100
76 86 99
70 79 91
67 77 89
61 69 80
61 69 80
55 62 72
64 72 84
56 64 73
56 64 74
48 54 63
40 46 53
41 46 53
55 63 73
68 78 90
73 82 95
68 78 90
70 79 92
74 84 97
82 93 107
91 103 118
103 116 134
97 110 127
97 110 127
88 100 115
89 101 117
80 91 105
79 90 104
76 87 100
77 88 101
72 81 94
72 82 94
73 82 95
72 82 95
72 82 94
82 93 107
81 92 106
87 99 115
93 105 121
97 110 127
95 108 125
100 114 131
100 113 131
95 108 125
96 108 125
93 105 121
89 101 117
81 92 106
71 81 93
58 66 77
48 54 63
41 47 54
50 57 66
68 77 89
80 91 104
84 96 111
85 96 111
85 97 112
90 102 118
90 102 118
93 106 122
97 110 127
98 111 128
94 107 124
92 104 120
89 101 116
87 99 114
85 96 111
88 100 116
89 102 119
96 109 126
93 106 122
90 102 118
98 111 128
92 105 122
96 109 126
98 111 128
96 109 126
97 110 128
96 108 125
89 102 118
81 91 105
72 81 94
62 70 81
61 69 80
57 64 74
63 71 82
76 86 99
78 88 101
77 88 101
73 82 95
67 77 89
59 67 77
51 58 66
47 53 61
51 58 67
63 71 81
96 109 126
94 107 124
93 106 122
92 105 121
91 103 118
84 95 110
74 85 98
68 77 90
60 68 78
49 56 65
38 43 50
34 39 45
45 51 59
50 57 65
57 65 75
61 70 81
65 74 86
69 78 90
71 81 95
75 85 99
75 85 99
72 82 95
66 75 86
65 74 86
63 72 83
62 71 81
60 69 79
60 68 79
56 63 73
60 68 78
62 70 80
69 78 91
73 83 96
75 86 100
80 91 105
80 91 105
78 88 102
79 89 103
74 83 96
74 84 97
73 82 95
75 85 99
72 82 95
69 78 90
68 77 89
62 71 82
63 71 82
72 81 94
75 86 100
73 83 95
72 81 93
68 78 90
61 69 80
57 65 75
58 67 77
58 66 76
52 59 68
50 57 65
50 57 65
52 59 67
57 65 74
62 71 82
72 81 94
70 80 93
75 86 99
75 85 99
83 94 108
83 94 109
74 85 98
70 79 91
61 69 80
52 59 68
49 55 63
54 62 72
57 65 75
63 72 83
61 69 79
57 65 75
63 72 83
73 83 95
80 91 106
81 92 107
83 95 110
90 102 118
85 96 112
84 95 110
77 87 100
64 73 85
52 59 68
45 51 58
43 48 56
37 43 49
41 46 54
46 52 60
61 69 80
73 83 97
90 101 117
96 109 125
99 112 129
98 112 130
97 110 127
98 111 129
98 110 127
93 106 122
88 100 116
84 95 109
77 87 101
61 69 80
53 60 70
60 68 79
64 73 84
67 77 89
64 73 84
63 71 82
61 69 80
62 70 81
61 69 79
66 75 86
32 35 40
38 41 46
51 56 62
67 73 82
58 64 72
47 52 58
43 47 52
39 43 48
19 21 24
25 28 31
34 38 42
41 46 51
44 48 54
54 60 68
62 68 77
61 67 75
62 68 77
48 53 59
41 45 51
36 40 45
43 47 53
49 54 60
49 54 60
53 58 65
51 56 62
54 59 66
46 50 56
42 46 51
33 36 40
28 31 35
18 19 22
16 18 20
26 28 32
34 37 42
36 40 45
41 45 51
45 49 56
52 58 65
58 63 71
62 68 76
56 62 70
65 71 80
56 62 70
55 60 67
51 55 62
44 48 54
49 54 61
45 50 56
45 49 54
39 43 49
43 47 52
40 45 50
47 51 58
48 53 59
56 61 68
53 58 64
46 51 57
42 46 51
41 45 51
39 43 48
40 44 49
38 42 47
33 36 41
34 37 41
25 28 31
24 26 29
18 20 23
16 18 20
20 22 25
30 33 37
28 31 35
32 35 40
36 39 44
44 48 54
42 46 52
47 52 58
44 48 54
54 59 66
53 58 65
51 56 62
50 55 62
54 59 66
47 52 59
46 51 57
52 57 64
49 54 61
47 52 58
46 51 57
49 54 61
44 48 54
52 57 64
54 60 67
54 59 66
64 70 78
50 55 63
59 65 73
70 77 86
61 67 76
69 76 85
71 78 88
73 80 90
70 77 87
68 75 85
73 80 90
78 86 96
79 87 97
80 88 99
76 83 93
77 85 95
82 90 100
83 91 102
80 89 100
74 81 90
67 73 82
68 74 83
62 67 75
59 64 71
58 64 72
56 62 69
51 57 64
54 60 67
50 55 62
44 49 55
39 43 48
28 31 36
26 29 32
13 15 16
24 26 29
30 33 36
28 31 35
32 35 40
43 48 53
54 59 66
59 65 73
60 67 75
52 58 66
63 69 77
64 69 77
53 58 65
56 62 70
64 70 79
54 60 67
68 74 83
62 69 77
73 80 90
69 77 87
69 76 85
61 68 77
64 70 79
57 63 71
45 49 56
39 43 48
46 50 56
43 47 53
42 46 52
35 39 44
25 28 31
22 24 27
40 43 49
44 48 54
47 52 59
46 50 56
35 39 44
25 28 32
58 66 76
64 73 84
70 78 90
75 85 98
75 85 99
80 91 105
84 95 110
81 92 106
78 88 102
69 79 91
57 65 74
48 54 63
47 54 62
55 62 72
60 68 78
68 77 89
69 78 90
72 81 94
76 87 101
83 94 108
89 101 116
90 102 118
96 108 125
96 109 126
97 109 126
91 103 119
83 95 110
76 87 100
71 81 94
63 72 83
55 62 71
49 56 65
45 51 59
43 49 56
51 57 66
60 69 79
70 79 91
73 82 94
93 106 122
99 112 129
106 120 139
109 123 143
110 125 145
110 125 144
102 116 134
103 117 135
96 108 124
81 92 107
65 74 85
52 59 68
48 55 63
62 71 82
79 89 103
91 103 119
98 110 127
103 117 136
106 120 138
115 131 152
121 138 160
124 141 162
123 140 161
119 136 157
116 131 151
110 125 144
104 118 137
100 113 131
95 108 125
82 93 107
72 82 95
69 78 91
69 79 91
63 72 83
66 75 87
67 76 88
65 74 86
60 68 79
53 60 69
49 55 64
49 56 64
45 51 58
54 61 70
51 58 67
53 60 69
54 61 71
62 71 82
57 64 74
60 67 78
64 72 84
72 82 94
84 96 111
84 96 111
101 114 131
107 121 140
102 115 132
95 107 124
101 114 132
98 111 128
96 108 124
87 98 113
76 86 99
71 81 94
62 70 81
51 57 66
42 47 55
35 40 47
41 47 55
56 63 73
62 70 81
69 79 91
70 79 92
74 83 96
68 78 90
67 75 87
59 67 77
63 72 83
71 81 93
78 89 103
86 98 113
73 83 96
62 71 82
66 75 87
67 76 88
67 75 87
67 76 87
59 68 79
60 68 79
56 64 74
53 60 69
49 55 64
44 51 59
51 58 67
53 60 69
50 57 66
47 53 61
54 62 71
57 64 74
59 67 78
58 66 77
57 65 75
62 70 81
62 71 82
63 72 83
75 85 98
77 87 101
80 90 105
79 90 104
77 88 101
76 86 99
74 84 97
69 78 90
67 76 89
73 82 95
71 81 94
68 78 90
60 68 79
61 70 81
64 73 84
69 78 90
71 80 93
70 80 92
75 85 99
72 82 95
82 93 108
83 94 109
91 103 118
94 106 123
92 105 121
92 105 121
91 103 120
88 99 114
84 95 110
70 80 93
68 77 89
72 82 94
73 84 97
75 85 98
78 89 103
84 96 111
83 94 109
85 97 112
87 99 114
90 101 116
87 99 115
89 101 116
90 102 117
87 98 114
82 94 109
72 81 94
63 72 83
59 67 77
50 56 64
47 53 61
46 53 61
47 53 62
50 57 66
59 67 78
65 74 86
70 80 92
76 86 100
77 87 102
77 87 101
81 92 106
88 99 115
89 101 117
93 106 122
93 106 122
88 100 115
86 98 113
85 96 111
83 94 110
82 94 109
83 95 110
85 96 110
80 91 105
86 98 113
88 101 117
95 107 124
97 111 128
100 113 131
98 112 129
99 112 129
105 119 138
108 123 142
111 126 146
115 130 150
110 125 145
106 120 139
101 115 133
101 114 132
102 115 133
103 117 136
104 118 136
111 126 145
112 127 146
117 132 151
114 130 150
89 100 116
20 22 25
38 41 46
53 58 65
59 65 73
57 63 70
43 47 53
34 38 43
23 26 29
19 21 23
32 35 39
37 41 46
46 50 56
50 55 62
59 64 72
65 72 80
58 64 72
53 59 66
55 60 67
47 52 58
50 55 61
48 53 59
49 54 62
52 57 64
50 55 61
52 57 64
43 47 53
41 45 51
37 41 46
33 36 40
31 35 39
27 30 34
30 33 37
29 33 37
37 40 45
42 46 52
47 52 58
55 61 68
52 57 64
56 61 69
59 65 73
56 62 70
52 58 65
53 58 66
48 53 60
49 54 61
47 52 58
46 51 57
43 48 54
48 53 60
46 51 57
47 51 58
48 53 60
47 52 58
56 61 69
50 55 62
45 50 56
45 49 55
42 47 52
42 46 52
47 52 58
43 47 53
39 43 48
33 37 41
30 33 37
30 33 37
25 28 31
23 26 29
25 27 31
33 37 41
32 35 40
37 40 45
43 48 53
39 44 49
46 51 57
47 52 58
49 54 60
54 60 67
48 53 59
52 57 63
47 52 58
44 48 54
41 46 52
52 57 63
50 55 61
46 51 58
55 60 67
52 57 64
51 56 63
51 56 63
48 53 59
48 53 59
60 65 73
60 66 73
61 66 75
65 71 80
63 69 78
62 69 78
70 77 87
63 69 78
63 69 78
77 85 95
68 74 83
72 79 88
78 85 96
82 91 102
74 81 92
77 84 95
72 79 89
83 91 103
77 85 95
78 86 97
78 86 96
75 82 92
67 74 83
61 67 76
53 58 65
56 62 69
50 56 63
52 57 65
51 56 63
48 53 60
47 52 59
42 46 51
36 40 45
27 30 34
16 18 20
10 11 12
21 23 25
26 29 32
28 31 35
39 42 48
46 51 57
46 50 57
55 60 67
52 57 64
55 60 68
51 57 64
60 65 73
66 72 81
58 64 72
61 68 76
60 66 74
69 75 84
72 79 88
62 69 78
67 73 82
70 77 87
60 66 74
51 56 63
52 57 64
43 47 53
48 53 59
43 48 54
40 44 50
35 39 44
24 27 30
24 26 30
35 38 43
37 40 45
46 50 56
38 42 47
27 30 34
75 86 99
79 90 104
68 76 88
53 60 70
45 51 59
42 48 55
51 58 66
58 66 76
72 81 94
77 88 102
87 100 115
96 109 126
102 116 134
103 117 136
103 117 136
97 110 128
95 108 125
90 101 117
85 97 112
85 97 112
84 95 110
84 95 110
83 95 110
81 92 107
77 88 101
73 83 96
70 80 92
69 78 91
78 88 101
82 93 108
84 96 111
82 93 108
90 103 119
97 109 126
92 104 120
97 110 127
96 109 127
94 107 124
95 108 125
96 109 125
95 109 126
95 108 124
92 105 121
85 96 111
75 85 98
64 73 84
55 63 73
53 60 70
49 55 64
56 64 74
64 72 83
71 81 93
80 91 106
85 97 112
88 100 116
91 103 119
92 105 122
97 111 128
103 117 135
104 118 137
108 122 140
109 124 144
109 123 143
103 117 136
93 105 122
87 99 114
83 93 107
78 89 102
75 85 98
73 83 95
81 92 106
77 87 100
71 81 94
65 73 85
68 77 89
68 77 89
65 73 85
60 68 79
57 64 75
56 64 74
52 59 68
47 54 62
57 64 74
66 75 87
74 84 98
80 91 105
90 102 118
91 104 120
96 109 126
91 103 120
95 107 124
103 117 135
105 120 138
114 129 149
120 137 158
126 142 164
129 145 167
128 145 167
127 144 166
124 141 163
121 137 159
118 134 154
111 126 146
100 114 131
88 100 116
75 86 99
72 82 95
63 72 84
48 54 63
38 43 49
46 52 60
56 63 73
62 71 82
68 77 89
70 80 92
73 82 95
77 87 101
82 93 107
84 95 110
60 68 79
63 72 83
61 69 80
60 68 79
67 76 88
66 74 86
63 72 82
61 69 80
62 71 82
60 68 78
60 68 79
62 71 82
69 78 90
69 78 90
70 80 93
82 92 105
83 95 110
87 98 114
87 99 114
88 100 116
84 95 110
83 94 109
75 85 98
72 82 95
71 81 93
71 80 92
68 78 90
61 69 80
63 71 82
63 72 83
59 67 78
59 67 77
59 66 77
56 64 73
53 60 70
50 57 66
52 59 68
48 54 63
41 46 53
45 51 59
61 69 80
67 77 89
69 79 91
68 77 90
64 73 85
62 71 82
53 60 70
60 68 79
70 80 93
80 90 104
85 96 111
80 91 106
81 92 106
78 88 101
79 89 103
82 93 107
86 98 113
86 98 113
87 98 112
86 97 112
80 90 104
78 87 100
69 78 91
60 69 80
52 59 68
51 58 66
45 51 60
46 53 62
49 56 65
42 48 55
50 57 66
53 61 70
57 65 74
55 63 73
47 54 62
36 41 47
33 38 43
34 39 45
49 55 63
63 72 83
72 81 93
71 81 94
73 83 96
82 93 107
90 103 119
92 105 121
92 104 120
100 113 130
96 109 126
94 107 124
88 100 116
84 96 111
84 96 111
84 95 110
80 91 105
82 93 107
83 94 108
83 94 109
89 101 117
87 99 115
85 96 111
87 99 115
94 106 123
87 99 114
89 100 115
90 102 118
91 104 120
98 111 128
98 111 129
101 114 131
101 115 133
103 117 135
93 106 123
99 113 131
95 108 125
98 112 130
104 119 138
95 109 126
102 116 134
37 42 49
25 27 30
41 45 50
50 55 61
60 66 74
39 43 49
37 41 46
27 30 34
17 19 21
34 37 41
34 37 42
39 43 48
51 56 62
63 69 78
62 68 77
67 73 81
64 71 80
55 61 68
55 61 69
54 59 66
51 56 62
56 61 68
39 44 50
50 55 63
44 48 54
44 48 54
46 50 56
35 38 43
35 38 43
37 41 45
40 43 48
36 40 45
34 37 42
42 47 52
41 45 50
43 48 54
52 57 64
53 58 65
57 63 70
61 67 75
66 72 80
56 61 69
61 67 75
52 58 65
61 67 74
57 63 71
53 58 65
50 56 63
53 58 65
54 59 66
52 57 64
54 59 66
47 52 58
48 52 59
52 58 65
43 47 53
44 48 53
37 41 46
44 48 54
49 54 61
49 54 61
48 53 60
42 46 51
41 46 51
35 38 43
31 34 38
25 28 31
25 28 31
26 28 32
35 38 43
42 46 51
41 45 51
43 48 54
44 49 54
49 54 61
50 55 61
47 52 58
45 49 55
43 48 54
43 47 53
46 51 57
44 48 54
57 63 70
48 53 59
47 52 58
51 56 63
51 56 63
51 56 63
44 48 54
48 53 59
55 60 67
60 66 75
61 67 75
55 61 69
68 75 84
75 82 91
71 77 86
76 83 93
76 83 93
66 72 81
68 75 85
69 76 85
80 88 99
78 86 96
81 89 100
79 87 98
86 94 105
80 88 99
89 98 110
82 90 101
71 78 89
77 85 95
70 77 86
70 77 86
59 65 73
60 66 74
58 65 73
61 67 75
54 60 67
55 60 68
50 55 62
50 55 62
41 46 52
38 42 46
30 33 37
23 25 28
9 10 11
16 17 19
20 22 25
27 30 33
34 37 42
44 49 55
52 57 64
50 55 61
55 60 67
52 57 64
60 66 74
58 64 72
58 64 72
64 71 80
66 73 81
63 70 79
69 76 85
70 77 87
65 72 81
70 77 86
66 72 81
65 71 80
53 58 66
52 57 63
56 61 69
51 56 63
41 45 51
45 49 55
35 39 44
20 23 25
25 28 31
31 34 38
40 44 50
48 53 59
39 42 48
43 48 55
82 92 106
78 88 102
71 81 94
73 83 95
68 77 88
62 70 81
59 67 78
56 64 74
53 61 71
64 73 84
67 76 88
75 84 98
68 77 89
68 77 89
64 73 85
58 66 76
60 68 79
63 70 81
73 83 95
77 87 100
75 85 98
80 91 106
75 85 99
77 87 101
74 84 97
74 84 97
72 82 95
74 83 96
81 92 106
89 101 116
91 103 120
89 102 118
86 98 113
87 99 114
78 88 102
84 95 109
83 95 110
90 102 119
91 104 120
93 106 122
89 101 117
87 99 114
82 94 109
78 89 103
81 92 106
80 90 104
77 88 102
77 88 102
78 89 103
72 82 95
74 83 96
72 82 94
71 81 95
75 85 98
74 84 98
79 89 104
79 89 102
77 87 100
65 74 86
64 72 83
60 68 79
50 57 66
55 63 73
67 76 88
76 86 100
76 86 100
83 94 109
87 98 113
85 96 111
83 94 108
82 93 107
76 86 99
75 84 97
69 78 90
69 79 91
65 73 85
63 72 84
59 67 79
55 62 72
54 62 71
53 61 70
46 53 61
48 54 62
55 62 72
57 64 74
61 70 81
62 71 82
63 72 84
69 78 91
79 91 105
79 89 103
82 94 108
84 95 110
91 103 120
81 93 107
78 88 102
79 89 102
68 78 90
76 86 99
79 90 104
78 88 101
71 81 94
69 79 91
65 74 85
46 52 60
31 35 40
40 46 53
54 61 70
64 73 84
70 80 93
75 85 99
71 80 92
61 69 80
53 59 69
49 56 65
46 52 60
44 50 58
33 38 43
35 39 45
82 93 108
75 85 97
61 70 81
53 60 70
46 52 60
42 48 56
52 60 69
54 62 71
58 65 75
47 53 62
41 47 54
45 51 60
48 54 62
54 61 70
56 64 74
62 71 82
65 74 86
71 81 93
74 84 97
80 90 104
86 98 113
87 98 114
84 95 110
76 86 99
71 81 94
68 77 89
69 78 90
71 81 93
72 82 95
71 81 94
70 80 92
74 84 97
80 90 105
81 92 106
78 89 103
74 84 97
68 77 89
62 70 81
60 68 78
49 56 65
45 51 59
44 50 58
51 59 68
64 73 84
70 80 92
77 88 101
83 94 108
83 94 109
79 89 103
77 87 101
76 86 99
77 88 102
76 87 101
85 96 110
85 96 111
86 98 113
88 100 115
75 85 97
67 76 88
63 72 83
60 68 78
47 53 61
42 48 56
42 47 55
43 48 56
45 51 59
42 47 55
48 54 63
56 64 74
63 71 82
63 72 83
63 72 83
63 71 82
65 73 85
64 73 85
66 75 87
65 74 86
71 81 93
76 86 100
72 82 95
74 84 96
70 79 91
70 79 92
71 80 92
68 77 89
64 73 85
61 69 80
57 64 74
53 61 71
55 62 72
50 56 65
47 54 62
41 47 54
47 53 61
50 57 66
50 56 65
50 57 65
51 58 67
52 59 69
44 50 58
51 58 67
56 63 73
64 72 83
68 77 89
67 77 89
68 77 89
64 73 84
59 67 78
64 73 84
64 72 83
62 71 82
54 61 70
45 52 60
34 39 45
36 40 47
36 40 47
32 37 43
34 39 45
44 50 57
49 55 63
19 21 24
24 26 30
31 34 38
47 52 58
55 60 68
40 44 49
25 28 31
13 14 16
24 27 30
37 41 46
38 42 47
42 46 51
54 59 66
60 66 74
62 68 76
67 73 82
65 72 80
50 56 63
58 63 71
51 56 63
50 54 61
52 57 64
47 52 58
47 52 58
46 51 57
47 52 59
45 49 55
48 53 59
41 46 51
44 49 54
41 46 51
42 46 52
42 46 52
46 50 56
44 48 53
57 62 69
48 53 59
63 69 78
66 73 82
66 72 81
64 70 79
68 75 84
62 69 78
65 71 80
65 71 80
61 67 76
57 64 72
64 71 79
52 57 65
58 63 71
49 54 61
60 65 73
58 63 71
50 55 62
54 59 66
50 55 61
49 53 59
47 52 58
48 53 60
53 58 64
53 58 65
46 51 57
45 49 55
40 44 49
30 33 36
26 28 32
31 34 38
35 38 43
40 44 49
36 39 44
39 43 48
41 45 51
40 44 50
48 53 59
51 57 64
48 53 59
46 51 57
43 47 52
40 43 48
44 48 53
42 46 52
43 47 52
45 49 56
48 53 59
48 52 59
55 61 68
54 60 67
49 54 60
56 61 68
54 60 67
62 67 75
60 67 75
61 67 76
63 70 78
69 76 85
76 83 93
77 85 95
70 77 87
85 92 103
72 79 89
66 73 83
81 89 100
85 93 105
84 92 104
83 92 103
81 89 99
75 83 93
85 92 103
80 88 100
82 90 101
72 78 88
71 78 87
65 71 81
62 68 76
60 66 74
62 68 76
63 69 77
54 59 65
54 59 66
51 56 63
50 55 61
42 46 52
36 39 44
32 35 40
19 21 23
10 11 13
9 10 11
11 12 13
20 22 25
34 37 42
42 46 52
43 47 52
52 57 63
55 61 68
54 59 67
54 60 67
59 65 74
60 66 74
67 73 82
69 76 85
60 66 74
65 71 80
72 79 88
72 80 89
69 76 86
65 71 80
63 69 78
51 56 62
53 59 66
52 57 64
46 51 57
35 39 45
38 42 47
26 29 32
14 15 17
24 26 29
37 41 46
46 51 57
46 51 57
42 47 53
65 74 86
68 77 88
60 69 79
58 66 76
50 57 66
44 49 56
35 40 46
46 53 61
53 61 70
60 69 80
70 79 92
71 81 93
71 80 93
69 78 90
71 80 93
78 88 101
88 99 114
84 95 110
88 99 115
82 93 107
78 88 101
77 87 101
78 89 103
73 83 96
67 76 88
64 73 84
62 70 80
75 86 100
87 100 115
96 110 128
103 117 135
104 119 137
107 122 140
104 118 136
103 116 134
96 109 126
90 102 118
82 94 109
75 85 98
66 75 87
57 65 75
62 71 81
71 80 92
75 85 98
77 87 101
84 95 109
91 103 119
81 92 106
81 91 105
77 88 102
76 86 100
80 91 105
81 92 106
82 94 108
85 96 112
85 96 111
81 92 107
74 83 96
64 73 84
58 66 76
47 53 61
42 48 55
34 39 46
34 38 44
45 51 60
57 65 75
60 68 78
59 67 77
59 67 77
53 60 70
46 52 61
49 56 64
56 64 73
52 59 68
57 65 75
62 70 81
65 74 86
63 71 82
61 69 80
63 71 83
67 76 88
62 71 82
56 63 73
51 58 68
43 48 56
42 47 55
56 64 74
59 67 77
60 68 79
69 79 92
80 90 104
87 99 115
84 96 111
76 87 101
75 84 97
69 79 91
59 67 77
45 51 59
46 53 61
55 63 72
62 70 80
64 73 84
69 79 92
74 84 97
75 85 98
69 78 90
58 65 76
56 63 73
61 69 80
54 61 70
57 65 74
57 64 74
52 59 68
52 60 69
49 55 64
50 57 66
51 58 67
56 64 74
55 62 72
60 67 78
58 65 75
54 61 70
57 64 74
59 67 77
62 70 81
65 73 85
68 78 90
75 86 99
81 92 106
82 94 108
84 96 111
78 89 103
79 90 104
82 93 108
77 88 101
77 88 103
73 83 96
68 76 88
60 68 78
46 53 62
31 36 42
40 45 52
53 61 70
60 68 78
60 68 79
57 65 75
55 63 72
55 62 72
58 66 76
62 70 81
64 73 84
71 81 94
78 89 103
81 92 107
82 93 107
76 87 100
73 83 95
63 72 83
57 65 75
49 56 65
42 48 55
41 46 53
46 52 61
50 56 65
45 51 59
46 52 60
50 57 66
48 55 64
42 47 54
38 43 50
35 39 45
50 57 66
58 67 77
63 72 83
68 77 89
63 72 83
60 68 79
58 66 76
59 66 77
62 70 81
59 67 77
59 66 76
56 64 74
50 57 66
46 52 60
34 38 44
32 36 42
36 40 46
44 50 57
48 54 62
46 52 61
50 57 66
60 68 79
60 68 78
60 69 80
65 74 85
65 74 85
72 82 94
69 78 90
74 85 98
70 79 92
61 69 80
52 59 68
49 56 64
54 61 71
64 73 84
75 85 97
82 94 108
90 103 119
93 106 123
96 109 127
102 115 134
102 115 132
101 114 132
99 112 129
95 108 124
95 108 125
86 98 113
87 99 114
80 91 105
70 79 92
65 74 85
65 73 85
66 75 87
68 77 89
70 80 92
64 73 84
63 72 83
59 67 77
54 62 72
48 54 62
35 40 47
32 37 42
46 52 60
59 67 77
71 80 93
77 87 101
85 96 112
88 100 115
88 100 116
68 77 88
14 15 17
20 22 25
35 39 43
47 51 57
47 52 59
36 39 44
15 16 18
25 28 31
31 34 39
39 43 49
40 44 49
45 49 55
48 52 59
60 66 74
65 71 80
64 70 78
59 65 72
48 53 59
54 60 67
48 54 60
47 52 58
49 53 60
42 46 51
49 54 61
43 47 53
46 51 57
50 55 61
44 49 55
46 51 57
45 49 55
40 44 50
42 47 52
42 46 52
51 56 63
49 54 61
56 62 70
57 63 71
66 72 81
60 66 74
57 63 71
64 70 79
66 73 82
70 77 86
60 66 74
68 75 84
72 79 88
74 82 91
66 72 81
73 81 90
67 74 82
57 62 69
55 61 68
60 66 74
51 56 63
52 57 64
49 55 62
45 50 57
52 57 64
54 59 67
51 56 63
55 60 67
40 44 50
45 49 55
39 43 48
33 36 41
37 41 45
38 42 47
38 42 47
40 44 49
40 44 50
42 46 52
41 45 50
43 48 54
52 57 64
46 50 57
49 53 60
41 46 51
45 49 55
38 42 48
44 48 54
37 41 46
41 45 51
51 56 63
47 51 58
53 59 66
53 59 66
63 70 78
58 64 73
74 80 90
61 67 75
72 80 89
64 71 80
66 73 82
65 71 80
67 74 82
76 83 92
73 80 90
76 83 93
68 75 85
80 88 99
84 91 102
93 102 114
85 93 104
87 96 107
88 96 108
89 98 109
84 93 104
82 90 101
78 86 96
88 96 108
69 75 84
73 80 90
57 63 72
71 78 88
59 65 73
60 66 74
55 60 67
51 56 64
49 54 61
45 50 56
41 45 51
35 39 43
30 33 37
19 20 23
15 17 19
17 19 21
19 21 23
14 15 17
23 26 29
36 39 44
37 41 46
48 53 60
54 59 66
65 71 79
66 73 82
68 74 83
61 68 77
63 69 78
67 74 83
65 71 79
63 70 78
70 76 86
65 71 80
71 78 87
66 73 82
54 59 67
55 60 68
48 53 59
56 61 68
44 49 55
32 35 39
21 24 27
17 19 21
12 14 15
31 35 39
44 48 54
49 54 60
45 50 56
67 76 88
76 86 100
68 77 89
63 72 83
55 62 71
48 54 62
44 50 58
38 43 50
43 49 57
53 60 69
56 63 73
65 74 86
71 81 94
85 96 111
90 103 120
100 113 131
103 117 135
107 121 140
105 119 137
106 120 139
101 115 133
100 114 131
93 105 121
77 88 102
71 81 93
58 66 77
47 54 62
40 46 53
52 59 68
65 73 84
69 78 91
72 82 95
80 90 104
78 88 102
76 87 100
70 80 92
69 78 90
69 78 90
63 71 82
57 64 75
50 56 64
54 62 71
52 59 68
46 52 60
43 49 57
48 54 63
51 57 66
50 57 65
48 54 63
49 56 64
48 54 62
60 68 79
62 71 82
70 79 91
77 88 102
89 100 116
95 107 124
104 117 135
105 119 138
105 120 139
103 117 136
102 115 133
99 113 130
99 112 129
101 114 132
106 121 140
113 128 147
111 126 145
107 121 139
101 114 131
96 109 126
90 101 116
74 84 97
65 74 85
55 62 72
49 55 64
53 60 70
53 60 69
50 56 65
51 58 67
53 60 69
57 65 75
55 62 71
56 63 73
55 63 73
55 63 73
63 72 83
70 79 91
68 78 91
78 89 103
78 88 102
77 88 101
72 81 93
73 83 96
69 79 91
65 73 84
57 65 75
49 56 65
50 57 66
62 70 81
67 77 89
71 80 93
75 85 98
70 79 92
77 86 99
74 84 98
73 84 97
79 89 103
76 86 100
78 88 102
74 84 97
71 80 93
66 76 88
68 77 89
66 74 86
65 74 85
71 81 93
71 80 93
76 87 101
78 89 103
78 89 103
44 50 58
47 54 63
45 51 59
43 49 56
44 51 59
53 60 70
54 61 71
62 71 83
61 70 81
62 71 82
68 77 88
69 78 90
68 78 91
72 81 94
73 83 96
65 74 85
56 63 73
53 61 70
52 59 67
55 62 72
58 66 77
62 71 82
68 78 90
67 76 88
74 84 97
82 93 108
90 102 118
99 112 130
106 120 138
108 122 142
112 127 147
112 127 147
108 122 141
106 120 139
99 112 129
91 103 119
81 92 107
72 82 94
63 71 82
49 55 64
37 42 49
28 32 37
31 35 41
31 35 41
34 38 44
36 41 47
41 47 54
45 52 60
49 55 63
49 55 64
49 56 65
51 57 66
46 52 61
42 47 55
39 45 52
34 39 45
39 44 51
44 50 58
46 52 60
49 55 64
48 54 63
51 58 67
49 55 64
50 57 66
58 66 76
64 72 83
67 76 88
69 78 90
75 85 98
75 86 99
79 90 104
80 91 106
77 88 101
75 85 98
71 81 93
53 60 69
52 59 69
49 55 64
47 53 61
51 58 67
51 58 68
53 60 69
57 65 75
56 64 74
57 64 75
57 65 75
53 60 69
51 58 67
44 50 58
45 52 60
46 53 61
46 52 60
36 41 47
38 44 51
41 47 54
52 59 68
58 66 76
59 67 78
67 76 88
72 81 94
76 86 100
81 92 106
85 96 111
86 97 112
83 95 110
82 93 108
77 87 101
71 81 94
64 72 84
59 66 77
57 65 76
50 57 66
39 45 52
27 30 35
35 40 46
51 58 66
62 70 81
67 76 88
72 82 95
76 87 101
73 83 96
39 44 51
16 18 20
22 24 27
35 39 43
45 49 55
37 41 46
20 22 25
28 31 35
33 36 41
34 37 42
36 40 45
45 49 55
49 54 60
47 52 58
49 55 62
57 62 70
58 64 72
54 59 66
48 53 60
41 45 50
45 49 56
39 43 48
40 44 49
42 45 51
36 40 45
40 44 49
43 48 53
51 56 63
45 50 56
43 47 53
44 48 54
41 45 51
43 48 54
46 51 58
51 56 63
53 58 64
57 63 71
50 55 62
58 63 71
61 67 76
67 74 82
72 79 89
75 82 93
68 75 84
68 75 85
70 77 85
65 72 81
67 74 83
66 73 82
64 71 79
61 68 76
60 66 74
56 61 68
52 57 64
51 56 63
52 57 64
52 57 64
50 55 62
44 49 55
52 57 64
52 57 64
55 60 67
49 54 61
43 48 53
37 41 46
37 41 47
46 51 56
47 52 58
45 49 56
43 48 54
45 49 55
47 52 59
49 54 61
55 60 68
46 51 57
43 47 53
44 48 54
43 47 53
41 45 51
43 47 53
44 48 54
45 49 55
47 52 58
56 61 68
56 61 69
52 57 64
58 64 71
63 70 79
68 74 82
71 77 86
58 64 72
65 72 81
61 67 75
62 68 76
69 76 85
71 78 88
68 75 84
79 87 97
82 91 101
88 96 107
96 106 119
84 92 103
82 90 102
78 86 97
85 93 104
77 84 94
75 82 93
77 84 94
81 88 99
76 84 94
72 79 88
70 77 86
63 69 77
66 72 80
53 59 67
63 69 78
59 65 73
56 62 69
46 51 58
51 57 64
43 48 54
40 44 49
33 36 41
26 29 32
21 23 26
23 25 29
26 29 32
16 18 20
17 19 22
27 30 33
40 44 49
49 53 59
61 67 75
61 67 75
60 66 74
62 68 77
68 74 83
60 67 76
69 76 85
68 75 84
67 73 82
67 74 84
64 70 79
69 76 86
61 67 75
58 64 72
48 53 59
49 54 60
50 55 61
38 41 46
25 28 31
17 18 21
9 9 11
24 26 30
36 40 45
44 48 54
47 52 58
52 58 67
73 83 96
69 79 91
68 77 89
65 74 86
52 59 69
44 50 58
41 47 54
43 49 56
58 66 76
73 83 96
82 94 108
86 97 112
87 100 115
94 106 123
97 110 127
97 110 127
97 111 128
97 110 127
92 105 122
86 98 113
80 91 105
70 80 93
60 68 78
48 54 62
39 45 51
48 55 63
64 72 83
73 83 96
78 89 103
76 87 100
74 84 97
73 84 97
67 77 89
68 77 89
67 76 88
69 79 91
74 84 97
70 79 92
72 81 94
66 75 86
67 76 88
60 68 79
47 53 62
35 40 47
40 45 52
45 52 60
46 52 60
41 47 54
44 50 59
48 54 63
54 61 70
50 57 66
48 55 64
53 60 70
51 58 67
55 62 72
64 72 83
67 76 87
71 81 93
77 86 99
83 95 110
89 100 116
92 105 122
98 111 129
108 122 141
114 129 149
119 134 154
117 132 152
116 132 153
117 132 153
112 126 146
105 119 138
98 110 127
91 104 119
83 94 109
80 91 105
71 80 93
61 69 80
55 63 73
50 56 65
37 42 49
39 44 50
41 46 53
42 47 55
50 56 65
53 60 70
53 60 69
56 63 73
52 59 68
47 54 62
49 56 64
42 48 56
48 54 63
62 70 81
61 69 80
62 71 82
54 61 71
53 60 69
50 57 66
52 59 68
50 57 66
44 50 58
40 45 53
41 47 54
54 61 70
58 66 76
66 76 87
71 81 93
72 81 93
77 87 100
81 92 107
85 97 112
91 103 118
101 114 132
104 119 138
105 120 139
111 126 146
108 124 144
111 126 146
107 122 141
99 112 130
74 85 98
76 87 101
81 91 106
80 91 105
85 96 111
84 96 111
84 95 110
84 95 110
86 97 113
91 102 118
88 100 116
91 103 119
90 102 118
89 100 115
79 90 104
73 83 95
66 75 87
61 69 80
57 65 76
51 58 66
58 66 76
60 68 80
65 74 85
63 72 84
62 70 82
57 65 75
63 71 82
65 73 85
71 81 93
74 83 96
70 79 91
71 80 92
66 74 86
68 76 88
71 81 93
73 83 96
70 80 92
72 82 94
67 77 90
56 63 73
38 43 50
27 31 36
26 29 34
32 37 43
38 44 51
43 49 56
52 60 69
60 68 79
63 72 84
70 79 92
77 87 101
73 82 95
72 82 94
68 78 91
65 74 86
65 74 85
67 76 88
67 76 88
73 83 96
90 102 118
91 103 119
97 110 126
99 112 130
95 108 125
93 106 122
94 107 124
94 107 124
87 99 114
88 99 114
81 92 107
80 91 105
79 90 104
75 84 97
65 74 85
63 71 82
56 63 72
55 62 71
50 57 66
48 54 63
45 52 60
44 51 59
43 49 56
48 55 64
53 60 69
50 56 65
38 43 50
36 41 47
33 37 43
37 42 48
37 42 48
50 56 65
54 61 70
53 61 70
59 67 78
63 72 84
66 75 87
65 74 86
63 72 83
58 66 76
61 70 81
65 74 86
70 79 92
77 87 101
80 91 105
75 85 98
68 77 89
60 68 78
63 72 83
54 61 71
52 59 68
57 65 75
56 64 73
53 60 70
47 54 62
53 61 70
57 64 74
54 61 71
53 59 68
59 67 77
52 59 69
46 52 61
46 52 60
27 30 34
18 20 23
20 23 25
33 37 41
41 45 50
31 34 38
19 20 23
28 31 35
34 37 42
39 43 49
39 43 48
34 37 42
37 42 47
38 42 47
49 53 60
42 47 52
42 47 53
45 50 56
35 39 43
32 35 39
29 32 36
27 30 33
35 39 43
43 47 52
39 44 49
36 40 44
47 51 57
45 49 55
45 49 54
44 48 54
49 53 60
51 55 62
46 51 57
44 48 54
51 56 63
50 55 62
46 50 57
55 61 68
62 68 76
61 67 75
60 66 74
60 65 73
68 75 84
70 77 86
65 72 80
69 76 86
71 77 87
67 73 82
61 67 75
58 64 71
58 64 72
56 61 69
52 57 64
53 58 65
50 55 61
55 60 66
52 57 65
49 54 61
44 49 55
48 53 59
51 57 64
50 55 62
45 49 55
47 51 57
46 51 57
45 50 56
48 53 59
53 58 64
49 54 60
46 51 57
48 53 59
53 59 66
51 56 63
53 59 66
54 60 67
49 54 61
49 54 61
46 51 57
51 56 62
49 54 60
55 61 68
49 54 61
49 54 60
53 58 65
50 55 62
63 69 77
65 72 80
59 65 73
70 77 86
67 73 83
65 71 81
64 70 79
80 87 97
72 79 88
70 77 86
80 89 100
76 84 95
86 94 106
93 102 114
93 102 114
96 105 118
91 100 112
81 90 101
86 94 105
81 89 99
84 93 105
78 86 97
78 86 97
75 82 92
72 79 89
65 72 81
72 79 88
65 71 80
68 75 84
67 73 81
64 70 79
60 66 74
51 56 63
53 59 66
51 56 63
48 52 59
45 50 55
39 43 48
34 37 42
33 37 41
30 34 38
15 16 18
16 17 20
24 27 31
43 47 53
52 57 63
59 65 73
53 59 66
63 69 77
62 68 77
72 79 88
67 74 83
68 75 84
66 73 82
73 81 90
65 72 80
72 79 88
68 75 84
61 67 75
53 58 65
52 57 64
53 58 65
47 52 58
28 31 35
19 21 23
12 14 16
21 23 26
33 36 40
44 49 55
51 56 63
55 62 70
98 111 129
110 125 144
119 135 155
122 138 160
128 145 168
133 151 175
135 154 178
139 157 182
135 153 177
135 154 179
130 148 172
124 141 163
123 139 161
123 139 161
115 131 151
110 124 144
97 110 127
85 97 112
69 78 90
49 55 64
43 49 56
54 61 71
61 69 80
68 78 91
79 89 104
85 97 112
91 104 120
90 102 118
86 98 114
86 98 113
84 96 110
81 92 106
80 90 104
76 87 100
72 82 95
63 71 82
53 60 69
45 51 59
38 43 49
34 39 45
36 41 47
36 41 47
40 45 52
50 56 64
52 59 68
56 63 73
61 69 80
62 70 80
60 68 79
61 70 81
63 72 83
55 62 72
50 56 65
56 64 73
70 79 91
75 84 97
82 93 107
85 97 112
85 96 112
86 99 114
91 103 119
87 99 115
88 100 116
93 106 122
99 112 129
103 117 135
101 114 132
99 113 130
104 118 136
101 114 132
103 116 135
105 118 136
107 121 140
105 120 139
105 119 138
98 112 130
97 111 129
96 109 127
91 103 119
88 99 115
84 95 110
79 89 104
77 87 100
70 79 90
68 77 88
61 70 81
47 54 62
46 51 59
59 67 78
64 72 83
77 87 101
86 98 113
87 99 115
83 94 109
79 89 103
73 83 96
65 73 85
54 61 70
51 58 67
42 48 56
41 47 54
39 44 51
38 43 50
52 59 68
66 75 87
77 87 101
84 96 111
90 102 117
91 103 120
90 103 119
90 103 120
81 92 107
74 84 97
65 74 85
61 70 81
55 62 72
64 72 83
75 85 98
76 86 99
83 94 109
93 105 121
101 115 133
63 72 83
62 71 82
62 71 82
67 76 88
68 77 89
70 80 92
64 72 83
62 71 82
59 66 77
60 68 79
63 72 83
67 76 87
78 89 103
79 90 104
89 101 117
92 105 121
97 110 127
98 111 129
104 118 136
105 119 137
104 118 136
96 109 126
95 108 124
91 103 120
82 93 108
77 88 101
82 93 108
79 90 105
76 87 101
74 83 96
73 83 96
77 87 100
77 87 100
73 83 96
72 82 95
78 88 102
74 84 97
74 84 98
67 76 88
59 67 77
52 59 68
49 56 65
54 61 71
63 71 82
61 70 81
65 73 85
61 69 79
49 56 65
42 47 54
48 54 63
63 71 83
71 81 93
71 80 92
66 75 86
73 82 95
79 90 104
79 90 104
85 96 111
86 98 113
96 109 127
101 114 132
107 122 141
110 125 144
108 123 143
111 126 145
111 127 148
97 111 128
101 116 134
101 116 134
106 121 139
100 114 133
98 111 128
91 104 121
88 100 116
82 93 108
75 85 98
76 86 100
76 87 100
77 88 102
80 91 105
82 94 109
83 94 109
78 88 102
73 83 96
67 77 89
66 75 87
62 71 82
62 71 82
56 64 74
53 61 70
57 64 74
56 63 73
53 61 70
47 53 61
59 67 78
59 67 77
65 73 84
69 79 92
71 80 92
73 82 95
75 85 98
72 82 95
69 78 91
65 74 86
69 78 90
65 73 85
60 68 78
51 57 66
44 50 58
42 48 55
46 52 60
50 56 65
53 61 70
58 66 77
55 63 73
53 60 69
55 62 72
58 65 75
58 65 76
57 65 75
58 66 77
56 64 74
48 55 63
28 31 35
19 21 23
21 23 26
30 33 38
36 40 45
24 26 29
23 25 28
30 33 38
35 38 42
37 41 46
28 31 35
27 30 34
31 34 38
36 40 44
38 42 47
43 47 52
37 41 46
31 34 38
20 22 25
13 14 16
19 21 23
27 30 34
31 34 38
37 40 45
32 35 39
31 34 38
40 44 49
44 49 55
43 48 53
47 52 58
47 52 58
43 47 53
40 44 50
40 45 50
45 49 55
46 50 56
52 57 64
59 65 72
57 63 71
58 64 72
64 71 79
63 70 78
60 66 74
71 78 87
65 72 80
64 70 79
68 75 84
55 61 69
63 69 77
56 62 69
58 63 71
51 56 64
47 51 58
53 58 65
46 50 56
45 50 56
44 49 55
47 52 59
45 50 56
54 59 66
49 54 60
47 52 58
44 49 55
45 49 55
54 60 67
53 58 65
51 56 63
49 54 61
53 59 66
55 60 67
52 57 64
53 58 66
53 58 65
59 64 72
58 63 71
62 68 76
56 61 69
58 64 72
55 60 67
59 64 71
53 58 66
55 61 68
53 58 65
55 60 68
65 71 79
61 68 76
71 78 88
73 79 88
60 67 76
66 73 82
68 75 84
67 74 83
70 77 86
75 83 92
72 80 90
70 78 88
84 92 103
80 88 98
92 101 114
78 86 96
89 97 108
80 89 99
83 92 103
81 89 100
73 80 89
58 65 73
71 78 88
66 72 81
72 79 88
68 75 84
66 73 83
73 80 90
65 71 80
63 69 78
62 68 76
60 66 74
60 66 74
54 59 67
48 53 60
47 52 58
41 45 50
38 42 47
42 46 52
42 46 52
32 35 39
16 17 19
17 19 21
37 40 45
48 53 59
54 60 67
54 59 67
62 67 75
70 76 85
70 76 86
69 77 87
67 74 84
70 77 86
68 74 83
70 77 87
72 80 89
74 81 91
72 79 88
54 60 67
58 64 72
47 52 58
50 54 61
36 40 46
26 28 32
17 19 21
17 19 22
23 25 28
34 37 42
42 46 51
40 44 50
67 75 87
68 78 90
67 76 87
70 80 93
74 84 97
75 85 97
74 84 97
77 88 102
88 100 115
96 108 125
97 110 127
106 120 138
103 117 136
105 119 137
103 116 134
92 104 121
85 96 112
74 84 97
64 73 85
52 60 70
49 56 65
38 43 50
41 47 54
41 46 53
43 49 57
53 60 69
54 62 72
60 68 79
58 67 77
64 72 83
76 86 100
75 85 98
68 78 90
66 75 86
67 76 88
71 81 94
72 82 94
71 81 93
73 83 96
67 76 88
63 72 83
62 70 81
54 62 71
51 58 67
49 56 65
47 53 61
52 59 68
60 68 78
61 69 80
64 72 83
64 73 85
66 76 88
60 68 79
57 66 76
64 73 84
64 73 85
64 73 84
65 74 85
71 80 93
80 90 104
78 88 102
78 89 103
74 83 96
76 86 100
76 86 100
71 81 95
71 81 93
71 81 94
82 93 107
83 94 110
78 88 101
76 86 99
75 84 97
71 81 93
66 75 87
57 65 75
39 44 51
26 29 34
34 39 45
44 50 58
45 51 59
40 45 52
35 40 46
39 45 51
40 46 53
32 36 41
29 33 38
23 26 30
21 24 28
24 28 32
28 31 36
37 42 49
51 58 67
59 67 78
58 66 76
58 65 75
53 61 70
47 53 61
57 65 75
58 66 76
60 68 78
56 64 73
54 61 71
51 57 66
63 71 82
74 84 98
82 93 107
85 97 113
86 98 113
87 99 115
85 97 111
80 92 106
75 85 99
70 79 91
73 83 96
72 82 95
70 80 92
66 75 87
66 75 86
64 73 84
61 69 79
50 56 65
50 57 66
100 114 132
95 108 125
88 99 114
79 89 103
68 78 90
56 64 74
46 52 60
56 63 73
59 67 78
64 73 85
65 74 85
64 73 83
63 72 84
64 72 83
75 85 98
82 93 108
82 93 108
87 99 115
91 104 120
92 105 121
82 92 107
84 95 111
81 92 106
73 83 96
71 80 92
68 77 89
65 74 85
62 71 82
57 66 76
51 58 67
55 63 73
62 70 81
66 75 87
75 85 99
82 94 109
83 94 108
81 92 106
78 88 101
72 81 94
72 82 95
67 76 88
62 70 81
54 61 70
47 54 62
50 57 66
43 49 56
45 52 60
57 65 75
66 75 87
76 85 98
80 90 103
81 92 107
79 90 104
73 83 96
70 80 92
72 82 96
69 79 91
59 67 78
62 70 81
50 56 65
42 47 55
38 43 49
39 44 51
38 43 50
30 34 39
29 33 38
39 45 52
43 49 57
45 52 60
49 56 64
55 62 72
56 64 74
62 70 81
68 78 90
74 84 97
80 91 105
82 93 108
77 87 101
75 85 98
70 80 92
67 76 87
63 71 82
65 74 85
70 79 92
76 86 99
79 90 104
77 88 102
73 84 97
71 81 93
67 76 87
58 66 77
52 59 68
46 52 61
51 57 66
48 55 64
45 50 58
37 43 49
44 50 59
49 56 64
57 65 76
57 65 76
57 64 74
50 57 65
45 51 58
35 40 47
29 33 38
41 47 54
48 54 62
47 54 62
51 58 67
46 53 61
43 49 56
42 48 56
41 46 53
38 43 50
40 45 53
45 51 58
46 52 60
49 55 64
51 58 67
48 54 63
49 56 65
45 52 60
39 44 51
23 26 29
16 18 20
24 26 30
30 32 36
30 32 36
16 18 20
27 30 34
29 32 35
36 39 44
28 31 35
22 24 27
24 26 29
25 28 32
35 38 43
39 43 48
39 43 48
34 38 42
17 19 22
15 17 19
19 21 23
19 21 24
25 27 31
27 30 34
29 32 36
30 33 37
29 32 37
36 40 45
41 45 51
38 42 47
47 52 58
41 45 50
33 36 40
32 35 40
38 42 47
39 43 47
46 50 57
51 56 63
54 59 66
51 56 63
53 59 66
59 64 72
57 63 71
63 69 78
63 69 78
70 76 85
56 62 70
61 67 76
55 60 67
57 62 70
49 54 61
55 61 68
51 56 62
52 57 63
51 56 63
49 54 60
45 49 55
46 51 57
49 54 60
43 48 53
45 50 56
52 57 63
50 55 61
58 64 71
61 67 74
53 58 65
57 63 70
55 60 67
58 64 72
55 60 68
57 63 70
56 62 70
66 72 81
59 65 73
67 74 82
65 71 79
68 74 83
67 74 83
47 52 59
56 62 69
57 63 71
52 57 64
55 61 68
57 63 71
63 69 77
65 71 80
63 69 78
66 73 82
63 70 78
61 67 74
65 72 81
71 78 87
72 79 88
69 75 84
70 76 85
77 85 95
76 84 94
80 88 99
91 100 112
74 81 92
81 89 100
83 92 103
85 93 104
83 91 102
76 83 94
77 85 95
74 81 91
75 82 92
63 69 78
69 76 85
66 73 82
68 75 85
65 72 81
61 67 74
66 72 81
63 69 77
51 57 65
51 57 64
52 57 64
43 48 54
40 44 49
43 48 54
41 45 51
38 42 47
35 38 43
15 17 19
26 29 33
37 40 45
51 56 62
56 62 70
57 63 71
58 64 72
64 70 80
63 70 79
73 80 89
72 79 89
68 75 84
65 71 80
67 73 82
69 77 87
71 78 88
62 68 77
61 67 75
56 61 69
48 53 59
42 46 52
30 33 37
16 17 20
17 18 20
10 11 12
22 24 27
39 43 49
39 42 47
75 85 98
85 97 112
80 91 105
83 94 109
90 103 119
95 108 125
102 115 134
108 122 141
106 120 138
102 116 135
101 115 133
94 107 124
93 105 121
100 113 131
102 116 134
94 107 124
91 103 120
93 106 122
87 99 115
76 86 100
71 81 93
65 74 85
56 64 74
51 58 67
42 47 55
34 39 46
36 41 48
48 54 63
57 64 74
64 73 84
69 78 90
69 78 91
71 80 93
68 78 90
65 74 86
68 77 89
75 84 97
75 85 99
76 87 100
79 90 104
81 93 108
87 99 114
88 99 114
89 101 117
95 108 125
96 109 125
99 112 130
98 111 129
103 117 134
98 112 129
95 108 125
93 105 122
96 109 126
97 110 128
95 109 126
99 112 130
100 114 132
99 113 131
98 112 129
88 100 115
83 94 109
74 84 97
65 73 85
50 57 66
42 47 55
42 47 55
43 49 56
49 55 64
60 68 79
66 75 87
77 87 100
81 92 105
78 89 103
79 90 105
70 80 93
67 76 88
57 64 75
49 56 64
51 57 66
58 66 76
62 70 81
67 76 88
69 79 91
72 82 95
75 85 98
73 84 97
70 80 92
73 83 96
70 79 92
69 79 92
69 77 89
65 74 86
68 77 89
58 66 76
49 56 65
34 38 44
36 40 47
44 50 58
51 58 67
53 60 69
54 62 71
55 63 73
53 60 70
48 55 63
55 62 72
57 65 76
62 70 81
61 69 80
57 66 76
58 66 76
55 62 72
56 64 75
52 59 69
49 56 65
48 54 63
48 55 64
47 53 61
37 42 49
31 35 40
32 36 42
39 45 52
42 48 55
44 50 57
45 51 59
81 91 105
84 95 110
86 98 114
85 97 112
77 87 101
69 79 91
61 70 80
54 62 72
50 57 66
51 58 67
49 56 66
53 60 70
50 57 65
58 66 75
65 74 85
70 80 92
81 92 106
84 95 109
82 93 107
83 94 108
89 101 117
90 103 119
97 111 128
98 112 130
104 118 136
106 120 139
108 122 140
103 116 135
104 118 137
102 115 134
102 115 133
103 117 135
105 119 137
106 120 139
108 122 141
107 122 141
105 120 139
107 122 141
107 122 141
106 120 139
103 116 134
95 108 125
88 100 115
77 88 102
67 76 88
57 65 75
54 61 71
56 63 73
66 74 86
65 74 86
60 67 78
48 54 63
36 41 48
34 38 44
40 46 53
39 44 51
40 46 54
37 41 48
35 40 46
32 36 42
39 44 51
58 66 76
62 70 81
79 90 103
81 91 105
82 93 107
86 98 114
79 89 103
79 89 103
71 81 93
67 77 89
58 66 77
52 59 68
50 57 66
44 50 58
50 56 65
59 67 77
66 75 86
73 82 95
71 81 94
73 83 96
71 81 94
68 77 89
67 76 89
74 84 98
79 90 104
81 92 106
81 92 106
83 94 108
72 82 95
68 76 88
61 69 80
58 66 76
49 56 65
40 46 53
27 30 35
34 39 46
38 43 50
41 46 53
50 57 65
57 65 76
66 75 87
69 79 91
67 77 89
65 75 87
67 77 89
73 84 97
74 84 97
81 92 106
89 102 118
97 111 129
97 110 126
101 115 133
99 112 129
100 113 131
93 107 125
91 103 119
86 98 114
82 93 107
79 90 104
76 85 98
67 76 88
64 73 84
66 75 86
60 68 78
19 21 24
16 18 20
13 15 17
17 19 21
12 14 16
21 24 27
26 28 32
27 30 34
32 36 40
27 29 33
12 13 14
15 17 19
19 21 24
28 30 34
34 37 42
37 40 45
26 29 32
16 17 19
27 30 34
22 24 27
15 17 19
17 19 22
24 27 30
31 34 38
33 37 41
31 35 39
37 41 45
39 43 48
36 40 45
35 39 44
27 30 34
33 36 41
33 36 41
31 34 39
44 48 54
48 52 59
49 54 61
50 55 61
53 58 65
52 57 64
54 59 67
52 58 65
58 64 72
59 64 72
59 65 72
60 66 73
57 63 71
60 65 73
45 50 56
50 55 61
46 50 57
44 49 55
49 53 60
46 51 58
46 51 57
48 52 59
45 50 56
46 50 56
48 52 58
49 54 60
53 59 66
54 59 65
56 61 68
61 66 74
58 64 72
59 65 72
53 58 65
63 69 78
58 64 72
64 70 78
62 69 77
66 73 82
64 70 79
63 69 78
65 72 80
57 62 70
56 62 70
57 63 71
57 63 71
55 60 67
53 59 66
56 61 68
60 66 73
67 73 82
63 69 77
66 72 81
62 68 76
69 76 85
72 79 88
65 72 80
73 80 90
72 79 88
75 83 93
69 75 84
68 75 84
83 91 102
88 97 108
85 94 105
80 88 99
86 94 105
77 85 95
82 91 102
88 97 108
75 82 92
75 82 92
76 83 94
64 70 79
68 75 85
68 75 84
67 74 83
63 70 79
62 69 77
62 68 76
60 66 73
50 55 62
54 59 66
51 56 63
45 50 56
43 48 54
42 46 52
45 49 56
45 49 55
34 37 42
14 15 17
28 31 35
41 45 51
44 48 54
52 57 64
56 62 69
70 77 86
63 70 78
72 79 89
65 71 80
68 74 83
72 79 88
64 71 80
62 68 76
67 74 83
62 69 78
65 71 80
48 53 60
50 55 62
44 48 54
37 41 45
25 27 31
15 17 19
21 23 25
16 18 20
25 28 31
35 39 43
85 97 112
113 128 149
112 127 146
108 123 142
109 125 144
109 123 142
114 130 151
118 135 156
125 142 164
126 143 165
123 140 162
121 137 158
118 134 154
116 131 151
112 128 148
114 128 148
110 125 145
110 124 143
105 120 139
98 111 128
86 97 112
72 82 94
57 65 75
38 43 49
26 29 34
28 32 37
31 36 41
38 43 50
48 54 63
53 60 70
56 63 73
53 60 70
45 51 60
51 59 68
54 61 70
50 57 66
44 50 58
46 53 61
55 62 72
58 66 76
63 72 83
67 75 87
71 81 95
75 86 100
81 92 107
83 94 109
91 102 117
103 116 134
108 123 142
110 124 144
102 115 132
104 118 137
111 126 145
110 124 143
105 120 139
103 117 135
95 107 123
82 93 108
79 90 105
70 79 92
59 67 78
49 56 65
44 50 58
44 49 57
44 50 57
46 53 61
57 65 75
64 73 84
69 79 91
68 78 90
80 90 104
82 93 108
75 85 99
74 83 95
69 79 91
69 78 89
55 62 72
43 49 57
49 56 65
63 71 82
68 77 90
73 83 97
79 89 103
76 87 100
77 87 101
79 90 104
84 96 111
84 95 110
83 94 108
79 90 104
75 84 97
75 85 99
74 84 97
73 83 96
68 78 91
69 78 91
70 80 92
69 78 91
68 78 91
70 79 92
80 91 105
79 90 104
83 94 108
76 87 100
77 88 102
81 92 106
80 92 107
82 93 108
85 97 113
95 108 125
100 115 133
106 120 140
118 134 155
117 133 153
118 134 154
113 128 147
104 119 137
102 116 134
96 109 126
96 110 127
95 108 125
99 112 129
101 115 133
101 115 134
110 125 145
43 49 57
41 46 54
49 56 64
53 60 69
51 57 66
39 45 51
39 44 51
39 44 51
41 47 54
48 54 62
51 58 67
48 55 63
51 58 67
53 60 69
57 65 75
65 73 85
67 75 87
76 87 100
78 88 102
81 92 106
83 94 108
81 92 107
87 98 113
88 100 115
94 106 123
96 109 126
100 113 131
107 122 140
114 129 149
122 138 160
127 144 166
132 150 174
132 149 172
131 149 172
131 150 174
125 142 164
121 138 160
121 137 159
120 136 158
117 133 153
116 132 153
114 130 150
111 125 144
101 114 131
89 101 117
80 90 104
71 81 93
71 81 93
69 79 91
70 80 92
71 81 94
70 80 93
71 81 94
64 73 84
54 61 71
43 49 57
40 46 53
55 62 71
63 72 83
73 84 97
79 90 104
86 98 113
88 100 116
91 103 119
96 109 125
100 114 131
98 111 128
104 119 138
103 117 136
102 116 134
103 117 135
105 119 137
107 122 141
108 123 142
111 125 145
111 127 147
117 132 152
115 131 152
120 137 158
123 140 163
126 143 165
122 138 160
121 137 158
118 134 154
109 123 143
102 116 134
93 105 121
87 99 115
82 93 108
77 87 100
71 80 93
67 76 87
64 73 84
65 73 85
64 73 85
66 75 87
73 83 96
79 89 103
83 94 109
82 94 109
76 87 101
72 82 94
68 77 90
74 84 97
77 88 101
80 91 105
87 99 115
91 104 120
91 103 119
91 103 119
88 99 114
86 97 112
81 92 106
77 87 100
81 92 106
92 105 121
99 113 130
103 116 135
104 117 136
109 124 143
106 120 139
105 118 137
108 122 140
108 123 141
106 120 138
48 55 63
9 10 12
22 24 27
23 26 29
13 15 16
17 19 22
27 30 34
26 29 33
33 36 40
31 34 38
16 17 20
8 9 10
11 12 14
20 22 25
31 34 38
30 33 37
31 33 37
17 18 20
27 30 33
34 37 41
26 29 33
13 14 16
12 13 15
27 29 33
31 34 38
31 34 38
31 34 38
38 42 47
31 34 38
30 33 37
30 33 38
35 38 43
29 32 36
29 31 35
37 41 46
43 47 53
44 48 54
49 54 60
51 56 63
54 59 66
61 67 75
53 59 66
61 67 75
66 72 80
68 75 84
59 65 74
64 71 79
53 59 66
56 61 69
55 61 68
50 55 62
47 51 58
47 51 57
47 52 58
36 40 46
42 46 52
46 50 56
39 43 49
44 49 56
46 51 58
48 53 60
48 53 59
51 56 63
50 56 63
57 62 70
62 68 75
57 63 70
51 57 65
67 74 83
61 67 75
64 70 79
69 76 85
65 72 80
58 64 72
61 67 75
65 72 80
62 68 76
51 56 64
61 67 75
49 54 61
59 65 73
53 59 66
66 72 81
54 59 67
61 67 75
67 73 82
57 63 72
61 67 75
67 74 83
62 69 77
76 83 93
75 82 92
75 82 92
74 81 90
70 77 85
79 87 97
76 83 93
78 85 96
69 77 86
84 92 103
88 96 107
86 95 106
77 85 94
75 83 93
79 87 97
63 70 78
68 75 84
64 71 80
63 69 78
64 71 79
61 67 75
61 67 75
60 66 74
55 60 67
51 56 63
53 59 66
56 61 69
47 52 59
49 54 61
46 51 57
38 42 47
32 36 40
28 31 35
14 15 17
20 22 25
34 37 42
53 58 65
53 59 66
54 60 68
62 68 76
67 74 82
70 77 86
65 71 79
72 79 88
74 81 91
59 66 74
70 77 87
72 80 89
57 63 71
48 53 60
55 60 67
42 46 52
42 46 51
30 33 37
28 30 34
28 30 34
31 34 38
18 20 22
24 26 29
32 36 41
63 72 84
73 83 96
74 84 97
82 93 108
84 96 111
93 106 123
93 106 123
97 111 128
90 103 119
87 99 114
80 91 105
70 80 92
62 70 82
62 70 81
60 69 80
65 74 85
65 75 86
66 75 86
62 70 80
57 65 75
52 60 69
54 61 71
54 61 71
54 61 71
57 65 75
52 59 68
45 51 60
40 45 52
39 45 52
38 43 50
36 41 48
29 32 37
25 28 33
23 27 31
29 33 39
37 43 50
37 42 49
35 39 45
41 47 55
36 41 48
33 38 44
29 33 38
35 40 46
51 58 67
62 71 82
74 84 98
88 100 115
92 105 121
94 107 124
94 107 124
97 110 127
98 112 130
101 115 133
101 115 133
101 114 132
100 113 131
103 117 135
101 115 133
93 106 122
83 95 109
70 80 93
66 75 87
65 73 85
67 76 88
62 71 82
64 73 84
66 75 86
68 77 88
68 78 90
61 69 80
52 59 68
51 58 67
60 68 79
68 77 90
73 83 96
80 91 105
83 94 108
82 93 107
93 106 122
91 103 119
91 103 119
90 102 118
93 106 122
98 111 128
101 115 133
106 120 138
104 119 138
110 125 145
110 125 145
106 120 138
104 118 137
100 114 132
99 113 130
95 109 126
101 115 133
101 115 132
104 117 135
107 121 140
108 123 142
108 122 141
103 117 135
95 108 125
89 101 116
81 92 106
73 83 96
65 74 85
59 67 78
58 66 76
48 55 64
52 59 69
63 71 82
68 77 89
82 92 106
84 96 111
88 100 117
87 98 114
89 101 117
90 102 117
101 114 131
112 126 145
109 123 142
113 128 148
114 130 150
112 128 148
114 130 150
71 81 94
75 85 98
71 80 93
72 81 94
68 78 90
60 68 79
57 65 75
64 73 85
70 79 91
67 77 89
65 74 86
64 72 84
50 57 66
49 55 64
46 53 61
48 55 63
50 57 66
51 58 67
46 52 60
47 53 61
34 38 44
29 33 38
35 39 46
44 50 58
51 58 68
60 69 80
66 75 87
69 78 90
68 77 89
77 87 101
80 91 104
81 92 106
79 89 103
72 81 94
64 73 84
61 69 80
57 64 73
56 63 72
60 68 79
61 69 80
58 66 76
65 74 85
65 74 85
66 75 87
69 79 91
67 76 88
63 72 83
53 61 70
38 44 50
38 43 49
43 49 56
55 62 71
64 73 84
60 68 79
63 72 83
66 75 87
72 82 95
79 90 104
88 100 116
95 108 124
101 114 132
103 117 136
105 119 137
100 113 131
104 118 137
106 121 140
105 119 138
98 112 130
97 110 128
92 105 122
94 107 123
95 107 123
97 110 128
98 111 129
94 107 124
89 102 118
97 110 128
86 98 113
85 96 111
85 96 110
76 86 99
66 75 88
60 68 78
54 61 70
55 63 72
56 64 74
60 68 79
63 72 83
66 75 87
67 76 88
70 79 92
68 77 89
62 71 82
61 69 79
57 65 75
53 60 70
56 63 72
58 66 76
59 67 78
64 73 84
73 83 96
84 96 110
88 101 117
94 107 124
96 110 127
94 107 124
90 102 117
82 93 108
80 91 105
76 86 99
70 79 91
69 78 91
72 81 93
69 79 91
68 77 89
63 71 82
65 74 85
65 74 85
55 63 73
60 68 78
65 73 85
68 77 89
69 79 91
71 80 93
78 89 103
79 90 103
39 45 52
19 21 23
27 30 33
24 26 29
12 14 16
19 21 24
33 36 41
35 38 43
35 38 43
26 28 32
12 13 15
6 7 7
16 18 20
21 24 27
28 30 34
24 26 30
20 22 25
19 21 24
33 36 41
34 37 42
25 27 31
16 18 20
9 11 12
17 19 22
26 29 33
27 29 33
31 35 39
34 38 42
30 33 37
29 32 36
27 30 33
28 31 35
26 29 33
31 34 38
32 35 40
39 43 48
38 41 46
50 55 61
48 53 59
46 51 58
57 62 70
57 62 70
58 64 72
65 71 79
66 73 81
62 69 77
62 68 76
68 75 83
57 62 69
52 57 64
50 55 61
44 49 55
46 51 57
40 44 50
43 47 53
40 44 49
36 40 45
44 48 53
47 51 58
46 50 56
43 47 53
43 47 53
54 59 66
48 52 58
52 58 65
60 65 73
59 65 73
68 74 83
59 66 74
66 73 81
71 78 87
65 72 80
67 73 82
55 60 67
62 68 77
60 66 74
59 65 73
59 64 72
61 67 76
61 67 75
62 68 77
62 68 77
55 60 68
65 71 79
60 66 73
64 70 78
69 75 84
58 65 73
68 75 84
70 77 86
67 73 82
61 68 76
69 77 86
69 76 85
64 70 79
68 75 84
82 90 101
67 74 84
67 74 84
71 78 87
81 89 100
72 79 89
65 72 81
70 77 87
74 82 92
65 72 81
75 82 91
62 69 78
62 68 76
67 74 82
57 63 70
57 63 72
57 62 70
48 53 59
50 55 61
54 59 66
47 52 58
42 46 52
40 44 49
38 42 48
35 38 43
25 27 31
14 15 17
19 21 23
37 41 46
46 51 57
59 65 73
66 72 80
64 71 79
62 68 76
61 67 76
59 65 73
68 74 83
65 72 81
59 65 73
69 76 85
72 79 88
60 66 74
56 62 69
42 46 52
39 43 49
42 46 51
34 37 42
31 35 40
32 35 39
23 26 29
17 19 21
37 42 48
80 91 105
82 93 108
91 103 119
95 107 124
99 112 129
95 107 124
92 105 121
96 109 126
94 107 123
88 100 116
83 93 107
81 92 107
73 83 96
72 82 95
72 82 95
68 77 89
63 71 82
50 57 66
40 45 52
35 39 46
40 46 53
48 54 63
54 61 71
53 61 71
56 63 74
55 63 73
60 68 79
58 66 76
56 64 74
59 67 78
50 56 65
45 50 58
36 41 47
35 40 46
39 45 52
54 62 71
67 76 88
78 88 101
86 98 113
96 109 127
97 110 127
96 109 127
99 112 130
101 114 132
100 113 131
99 112 130
102 117 135
112 127 146
115 131 151
124 140 162
126 143 165
122 139 161
124 140 162
119 136 157
121 137 158
121 138 159
119 135 156
118 134 155
116 132 152
109 125 145
107 121 139
97 110 126
86 97 112
76 86 99
68 77 89
68 77 89
62 71 82
54 61 70
47 53 62
42 48 56
31 35 40
22 25 29
31 35 40
38 43 50
42 47 54
53 60 69
54 61 71
60 68 78
66 75 87
65 74 85
76 86 99
81 92 106
90 102 118
97 110 127
97 110 129
99 112 130
101 115 133
100 113 131
100 113 130
102 116 134
111 126 146
113 129 150
115 129 149
117 133 154
120 136 158
123 138 159
116 133 154
113 127 147
103 117 135
93 106 122
88 100 115
77 88 101
65 74 85
58 66 77
55 62 72
56 63 73
55 63 72
43 49 57
42 48 56
48 54 63
44 49 57
49 56 64
55 62 72
61 70 80
64 73 85
64 73 85
61 69 80
62 71 82
62 71 82
61 69 80
61 69 80
60 68 79
57 65 75
60 68 79
66 75 86
73 84 97
80 91 105
81 92 106
96 109 126
98 111 128
101 115 133
104 118 136
102 115 134
98 112 130
103 117 135
105 119 138
99 112 129
94 106 123
88 99 115
78 88 102
65 74 86
56 63 73
41 47 55
28 32 37
37 42 48
38 43 50
39 45 52
51 57 66
53 60 70
55 63 72
55 62 72
51 58 67
46 52 61
38 44 50
36 40 47
34 38 44
32 36 42
28 32 37
34 38 44
45 52 60
54 61 71
61 69 80
66 75 87
70 80 92
65 73 84
57 65 76
54 61 71
45 51 59
41 47 54
42 48 56
43 49 56
47 54 62
47 54 62
47 54 62
40 46 53
40 46 52
38 44 51
35 40 46
36 41 48
42 48 55
41 46 54
37 42 49
47 53 61
47 54 62
52 59 68
50 57 65
51 58 66
41 47 54
42 48 55
37 42 49
36 42 48
40 45 52
38 43 50
36 42 48
36 41 48
36 41 48
41 47 54
53 60 69
59 68 79
70 80 92
74 84 97
74 84 97
75 85 98
82 93 107
83 94 109
86 97 112
86 98 113
86 97 112
83 94 110
85 97 112
83 94 108
78 88 101
73 83 96
62 70 81
56 64 74
51 58 68
55 62 72
51 58 67
48 54 63
46 53 62
42 48 56
31 36 41
26 30 34
26 30 35
27 31 36
39 44 51
43 49 57
51 59 68
51 58 68
53 60 69
66 76 88
70 80 93
71 80 93
65 74 85
66 75 86
61 70 80
60 68 79
58 65 75
57 65 75
57 65 75
56 63 73
53 60 70
52 59 69
54 61 71
53 60 69
48 54 62
42 48 55
42 48 56
44 50 58
45 51 59
46 52 60
29 33 38
29 33 38
23 25 28
32 35 40
31 34 38
20 22 24
11 12 14
27 30 33
33 36 41
32 35 39
37 41 46
23 25 28
8 9 10
10 11 13
14 15 17
16 17 20
15 17 19
14 16 17
18 20 23
29 31 35
33 36 40
32 35 40
28 31 34
20 22 25
11 12 13
21 23 25
28 30 34
29 31 35
30 33 37
31 34 38
23 26 29
24 26 29
21 23 26
23 25 28
28 31 35
29 32 36
37 41 46
36 40 46
47 51 58
45 50 55
54 59 66
55 61 68
55 61 68
60 66 74
64 71 79
64 70 79
61 67 75
67 73 82
61 67 75
57 62 70
56 61 68
51 56 62
46 51 56
42 46 52
45 49 55
43 48 53
42 46 51
43 47 53
45 49 55
44 48 54
46 51 57
43 47 53
50 55 62
45 50 56
48 52 59
58 64 72
62 68 75
61 68 76
63 69 77
65 71 80
75 82 92
70 76 85
66 73 81
66 73 81
63 70 78
61 67 76
56 61 68
63 69 77
62 68 76
59 65 73
70 76 85
61 67 75
61 67 75
67 74 83
57 63 71
54 60 67
51 57 64
63 69 77
68 74 83
66 72 80
55 61 69
56 62 70
58 63 71
59 65 73
65 71 79
66 72 80
71 77 87
75 82 92
66 73 82
72 79 89
76 83 93
73 81 91
74 81 91
72 79 89
69 76 85
68 74 83
66 73 82
62 68 77
61 67 75
56 62 71
63 69 78
58 64 72
59 64 72
60 66 74
55 61 68
52 57 64
46 50 57
45 50 56
43 48 53
36 39 44
32 35 40
27 29 33
24 26 29
15 17 19
29 32 36
46 51 57
54 59 66
59 65 74
58 64 72
66 72 81
72 78 88
68 75 84
80 87 97
72 79 88
72 79 89
65 72 82
67 74 83
69 76 86
64 70 78
55 60 68
52 57 64
47 52 58
42 46 51
41 45 51
40 44 50
28 31 35
30 33 37
30 34 38
103 117 136
113 129 149
117 133 154
119 135 156
122 139 161
125 141 162
127 144 166
134 152 175
133 150 172
133 151 174
129 146 168
127 145 168
127 144 167
128 145 167
127 144 166
120 136 157
115 130 151
110 125 145
109 123 141
103 117 135
98 111 127
85 97 112
70 79 92
64 72 84
58 66 77
51 58 67
36 41 48
35 40 47
37 42 49
41 47 54
52 59 68
58 66 76
59 67 77
52 59 68
45 52 60
41 47 54
42 47 54
46 53 61
53 61 70
65 74 86
71 80 92
79 90 103
76 86 99
71 81 95
73 83 96
85 97 112
92 105 121
106 120 139
115 130 150
118 134 155
114 129 150
111 126 145
110 125 144
110 125 145
104 117 135
107 121 139
109 123 141
105 120 140
105 119 137
100 113 130
98 112 130
88 100 115
88 99 115
71 81 93
49 55 64
34 38 44
43 49 57
55 62 72
63 72 83
61 70 82
55 62 71
54 62 71
54 61 71
58 66 77
61 69 80
62 71 82
54 61 71
50 57 66
45 51 59
36 41 48
27 31 36
33 38 44
32 36 42
37 42 48
37 42 49
33 38 44
47 53 62
57 65 75
64 73 84
78 88 102
85 97 112
87 99 114
89 102 118
81 92 106
88 100 116
78 88 102
76 86 98
81 92 106
86 97 112
83 95 109
85 96 111
83 94 108
77 88 102
76 86 100
69 78 91
63 71 82
56 64 74
50 56 65
38 44 50
36 41 48
35 40 47
44 50 58
52 59 69
61 69 80
67 76 87
72 81 93
73 82 95
72 81 94
69 78 91
68 78 90
72 82 95
77 88 101
78 88 101
75 85 98
78 88 102
79 89 103
84 95 110
111 126 146
113 128 147
115 130 150
119 135 156
118 135 156
119 136 157
115 131 152
115 130 151
112 127 148
106 121 140
100 114 131
91 104 120
83 94 109
76 86 100
72 82 94
66 75 87
62 71 81
53 60 69
39 45 52
29 33 39
36 41 48
48 55 64
63 71 82
60 68 78
66 74 85
72 81 94
74 84 97
77 87 100
77 87 101
80 91 105
81 92 106
82 92 106
77 87 100
77 88 101
70 80 93
67 76 88
59 67 78
57 65 76
52 59 68
54 61 70
52 59 69
46 53 61
38 43 50
31 35 41
23 27 31
24 28 32
27 31 35
30 34 40
29 33 38
30 35 40
34 38 44
42 48 56
48 55 63
47 53 62
40 45 52
33 37 43
33 37 43
34 38 44
38 44 50
46 53 61
51 57 66
53 60 69
53 60 69
48 55 64
46 53 61
41 47 54
38 44 51
45 51 59
48 55 63
53 60 69
56 64 74
58 66 76
57 64 74
51 58 67
47 54 62
53 60 69
54 61 71
51 58 67
57 64 74
58 66 76
63 71 82
66 75 87
65 74 85
62 70 81
60 69 80
68 78 90
67 76 88
63 72 83
61 70 80
60 69 80
59 67 77
59 67 77
54 61 71
51 57 66
48 54 63
50 57 66
51 59 68
55 62 72
64 72 83
65 74 86
67 75 87
70 80 93
73 83 96
73 82 95
63 71 82
52 59 68
44 50 58
47 53 61
46 52 60
44 49 57
42 48 55
39 44 51
43 50 58
56 63 73
74 83 96
80 90 104
84 95 110
86 97 112
85 97 112
86 96 111
82 93 108
82 93 108
83 95 110
85 96 112
79 90 103
72 82 94
67 76 87
60 68 79
29 32 36
38 42 47
36 39 44
20 22 24
10 11 12
24 26 29
31 34 38
36 40 45
32 36 40
17 19 21
14 15 17
12 13 15
7 8 8
13 14 15
17 19 21
25 28 31
30 33 37
30 33 38
31 34 38
35 39 43
29 32 36
21 23 25
14 16 18
29 32 35
28 31 35
33 36 40
27 30 34
20 22 24
21 23 26
18 19 22
21 23 26
27 30 34
32 35 39
29 32 36
36 40 45
42 46 52
44 48 54
47 52 58
52 58 65
53 58 65
62 68 76
60 66 74
61 68 77
60 66 74
60 66 74
64 70 79
58 64 72
50 56 63
54 59 66
42 46 52
46 50 56
41 46 51
46 50 56
40 44 49
43 48 54
41 45 50
44 49 54
40 44 49
45 49 55
50 55 62
55 60 67
50 55 62
57 63 70
52 58 65
56 62 70
67 73 81
69 76 86
70 77 86
62 68 77
65 72 81
65 72 81
67 74 82
58 64 73
62 68 76
58 64 72
64 71 79
60 65 72
64 71 79
57 62 70
54 60 67
52 57 64
58 64 72
56 62 69
54 59 66
53 58 64
56 62 70
64 70 78
63 69 77
56 61 69
61 67 75
60 66 74
55 60 68
66 72 80
77 84 94
69 76 85
68 75 85
74 82 92
72 79 89
69 76 85
72 79 89
67 74 84
69 75 84
67 74 83
70 77 87
64 70 78
65 72 80
68 74 82
59 66 74
60 67 75
58 64 72
54 59 67
52 57 65
58 63 71
49 54 61
47 52 58
42 46 52
39 43 48
33 36 41
24 26 29
11 12 14
22 24 27
38 42 47
46 50 56
54 59 66
55 60 68
56 62 69
51 56 64
70 77 86
66 73 81
74 81 91
70 77 87
66 72 81
71 78 88
73 80 90
63 70 78
65 71 79
53 58 65
53 58 64
41 45 51
44 48 54
43 47 53
37 41 46
35 38 43
34 37 42
55 62 72
54 62 72
55 63 73
55 62 72
48 54 62
50 57 66
45 51 59
43 49 57
41 46 54
50 57 66
59 67 77
54 62 72
57 64 74
56 63 73
51 59 68
55 63 73
58 66 76
60 68 79
62 71 81
63 71 82
63 71 81
70 80 92
71 81 94
68 77 89
73 83 96
68 77 88
64 72 84
58 67 77
54 61 71
49 56 64
47 53 62
51 58 68
59 67 77
62 70 81
64 73 85
64 72 83
65 73 85
70 79 91
69 78 90
72 82 95
70 80 93
70 79 92
75 85 99
76 86 100
79 90 105
76 86 100
77 87 101
69 78 91
70 80 92
64 73 85
61 69 79
50 56 65
35 40 46
29 33 38
34 39 45
48 54 62
47 54 63
48 55 63
35 40 46
34 39 45
41 46 54
47 53 62
41 47 54
36 40 47
28 32 37
28 32 37
32 37 43
30 34 39
31 35 41
37 42 49
47 54 62
52 59 68
52 59 68
52 59 68
48 54 63
46 53 61
47 54 62
38 43 50
30 34 39
33 37 43
46 52 60
58 66 76
67 77 89
76 86 100
67 76 88
67 76 87
68 78 90
66 74 86
74 84 98
70 79 91
82 93 108
93 105 121
97 110 128
103 117 136
109 123 142
107 121 140
111 126 146
113 128 148
112 128 148
114 130 150
115 130 150
111 126 146
109 124 143
104 118 137
96 109 126
88 99 114
76 87 100
64 73 84
50 56 65
34 39 45
31 36 41
31 35 40
32 36 42
43 48 56
55 62 72
63 72 83
66 74 86
65 74 86
65 74 86
64 73 84
62 70 81
60 69 80
60 68 79
60 68 78
72 81 94
80 91 105
80 91 105
87 98 114
131 148 170
131 148 170
130 148 171
127 144 167
125 142 164
118 134 155
113 128 149
103 117 135
97 110 127
88 100 115
77 88 101
69 78 90
64 73 84
62 70 81
48 55 64
44 49 57
42 47 54
52 59 69
57 65 75
59 67 78
63 72 84
65 73 84
71 81 94
78 90 104
82 93 108
92 105 121
99 112 129
102 116 135
106 120 139
108 123 142
103 117 136
99 112 130
87 99 114
76 86 99
64 73 84
52 59 68
46 52 60
39 45 52
33 38 45
31 36 41
34 38 44
35 40 47
43 49 57
40 46 53
45 51 59
48 55 63
52 59 68
49 56 65
44 50 58
45 51 59
39 44 50
37 42 48
38 43 50
43 49 57
53 60 69
57 64 74
55 62 72
55 63 73
56 63 73
54 61 70
52 59 69
46 52 60
41 47 55
36 41 48
25 28 33
34 39 45
42 48 55
45 51 58
45 51 59
46 52 60
42 48 55
36 41 47
26 30 35
28 32 38
30 34 39
35 40 46
34 39 44
31 35 40
32 36 42
36 40 46
35 40 46
27 31 36
32 37 43
43 49 57
48 55 63
44 50 58
43 49 57
46 52 60
49 56 65
55 63 72
55 63 73
57 65 75
53 60 70
49 56 64
46 52 60
47 54 62
47 54 62
44 50 58
44 51 59
41 47 55
49 56 65
53 60 69
46 52 61
52 59 68
49 56 65
55 62 72
55 63 73
59 67 77
59 66 77
61 69 80
68 77 89
72 81 94
76 86 100
70 79 91
63 72 83
61 69 80
63 71 82
65 73 85
64 74 85
63 71 82
64 73 85
62 71 82
63 72 83
69 79 91
63 72 83
63 72 83
64 73 84
58 66 77
50 57 65
32 35 40
46 51 57
37 41 46
22 24 27
10 11 12
22 24 27
26 28 32
27 30 34
20 22 25
13 14 15
18 20 23
20 22 25
19 21 23
22 24 27
27 30 33
29 32 36
34 37 42
36 39 44
34 38 42
30 33 37
28 31 34
17 19 21
20 21 24
27 30 33
30 33 37
24 26 30
22 24 27
20 22 24
20 22 24
20 22 25
28 30 34
26 29 33
29 32 35
31 34 38
35 39 43
40 45 51
50 54 61
48 52 59
55 61 68
61 67 75
61 67 75
58 64 72
62 68 77
65 72 81
56 62 69
57 62 69
51 56 63
55 61 69
46 51 57
52 58 65
48 53 60
44 49 55
39 43 49
42 46 51
46 50 56
41 45 51
47 51 58
48 53 59
49 54 61
53 58 66
51 56 63
59 65 72
61 67 74
65 71 80
62 68 76
73 80 90
68 74 84
68 74 82
66 73 82
61 67 74
62 68 76
54 59 66
60 66 74
59 65 73
60 67 75
58 64 72
52 57 64
48 53 59
54 59 66
58 64 72
54 59 66
50 55 62
51 56 63
55 60 67
58 64 72
58 64 72
58 63 70
50 55 62
47 52 58
47 52 59
57 62 69
65 71 79
64 70 78
72 79 88
66 72 81
65 72 81
72 78 88
67 74 83
60 67 76
70 77 87
74 81 90
74 81 91
66 72 81
69 76 84
70 77 86
65 71 79
65 72 80
59 65 72
55 61 69
59 64 72
58 64 71
58 63 71
48 53 59
47 51 58
38 42 47
40 44 49
31 34 37
18 20 22
15 17 19
32 35 39
44 49 54
49 55 62
47 52 59
58 64 72
68 75 84
69 76 86
63 70 79
85 93 104
73 80 90
69 76 84
72 79 88
74 82 93
81 89 100
70 76 85
62 68 76
58 63 70
55 60 67
51 56 63
49 54 60
46 51 57
44 48 54
29 32 36
83 94 109
94 106 123
92 105 121
93 105 121
90 102 118
85 96 111
83 95 110
81 93 108
73 83 96
67 76 88
64 73 84
69 78 90
72 82 95
73 83 96
67 76 88
73 83 95
85 96 111
88 101 117
92 105 122
98 112 130
103 117 135
104 117 134
106 120 139
98 112 129
91 105 122
91 103 119
86 97 113
77 88 101
66 75 87
44 50 58
31 35 41
36 41 47
44 50 58
52 59 69
53 60 70
48 54 62
50 57 66
44 50 58
47 54 62
52 59 69
61 69 80
63 71 83
77 88 102
81 92 106
88 100 116
80 90 105
83 95 110
81 91 106
79 90 104
66 75 87
65 74 85
60 68 78
59 67 77
49 56 64
55 63 73
59 66 76
55 63 74
61 70 81
60 68 78
55 62 72
61 69 80
54 61 71
55 63 73
58 66 76
50 57 66
45 51 59
40 46 53
37 42 49
37 42 48
40 46 53
40 46 53
43 49 57
35 40 46
33 38 43
38 43 50
41 46 53
40 46 54
47 54 62
49 56 65
42 48 56
42 48 55
50 57 65
61 69 80
76 86 99
85 96 111
94 106 122
98 111 129
99 113 131
105 120 138
105 119 137
104 119 138
110 125 144
115 130 150
122 138 159
124 141 163
121 137 158
122 138 159
116 132 154
110 124 143
106 120 139
105 119 137
103 116 134
101 115 133
100 114 131
96 109 126
96 109 126
93 106 122
81 91 105
68 77 88
54 61 71
46 52 60
34 39 45
40 46 53
33 38 44
34 39 45
38 43 50
46 52 60
45 51 59
41 46 53
35 39 46
27 31 36
31 35 41
29 33 39
31 35 40
30 35 40
36 40 46
39 44 51
32 36 42
31 35 41
64 73 85
52 59 68
45 51 59
50 57 66
50 57 65
59 67 77
64 72 83
68 77 89
72 82 94
69 79 91
66 75 87
62 70 80
60 69 80
57 64 74
49 56 65
52 59 69
48 54 63
50 57 66
48 54 63
48 54 62
42 47 55
43 49 56
48 55 64
48 54 63
52 59 68
55 63 73
53 60 69
50 57 66
49 55 64
51 58 67
55 63 73
55 63 73
61 69 80
62 71 82
75 85 99
84 95 109
87 99 114
94 107 124
98 111 129
104 118 136
113 127 146
111 126 146
112 128 148
103 117 135
103 117 134
103 117 134
96 110 127
85 96 110
77 88 102
63 72 83
52 59 68
52 60 69
45 51 59
47 53 61
53 60 69
48 55 63
45 51 59
45 51 59
45 51 59
41 46 54
37 42 49
37 42 49
33 37 43
30 34 39
38 43 49
39 45 52
44 50 57
36 41 47
33 38 44
40 45 52
40 46 53
45 51 59
44 50 57
44 50 58
43 49 57
38 43 50
43 49 56
45 51 59
35 40 46
28 32 37
24 27 31
26 30 34
29 33 39
34 39 45
37 42 49
42 48 56
45 52 60
45 51 58
39 44 52
41 46 53
48 55 64
53 60 70
57 65 75
59 67 78
58 67 77
54 62 71
53 61 71
57 65 74
60 69 79
61 69 80
64 73 85
61 69 80
54 61 70
45 51 60
34 39 45
31 35 41
32 37 43
30 34 39
30 34 39
27 31 36
29 33 39
32 37 42
36 41 48
41 47 54
45 51 60
56 64 74
61 69 80
63 72 83
65 74 85
68 77 89
76 87 100
80 91 105
86 97 112
83 94 109
84 95 110
83 94 109
75 85 98
74 84 97
72 82 95
64 73 84
38 42 48
50 54 61
45 50 56
24 27 30
10 12 13
17 18 20
21 23 26
12 14 15
13 14 16
25 28 31
32 36 40
34 37 42
30 33 37
36 39 44
33 36 41
30 32 36
23 26 29
25 27 31
31 34 38
29 31 35
26 29 32
14 15 17
14 15 17
19 21 23
25 28 31
26 29 32
21 23 26
15 16 18
16 18 20
19 21 24
21 23 26
25 28 31
36 40 44
37 41 46
39 43 49
46 51 57
48 52 58
48 53 60
53 59 66
54 60 67
61 66 74
59 65 72
64 70 78
54 60 67
58 63 71
55 61 68
55 60 67
64 70 78
54 59 66
56 61 69
61 67 75
53 59 66
48 53 59
47 52 59
49 54 60
50 54 61
49 54 60
49 54 61
46 51 58
51 56 62
54 59 66
51 56 63
61 67 75
59 64 72
68 75 84
69 76 86
66 73 81
66 73 81
72 79 87
63 69 77
65 71 80
61 67 76
58 63 71
60 66 74
55 61 68
46 51 57
57 62 70
53 59 66
54 59 66
48 53 60
47 51 58
48 53 60
49 54 60
48 53 60
54 59 66
50 55 61
53 58 65
50 55 62
52 57 65
60 66 74
60 66 73
74 81 90
61 66 74
58 63 71
69 76 85
68 75 85
63 69 77
67 73 82
74 81 91
66 73 81
61 67 75
66 72 81
57 63 71
66 72 81
72 79 88
67 73 82
61 67 76
60 66 74
61 67 75
58 64 72
48 53 60
52 57 64
37 41 46
35 38 43
30 33 37
20 23 26
14 15 17
23 25 28
34 37 41
41 46 52
48 53 60
57 63 71
62 68 76
71 78 88
68 74 83
81 89 100
74 82 92
76 83 93
70 77 86
63 70 78
64 71 80
66 73 82
58 63 71
61 67 75
57 63 70
56 61 69
56 61 69
42 46 52
48 53 59
39 43 48
55 62 72
67 76 89
72 82 95
71 80 93
73 83 96
72 81 94
67 76 89
69 78 91
69 78 90
72 82 94
74 84 97
80 92 107
86 98 114
93 106 123
99 113 131
108 122 140
108 122 141
113 129 149
114 129 149
113 128 148
109 125 144
112 127 146
107 122 141
111 125 145
110 125 144
102 116 135
96 110 127
93 106 122
93 105 122
89 102 118
79 89 103
77 88 101
74 84 97
74 84 97
74 83 96
70 80 92
67 77 90
73 82 95
83 95 110
88 100 115
89 101 116
87 98 114
87 99 115
94 107 124
99 113 130
101 115 133
100 114 131
99 112 130
97 110 127
90 102 117
80 90 104
63 72 83
43 49 57
33 37 43
32 36 42
41 47 54
52 59 69
63 72 83
67 76 87
70 79 92
72 81 93
80 91 104
85 96 110
86 97 113
85 96 111
83 95 111
89 100 115
84 96 111
90 102 118
92 104 120
87 98 113
77 88 101
71 80 93
60 68 78
47 54 62
48 55 63
48 55 64
57 65 75
62 70 81
68 77 89
70 79 92
71 80 92
68 77 90
61 69 80
59 67 78
66 75 87
68 77 90
67 77 89
63 72 83
71 80 93
78 88 102
82 93 107
84 94 109
83 94 109
84 95 109
78 89 103
76 86 99
69 78 90
65 74 85
60 68 78
46 52 60
37 42 49
30 34 40
35 40 46
44 50 57
42 48 56
41 47 54
39 45 51
36 41 48
39 44 51
48 55 63
53 60 69
53 61 70
54 60 70
52 59 68
53 60 70
43 48 56
29 33 38
23 26 31
24 27 32
26 29 34
26 30 34
28 32 37
27 31 36
23 27 31
26 29 34
30 34 40
30 34 39
38 43 49
42 48 55
105 119 138
105 119 138
107 121 141
107 121 140
106 120 139
103 117 136
104 118 137
105 119 138
102 115 133
99 112 129
93 105 122
84 95 110
78 89 103
73 82 95
57 64 74
46 52 60
40 46 53
45 51 59
50 57 65
52 59 69
48 55 64
44 51 59
45 51 58
43 49 56
50 57 66
57 65 76
66 75 86
74 84 97
86 98 113
94 107 124
99 112 130
101 115 134
102 116 135
101 115 133
102 116 134
101 115 133
104 118 137
109 123 142
110 125 144
111 126 146
109 124 144
110 126 146
108 122 141
104 118 137
103 117 135
102 115 133
101 114 132
99 112 129
97 110 127
96 109 126
91 104 120
87 99 115
84 95 110
79 90 104
78 89 102
74 84 98
69 79 91
63 72 83
55 62 72
43 49 57
30 35 40
22 25 29
36 41 47
45 51 59
44 50 57
44 50 58
42 48 55
38 44 51
34 38 44
37 42 49
43 49 57
44 49 56
43 49 56
42 48 55
45 51 59
46 52 60
47 53 61
43 48 56
40 46 53
40 46 53
47 54 62
53 60 69
54 62 72
48 55 63
55 62 72
58 65 75
62 70 82
64 73 84
72 81 94
77 88 102
82 93 107
83 94 109
80 92 106
80 91 105
69 79 92
60 69 80
49 55 64
37 42 49
33 38 44
35 39 45
36 41 48
42 48 56
49 56 65
48 54 63
45 51 60
51 58 67
54 62 71
56 64 74
59 67 77
51 58 67
53 60 70
43 48 56
41 47 55
44 50 58
40 45 53
37 42 49
31 35 41
32 36 42
35 40 47
40 46 53
44 50 59
54 61 71
61 69 80
60 69 79
63 72 83
70 80 92
73 83 96
71 80 92
66 74 86
64 73 84
46 52 60
46 50 56
48 53 60
49 54 60
30 33 37
16 18 20
9 10 11
9 10 12
12 14 16
27 30 34
35 39 44
42 46 51
38 42 47
41 45 51
38 42 47
38 42 47
31 34 38
24 26 29
29 32 36
30 33 37
31 34 38
32 34 38
18 20 22
14 15 17
12 13 15
22 24 26
19 21 24
9 10 11
13 14 15
13 15 17
15 17 19
19 21 24
34 37 42
40 43 49
46 50 56
43 48 54
47 52 58
46 51 57
61 67 75
57 62 69
59 65 73
58 64 71
50 56 63
59 64 72
53 59 65
52 57 64
53 59 66
55 60 67
60 66 75
57 63 71
57 62 70
53 59 66
57 63 70
49 54 61
55 61 68
49 53 60
47 51 58
47 51 58
52 57 63
45 50 56
55 61 68
52 57 63
54 59 67
59 64 72
55 60 68
63 69 78
56 62 69
70 76 85
62 69 78
59 64 72
65 71 79
66 73 81
56 61 68
57 62 70
53 58 65
53 58 65
45 49 55
52 57 63
49 54 60
51 56 63
42 47 53
49 54 60
49 54 60
52 57 63
47 52 59
52 57 63
51 56 62
38 42 48
55 60 67
52 57 64
62 68 76
56 62 69
60 66 74
69 75 84
65 71 80
71 78 88
69 75 84
61 67 75
69 76 85
69 76 85
65 71 79
63 70 78
61 68 76
73 80 89
66 73 81
66 73 82
62 68 77
66 72 80
53 58 66
63 69 77
50 55 62
43 47 53
40 44 49
29 32 36
19 21 23
10 12 13
15 17 19
26 29 32
39 43 48
48 53 59
48 53 60
63 69 78
67 73 82
58 64 72
69 76 85
80 87 98
75 83 92
73 80 89
75 83 94
79 87 97
69 76 85
61 68 76
63 69 77
61 67 76
58 64 71
53 59 66
47 52 58
50 55 62
38 42 47
46 52 59
61 69 79
59 68 79
60 68 79
59 68 78
53 60 70
51 58 68
59 67 78
62 70 82
57 64 74
47 53 62
41 46 53
44 49 57
61 69 80
63 72 83
67 75 86
77 87 101
73 83 95
83 94 108
76 87 101
74 84 98
64 74 86
66 75 87
58 66 76
57 65 76
59 67 78
58 66 76
56 63 73
56 63 72
51 58 67
50 56 65
49 55 64
49 55 64
47 53 62
52 59 68
56 63 73
56 63 73
51 58 67
51 57 66
54 61 70
59 67 78
58 66 76
62 71 82
64 73 84
63 71 82
54 62 72
61 69 80
60 68 79
56 64 74
50 57 66
53 60 69
51 57 65
32 36 42
28 32 37
41 47 54
48 54 62
57 64 74
65 74 86
72 82 95
74 84 98
73 83 96
69 78 90
64 73 85
73 83 95
71 81 94
73 83 95
67 76 87
59 67 78
53 61 70
54 61 71
55 62 72
55 63 72
59 67 78
68 76 88
79 90 104
90 102 119
97 110 127
100 114 132
103 118 136
105 119 138
107 122 141
109 123 142
106 120 138
106 120 139
109 124 144
113 128 148
116 131 152
121 137 158
128 145 168
131 148 170
132 150 173
138 156 180
136 154 179
138 157 182
133 151 175
131 149 172
124 141 163
124 141 163
119 134 154
114 130 150
105 120 139
99 112 128
90 102 118
87 100 116
88 100 115
83 94 110
74 84 97
64 72 84
53 60 69
41 46 54
43 49 57
45 52 60
49 56 65
52 60 69
55 63 73
54 61 71
55 63 72
57 65 75
61 69 79
62 70 81
55 63 73
61 69 79
50 57 66
48 54 63
36 41 47
31 35 41
27 31 35
29 34 39
46 52 60
59 67 78
68 78 91
129 146 169
130 147 170
132 150 174
130 148 171
125 143 165
120 137 158
115 131 152
113 127 147
108 123 142
100 113 131
92 105 122
84 96 111
76 86 100
71 80 92
61 69 79
45 51 59
40 46 53
43 49 57
42 48 56
44 50 58
49 56 65
52 59 68
60 68 79
67 76 88
72 82 94
78 89 103
82 94 108
87 99 114
90 102 118
92 104 121
95 107 124
91 103 119
94 106 123
96 109 125
100 114 131
101 115 133
101 114 132
101 114 132
97 111 128
96 109 126
88 99 115
75 85 98
69 78 90
67 76 88
66 75 87
71 80 93
65 74 86
62 70 81
63 72 83
60 69 79
59 67 77
58 65 76
59 67 77
65 74 86
69 78 89
66 74 86
62 71 82
61 69 80
60 68 79
63 72 83
67 76 89
70 79 91
82 93 108
88 100 116
90 102 118
90 103 119
94 107 125
97 110 127
100 113 130
99 112 129
94 106 123
90 102 118
82 93 108
73 84 97
65 74 85
63 71 82
61 69 80
62 71 82
65 74 86
70 79 91
74 84 97
77 88 101
74 84 98
83 95 110
81 92 107
79 90 105
79 89 103
81 92 106
79 90 104
82 93 107
79 90 105
78 89 103
82 93 108
81 92 107
75 85 99
69 79 91
63 72 83
50 57 65
43 48 56
35 40 47
26 29 34
28 32 37
25 29 33
25 28 33
36 41 48
47 53 62
49 56 65
46 52 60
38 44 50
36 40 47
32 36 42
29 33 39
37 42 49
39 44 51
33 37 43
23 26 30
23 26 30
23 26 30
26 29 34
30 34 39
40 45 52
44 50 58
38 43 50
43 48 56
45 51 59
46 53 61
45 51 59
38 44 51
39 44 51
40 45 52
30 35 40
26 29 34
43 47 53
60 65 74
49 53 59
31 34 38
20 22 25
8 8 9
14 16 18
28 30 34
40 44 49
47 51 58
46 51 57
42 46 51
47 51 58
49 53 59
39 43 49
41 45 50
30 33 37
29 32 36
32 36 40
38 42 47
30 33 37
26 29 33
20 22 25
17 19 21
14 16 18
13 14 15
16 18 20
16 17 19
11 12 13
17 18 20
29 32 36
37 41 45
37 41 46
47 51 57
43 47 53
53 58 65
48 53 59
58 63 71
57 62 70
53 58 65
53 58 66
49 54 60
48 53 59
46 51 57
49 54 61
55 60 67
49 54 60
53 58 65
63 69 77
59 65 73
49 54 61
44 48 55
52 57 64
47 51 57
49 54 60
49 54 60
47 52 58
47 52 58
43 47 53
47 51 57
47 51 58
51 56 62
54 59 66
62 68 77
48 53 60
63 69 78
69 75 84
68 74 82
67 74 82
63 69 77
63 69 77
61 67 74
52 58 65
47 52 58
50 55 62
50 55 62
47 51 57
44 48 54
43 48 55
44 48 54
51 56 63
47 52 58
42 46 52
47 51 57
45 50 56
45 50 56
45 49 55
55 60 67
58 64 72
59 65 73
65 71 79
65 72 80
65 71 78
61 67 75
64 71 80
58 64 72
60 66 75
65 72 80
71 77 86
61 68 76
62 68 76
66 72 81
57 63 70
67 73 82
63 68 76
53 58 65
56 61 69
50 55 61
47 51 57
32 36 41
35 38 43
24 26 30
15 16 18
10 11 12
22 24 27
32 35 39
48 53 59
58 64 72
63 70 78
67 73 82
58 65 73
63 70 78
76 83 93
77 84 94
78 85 96
75 82 92
71 78 88
75 83 93
64 70 79
60 66 75
60 66 73
55 60 68
56 61 68
49 54 60
48 52 59
39 43 48
42 47 54
59 67 77
68 78 90
74 84 97
75 85 99
74 84 98
71 81 94
60 69 80
61 69 80
62 71 83
62 71 82
63 71 82
64 72 84
66 75 87
65 74 86
56 64 74
58 66 76
55 62 71
59 68 78
59 68 79
61 68 78
53 60 70
49 55 64
54 61 71
44 50 58
44 50 57
49 55 64
44 50 57
36 41 48
35 40 46
34 39 45
44 50 58
50 56 65
53 60 70
57 65 75
57 65 75
53 60 69
45 52 60
35 39 46
35 40 46
38 43 50
49 56 64
57 65 75
59 68 78
55 62 72
43 49 56
31 35 40
33 38 44
40 45 53
43 49 56
42 48 55
45 51 59
44 50 58
45 52 60
42 48 56
45 51 59
41 47 54
31 35 40
29 32 37
38 43 50
47 53 61
49 56 65
50 56 65
49 55 64
53 60 70
60 69 79
59 67 77
58 66 76
50 58 67
52 59 68
61 70 81
68 77 90
75 85 99
81 92 107
87 99 114
91 104 120
100 114 133
105 119 138
105 119 138
102 116 134
100 114 132
103 117 135
104 118 137
105 119 137
104 118 136
99 113 131
101 115 133
106 120 138
100 113 131
100 112 129
95 108 125
86 98 114
91 103 119
99 113 130
88 99 114
96 109 126
108 122 140
106 121 140
112 126 145
124 141 162
121 137 159
121 138 160
122 138 160
117 133 154
116 132 153
117 132 152
113 128 148
108 123 142
105 118 137
98 111 128
90 102 118
84 95 109
76 87 100
61 69 80
40 45 52
32 37 42
27 31 36
33 37 43
40 45 52
39 44 51
46 52 59
46 52 60
38 44 51
39 44 51
37 42 49
29 33 38
31 36 42
42 47 54
53 60 69
62 71 82
69 78 91
73 83 95
112 127 146
112 128 147
112 128 148
110 125 145
110 125 145
107 121 139
100 114 132
92 105 121
82 93 107
72 82 95
66 75 87
62 70 81
57 65 75
53 60 70
53 60 69
48 55 64
47 53 61
43 49 57
39 45 52
38 43 50
39 45 52
34 39 45
40 46 53
45 52 60
48 54 62
52 59 68
48 55 64
47 53 62
48 54 62
49 55 64
49 56 65
51 58 68
56 63 73
60 68 79
62 71 82
65 75 87
70 79 90
68 77 89
61 69 80
55 63 73
52 59 68
51 57 66
46 52 60
42 48 56
33 37 42
34 39 45
41 47 54
51 59 68
58 66 76
63 72 83
69 78 90
63 71 83
68 77 88
70 79 92
68 77 89
76 86 100
80 91 105
84 96 111
86 98 114
89 102 118
94 106 123
96 110 127
97 109 126
94 107 124
96 108 125
94 107 123
94 106 123
90 102 117
88 100 116
82 93 107
79 90 104
74 84 97
66 75 87
59 67 77
49 55 64
36 41 47
28 32 37
37 42 49
40 46 53
49 55 64
58 66 76
64 73 85
62 70 81
62 71 82
57 65 75
60 68 80
58 65 75
64 72 83
57 66 76
60 68 79
66 75 86
63 72 83
78 89 102
75 86 99
69 78 90
62 71 82
53 60 69
41 46 54
32 36 42
28 32 37
19 21 25
23 26 30
30 34 39
33 38 44
32 36 42
30 34 40
33 37 43
37 43 50
37 42 49
41 46 54
42 48 55
38 43 50
38 43 50
32 36 41
21 24 28
28 32 37
33 38 44
39 44 52
43 49 56
42 48 55
34 38 44
32 36 42
41 46 53
42 48 56
38 43 49
42 48 55
45 51 59
34 39 45
38 43 50
43 49 56
48 55 63
49 55 64
44 50 58
46 50 56
59 64 71
43 48 54
38 42 46
22 24 27
15 16 18
17 19 21
31 34 39
41 45 51
53 58 65
48 53 60
51 55 62
54 59 66
49 54 61
50 55 61
49 53 60
38 41 46
38 42 47
35 39 44
37 41 46
37 40 45
36 39 44
32 36 40
29 32 36
24 27 30
22 24 27
28 31 35
19 21 24
13 15 16
21 23 26
30 33 37
41 45 50
40 44 49
38 42 48
41 45 51
41 46 52
45 49 55
46 50 57
45 50 56
46 50 56
46 50 57
43 47 53
42 46 52
44 48 54
46 51 57
53 59 66
54 59 66
56 61 68
49 54 62
55 61 69
48 53 59
46 51 57
48 53 59
44 49 55
51 55 62
44 49 55
44 49 55
44 48 54
36 40 45
48 52 59
48 53 60
55 60 68
51 57 64
52 57 64
55 60 67
63 68 76
58 63 71
52 58 65
64 69 77
58 64 71
61 67 76
55 60 68
49 54 60
53 58 65
47 51 57
41 45 51
46 50 56
45 49 56
47 52 58
48 53 59
44 49 55
41 45 51
42 46 52
43 47 52
35 38 43
45 49 55
51 56 63
47 52 59
63 69 77
58 64 72
59 64 71
58 64 72
74 81 90
52 58 65
65 72 81
65 72 81
65 71 80
58 64 72
65 72 81
68 75 85
57 62 70
70 77 87
60 66 74
64 70 78
54 59 66
48 52 59
46 50 56
39 43 49
34 37 41
28 32 36
24 26 29
14 15 17
17 18 21
29 32 36
41 45 50
43 48 54
53 59 66
58 64 72
55 61 69
60 67 75
74 81 91
76 83 93
64 71 81
72 79 88
66 72 81
56 62 70
71 78 87
59 65 73
64 70 79
54 59 66
48 53 60
45 49 55
50 55 62
45 49 55
88 101 117
108 122 141
109 124 143
113 128 148
111 127 148
112 127 147
109 124 144
107 122 141
101 114 132
99 112 130
97 110 126
95 107 123
92 104 120
95 107 124
93 106 123
97 110 127
98 111 129
100 114 132
101 115 133
107 121 140
105 119 138
109 123 141
106 120 140
106 120 137
106 121 139
108 122 141
108 123 142
102 116 134
95 108 124
83 94 108
67 75 87
55 62 72
50 57 66
46 52 60
46 53 61
43 49 57
47 53 61
48 55 63
47 54 62
47 53 61
46 52 61
47 53 61
45 51 59
42 47 54
45 51 58
42 48 56
39 44 50
37 42 49
38 43 50
37 42 49
44 50 57
42 48 55
41 47 55
36 41 48
31 35 41
30 35 40
38 43 50
39 45 52
47 53 62
48 55 63
45 51 59
37 42 49
36 40 47
37 42 49
41 47 55
54 62 71
64 72 84
66 74 85
66 75 86
56 63 73
62 70 80
62 71 83
69 78 91
75 85 99
76 87 101
77 88 102
77 88 101
75 85 98
81 91 106
82 93 107
84 96 111
83 94 109
84 95 111
83 94 109
81 92 107
70 80 93
56 64 74
47 53 61
49 55 63
55 63 73
50 57 67
48 54 62
45 51 59
47 53 61
42 48 56
42 47 55
42 47 55
40 45 53
32 36 42
37 42 49
40 45 52
51 57 66
52 60 69
57 65 75
58 65 75
58 65 76
62 71 82
69 78 90
67 76 88
68 78 90
70 80 92
68 77 89
65 74 86
67 76 88
67 75 87
68 78 90
67 76 88
65 74 85
70 80 93
63 71 82
67 76 88
71 81 94
62 71 83
59 66 76
56 63 73
58 67 77
56 64 74
55 63 73
51 58 67
46 52 61
44 50 58
48 55 63
55 62 72
70 79 92
62 70 82
49 56 64
47 54 62
51 58 67
57 65 75
57 64 74
56 63 72
58 67 77
67 76 87
69 79 91
73 83 96
71 81 94
68 77 90
64 73 84
56 64 74
40 46 53
39 44 51
44 50 58
54 61 71
67 76 88
74 84 97
80 91 106
96 108 125
92 105 122
90 102 118
88 100 116
87 99 115
87 99 114
82 92 107
72 82 94
58 66 76
48 54 62
35 40 46
38 43 50
47 53 62
62 70 81
68 77 89
72 82 95
80 91 106
86 98 113
86 98 114
83 94 108
77 87 101
73 83 96
72 82 95
73 82 95
69 78 90
72 81 94
73 83 96
73 82 94
67 77 89
65 74 85
63 72 83
56 63 73
51 58 67
41 47 54
38 44 51
45 52 60
53 60 70
56 64 74
62 71 82
66 75 87
70 79 92
72 81 94
79 90 104
83 95 109
88 100 116
88 100 115
85 97 112
81 91 105
69 79 91
57 65 76
55 63 73
49 56 65
50 57 66
48 54 63
46 52 60
35 40 46
27 31 36
26 29 33
34 39 45
40 45 52
49 56 65
56 63 73
57 65 75
61 69 80
65 74 86
65 74 86
73 83 96
76 86 100
75 85 99
72 81 93
63 72 83
57 64 74
52 59 68
45 51 59
38 43 50
27 31 35
43 49 56
49 56 65
50 57 66
54 61 71
60 68 78
63 72 84
67 76 88
73 83 96
70 79 92
64 73 85
62 70 81
56 64 74
52 59 69
45 51 59
38 43 50
36 42 48
32 36 42
37 42 49
43 48 56
44 49 57
43 50 58
50 56 65
54 62 72
54 61 71
54 61 71
56 63 74
60 68 78
66 75 86
67 76 89
69 79 91
69 78 90
68 78 90
65 74 85
59 67 77
46 52 61
48 52 58
53 58 65
34 37 42
34 38 42
32 36 40
11 13 14
18 20 23
36 39 44
39 43 48
58 63 70
60 66 73
56 62 69
51 57 64
55 60 66
49 54 60
43 47 53
41 46 51
42 47 53
43 47 52
44 49 54
50 55 62
53 58 64
43 47 52
35 38 43
26 28 32
28 31 35
27 30 34
22 24 27
15 16 18
23 25 28
30 33 36
35 39 43
43 47 53
38 42 47
36 40 45
37 41 46
38 42 47
41 45 50
40 44 50
47 52 57
39 43 48
33 36 41
37 41 46
44 48 54
44 49 54
47 52 59
50 55 62
50 55 62
49 54 61
47 52 58
49 54 60
53 58 65
48 52 59
47 52 58
45 50 55
43 48 53
45 50 56
45 49 55
41 46 52
54 59 66
54 59 66
54 59 66
53 59 66
59 65 73
64 69 77
55 61 68
55 61 68
59 65 73
55 61 68
52 57 64
61 66 74
54 59 66
45 50 56
49 54 60
48 52 59
45 50 56
41 45 50
42 46 51
36 40 45
39 43 48
41 45 50
42 46 52
44 48 54
44 49 55
44 48 54
50 55 62
59 65 72
59 65 73
53 59 66
62 68 76
56 61 69
58 64 72
57 63 71
64 71 79
68 74 83
70 77 86
58 64 72
68 75 84
72 79 89
67 73 82
63 69 77
61 67 75
64 71 79
58 63 71
55 61 68
48 53 59
41 46 51
36 39 44
27 29 33
19 21 23
13 15 17
25 27 31
37 40 45
46 51 57
51 56 63
56 61 68
62 68 77
61 67 75
60 66 74
59 65 73
70 77 86
62 69 77
61 67 74
60 66 74
66 72 80
60 65 73
60 66 74
55 60 67
55 60 68
52 58 65
44 48 55
52 58 65
112 127 146
126 144 167
125 142 164
121 138 161
121 137 159
119 136 157
118 135 157
118 133 154
116 131 150
116 132 153
115 130 150
106 121 141
109 124 144
110 124 144
110 125 144
111 127 147
109 124 143
108 122 140
107 121 140
109 125 145
112 127 146
110 125 144
113 128 148
113 128 148
116 133 154
117 133 154
115 131 152
115 130 150
111 126 147
109 124 143
102 116 134
95 108 125
90 102 117
84 96 111
74 84 98
64 73 84
56 64 74
56 63 73
48 54 63
41 47 54
36 41 48
45 51 59
44 50 58
47 53 62
49 55 64
41 46 53
38 43 50
33 37 43
27 30 35
25 29 33
33 38 43
40 46 53
48 54 63
50 56 65
45 52 60
54 61 71
61 69 80
68 77 89
66 75 87
66 76 88
68 77 89
71 80 92
66 75 86
53 60 70
47 54 62
39 45 51
46 53 61
52 59 68
52 59 69
47 53 61
38 43 50
30 34 40
32 36 42
35 39 45
38 43 49
45 51 59
56 63 72
55 63 73
57 65 76
60 68 78
63 71 83
64 72 83
65 74 85
59 68 78
47 53 62
33 38 44
36 41 47
53 61 70
67 76 89
72 83 96
80 91 106
85 97 113
88 100 115
93 105 122
94 106 123
92 105 122
92 104 120
88 100 116
80 91 106
78 89 103
78 88 102
77 87 100
71 81 93
61 69 80
51 58 67
58 65 75
58 66 76
57 64 74
58 65 76
55 62 72
54 61 70
48 54 62
42 48 55
43 49 57
44 50 58
46 52 60
48 55 64
52 59 68
58 66 77
59 66 77
61 69 80
72 82 95
76 87 100
81 92 107
81 92 106
81 91 105
77 87 101
77 87 101
73 83 96
69 78 90
65 74 85
60 68 78
55 63 73
48 55 64
56 64 74
59 68 79
72 82 95
82 93 107
91 103 119
96 109 126
97 110 127
96 109 125
92 104 120
88 99 115
82 93 108
71 81 94
66 75 87
59 67 78
52 59 68
35 39 45
35 40 46
39 45 52
53 60 69
66 75 86
80 90 105
88 100 116
92 105 122
95 107 123
92 104 121
88 100 115
82 94 109
81 92 107
78 89 103
76 86 100
77 88 102
82 93 107
81 92 106
78 89 102
73 83 96
70 79 91
67 76 88
55 63 74
48 55 64
45 51 59
53 60 70
55 62 72
54 62 71
47 53 62
45 51 59
55 62 72
53 61 70
51 59 68
50 56 65
51 58 68
53 60 69
50 57 66
52 59 69
51 58 68
48 55 64
52 59 68
47 54 62
42 47 54
38 43 50
42 48 56
40 46 53
37 42 49
29 33 39
24 27 32
29 33 38
32 36 42
35 39 46
41 47 54
50 57 66
53 60 70
50 57 66
49 56 65
49 56 65
52 59 69
55 63 72
49 56 65
51 58 66
48 54 63
43 49 57
42 48 56
44 50 58
42 48 55
35 40 46
28 32 37
33 38 44
40 46 53
47 54 63
47 53 62
51 58 68
48 55 63
50 57 65
55 63 74
57 65 76
57 65 75
57 65 76
60 68 79
66 75 87
75 86 99
83 93 108
80 91 105
82 94 109
83 94 109
84 96 111
87 99 114
84 96 111
81 92 107
71 81 94
62 70 81
57 65 75
46 52 60
32 36 42
26 30 35
39 45 52
49 55 64
55 63 73
60 69 80
55 62 72
54 61 71
54 61 71
52 59 68
46 53 62
41 46 54
42 48 55
42 47 55
46 53 61
54 61 71
53 61 70
50 57 67
48 54 63
48 54 63
51 58 67
55 63 73
54 62 72
53 60 69
52 58 67
56 62 69
45 50 56
34 38 43
33 36 41
28 31 35
16 18 20
23 25 28
38 42 47
49 54 60
56 61 69
51 57 64
68 75 84
60 66 73
63 69 77
51 56 63
51 56 63
42 46 52
45 50 56
46 51 57
52 56 63
50 54 61
50 55 61
40 43 49
30 33 37
30 33 37
34 38 42
30 33 38
23 25 29
17 19 21
18 20 22
30 33 37
31 35 39
33 37 41
34 38 42
28 31 35
29 32 36
30 33 38
30 33 37
33 36 40
34 38 42
30 33 37
31 34 38
41 45 50
35 38 43
40 43 48
41 45 51
42 46 52
49 54 60
50 55 62
50 55 61
51 56 62
48 52 58
48 53 59
50 55 61
56 61 68
50 55 61
51 55 62
56 62 69
51 56 63
56 62 68
62 68 76
57 62 70
48 53 59
56 62 69
58 64 72
50 55 61
53 59 66
52 57 64
51 57 64
54 59 66
55 60 67
48 52 59
46 51 57
53 58 64
40 44 49
40 44 49
34 38 42
36 40 45
35 38 43
35 38 43
41 45 50
43 47 53
44 48 55
49 54 60
50 55 61
50 55 62
58 64 71
56 62 70
65 71 79
66 71 79
60 65 73
57 63 70
76 83 92
71 78 87
63 69 77
70 77 86
70 77 86
63 69 78
81 89 99
65 72 81
68 74 83
51 56 63
52 57 64
46 51 57
41 46 51
35 38 43
33 36 41
28 31 35
20 22 24
15 17 19
29 32 37
36 40 44
50 55 62
49 54 61
58 63 71
57 63 70
53 59 67
59 65 73
55 61 70
58 63 72
52 57 64
52 57 63
55 61 68
65 71 79
55 60 67
45 50 57
53 59 66
44 49 55
53 58 64
38 42 48
86 98 114
102 116 134
96 109 125
98 112 130
91 103 120
88 99 115
80 91 105
77 87 100
73 83 97
71 81 94
70 80 92
65 74 85
65 74 86
55 62 72
58 66 76
56 64 74
65 74 86
66 75 87
77 87 101
78 89 102
77 88 102
79 89 103
75 85 98
76 87 100
74 85 98
74 84 97
78 88 102
71 81 94
77 87 101
79 90 104
78 89 102
80 91 105
75 85 98
66 75 88
67 77 89
66 74 86
63 72 84
52 60 69
41 46 53
25 28 33
39 44 51
57 65 75
66 75 87
66 75 87
70 80 93
73 83 96
69 78 91
67 77 89
59 67 77
48 55 63
40 46 52
35 39 45
37 42 49
37 42 48
41 46 53
43 49 56
43 49 56
45 51 59
46 53 61
54 62 71
58 67 77
56 63 73
58 66 76
59 67 77
64 73 84
64 73 84
64 72 84
61 70 81
59 68 79
53 60 69
52 59 68
49 56 65
55 62 72
64 73 84
70 80 93
73 82 95
81 92 106
90 102 118
97 110 126
103 117 135
105 119 138
108 123 141
105 119 137
103 117 136
95 108 125
90 103 119
89 100 115
76 87 100
82 93 107
75 85 98
74 84 97
71 80 93
74 84 97
76 86 99
77 88 101
75 85 98
75 85 98
81 92 107
86 97 113
87 99 114
85 96 111
83 94 109
80 91 105
78 88 101
77 88 101
78 89 103
81 92 106
83 95 110
85 96 111
90 102 118
92 105 122
96 109 127
102 116 134
110 125 144
111 126 145
115 131 151
114 130 150
115 130 151
113 128 149
107 121 141
99 112 130
93 106 122
87 99 115
82 94 108
76 87 101
72 82 94
71 81 93
64 73 85
68 77 89
64 73 85
65 74 86
63 72 83
57 65 76
51 57 66
52 59 68
57 64 74
54 61 71
53 59 69
53 60 69
55 62 72
60 68 78
60 68 78
54 62 71
53 60 69
49 56 65
50 57 66
50 57 66
51 58 67
44 50 57
36 41 47
28 31 37
30 34 40
30 34 39
35 39 46
42 48 56
47 54 62
50 58 67
51 58 67
49 56 65
54 61 70
55 62 71
54 61 71
54 61 71
56 64 74
56 64 74
55 63 72
50 57 66
46 53 61
42 47 55
39 44 51
33 37 43
30 35 40
26 29 34
31 36 42
48 55 63
52 59 69
53 61 71
47 53 61
50 56 65
46 52 60
56 63 73
57 65 75
60 69 80
68 77 89
76 87 100
84 95 111
88 101 117
87 99 115
87 99 114
86 98 113
81 92 106
79 90 105
80 91 104
82 93 107
84 95 110
79 90 103
74 84 97
62 71 82
59 67 77
52 60 69
43 49 57
30 34 40
33 38 43
42 47 55
54 62 71
62 71 82
75 85 98
84 95 111
92 104 120
93 106 122
93 107 124
94 106 122
87 98 113
80 91 106
71 81 94
62 70 81
65 75 87
57 65 75
53 61 71
53 61 70
61 69 80
65 74 86
65 75 87
66 74 85
61 70 81
58 66 77
54 62 71
56 63 72
62 71 82
68 77 89
74 84 97
74 85 98
81 91 106
68 77 89
63 72 83
60 68 79
64 73 84
68 78 90
73 83 97
80 90 104
85 96 112
90 102 118
88 100 116
82 94 108
76 87 100
70 80 92
59 67 78
52 59 69
43 48 56
34 38 44
33 38 44
26 29 34
28 31 36
45 52 60
54 61 71
64 72 84
67 77 89
76 86 99
77 88 102
80 91 105
76 87 101
77 87 101
75 86 99
78 89 103
77 88 101
74 84 97
73 83 96
71 80 93
71 81 94
64 72 83
71 80 92
54 61 69
41 46 52
34 37 42
26 28 32
22 24 27
14 16 18
22 24 27
41 46 51
54 59 66
63 70 78
65 71 79
62 68 76
76 83 93
62 68 76
64 70 77
44 48 54
49 54 61
52 56 63
47 51 57
48 53 60
54 58 65
48 53 59
45 49 54
41 45 50
35 39 44
31 34 39
22 24 28
16 18 20
14 15 17
14 15 17
22 25 28
30 33 37
32 35 39
25 28 31
21 23 26
21 23 26
24 26 29
26 29 32
26 28 32
22 24 27
30 32 36
27 29 33
28 30 34
30 33 38
34 38 42
39 43 47
45 50 55
44 48 55
47 51 57
52 58 65
49 54 61
57 62 70
54 60 67
45 50 56
52 58 65
60 65 73
54 60 68
63 69 77
60 65 73
57 63 71
55 60 68
57 63 71
64 69 77
51 56 62
51 56 63
57 62 69
49 54 61
55 61 68
47 51 57
54 59 66
49 54 60
49 54 60
47 51 57
45 49 54
40 44 49
36 39 44
36 39 44
37 41 46
33 36 40
37 41 45
46 50 56
39 43 48
42 46 52
47 51 57
47 51 58
57 63 70
57 63 70
52 58 65
58 64 71
56 62 70
71 78 87
59 65 74
69 77 86
74 81 90
74 81 91
67 73 82
63 69 78
63 69 78
62 69 79
68 75 83
60 66 74
47 52 58
47 52 58
39 44 49
33 36 41
35 38 43
26 29 32
19 21 23
22 24 27
39 43 48
49 54 61
50 54 61
45 50 56
53 58 66
49 54 61
52 57 64
53 59 66
48 53 60
44 48 54
57 63 70
52 57 64
51 56 62
59 64 72
51 56 63
50 55 61
45 49 55
44 48 54
56 62 71
63 71 83
66 75 87
64 73 85
65 74 86
59 68 79
61 69 80
65 73 85
68 78 90
73 83 97
78 88 101
79 90 103
79 90 105
79 90 104
82 93 108
76 86 100
74 84 97
78 89 102
75 86 99
67 77 89
70 80 93
69 79 91
60 68 79
53 60 70
41 47 54
35 40 46
36 41 48
48 54 62
52 59 68
51 59 68
44 50 58
30 34 39
32 36 41
37 42 48
41 47 54
43 49 57
39 45 52
35 39 46
35 39 46
36 41 48
37 42 49
36 41 47
33 38 44
42 48 55
47 53 61
45 51 59
51 58 67
52 60 69
38 43 50
36 41 48
30 34 39
25 28 33
31 35 41
27 31 36
34 39 45
39 45 52
43 49 57
41 47 54
53 60 69
57 65 76
56 64 74
63 72 83
65 74 85
60 68 79
56 63 74
51 58 68
43 49 57
39 44 52
36 41 47
30 34 40
32 37 43
31 36 41
30 35 40
36 40 47
31 35 41
27 31 36
25 28 33
28 32 37
41 46 53
54 61 71
73 82 95
84 96 111
98 111 128
103 118 137
105 120 139
110 125 144
111 127 147
116 133 154
113 129 149
112 127 146
109 123 142
107 121 139
103 117 135
102 117 136
100 114 133
94 106 123
86 98 114
76 86 100
67 76 88
66 74 86
72 81 94
69 78 90
71 80 93
71 81 93
67 77 89
66 75 87
63 71 82
62 71 82
57 65 76
59 67 77
68 78 90
80 92 107
94 107 123
98 111 129
104 118 136
108 123 142
108 122 142
108 122 141
105 120 139
106 119 137
104 118 136
101 116 134
96 109 126
93 105 122
88 99 114
85 96 112
80 90 103
69 79 91
58 66 77
49 56 65
48 55 63
52 58 67
50 56 65
48 55 64
49 55 63
54 61 70
55 62 72
68 77 89
74 84 98
77 88 102
83 94 108
82 93 108
82 93 107
82 93 108
84 96 111
82 93 108
76 86 100
70 79 91
61 70 81
54 61 71
50 57 66
44 50 57
43 49 56
43 49 57
45 52 60
55 62 72
61 70 80
60 68 78
63 71 82
64 73 85
65 74 85
71 81 93
75 85 98
76 86 99
74 84 96
74 83 96
69 78 90
63 72 83
53 60 70
50 56 65
38 43 50
28 32 37
29 33 38
33 37 43
33 37 43
31 35 40
25 29 33
30 34 39
33 37 43
35 40 46
38 43 50
44 50 58
45 50 58
51 58 67
43 50 58
45 51 59
46 52 61
49 56 65
53 60 70
53 60 69
52 59 69
53 60 69
51 58 67
56 64 74
52 59 68
57 64 74
57 65 76
57 64 74
58 66 76
56 63 73
52 59 68
50 57 66
41 46 54
27 31 36
24 27 31
31 36 41
42 47 55
47 53 61
61 69 80
66 75 87
74 84 97
83 94 108
85 97 113
92 104 120
96 109 126
95 108 126
91 103 119
87 98 113
82 94 108
84 95 109
81 92 107
79 90 104
80 91 105
81 92 106
80 91 105
76 86 100
72 82 95
71 81 94
69 78 91
65 75 86
61 69 80
51 58 68
47 53 62
43 49 57
46 53 61
44 50 58
36 40 47
28 32 37
31 35 40
44 50 58
58 65 76
68 77 90
73 83 96
76 86 99
77 88 102
76 86 100
77 87 100
70 80 93
74 84 97
68 77 89
74 84 96
80 91 105
82 94 109
78 89 103
79 90 104
65 74 85
63 72 83
50 57 67
45 51 60
50 57 66
54 62 71
61 69 79
59 67 78
59 67 78
63 71 82
68 77 90
77 88 102
79 89 103
76 86 100
79 90 104
76 86 100
85 96 112
95 108 125
97 110 127
71 80 92
48 52 59
33 36 41
23 25 28
19 21 24
14 16 18
24 26 29
38 42 47
53 58 65
63 69 77
68 74 83
79 87 97
63 70 79
64 71 79
55 60 68
56 62 70
51 55 62
45 50 56
46 51 57
50 55 62
56 62 69
53 58 65
48 53 59
43 47 53
37 40 45
32 35 39
24 27 30
23 25 28
13 14 16
21 23 26
28 31 35
29 32 36
31 34 38
25 28 31
18 20 22
14 15 17
13 15 16
11 12 14
8 9 10
13 15 16
14 16 18
16 17 19
27 30 33
30 33 37
33 37 42
39 43 48
48 52 58
44 48 54
55 60 67
54 60 67
55 61 68
62 68 76
51 57 64
47 52 58
52 58 65
60 66 74
58 63 71
62 68 76
63 69 78
54 60 67
60 66 74
60 65 73
53 58 65
52 57 64
48 53 59
47 52 59
53 57 64
48 53 59
52 57 64
44 49 54
51 56 62
48 53 60
36 39 44
33 36 41
37 40 45
35 39 44
35 38 43
35 39 44
33 37 41
35 39 44
43 48 53
45 50 56
48 53 59
54 59 66
56 62 69
58 63 70
52 57 65
67 73 82
63 69 77
65 72 80
61 67 75
77 84 93
63 70 79
67 74 83
70 77 86
59 65 73
62 68 76
61 67 75
50 56 63
48 53 60
46 50 55
40 44 50
40 44 49
37 41 45
31 34 38
24 26 29
14 16 18
29 31 35
37 41 46
42 46 51
48 53 59
43 47 52
50 55 61
51 56 63
46 51 57
47 51 57
44 48 54
46 50 56
44 48 54
54 59 66
56 61 69
52 57 64
40 45 50
46 50 57
45 49 55
52 58 67
78 88 102
80 91 106
81 92 106
78 89 102
73 83 96
68 78 90
64 73 84
68 77 89
70 80 92
74 83 95
73 84 97
77 87 101
74 84 97
85 97 112
93 105 121
93 105 122
94 107 123
87 99 115
84 95 109
77 88 102
72 82 95
66 74 86
65 74 86
54 61 71
51 59 68
53 60 70
50 57 67
52 59 69
52 59 69
52 60 69
49 56 65
40 45 52
40 45 53
41 47 54
45 52 60
41 46 53
38 43 49
39 44 51
33 38 44
28 32 37
30 34 40
32 37 42
32 36 41
30 34 39
33 37 43
37 43 49
35 40 46
34 39 46
31 35 41
26 29 34
28 32 37
45 51 59
54 62 72
61 70 81
58 67 77
55 62 72
56 64 74
56 63 73
56 64 73
59 67 78
63 73 84
61 70 80
58 66 77
55 63 73
50 58 67
46 53 62
50 57 66
54 61 71
50 57 66
40 46 53
39 44 51
37 42 49
39 45 52
43 48 56
46 52 60
49 55 63
41 46 53
39 44 51
37 42 48
30 34 40
38 43 50
42 47 54
48 54 62
48 54 63
54 62 73
61 69 80
62 70 81
58 66 76
54 61 71
62 70 81
69 78 90
72 82 95
66 75 87
65 74 86
52 60 69
48 55 63
46 52 60
47 53 62
41 47 55
45 52 60
47 53 62
52 59 68
54 62 71
51 58 66
40 45 53
41 46 54
48 55 63
51 58 67
52 60 70
51 58 67
49 55 64
48 54 62
54 62 71
59 67 77
54 61 71
46 53 61
47 54 62
50 57 66
59 67 77
59 67 78
50 56 65
44 50 58
40 45 52
32 36 42
28 32 37
29 33 38
38 43 49
42 47 55
56 64 74
62 71 82
70 79 91
76 86 100
81 92 107
86 97 112
87 99 114
88 100 115
89 101 118
78 88 101
78 88 102
76 87 101
72 82 94
62 71 82
54 61 71
50 56 65
45 51 59
53 61 70
60 68 79
61 69 80
61 69 79
54 62 72
55 63 73
45 51 59
26 30 35
37 42 48
59 68 78
73 83 96
84 96 111
88 100 116
92 104 120
96 109 125
96 108 124
96 108 124
92 104 120
94 107 123
90 103 120
89 102 118
86 98 113
83 94 109
79 90 103
71 81 93
65 74 86
59 67 78
46 52 61
38 44 51
35 40 46
30 34 39
33 38 43
39 44 50
43 48 56
45 51 59
55 63 73
62 70 81
66 76 88
69 78 91
66 75 87
67 76 88
68 77 89
69 79 92
73 83 96
70 80 93
69 78 90
71 80 93
72 83 96
70 80 93
68 77 90
67 77 89
63 71 83
60 68 79
53 60 70
48 54 63
48 54 63
45 51 59
37 43 50
33 37 43
31 36 41
28 32 37
30 34 39
31 35 41
33 37 43
37 42 48
37 42 49
37 42 49
44 50 58
53 60 70
61 69 80
61 69 80
64 73 85
61 70 81
62 70 82
58 66 76
53 59 68
54 61 71
44 51 60
44 50 58
47 54 63
49 56 65
50 57 65
44 51 59
44 50 58
36 41 47
41 46 53
43 49 57
51 58 67
51 58 67
48 55 64
53 61 71
60 68 78
61 69 79
66 75 87
68 78 90
76 86 99
83 94 109
89 102 118
95 108 124
95 108 125
96 109 126
97 111 128
103 117 135
107 121 140
111 127 147
115 131 151
117 133 154
118 134 154
115 131 152
116 131 151
116 132 152
107 122 142
107 122 141
104 118 137
99 113 131
97 110 126
91 104 121
93 105 121
86 97 112
73 83 96
69 79 92
53 60 70
33 38 44
24 27 31
41 47 54
57 64 74
65 73 85
72 82 95
78 88 102
81 92 107
66 75 86
37 41 46
32 35 39
29 31 35
15 16 18
9 10 11
22 24 27
37 40 45
46 51 57
52 57 64
69 76 85
66 73 81
67 73 81
60 65 72
64 69 77
51 56 63
51 56 63
46 50 57
51 57 64
59 64 72
62 67 75
54 59 67
45 50 57
48 53 59
39 43 48
33 36 41
32 35 39
21 23 26
13 14 16
23 25 28
26 29 33
31 34 38
29 32 36
20 22 25
10 10 12
17 19 21
26 29 32
18 20 23
19 21 23
14 16 18
14 16 18
17 19 21
19 21 24
29 32 35
31 34 38
41 45 51
44 48 54
47 52 58
51 56 63
59 65 73
58 63 71
60 66 74
69 75 84
66 72 80
64 70 79
56 62 70
65 72 81
62 68 77
64 70 79
57 62 70
49 54 61
48 53 59
46 51 57
48 53 59
46 51 57
45 50 56
55 60 68
53 58 64
44 48 54
42 46 51
37 41 46
37 41 46
32 36 40
37 41 46
39 43 48
32 35 40
34 38 43
42 46 51
38 41 46
40 44 49
40 44 50
55 61 68
49 54 60
47 52 58
53 58 65
54 60 68
62 68 76
57 63 70
66 72 80
66 72 81
73 80 90
64 70 79
74 81 91
77 85 94
76 83 92
67 73 82
53 58 65
53 58 66
47 52 59
42 47 53
36 40 45
38 41 46
31 35 39
27 29 32
15 17 19
16 17 20
25 28 31
34 37 41
37 41 46
40 44 49
36 39 45
44 49 54
38 42 47
41 45 50
43 47 52
43 47 53
51 56 63
49 54 60
52 57 63
49 53 60
48 52 59
57 62 69
39 43 49
58 66 76
77 87 100
72 82 94
68 77 89
65 74 86
60 68 79
51 58 67
44 50 58
46 52 61
45 51 59
47 53 61
44 50 58
57 65 75
66 76 88
73 83 96
76 86 100
74 84 97
72 81 94
71 80 93
67 76 87
61 69 80
52 59 69
46 53 61
41 47 54
34 39 45
36 41 47
36 41 48
40 46 53
55 63 73
64 72 84
67 76 88
71 81 94
74 84 97
76 86 99
79 90 104
81 92 106
85 96 112
84 95 110
94 107 123
92 105 121
84 95 109
80 91 105
79 89 103
72 82 95
63 72 84
57 65 75
45 51 59
29 33 38
24 28 32
36 41 47
47 53 62
51 58 68
60 68 78
69 79 92
68 77 89
68 77 90
63 71 82
50 57 66
45 51 59
43 49 57
41 47 54
39 45 52
42 47 55
48 55 64
54 62 72
59 67 77
63 71 82
64 72 84
59 67 77
51 58 68
48 55 64
34 39 45
23 26 31
37 42 48
54 62 71
72 81 94
83 94 109
92 104 120
96 109 126
91 104 121
88 101 117
89 101 117
89 101 117
91 104 120
83 95 109
76 86 100
72 82 95
62 70 81
50 57 66
50 56 65
47 54 62
42 48 55
34 39 45
29 33 38
33 37 43
37 42 48
35 40 47
34 39 45
27 31 36
29 33 38
36 41 47
52 59 68
64 73 84
71 81 94
75 85 99
77 88 101
75 85 98
67 77 89
63 72 83
60 69 79
59 67 77
62 71 82
60 68 79
59 67 77
61 69 80
60 69 80
56 63 73
55 62 71
54 61 71
56 63 73
58 66 76
60 68 79
56 64 74
53 60 70
52 59 68
55 63 72
47 53 62
47 53 61
50 56 65
55 62 72
52 58 67
53 60 69
57 65 75
60 68 79
66 75 86
68 77 89
73 84 97
83 94 108
86 98 113
46 52 61
48 54 63
48 54 62
54 62 72
61 69 79
67 76 87
67 76 88
68 77 88
66 75 86
63 71 82
54 61 70
49 55 64
48 55 64
47 53 62
46 52 60
35 40 47
26 30 34
38 43 50
47 54 62
54 61 70
64 73 84
74 83 96
83 94 109
89 101 116
89 102 118
91 104 120
90 102 118
89 100 116
85 97 112
85 97 112
82 93 108
80 91 105
75 85 99
68 77 89
58 66 76
47 54 63
43 49 57
41 47 54
40 45 52
41 47 55
39 44 50
35 40 47
34 39 45
37 42 48
36 40 46
36 41 47
38 43 50
33 37 43
34 38 44
27 31 36
36 40 47
41 47 55
51 58 67
58 66 77
63 72 83
54 61 71
53 60 70
58 66 76
55 62 73
56 64 74
49 56 66
43 49 56
41 46 54
42 47 55
46 52 60
41 46 54
42 47 55
46 52 60
50 57 65
54 61 71
55 62 72
56 64 74
61 69 80
66 76 88
71 80 93
66 75 87
60 68 79
55 62 72
55 62 72
61 69 80
65 74 85
70 80 93
69 78 91
65 73 85
67 76 88
66 74 85
57 65 76
42 47 55
36 41 47
32 36 42
37 42 48
39 45 52
52 59 68
52 59 69
59 66 76
60 68 79
69 78 90
73 83 96
81 91 105
85 96 112
85 97 112
90 102 119
97 110 127
102 116 134
107 122 141
108 122 140
109 124 143
113 128 148
119 135 156
124 141 163
125 143 166
125 142 164
127 145 167
133 150 173
128 145 169
129 146 168
126 143 165
116 133 154
111 126 145
112 126 146
109 123 142
103 117 135
94 106 122
82 93 107
69 78 90
50 57 65
34 38 44
23 27 31
32 36 42
41 47 54
44 50 57
39 44 51
43 48 56
48 55 63
63 72 83
72 81 94
84 95 110
94 106 123
102 116 134
85 97 112
37 41 46
34 37 41
18 20 23
8 9 10
9 10 12
21 23 26
35 38 43
43 47 53
50 56 63
60 66 74
62 68 77
64 71 79
53 59 66
57 62 70
53 59 66
49 54 60
56 61 69
62 67 75
58 64 72
60 66 74
59 65 72
55 60 67
49 54 60
44 48 54
34 37 42
35 38 43
22 24 27
11 12 13
18 20 22
23 25 28
20 23 26
14 15 17
12 14 16
22 24 27
30 33 37
35 38 42
30 33 37
27 30 33
27 30 34
21 23 26
12 13 15
18 20 23
23 25 29
35 39 43
43 48 54
52 57 63
58 63 71
60 66 74
54 59 67
53 59 67
65 72 80
69 76 84
65 72 81
66 73 81
68 75 84
56 61 69
52 57 64
50 55 62
40 44 49
37 41 46
47 52 58
50 55 61
52 57 64
49 54 60
39 43 49
46 50 56
39 43 48
40 44 50
42 46 51
47 51 57
37 41 46
41 45 51
40 44 49
42 46 52
39 43 48
36 40 45
41 45 51
37 41 46
48 53 60
55 60 67
55 60 67
54 59 66
60 65 73
54 59 66
55 60 68
61 66 74
74 81 90
69 76 86
71 78 88
80 87 97
68 74 83
72 78 87
70 77 86
60 66 74
57 62 70
51 55 62
48 53 59
40 44 50
38 41 47
33 36 40
24 27 30
20 22 25
10 11 12
22 25 27
24 27 31
33 36 40
39 43 49
37 41 46
37 40 45
36 39 44
32 36 40
33 37 41
40 44 50
46 50 56
39 43 48
59 64 71
45 50 56
48 53 59
45 49 55
46 51 57
52 58 67
51 58 67
42 47 54
31 36 41
35 40 46
33 37 43
26 29 34
44 50 57
64 73 85
70 79 92
77 88 102
85 96 111
88 100 115
94 107 123
96 109 126
102 116 134
101 115 134
97 111 129
92 105 121
92 105 122
91 104 121
81 92 107
66 74 86
47 53 61
35 40 46
41 46 53
45 51 59
50 57 66
58 65 76
64 72 84
68 77 89
68 77 89
71 80 93
70 80 93
77 88 102
80 91 105
77 88 101
70 79 91
62 70 81
60 68 78
63 72 84
69 79 91
74 83 96
75 85 98
73 83 95
69 79 91
72 82 94
71 80 93
69 79 91
64 73 84
60 68 79
62 71 82
60 68 79
63 72 83
60 68 78
61 69 79
61 69 79
61 70 81
64 72 84
68 78 90
68 77 89
73 84 97
79 89 103
82 93 108
92 104 120
91 103 119
92 104 120
88 100 116
88 101 117
84 95 110
77 87 101
63 72 83
45 51 58
27 30 35
49 56 65
66 75 86
77 87 101
86 97 112
90 103 119
96 109 126
103 117 135
107 122 141
109 124 143
110 125 145
106 120 140
105 119 137
101 115 133
103 116 134
105 119 137
102 116 135
103 118 136
98 111 129
89 102 118
86 98 114
81 92 107
83 94 108
85 96 110
84 96 111
84 96 112
89 102 117
90 102 117
93 105 121
99 112 130
105 120 139
106 120 139
104 117 134
104 118 136
102 116 134
98 110 127
94 107 123
91 103 119
86 98 113
85 96 111
76 86 99
75 85 98
73 83 96
73 82 95
72 82 95
72 82 95
76 87 101
79 90 105
83 94 109
88 100 116
93 106 122
94 107 124
95 108 125
93 106 123
92 105 122
95 108 125
100 113 130
101 115 132
95 108 125
90 102 118
86 98 114
74 84 97
67 75 87
53 60 69
45 51 59
36 41 47
27 31 36
46 52 61
44 50 58
38 43 50
27 31 36
29 32 38
34 38 44
35 40 46
39 44 51
35 40 46
24 28 32
28 32 37
39 44 51
41 47 54
38 43 50
23 27 31
39 44 51
58 66 77
72 81 94
82 93 107
85 96 111
88 100 116
87 98 113
80 91 106
77 87 101
71 81 94
64 72 83
52 60 69
49 56 65
44 50 58
48 55 64
52 59 68
49 56 64
42 48 55
38 43 50
31 35 40
25 29 33
20 23 27
26 29 34
25 29 33
30 34 39
39 44 51
43 49 57
40 46 53
41 46 53
38 44 50
39 44 51
45 51 59
49 55 64
53 60 68
53 60 70
55 63 72
54 61 71
53 61 71
54 62 72
54 61 71
56 64 74
61 69 80
57 64 74
52 59 68
56 64 74
59 67 77
66 75 86
75 85 98
75 85 98
73 83 96
70 80 93
71 81 94
68 77 88
57 65 76
48 55 63
37 43 50
27 31 36
27 31 36
34 38 44
41 47 55
52 59 68
65 73 84
69 78 91
79 90 105
79 90 105
88 100 115
91 104 120
92 104 121
90 103 119
87 99 115
82 93 108
75 86 100
68 77 90
61 70 81
54 61 71
45 51 60
33 38 44
38 43 50
46 52 61
59 67 77
73 82 94
79 90 105
85 97 112
93 105 122
98 111 128
99 114 132
101 115 133
102 116 134
109 124 144
111 125 144
109 124 145
108 124 143
112 127 148
108 123 143
115 130 151
114 130 151
114 129 150
113 128 148
115 130 150
110 125 145
105 119 138
103 118 136
100 114 131
96 109 125
95 108 126
86 98 114
80 91 106
72 82 96
66 75 87
60 68 78
48 55 64
27 30 35
28 32 37
44 50 58
56 63 73
57 65 75
66 75 87
72 82 94
74 84 97
80 90 105
82 94 109
84 96 111
86 98 113
91 103 119
95 108 125
91 103 118
54 60 68
38 41 46
18 20 22
7 8 9
18 19 22
18 20 22
27 29 33
41 45 51
46 50 56
54 59 66
60 65 73
60 66 74
53 58 65
60 66 73
58 64 71
59 64 71
57 63 70
60 66 73
57 63 70
61 67 75
55 60 68
51 56 63
50 54 61
39 44 49
39 43 48
29 32 36
24 27 30
13 14 16
12 14 15
12 13 15
12 14 15
17 18 21
24 26 29
30 33 36
28 31 35
29 32 37
26 29 32
25 28 31
22 24 27
14 15 17
14 16 18
26 29 32
28 31 35
37 41 45
44 48 54
53 58 65
60 65 72
59 65 72
59 64 72
68 74 83
61 67 76
65 71 79
63 69 77
66 73 81
58 64 72
53 59 66
50 55 61
47 52 58
41 45 51
46 51 57
46 50 56
43 48 54
46 50 56
47 51 57
47 52 58
44 48 54
38 41 46
38 42 47
42 47 52
41 45 50
39 43 48
38 42 48
40 44 50
38 42 47
43 47 52
49 53 59
45 50 56
52 57 65
53 58 65
65 71 79
55 61 69
49 54 61
57 63 70
62 67 75
59 64 72
62 68 77
69 76 85
67 74 84
58 64 72
70 77 86
63 69 77
66 72 80
64 70 79
54 59 66
46 51 57
42 46 51
38 42 47
31 34 39
24 26 29
19 21 24
19 21 23
10 11 12
19 20 23
28 31 34
32 35 40
33 36 40
32 35 40
31 34 38
33 36 40
38 42 47
37 41 46
43 47 52
41 45 50
45 50 56
46 50 56
53 58 64
45 49 55
41 45 50
43 49 57
46 52 60
42 48 56
42 48 56
42 47 55
39 44 51
40 46 53
42 48 55
49 55 64
49 56 64
47 53 61
47 53 61
45 51 59
47 53 61
44 50 58
37 42 49
33 37 43
40 45 52
41 46 53
34 39 45
41 47 55
43 49 56
43 49 57
42 49 57
42 48 55
48 54 63
54 62 72
65 74 86
75 86 100
82 94 109
86 97 112
87 99 115
82 94 109
80 91 105
77 87 101
85 96 110
88 100 116
86 97 113
82 94 108
76 86 100
70 80 93
67 76 88
67 76 87
63 71 83
62 70 81
62 71 81
67 76 88
71 81 94
80 91 104
85 97 112
90 102 119
88 100 116
88 99 115
88 100 116
87 99 115
83 95 110
81 93 108
79 89 103
76 86 99
77 87 101
81 93 108
85 97 112
87 99 115
89 101 116
95 109 126
102 117 135
105 119 138
114 129 149
114 129 149
105 119 137
103 117 135
97 110 128
89 101 116
86 97 113
72 82 95
71 81 94
65 74 85
62 71 82
61 69 80
63 71 83
73 83 97
75 85 98
74 84 97
79 90 104
84 96 111
89 101 116
93 106 123
102 116 134
100 113 131
98 112 129
100 114 132
99 113 130
98 111 129
96 109 125
97 110 127
95 108 125
99 112 129
101 114 131
101 114 131
104 117 135
107 122 142
110 125 144
116 132 153
119 135 156
124 141 162
123 139 161
116 131 152
113 129 150
108 123 142
109 124 143
107 121 140
104 118 136
98 111 129
91 103 119
85 97 112
72 82 94
70 79 92
68 77 89
67 76 88
66 76 88
67 76 88
61 69 80
58 66 76
59 67 78
56 64 74
59 67 77
61 69 79
67 76 87
69 78 91
76 86 99
83 94 109
85 97 112
83 95 109
82 93 108
82 93 108
71 81 93
66 75 86
66 75 87
63 72 83
64 73 84
59 67 78
50 57 66
43 49 57
32 36 42
26 29 34
20 22 26
25 29 33
26 30 35
28 32 37
27 31 36
33 38 44
40 46 53
36 41 47
32 36 42
35 40 46
44 50 58
56 63 73
64 72 83
71 81 93
78 88 101
83 94 109
85 96 112
86 98 113
81 92 106
69 79 92
60 68 79
54 61 70
51 58 67
49 56 65
43 49 57
36 41 47
31 35 41
42 48 55
41 46 54
34 39 45
33 37 43
27 31 36
25 29 33
38 44 50
46 52 60
48 55 63
52 60 69
48 55 64
48 55 64
51 57 66
49 56 65
53 59 68
60 69 80
61 70 80
61 70 81
61 69 80
59 66 76
53 60 70
49 56 65
48 55 64
54 61 71
65 74 85
74 84 97
77 87 101
80 91 106
83 93 107
83 94 109
88 100 116
87 99 114
86 98 114
86 98 113
81 92 107
80 91 105
72 82 95
61 69 80
46 52 61
31 36 41
33 37 43
45 51 58
55 63 73
64 73 85
67 77 89
77 87 100
84 96 111
90 102 118
94 106 123
95 108 125
88 100 116
81 92 107
78 89 103
73 82 95
68 78 90
62 70 82
57 65 75
57 65 75
48 55 64
33 37 43
26 30 35
37 42 48
43 49 57
56 63 73
66 75 87
78 89 103
80 91 105
86 97 113
86 97 112
84 95 110
81 92 106
78 89 103
80 91 105
76 86 100
74 84 97
80 91 105
83 94 109
86 98 113
89 101 117
91 104 122
95 108 125
101 114 132
100 113 131
94 107 124
90 102 119
85 96 111
83 94 108
70 80 93
62 70 81
49 55 63
42 48 56
38 43 49
35 40 46
36 41 48
34 39 46
40 45 52
45 52 60
48 55 64
57 65 75
62 71 82
69 78 90
68 77 89
72 82 95
68 77 89
63 72 83
62 70 81
59 67 77
61 70 81
58 67 78
59 67 77
55 62 72
39 43 48
49 53 59
23 26 29
10 11 13
18 19 22
11 12 13
19 21 23
30 33 37
38 42 47
55 59 66
63 68 76
57 63 70
56 62 69
59 64 72
62 68 76
61 67 75
60 66 74
61 67 75
55 61 68
58 63 70
56 62 69
51 56 63
53 58 65
42 47 52
35 39 44
39 43 48
30 33 37
24 27 30
23 25 29
25 27 30
25 28 31
29 32 35
27 29 33
25 28 31
23 25 28
17 19 21
21 23 26
16 17 19
11 12 13
19 21 23
23 26 29
29 32 36
36 39 44
47 52 58
42 46 52
49 54 61
54 59 66
59 65 73
66 73 82
69 76 85
65 71 81
68 74 83
65 71 79
54 60 67
49 53 60
53 58 65
48 52 58
44 48 54
52 57 63
50 55 62
43 47 53
47 51 57
41 45 50
46 50 55
39 43 49
48 53 59
40 44 49
44 48 53
43 47 53
33 36 41
37 41 45
39 43 48
45 50 55
43 48 53
50 54 61
56 61 67
54 59 66
54 60 67
63 69 77
52 57 64
56 61 69
56 61 69
64 71 79
67 74 83
63 70 78
66 72 81
58 63 71
58 64 73
59 66 74
58 65 73
53 58 66
52 58 64
46 51 57
41 45 50
37 41 45
27 30 34
24 27 30
24 26 29
27 30 33
23 25 28
11 12 13
13 14 16
20 22 25
26 29 33
24 27 31
36 39 43
32 36 40
36 40 44
30 33 37
36 39 44
40 44 50
41 45 51
43 48 54
42 46 51
48 53 59
55 63 73
71 81 94
65 73 85
53 60 69
49 55 64
49 55 64
46 52 60
47 53 61
48 54 62
43 49 57
50 57 66
60 69 80
58 66 76
60 68 79
49 56 65
44 50 58
46 52 60
45 51 60
52 60 70
56 64 74
59 67 78
69 78 90
79 89 103
82 94 109
83 95 110
81 92 107
78 89 104
80 91 105
84 96 112
83 94 109
86 98 113
87 99 115
90 103 119
97 110 127
95 108 125
91 103 119
92 104 121
95 108 125
92 105 121
89 101 117
91 103 118
89 101 116
85 96 111
90 103 119
93 105 122
94 107 124
93 106 122
92 105 122
92 105 121
94 106 123
99 113 131
97 111 129
99 112 130
92 105 122
88 99 115
81 92 107
80 91 105
80 91 105
76 86 100
70 80 93
64 73 85
61 70 81
60 69 79
59 67 78
51 58 67
33 37 43
38 43 50
52 59 68
55 62 71
60 68 79
63 72 83
66 74 86
67 76 88
66 75 88
65 74 85
61 70 81
56 63 73
47 54 63
40 46 54
34 39 44
36 41 47
39 44 52
43 49 56
46 52 60
47 53 61
39 44 51
34 39 45
31 35 40
25 28 33
33 37 43
37 42 49
41 47 55
42 48 56
46 52 60
40 46 53
49 56 66
49 56 65
61 69 80
66 75 87
71 80 93
81 92 106
92 104 120
97 110 127
101 115 133
103 117 136
102 116 135
101 115 133
97 111 128
91 104 120
87 99 115
82 93 108
71 80 93
54 62 72
45 52 59
48 55 63
51 57 67
56 64 74
55 63 72
55 62 71
50 57 66
49 56 65
56 63 73
52 60 70
59 67 77
48 55 64
39 44 51
49 56 64
46 52 61
46 53 62
48 55 64
55 63 73
54 61 71
51 58 67
49 56 64
46 53 61
44 50 58
48 54 63
52 59 68
50 57 66
49 55 64
37 42 49
34 39 45
38 43 50
45 51 59
42 48 55
36 40 47
35 40 46
45 51 59
48 55 63
47 53 61
46 53 61
38 43 50
28 32 37
20 23 27
26 29 34
28 32 38
31 36 42
34 38 44
42 48 55
48 54 63
51 58 68
54 61 71
53 61 70
56 63 73
55 62 72
57 64 74
56 64 74
54 61 71
59 66 77
58 66 77
62 71 82
66 75 86
65 74 85
70 80 92
69 79 91
71 80 93
63 71 82
54 61 71
53 60 69
57 65 75
57 65 76
61 69 81
63 72 83
64 73 85
72 82 95
79 90 104
83 94 109
82 93 108
81 92 106
80 90 104
75 85 99
65 74 86
62 70 81
57 65 75
55 63 73
52 59 68
44 50 58
36 40 47
36 42 48
45 51 59
44 50 58
41 46 53
42 47 54
39 44 51
42 48 55
48 55 63
48 54 63
50 57 65
41 47 54
33 37 43
30 34 40
39 44 51
46 52 60
52 59 69
56 64 74
59 66 76
58 66 76
50 57 67
46 52 60
48 55 64
43 48 56
43 48 56
47 53 61
50 57 66
56 63 73
54 62 72
51 58 67
55 63 72
54 62 72
56 63 73
56 63 74
53 61 70
47 53 61
41 47 54
34 39 45
35 41 47
37 42 49
41 46 54
47 53 61
51 59 68
50 57 66
43 48 56
37 41 48
35 40 46
30 34 39
22 25 30
22 26 30
29 33 39
31 36 41
31 35 41
29 33 38
26 30 35
31 36 41
40 45 52
44 50 58
43 50 57
41 47 54
45 51 60
47 53 61
42 48 55
43 49 56
36 41 48
32 37 42
32 37 43
40 45 53
51 58 67
57 65 76
61 70 81
63 71 82
67 76 88
70 79 92
67 76 88
69 79 91
67 76 88
65 73 84
61 69 81
56 64 74
45 52 60
42 47 55
35 40 46
39 44 51
37 42 49
41 46 54
51 58 67
61 69 79
66 75 87
61 69 80
44 49 55
28 30 34
21 23 26
12 13 15
11 12 14
12 13 15
25 28 31
36 39 44
45 49 55
54 58 65
54 59 67
73 79 87
57 63 70
74 80 90
52 57 65
56 62 69
53 59 66
51 56 62
46 51 57
52 57 64
51 56 63
42 46 52
45 50 56
45 49 55
34 38 42
38 42 46
34 37 42
35 39 43
31 34 39
29 32 36
24 27 30
20 22 25
14 16 18
9 10 11
16 17 19
13 14 16
14 15 17
16 17 19
19 21 24
28 31 35
34 37 42
40 44 49
46 50 56
47 52 58
51 56 63
55 61 68
57 63 71
61 67 75
65 71 79
61 67 75
56 63 71
47 51 58
52 57 64
44 49 55
49 54 60
53 58 64
46 51 58
47 52 58
40 44 49
45 49 55
42 47 53
47 52 58
45 49 55
46 50 56
33 36 41
41 45 50
37 41 46
39 42 47
35 38 43
38 42 47
45 49 55
45 50 56
50 55 62
51 55 62
56 62 70
56 61 69
62 68 76
65 71 79
55 61 69
62 68 76
63 69 79
50 56 64
55 61 68
58 64 72
65 71 80
61 67 75
53 59 66
58 64 72
58 63 70
55 60 66
41 45 51
30 33 37
25 28 32
28 31 34
29 32 36
26 29 33
19 20 23
12 14 15
9 10 11
10 11 12
16 18 21
27 30 34
32 35 40
39 43 48
34 38 42
32 35 40
33 36 41
35 38 43
41 45 51
41 45 51
42 46 51
47 52 59
73 83 95
97 110 127
95 108 124
88 100 116
87 98 114
84 96 110
77 87 101
76 87 100
78 88 102
75 86 99
76 86 99
74 84 97
74 84 97
64 72 83
60 69 80
43 49 57
25 28 33
33 38 44
50 57 66
60 68 79
65 73 84
69 78 90
74 85 99
78 88 102
76 86 99
80 90 104
84 96 112
87 98 113
94 107 123
97 110 128
99 113 131
103 117 135
109 124 143
108 123 142
111 126 146
121 137 159
123 140 162
123 140 162
135 153 177
135 154 178
133 151 174
132 150 174
126 143 166
124 141 163
115 131 151
116 132 153
111 126 145
104 119 138
102 116 135
96 109 127
88 100 116
86 98 113
85 96 110
78 89 103
74 84 97
71 81 93
63 71 83
64 73 84
67 76 88
61 69 80
48 55 64
35 39 46
37 42 48
41 46 54
45 51 59
46 53 61
49 56 66
60 68 79
69 78 90
77 87 101
77 88 101
77 87 101
79 90 103
82 93 108
78 88 102
75 85 99
69 78 91
56 63 73
40 45 53
24 28 32
26 29 34
31 36 41
32 37 43
35 39 45
38 43 50
33 38 44
31 35 41
30 34 39
24 27 31
24 27 32
32 36 42
42 47 55
40 46 52
47 53 62
51 58 67
47 54 62
49 55 64
43 49 57
46 52 60
48 54 62
54 61 71
57 65 75
57 64 74
53 60 69
53 61 71
57 65 76
58 66 77
55 63 72
54 61 71
59 67 77
52 59 68
50 57 65
49 56 64
46 53 61
42 48 55
44 50 58
52 59 68
63 71 83
68 78 90
77 87 101
84 96 111
86 98 113
86 98 113
89 100 116
87 99 114
89 100 115
88 100 116
85 97 112
86 98 113
85 97 112
90 103 119
92 105 121
95 107 124
94 108 125
90 103 119
87 99 115
86 98 114
86 98 114
82 94 108
79 89 103
76 86 99
74 85 98
78 89 103
82 93 107
30 34 40
38 43 49
47 54 62
58 66 76
64 73 85
67 76 88
69 79 91
69 78 91
65 74 86
59 67 78
62 71 82
62 71 83
58 66 77
64 73 84
62 70 81
69 78 91
77 88 102
89 101 116
95 108 126
99 113 131
104 118 137
99 112 130
95 108 126
95 108 125
90 102 118
88 100 116
90 102 118
91 104 122
92 104 120
86 97 112
84 96 111
87 99 114
82 94 109
76 86 100
70 79 91
69 78 90
69 79 91
68 77 89
66 75 87
64 73 84
64 73 84
67 76 88
66 75 86
66 74 86
55 63 73
45 51 59
41 47 54
42 48 56
44 51 59
49 56 65
53 60 70
55 63 73
53 60 70
42 47 55
29 33 38
35 40 46
39 45 52
34 39 45
28 32 37
25 28 33
25 29 33
24 28 32
30 34 39
30 34 39
25 28 33
24 27 32
27 30 35
31 35 40
32 36 42
27 30 35
34 39 45
33 38 44
32 37 43
31 35 40
36 41 48
46 53 61
59 67 78
67 77 89
77 87 100
81 91 105
85 96 111
86 98 113
89 101 117
90 103 119
91 103 119
87 99 114
83 95 110
76 87 101
73 82 95
65 74 86
60 69 80
53 60 70
48 55 64
44 50 58
41 46 54
45 52 60
43 49 57
39 44 52
38 44 50
32 36 42
31 35 41
28 32 37
27 30 35
23 26 31
30 34 39
30 34 40
24 27 32
27 31 36
28 32 38
21 24 28
29 33 38
32 37 42
38 43 50
40 45 52
41 47 54
35 40 46
29 33 38
35 40 46
39 44 51
37 42 48
31 36 41
32 37 43
32 37 43
28 32 37
37 42 49
43 49 57
51 58 67
56 63 73
54 62 72
48 55 64
41 47 54
34 39 45
32 36 41
31 35 41
38 43 50
46 52 60
56 63 74
63 72 83
68 77 90
70 80 92
76 87 100
77 87 101
83 94 109
89 101 116
89 101 117
60 67 76
40 43 48
32 35 39
25 28 31
14 16 18
15 16 18
19 20 23
31 34 38
36 39 44
40 44 49
49 54 61
60 65 73
65 71 79
53 58 65
59 65 72
50 55 62
50 54 61
45 49 56
51 57 64
49 54 60
46 50 57
47 52 58
42 47 52
44 49 55
38 42 46
39 43 48
41 45 50
36 40 45
37 41 46
33 37 41
30 33 36
17 19 21
11 12 13
16 18 20
17 19 21
20 21 24
21 23 26
28 31 35
31 34 38
34 38 43
40 44 49
42 47 52
53 58 65
51 56 63
53 58 65
50 56 63
50 55 62
65 71 80
69 75 84
61 67 75
62 67 75
45 49 54
50 55 62
51 56 62
45 50 56
49 54 60
46 51 57
37 41 47
50 55 61
38 41 46
47 51 58
46 50 56
33 37 42
36 39 44
37 41 45
34 38 43
40 44 49
40 44 49
37 40 45
44 49 55
53 58 65
52 57 64
59 65 73
61 66 74
65 71 79
57 63 71
51 56 63
62 68 76
59 65 73
56 61 68
55 61 69
61 66 74
58 63 71
56 62 69
58 64 72
60 66 74
53 58 65
43 47 53
39 43 49
31 34 39
34 37 41
28 31 34
24 26 30
23 25 28
14 15 17
9 10 11
7 7 8
7 8 9
19 20 23
23 25 29
32 35 40
34 37 42
38 41 46
33 36 41
31 35 39
36 39 44
42 46 51
35 39 43
34 37 42
59 67 77
86 98 113
91 103 119
82 93 107
78 89 104
74 84 97
67 76 87
62 70 81
64 73 84
64 73 84
63 72 84
59 67 78
49 55 63
44 50 58
39 45 52
36 41 47
26 30 35
25 28 33
21 24 27
17 19 22
28 32 38
40 46 53
43 49 56
44 51 59
51 58 67
51 58 67
54 61 71
60 68 79
67 76 88
69 79 92
77 88 101
86 97 113
83 94 109
85 96 112
87 99 114
89 100 116
84 95 111
90 102 118
84 95 110
84 95 111
88 99 115
90 102 118
97 110 127
101 114 131
104 118 137
105 119 137
102 116 135
106 121 140
108 123 142
99 113 131
93 105 122
91 104 120
82 93 107
70 79 92
65 74 86
57 65 75
50 57 66
47 54 62
44 50 58
41 46 53
42 47 55
45 51 59
47 54 63
50 56 65
53 60 70
52 59 68
50 57 66
47 53 61
45 51 59
49 56 65
53 60 70
55 62 72
52 60 69
54 62 72
53 60 69
50 57 66
49 56 65
48 55 63
47 53 62
43 48 56
39 44 51
48 55 63
53 59 69
51 58 67
50 56 65
51 57 65
47 54 62
50 56 65
53 60 70
53 60 70
53 61 71
51 58 68
57 66 77
59 67 78
66 75 87
76 86 99
84 96 111
90 102 118
92 104 121
100 114 132
102 116 134
103 117 136
106 120 139
105 120 139
102 116 133
99 112 130
92 105 122
86 98 114
88 101 116
84 96 111
80 91 105
71 81 94
60 68 79
49 55 64
45 51 59
45 52 60
55 62 72
63 71 82
62 70 81
64 72 83
56 64 74
49 55 64
36 41 47
29 32 37
46 52 60
54 62 71
58 66 76
63 72 84
66 75 87
75 85 98
80 91 105
83 94 109
86 98 113
87 99 114
83 95 110
84 95 110
82 93 108
74 84 97
74 84 97
71 81 93
67 76 87
65 74 85
61 69 80
55 63 72
55 63 73
56 64 73
44 51 59
32 37 43
28 32 37
35 39 45
42 48 55
50 56 65
54 62 72
61 69 80
63 71 82
70 79 91
68 78 90
72 82 95
77 87 101
82 93 108
90 102 118
92 105 122
95 108 125
97 110 127
95 108 125
92 104 120
90 102 117
87 99 114
92 105 122
97 109 126
97 110 127
102 116 135
105 119 138
103 116 134
97 110 128
90 102 117
81 93 108
74 84 97
67 75 87
48 55 65
37 42 49
36 41 47
34 38 44
41 47 55
47 53 61
51 57 67
58 66 76
65 74 86
70 79 92
69 79 91
67 76 88
67 76 88
70 80 93
74 84 98
78 89 103
76 86 100
74 84 98
71 80 93
67 75 86
58 66 76
43 49 56
33 38 44
26 29 34
29 33 39
29 33 38
29 33 38
33 38 44
35 40 46
41 47 54
50 57 66
53 60 69
61 70 81
57 64 74
54 62 72
54 61 71
49 56 65
47 53 62
52 58 67
59 67 77
64 73 85
71 81 94
79 90 104
82 94 109
85 97 112
86 98 114
86 98 113
81 93 107
76 86 100
72 82 95
65 74 86
57 65 75
50 57 66
55 62 72
47 54 62
49 55 63
46 52 60
45 52 60
42 48 56
41 46 54
33 37 43
34 39 46
52 59 68
60 69 80
69 79 91
70 79 92
70 80 92
66 74 86
61 69 80
50 57 66
38 43 50
26 29 34
28 32 37
37 42 48
45 51 60
50 57 66
49 56 65
48 55 63
51 58 66
51 58 67
53 61 71
53 60 69
50 57 65
45 51 59
38 44 51
30 35 40
29 33 38
24 27 32
22 25 28
22 25 30
30 34 39
27 30 36
30 34 39
37 42 49
43 49 58
42 48 55
44 50 58
51 58 66
50 57 65
43 48 56
38 44 50
37 43 49
26 29 33
24 27 31
31 35 41
47 53 62
66 74 86
77 87 100
86 98 114
96 109 125
100 114 132
111 126 146
109 124 144
96 108 125
40 45 52
26 29 33
22 24 27
23 25 29
18 20 22
15 16 18
16 18 20
21 23 26
38 42 46
48 53 59
46 50 56
47 51 58
53 58 65
56 61 68
50 55 62
47 52 58
48 52 58
45 50 55
50 55 62
57 63 71
46 51 58
44 48 54
50 55 61
41 45 51
44 49 54
44 48 54
41 45 51
39 43 48
30 33 37
21 23 26
7 8 9
15 16 18
23 25 28
18 20 23
27 30 34
31 34 38
32 36 40
35 39 44
45 49 55
40 44 50
46 50 56
47 52 58
50 55 62
63 69 78
63 69 77
53 58 65
51 57 65
63 69 78
60 66 74
47 52 58
49 54 61
39 44 50
48 53 59
55 61 68
46 51 57
43 48 54
51 55 61
46 50 56
42 46 52
41 45 50
36 40 45
33 37 41
39 43 48
44 48 54
38 42 47
42 46 51
41 45 51
44 49 54
41 45 50
46 51 57
51 56 63
51 56 63
58 64 71
63 69 77
57 62 70
61 66 74
59 64 72
60 66 74
63 69 78
50 56 62
56 61 69
66 73 82
48 53 60
53 58 66
51 56 63
47 52 58
39 43 48
37 40 45
30 33 37
25 27 31
15 16 18
10 11 13
13 14 16
15 17 18
15 17 19
22 24 27
25 28 31
30 34 38
32 36 40
38 42 47
35 38 43
36 39 44
36 39 44
32 35 40
27 30 34
32 36 40
78 89 103
106 121 140
97 110 127
89 100 116
77 87 101
72 81 94
58 66 77
52 59 69
43 49 57
35 40 46
29 33 38
28 31 36
28 31 36
28 32 38
27 31 36
33 38 44
39 44 51
44 50 58
44 50 58
45 51 59
46 53 61
43 49 57
35 40 46
32 36 42
32 36 42
32 36 42
31 35 41
34 39 45
36 41 47
39 44 51
36 40 47
38 43 50
35 40 46
39 44 51
43 49 56
47 54 62
55 62 71
62 70 82
65 74 85
69 79 91
72 81 93
68 77 88
57 64 74
50 57 66
51 58 67
40 46 53
40 45 53
45 51 59
45 51 59
46 52 60
46 53 61
45 51 59
52 59 68
53 60 70
54 61 71
56 64 74
61 70 81
59 67 77
54 62 72
52 59 68
45 51 59
32 37 43
28 32 37
34 39 46
36 41 48
29 33 38
21 24 28
30 34 40
37 42 49
43 49 57
48 55 64
54 62 72
54 61 70
54 61 70
50 57 67
49 56 65
45 51 59
48 54 63
52 60 69
64 72 83
64 72 84
67 76 87
68 77 89
70 80 92
73 83 96
75 86 100
83 93 108
85 97 111
84 95 110
84 95 110
90 103 119
93 106 123
96 109 125
99 112 128
96 108 125
97 110 128
96 109 126
101 115 133
104 118 137
104 119 138
106 121 141
107 122 141
113 128 148
118 135 156
120 137 159
121 138 160
119 135 157
115 131 152
113 128 148
110 125 144
110 125 144
102 115 133
99 112 130
96 109 125
88 100 117
81 92 106
76 87 100
72 82 95
64 73 85
54 61 71
51 58 67
44 51 59
40 46 53
37 42 49
36 41 47
36 40 47
33 37 43
32 37 42
28 32 37
28 32 37
30 35 40
30 34 39
40 46 53
49 56 65
54 62 72
55 63 73
53 60 69
50 57 66
54 62 71
55 62 72
49 56 65
39 45 52
25 29 33
32 37 43
43 49 57
50 57 66
54 62 72
23 26 30
20 23 27
21 24 28
26 30 34
28 32 37
25 28 33
31 35 41
40 46 53
44 50 58
49 56 64
48 54 62
44 50 58
42 47 55
33 37 43
42 48 56
49 56 65
57 65 75
58 66 77
59 67 77
63 72 83
66 74 86
65 74 86
65 74 86
66 74 86
60 69 79
64 73 84
70 79 91
64 73 84
54 62 72
54 61 70
50 57 66
41 47 54
28 32 37
22 25 29
26 29 34
38 43 50
55 63 73
69 78 90
80 92 106
89 101 116
93 106 122
92 105 122
87 100 116
87 99 114
86 98 113
92 104 119
89 101 116
94 106 123
90 102 118
81 92 106
80 91 106
72 83 96
69 78 90
55 63 72
39 44 51
35 40 46
47 53 62
52 59 68
55 63 72
54 62 71
60 68 78
62 71 82
59 67 77
64 72 84
61 69 80
61 69 80
61 69 80
61 69 80
54 62 71
45 51 58
44 50 58
46 52 60
45 51 60
46 52 60
48 54 62
51 58 67
53 61 70
60 68 79
57 65 75
59 66 76
56 64 74
53 60 69
52 60 69
50 57 66
58 66 76
65 74 86
75 85 98
76 86 100
81 92 107
80 91 105
76 87 101
72 82 95
67 76 88
60 68 78
47 53 61
34 39 45
37 43 49
53 60 69
57 65 74
50 57 66
50 56 65
42 48 56
40 45 52
39 44 51
35 40 46
28 32 38
30 34 40
34 39 45
45 51 59
45 51 58
49 56 65
47 53 62
47 53 62
48 54 62
46 53 61
49 55 64
44 51 59
41 46 54
38 43 49
32 36 41
27 31 36
28 32 37
30 34 40
26 29 34
27 31 36
28 32 37
19 21 25
19 22 25
21 24 28
25 29 33
35 39 45
44 50 58
50 57 66
63 72 82
72 82 95
78 88 101
79 90 105
88 100 115
87 98 113
91 104 120
98 111 128
109 124 144
111 127 146
108 123 143
119 134 154
126 142 164
119 135 157
107 121 140
72 81 94
36 40 44
27 30 34
22 24 27
18 19 22
21 23 26
20 22 25
18 20 22
28 31 35
32 35 40
45 49 55
47 52 58
51 55 62
52 57 64
45 50 56
51 55 62
48 53 59
50 55 62
49 54 60
44 49 54
54 60 66
49 54 60
48 53 59
49 53 59
45 49 55
37 41 46
42 46 52
36 40 44
28 31 35
15 16 18
9 10 12
17 19 21
22 24 27
27 30 33
34 37 42
35 39 44
45 49 55
41 45 51
42 46 51
50 55 61
47 52 58
51 56 63
57 62 69
58 64 71
58 64 72
55 60 67
51 56 63
52 58 64
58 64 71
55 60 67
51 56 63
54 59 66
52 57 63
50 55 61
53 58 65
40 44 50
48 53 59
51 56 62
42 46 52
43 48 54
43 47 52
43 47 53
41 45 50
41 45 50
39 43 48
43 47 53
40 44 50
45 50 56
55 60 67
53 58 65
51 56 63
64 70 78
60 66 73
55 60 67
47 52 59
51 57 64
61 67 75
62 68 76
62 69 77
65 71 80
60 66 74
55 61 68
55 60 67
46 50 56
38 42 47
41 45 51
37 40 45
32 35 39
21 23 26
13 14 16
9 10 11
16 17 19
18 20 23
25 27 30
34 37 41
36 39 44
30 33 37
37 40 45
43 47 52
38 42 47
29 32 36
31 34 38
31 35 39
39 43 49
73 82 95
80 91 105
77 87 101
73 82 95
72 82 95
61 70 80
50 57 65
39 44 51
25 29 33
45 51 59
53 61 71
57 64 74
56 63 73
56 64 74
55 62 72
52 59 68
55 62 72
61 69 79
56 63 72
62 71 82
61 69 80
59 67 77
57 64 74
52 59 69
50 57 65
45 51 59
36 41 47
38 44 51
37 42 48
40 46 53
45 51 59
47 54 63
45 51 59
34 39 45
37 42 48
43 49 56
55 62 72
68 77 89
81 92 107
89 101 116
96 109 126
95 108 125
97 110 128
96 109 126
99 112 129
100 113 130
98 111 128
94 107 123
102 115 134
99 113 132
103 117 135
103 117 135
100 114 131
94 106 122
96 109 126
82 93 107
80 91 105
73 83 96
66 75 88
66 75 86
59 67 77
45 51 59
41 47 54
33 37 43
30 34 39
36 41 47
34 39 45
33 38 44
31 36 42
31 35 41
28 32 37
33 37 43
36 41 48
34 39 45
39 44 52
37 42 49
32 37 42
26 29 34
22 25 29
25 28 33
25 29 33
36 41 47
46 53 61
50 56 65
57 65 75
65 74 86
75 85 99
78 89 103
84 95 110
88 101 117
95 108 125
98 111 129
106 120 139
106 120 137
105 120 139
106 120 139
105 119 138
103 117 136
105 118 136
103 117 135
110 125 144
111 125 145
109 124 144
108 122 141
108 122 140
107 121 140
106 121 139
103 117 136
102 115 132
95 108 125
97 110 128
101 115 133
103 118 136
97 111 128
102 116 135
95 108 125
94 107 124
92 105 122
87 99 114
79 90 104
72 81 93
63 72 83
49 55 64
42 48 55
41 47 54
38 44 51
35 40 47
35 40 46
40 45 52
42 48 55
44 51 59
39 45 52
46 52 60
53 60 70
45 51 59
46 52 60
39 44 51
42 48 55
50 58 67
55 63 72
51 58 67
47 54 62
50 56 65
50 57 67
61 69 80
67 76 87
69 78 90
73 83 96
52 59 68
47 54 63
45 52 60
42 48 56
38 43 50
35 39 46
40 45 52
52 59 68
54 61 71
59 67 78
62 71 82
64 73 84
65 74 85
60 68 79
59 67 77
54 62 71
59 67 78
55 63 73
64 73 84
67 76 88
68 77 89
71 80 93
81 91 105
85 96 112
89 101 117
92 105 122
89 102 119
87 99 114
87 99 114
82 93 108
74 84 97
64 73 84
57 65 75
45 51 59
32 36 42
31 35 41
47 54 62
69 78 90
79 90 105
86 98 113
88 100 117
92 105 121
96 109 127
95 108 125
93 105 122
91 104 120
85 96 112
76 87 101
72 82 95
70 80 93
63 72 83
57 65 75
46 52 60
28 32 37
30 35 40
31 36 41
37 42 49
40 46 53
46 53 62
55 62 71
48 55 63
44 50 57
42 47 55
39 45 52
43 49 56
40 46 53
39 44 51
44 50 57
46 52 60
52 60 70
54 61 70
55 62 72
60 69 80
65 74 85
67 76 88
65 74 85
65 73 84
72 82 95
76 86 99
75 84 97
78 88 102
77 87 100
80 91 105
87 99 115
90 102 118
87 99 115
83 95 110
77 88 102
73 83 96
72 82 95
69 79 91
68 77 90
70 79 91
70 79 92
70 79 92
70 80 93
71 81 94
62 70 81
61 70 81
58 66 76
50 57 66
48 55 64
44 50 58
46 52 60
49 56 65
49 56 65
53 60 69
54 61 71
47 53 61
42 47 55
43 49 57
39 44 51
39 44 51
31 35 41
32 37 42
38 43 50
42 48 55
41 46 53
41 46 53
45 51 59
49 56 65
46 52 61
46 52 60
45 50 58
38 43 49
33 38 44
29 33 38
29 33 39
29 33 39
26 30 35
29 33 38
34 39 45
41 47 54
48 55 64
65 74 85
65 73 85
69 79 91
77 87 100
85 97 111
87 98 114
94 106 122
98 111 128
100 114 131
99 112 129
101 115 134
110 125 144
115 131 151
115 130 150
116 131 152
83 93 107
47 53 61
31 34 38
23 25 28
26 28 32
23 25 28
21 23 26
19 21 23
20 21 24
25 27 31
32 35 39
36 40 45
47 51 57
46 50 56
47 51 57
48 52 59
38 42 47
40 44 49
48 53 59
41 46 52
54 59 66
55 60 66
45 50 56
38 42 47
35 38 43
36 39 44
34 38 43
31 34 38
24 26 29
13 14 16
14 15 17
26 28 32
32 35 39
34 37 41
39 43 48
42 46 52
49 53 59
40 44 49
46 50 56
44 49 55
52 57 64
45 50 57
59 64 72
59 65 73
53 58 65
54 60 67
46 51 57
54 60 67
50 55 61
56 61 69
48 52 58
48 52 59
41 45 51
48 53 60
43 47 53
42 46 52
40 44 49
40 44 50
38 42 47
40 44 49
36 40 45
35 39 44
32 35 40
38 42 47
42 45 51
41 45 50
41 45 50
41 46 51
53 58 65
51 56 63
57 62 69
47 52 58
55 59 66
54 59 65
66 72 80
55 61 69
58 63 72
62 67 75
62 68 75
57 62 70
50 55 61
47 52 58
47 51 57
41 45 50
36 39 44
31 34 38
20 22 24
14 16 18
13 14 15
7 8 9
19 21 23
28 30 34
27 30 33
35 39 43
32 35 40
43 47 52
38 41 46
39 43 48
35 38 43
36 39 44
36 39 44
43 49 57
52 60 69
54 61 71
50 57 66
43 48 56
42 47 55
42 48 55
35 40 46
35 40 46
35 39 46
31 35 41
30 34 39
33 37 43
28 32 37
36 41 47
46 52 60
49 55 64
51 58 67
49 55 64
50 57 66
56 64 74
53 61 70
47 54 62
43 49 57
37 42 48
22 25 29
20 23 27
31 35 41
41 47 54
46 53 61
49 55 64
46 52 60
45 51 59
50 57 66
50 57 66
51 58 68
56 64 75
53 61 70
61 70 81
65 74 86
77 88 102
82 93 108
87 99 115
95 108 125
91 103 119
89 102 118
92 104 121
96 109 125
99 113 131
98 112 130
109 124 144
112 127 147
108 123 143
110 125 145
106 120 138
102 116 134
95 108 126
93 104 120
80 90 104
73 83 96
64 73 84
57 65 75
50 57 66
39 44 51
33 37 43
32 36 41
34 39 45
37 42 49
36 41 47
32 37 43
32 36 42
36 41 47
37 43 49
38 43 50
33 37 43
40 45 52
40 46 53
38 43 50
37 42 48
42 48 55
37 42 48
35 40 46
47 54 62
56 63 74
63 72 83
75 85 99
80 91 106
86 97 112
84 96 111
89 102 118
91 103 119
93 106 123
93 105 122
95 108 125
99 112 130
105 119 138
111 126 146
117 133 154
119 135 157
122 139 161
125 143 165
125 142 164
127 145 168
124 141 163
129 146 169
127 144 167
124 141 163
119 136 157
117 133 155
114 130 150
112 127 147
101 115 132
94 107 123
93 105 120
88 100 115
88 99 114
84 96 111
85 97 112
88 100 116
87 99 115
88 100 116
88 100 115
86 97 113
81 92 107
71 80 92
61 69 79
48 55 63
42 47 54
31 36 41
23 26 30
18 20 24
31 35 40
34 39 45
29 33 39
23 26 30
25 28 33
26 29 34
32 36 42
38 43 50
51 57 66
60 68 79
62 70 81
64 74 86
64 73 84
72 81 93
71 80 92
75 86 99
82 93 107
82 93 107
83 94 108
64 73 85
64 73 85
56 64 74
57 65 76
46 53 61
45 51 59
54 61 70
57 65 75
63 71 81
66 75 86
57 65 75
55 63 73
54 61 71
51 58 68
49 56 65
54 61 71
54 61 70
58 66 76
58 66 77
66 75 87
68 77 90
75 85 98
75 85 98
74 84 98
76 86 100
71 81 94
71 81 94
71 81 94
63 71 83
56 63 73
47 53 61
34 38 44
24 27 32
28 32 37
37 41 48
49 56 64
56 64 74
65 73 85
71 80 93
71 82 95
75 85 99
73 83 96
65 73 85
64 73 85
62 70 81
60 68 78
59 67 77
55 62 72
53 61 70
54 61 70
50 57 66
38 43 50
27 31 36
30 34 40
33 38 43
40 45 53
40 45 53
44 51 59
43 49 57
43 49 57
52 59 69
65 74 85
69 79 92
80 90 104
82 93 108
85 96 111
85 97 112
99 113 131
108 123 142
103 118 137
105 119 138
111 126 146
113 128 147
105 120 139
105 119 137
101 115 133
97 110 127
94 106 123
97 110 127
99 112 130
96 109 126
94 106 123
100 114 133
105 119 137
105 119 138
103 117 136
97 110 127
97 110 128
94 107 124
98 111 128
99 113 131
104 118 137
102 115 133
102 116 134
99 112 130
91 104 120
83 95 110
70 80 92
59 68 78
47 54 62
37 42 49
33 38 44
29 33 38
25 29 33
30 34 39
31 35 41
32 37 43
38 43 50
41 47 55
46 52 60
41 46 54
45 51 60
48 54 62
45 52 60
40 45 53
37 42 48
36 41 47
29 33 39
34 39 46
31 35 40
21 24 27
21 24 27
30 34 39
31 35 41
39 44 51
47 53 61
50 57 66
45 51 59
45 50 58
40 45 52
35 40 46
34 39 45
41 46 53
41 46 53
48 54 63
50 57 66
53 60 70
58 66 75
58 66 77
68 77 88
72 81 93
69 78 89
75 85 98
78 89 103
85 96 110
95 107 123
95 107 124
97 109 126
97 110 127
100 112 128
97 109 126
70 80 92
35 39 44
32 35 39
33 36 41
33 36 39
28 31 35
28 31 34
21 23 25
19 21 23
26 28 32
33 36 40
39 43 49
48 52 58
42 46 51
33 37 42
30 33 37
40 44 49
39 43 49
35 39 43
34 37 42
38 41 47
37 40 45
34 37 42
25 28 32
30 33 37
32 35 40
22 24 27
20 22 24
13 14 16
18 20 22
28 31 34
35 39 43
39 42 47
41 45 50
38 42 47
41 45 51
47 51 57
47 51 57
47 52 59
48 52 59
50 56 62
53 58 65
51 56 63
52 57 63
50 55 62
58 63 71
48 53 60
53 58 65
52 57 64
47 51 57
46 51 57
51 56 62
49 54 60
51 56 62
48 52 59
43 48 53
40 44 49
35 39 43
35 39 44
33 36 40
28 31 34
37 41 46
31 35 39
38 42 47
39 43 48
46 51 57
38 42 47
47 52 59
48 53 59
50 55 62
47 51 57
55 61 69
60 66 73
56 62 70
63 69 77
54 59 66
53 58 64
51 57 63
57 62 69
40 44 49
35 38 43
36 40 44
28 31 34
28 31 35
20 22 24
11 13 14
6 7 8
14 16 17
22 24 27
30 33 37
26 29 32
39 43 48
38 41 46
36 40 44
43 47 52
35 39 44
34 38 42
39 43 49
29 33 38
20 23 26
23 26 30
22 25 29
26 30 34
28 32 36
29 33 38
34 38 44
33 38 44
29 33 38
30 34 40
37 42 49
42 48 55
48 55 64
51 58 68
52 59 68
53 60 69
41 47 54
39 44 51
38 44 51
30 34 39
23 26 30
22 26 30
22 25 29
22 24 28
35 40 46
49 55 64
62 70 81
72 82 95
82 93 107
82 94 109
86 97 113
94 106 123
91 103 119
91 103 119
83 94 109
88 100 115
91 103 119
88 100 116
89 101 117
96 109 126
100 112 129
103 118 136
107 121 139
111 126 145
108 123 143
109 124 142
105 119 138
101 114 133
105 119 138
105 120 138
103 117 135
104 118 137
96 109 126
104 118 136
99 113 130
98 111 128
98 111 129
93 105 121
88 99 115
72 81 94
66 75 87
56 64 74
46 52 60
37 42 49
35 39 45
34 39 45
26 29 34
27 31 36
31 36 41
25 29 34
22 25 29
34 39 45
39 44 51
39 44 51
39 44 51
41 47 54
39 44 51
40 46 53
44 50 58
47 54 63
37 42 48
25 28 33
21 23 27
23 26 30
27 31 36
35 40 46
42 48 55
51 58 67
53 60 70
54 62 72
67 76 87
72 81 94
71 81 94
78 89 104
77 87 100
80 91 105
80 91 105
90 102 118
91 103 120
95 108 125
101 115 133
97 110 128
103 116 134
105 120 138
107 122 141
112 127 147
112 126 146
111 126 145
115 130 150
116 131 152
114 129 149
116 132 153
112 127 148
110 124 144
109 123 142
104 118 137
101 115 133
102 117 136
98 112 129
99 112 130
98 111 128
95 108 126
91 104 120
86 98 113
81 93 108
77 87 101
78 89 102
71 81 94
76 86 99
72 82 95
66 75 87
63 71 82
62 70 81
64 72 84
63 72 83
64 73 84
58 66 77
53 60 70
49 55 64
45 52 60
40 46 53
42 48 55
43 49 56
40 45 52
32 37 42
31 36 41
44 50 58
45 51 59
44 50 58
46 52 60
86 98 114
82 94 108
82 93 108
80 91 105
80 90 104
81 92 106
80 91 106
80 91 105
73 83 97
70 79 91
69 78 90
67 76 88
60 68 79
56 63 73
52 59 68
43 49 57
39 45 52
47 53 62
47 54 62
48 54 63
46 52 60
45 51 58
41 47 55
40 46 53
35 40 46
25 29 34
23 26 30
26 30 35
27 31 36
31 35 41
35 40 46
37 42 49
41 46 54
53 60 69
54 61 71
53 60 70
56 63 73
55 63 72
58 65 75
64 73 84
62 71 83
69 78 90
60 69 80
66 75 86
63 71 82
65 75 87
61 70 81
56 64 75
51 58 67
39 45 52
31 35 41
27 30 35
26 30 35
29 33 39
39 45 52
50 56 65
53 60 69
57 65 76
65 74 85
72 81 94
77 87 101
89 102 119
97 111 128
110 125 145
109 125 145
122 139 161
126 143 166
134 151 174
134 152 176
135 153 176
135 154 178
128 145 168
124 141 163
123 140 163
120 136 158
115 130 150
115 131 151
116 132 153
116 131 152
120 136 158
122 138 159
116 132 152
124 140 162
125 142 164
122 139 161
121 137 159
115 130 151
113 128 147
108 123 142
106 120 138
105 119 138
103 117 135
96 107 123
92 105 121
86 98 114
85 96 112
80 90 104
69 78 90
53 61 70
37 42 49
27 31 36
24 28 32
25 28 32
24 27 31
24 27 31
32 36 42
33 38 44
25 29 33
26 29 34
31 35 41
37 42 49
39 45 52
44 49 57
43 49 57
46 53 61
47 53 61
43 50 58
50 56 65
48 55 63
47 54 62
42 47 55
43 49 56
44 50 58
55 62 71
48 55 63
45 51 58
38 43 49
27 31 35
21 23 27
22 25 29
28 31 36
31 35 40
38 43 50
42 47 55
51 57 65
51 58 67
48 55 63
40 46 53
42 48 55
41 47 54
45 51 58
59 67 77
65 73 85
73 83 96
73 83 95
79 89 103
79 90 104
78 89 103
80 91 105
87 99 114
90 102 117
86 98 114
77 87 100
43 49 57
33 37 41
40 44 49
33 36 40
38 42 47
35 38 42
27 29 32
20 22 24
11 12 14
21 23 25
26 28 32
27 29 33
27 30 33
30 33 38
32 35 39
32 35 39
34 38 42
35 39 44
38 41 46
33 36 40
33 36 40
31 34 39
28 31 35
29 32 36
31 34 38
22 24 27
14 15 17
10 11 13
19 21 23
24 26 30
30 33 37
37 40 45
40 44 49
45 49 55
42 47 52
48 52 58
45 49 55
48 52 59
54 59 66
52 56 63
47 52 58
50 54 61
52 57 64
42 47 53
50 55 62
48 53 59
54 59 66
48 52 58
43 48 53
51 56 63
51 56 62
39 43 48
42 46 52
41 44 49
34 37 41
35 38 42
35 39 43
31 34 38
30 33 36
32 35 39
32 35 39
32 35 40
40 44 49
44 48 54
41 45 50
49 54 60
54 59 66
58 63 70
57 62 69
49 54 60
53 58 65
58 64 71
52 57 64
54 60 67
48 53 60
44 49 54
43 47 52
31 34 39
36 39 44
23 25 28
15 16 18
15 17 19
15 16 18
19 20 23
20 22 25
27 30 33
39 42 47
33 37 41
42 46 51
41 45 50
38 42 47
42 45 51
42 46 51
33 37 42
30 34 39
34 38 44
37 42 49
37 42 49
34 38 44
35 40 46
32 37 42
24 27 32
26 29 33
27 31 35
29 33 38
29 33 39
24 28 32
27 30 35
27 30 35
29 33 38
30 34 40
31 35 40
35 40 46
28 32 37
17 20 23
23 26 30
38 43 50
46 52 60
38 43 50
30 34 39
24 27 31
42 47 54
57 65 75
72 81 94
78 89 102
85 96 112
93 106 122
93 105 121
98 111 128
101 115 133
101 115 133
102 115 134
103 116 135
104 118 136
106 120 139
110 125 145
110 125 145
112 127 146
114 130 151
118 133 153
116 132 152
114 129 149
114 129 149
105 120 139
103 117 136
101 114 132
104 118 136
101 116 134
97 110 127
97 110 127
97 110 127
98 111 127
98 112 129
94 107 123
92 104 120
83 94 109
80 91 105
71 81 94
65 74 86
57 65 76
55 62 73
55 63 73
50 57 66
52 59 68
51 58 68
56 63 73
54 62 72
55 63 73
55 62 72
47 53 62
35 40 47
24 28 32
19 21 25
16 18 21
24 27 31
23 27 31
20 23 26
18 21 24
28 32 37
33 38 44
40 45 52
41 46 53
39 44 51
30 34 40
22 25 29
21 24 27
22 25 29
25 29 33
32 36 42
41 47 54
55 62 72
66 75 87
67 76 88
67 76 87
70 80 92
68 77 90
66 75 86
60 68 79
57 64 75
48 54 63
46 52 60
44 51 59
52 59 68
62 71 82
67 76 88
74 84 97
72 82 95
73 84 97
80 91 106
82 93 108
85 96 111
85 96 111
88 100 115
88 100 116
92 104 120
92 105 122
101 115 133
102 116 134
105 120 138
107 121 140
103 118 138
101 114 132
101 115 133
102 115 133
100 114 132
95 108 125
92 104 120
90 102 119
93 105 121
92 104 120
94 107 123
98 112 129
99 113 131
96 110 127
99 112 130
97 110 127
94 107 123
93 105 122
92 104 121
92 104 120
92 104 121
90 102 117
85 96 112
82 92 107
76 86 100
77 88 102
79 90 105
72 82 95
72 82 96
72 82 95
67 76 88
67 76 88
66 75 87
64 73 85
64 72 84
58 66 77
57 65 75
56 64 74
54 62 72
62 70 81
65 75 87
67 77 89
70 80 92
73 82 95
70 79 91
62 70 81
56 63 73
47 54 62
43 49 57
40 45 52
40 45 52
42 47 55
52 59 68
55 63 73
63 71 82
63 72 83
69 79 91
75 86 99
82 93 107
87 99 114
88 100 115
97 109 125
99 113 131
103 116 134
103 118 136
105 119 137
110 126 146
108 123 142
108 123 142
104 119 138
109 124 143
106 120 139
104 118 136
94 107 124
88 100 116
79 90 104
68 78 90
60 68 78
42 47 55
38 43 50
38 43 50
42 48 56
55 63 73
66 75 87
76 87 100
84 96 112
90 103 119
101 114 131
107 121 140
112 127 147
119 135 156
121 138 159
121 137 159
125 142 165
126 143 165
124 141 164
124 140 162
115 131 152
122 138 160
121 137 159
121 138 159
128 146 168
130 148 172
122 138 159
124 141 164
126 143 166
128 146 168
127 144 166
122 139 161
127 145 168
121 136 157
115 130 150
106 120 139
102 116 134
101 115 133
98 112 129
99 112 130
95 107 123
84 96 111
83 94 109
78 89 103
72 82 94
61 70 81
51 58 67
39 44 51
27 31 36
36 41 47
43 49 57
49 56 64
44 49 57
46 52 60
53 59 68
46 52 60
46 53 61
48 54 63
50 57 67
55 62 72
61 69 80
61 69 80
59 66 76
53 60 69
43 49 57
39 44 51
41 46 54
40 45 53
47 54 62
53 60 70
58 66 75
55 62 72
57 65 75
59 67 77
54 62 72
52 59 68
45 51 59
34 38 44
30 35 40
44 49 57
53 60 69
60 68 78
65 74 86
74 83 96
66 75 87
63 71 82
60 67 78
54 60 69
50 57 65
42 48 55
29 33 39
25 29 33
31 36 41
46 52 60
47 53 61
48 54 63
49 56 64
47 54 62
47 53 62
54 62 72
57 65 74
52 59 68
56 63 73
52 59 68
42 47 54
28 31 35
30 33 37
33 36 40
26 29 32
38 42 46
40 44 49
35 38 42
18 20 22
13 14 15
13 14 16
17 19 21
22 23 26
25 27 31
29 32 35
29 32 35
23 26 29
28 30 34
27 30 33
24 26 29
20 22 25
19 21 23
21 23 25
23 25 28
25 27 30
18 20 22
11 12 14
12 13 15
18 19 22
24 27 30
27 29 33
39 43 48
35 39 44
46 50 55
45 49 55
52 57 63
48 53 60
48 52 58
51 56 62
49 54 60
38 42 48
41 46 51
47 52 58
47 52 58
43 47 52
39 44 49
38 42 47
49 53 60
46 50 56
41 45 50
34 38 43
37 41 45
42 46 51
36 39 44
38 42 47
40 43 48
40 43 48
37 40 45
32 35 39
36 40 45
40 44 49
34 39 44
43 48 53
48 53 59
45 49 55
50 55 61
49 54 61
37 41 46
39 43 48
40 44 50
45 50 56
53 58 65
44 48 54
35 38 43
43 47 52
39 43 48
30 33 37
29 32 36
16 17 20
11 12 14
23 25 28
27 29 33
34 37 41
30 33 37
31 35 39
39 43 48
34 38 43
40 43 49
38 41 46
37 40 45
44 49 56
60 68 79
59 66 76
58 66 76
60 68 79
61 69 80
63 71 81
59 67 77
61 68 78
52 59 68
52 59 68
53 60 69
48 54 62
48 54 62
42 47 54
41 47 54
37 42 48
27 31 35
19 22 25
16 19 22
31 34 40
40 46 53
44 49 57
48 54 62
57 64 74
58 66 77
57 64 73
55 63 74
58 66 75
43 49 56
49 55 63
48 55 63
47 53 61
49 56 65
54 61 71
58 66 76
59 67 77
61 69 80
62 71 82
63 72 83
71 80 93
75 85 99
83 95 110
86 97 113
98 110 127
94 106 123
92 105 121
93 106 122
89 101 117
84 95 110
72 81 94
72 82 95
64 73 84
64 73 85
60 68 79
53 61 71
58 66 76
57 65 76
57 65 75
56 63 73
57 64 74
53 61 71
56 63 73
48 54 63
44 49 57
47 53 61
39 45 52
36 40 47
36 40 47
32 36 42
37 42 49
37 42 48
35 40 47
41 47 54
38 44 51
45 51 59
42 48 56
44 50 58
41 47 54
34 39 45
24 28 32
22 25 29
28 32 37
29 33 38
28 32 37
32 37 43
38 44 51
38 43 50
34 39 45
30 34 39
37 42 49
37 42 48
40 45 52
41 46 54
44 50 58
35 40 46
28 32 37
43 49 57
56 64 74
65 74 86
76 87 101
86 98 113
91 103 119
96 110 127
99 113 130
102 116 134
100 115 134
102 116 135
99 112 130
99 112 130
98 112 130
99 113 131
98 111 129
97 109 125
100 114 132
94 106 123
88 100 116
77 88 102
74 84 97
69 79 91
60 69 80
58 66 76
46 52 59
51 58 68
63 72 83
73 83 95
79 89 103
78 89 102
85 96 110
85 97 113
87 98 114
86 98 113
87 99 114
89 100 115
86 98 113
88 101 117
86 98 113
86 97 112
87 99 114
92 105 122
96 110 127
98 111 129
104 117 136
108 123 142
108 123 143
106 121 139
108 123 142
105 119 137
109 123 141
104 119 138
99 112 130
99 112 129
97 109 126
94 106 123
92 105 122
93 106 123
46 53 61
44 50 58
43 48 56
42 47 54
41 46 54
48 54 63
45 51 59
46 53 61
46 52 60
48 55 63
42 48 56
43 49 57
37 42 49
26 30 35
29 33 39
40 45 52
43 49 57
48 54 63
45 51 60
45 51 59
52 59 68
53 60 70
61 70 81
72 82 94
75 85 98
80 92 106
86 99 115
87 100 116
96 109 125
100 113 131
107 122 142
111 126 146
113 128 149
116 132 153
118 134 155
126 143 166
125 142 165
128 146 169
128 145 168
122 139 160
119 134 154
114 130 150
116 131 151
109 124 143
109 124 143
105 120 139
98 111 129
90 102 118
80 90 103
72 82 95
65 74 86
55 62 72
44 50 58
35 40 46
27 31 36
30 34 39
47 53 61
57 65 75
69 78 90
74 84 97
83 95 109
87 98 112
93 106 123
103 118 136
107 122 142
111 127 148
113 129 149
120 136 157
121 138 159
124 141 163
126 142 163
126 143 166
125 141 163
120 137 159
119 135 157
121 138 160
121 138 160
123 139 160
114 129 150
112 127 147
113 128 149
103 116 134
102 116 134
97 110 128
91 104 120
90 102 117
86 98 114
87 99 115
87 99 114
85 97 112
79 90 104
80 91 105
77 87 101
71 81 93
66 75 86
52 59 68
40 45 52
30 34 40
23 27 31
27 30 35
30 34 40
35 40 46
31 36 41
23 26 30
22 24 28
24 27 32
31 35 41
35 40 46
39 44 51
44 50 58
43 49 56
44 50 58
41 47 54
35 39 46
36 41 48
40 45 53
39 44 51
35 40 45
32 36 41
28 32 37
26 30 35
26 29 34
15 17 20
21 24 28
28 31 36
34 39 45
37 42 48
43 48 56
51 57 66
53 60 69
55 62 72
47 54 63
42 47 54
37 42 49
33 37 43
26 29 34
23 26 30
22 25 29
26 30 34
32 36 42
33 38 44
35 40 46
27 30 35
22 25 29
21 24 27
23 26 30
19 21 24
21 24 27
21 24 27
16 18 20
16 18 21
21 24 28
24 27 31
23 26 30
17 19 22
21 23 27
26 28 32
30 32 36
34 37 42
25 27 31
27 29 33
27 29 33
28 30 34
28 31 35
17 19 21
6 7 8
10 11 12
14 15 17
20 22 25
28 30 34
21 23 26
23 25 28
22 25 27
15 17 19
17 18 21
19 20 23
15 16 18
14 15 17
14 16 18
10 11 12
7 8 9
10 11 12
13 15 16
22 24 27
23 25 28
32 35 39
32 35 40
41 45 50
50 55 61
41 45 51
41 46 51
51 56 63
49 54 60
36 40 45
45 50 56
43 47 52
44 48 53
45 49 55
35 38 43
37 41 46
35 39 43
46 50 56
29 32 36
32 35 40
35 38 43
48 52 58
36 40 45
27 30 34
37 41 46
36 39 44
35 39 43
33 36 41
37 41 46
42 46 51
45 50 55
50 55 62
52 56 63
46 51 57
46 50 57
46 51 57
47 51 56
43 47 53
41 45 50
35 39 44
44 48 54
40 44 49
37 41 46
32 35 40
34 37 41
33 36 40
22 24 27
16 18 20
19 21 24
30 33 36
29 32 36
30 33 37
32 35 39
27 30 34
35 39 43
40 44 49
48 53 59
41 45 50
36 40 46
54 61 69
60 68 78
65 73 83
67 75 87
66 74 86
66 75 86
61 69 80
80 90 103
74 83 95
78 88 102
79 90 103
78 88 102
67 75 87
64 72 82
60 68 78
53 60 69
51 57 66
41 47 54
37 42 48
33 37 43
30 34 40
39 44 51
43 49 57
39 44 51
46 52 61
52 59 69
51 58 66
47 53 62
52 59 68
46 52 60
40 46 52
40 45 53
40 45 52
46 52 59
43 49 57
41 46 53
41 46 53
41 47 54
47 53 62
54 61 70
56 64 74
53 60 70
66 75 86
62 71 82
62 70 81
53 60 70
52 59 68
48 54 63
43 49 57
51 57 66
52 58 67
54 62 71
49 55 64
39 44 50
26 29 34
15 17 20
24 28 32
30 34 39
36 41 47
42 47 55
46 52 60
44 50 58
43 49 57
38 44 51
34 39 45
36 41 47
39 44 51
50 56 65
55 62 72
55 63 72
57 65 75
57 65 75
57 64 74
56 64 74
57 65 75
57 65 75
53 60 70
50 56 65
51 58 66
46 53 61
45 51 59
48 55 64
51 58 67
50 57 66
45 51 59
35 40 46
27 30 35
26 29 34
26 30 35
30 34 39
38 43 50
50 57 66
51 58 67
50 57 66
48 54 63
43 50 58
48 55 63
44 50 57
54 61 71
60 68 79
58 66 77
66 75 87
74 85 98
83 94 109
90 102 118
92 105 121
98 111 128
99 113 130
98 112 130
102 116 135
103 116 134
107 121 140
110 126 146
114 130 151
120 137 159
117 133 154
114 130 151
116 131 150
107 122 140
105 119 138
102 117 136
95 109 126
87 99 115
76 86 100
67 76 88
49 56 65
35 40 46
27 30 35
35 39 45
42 48 55
48 54 62
60 68 79
68 78 90
74 84 97
74 84 97
73 83 96
76 86 100
79 89 103
80 91 105
87 99 114
90 102 118
98 112 129
97 110 127
102 116 134
100 114 132
100 114 132
103 117 135
102 116 135
100 114 132
98 111 128
96 108 125
94 107 124
92 104 121
89 101 117
88 100 116
88 100 115
92 104 120
54 62 72
52 59 69
43 49 57
35 40 47
35 40 46
41 47 54
46 52 60
52 59 69
49 56 65
50 57 67
55 62 72
52 59 68
50 57 66
47 54 62
40 46 53
37 42 49
42 48 55
50 57 66
56 63 73
67 76 87
77 87 101
78 89 102
83 95 109
88 100 115
94 106 123
93 106 122
95 109 126
96 109 127
97 111 129
103 118 137
103 118 137
109 124 143
107 121 140
111 126 146
110 124 144
114 129 149
111 127 148
112 128 149
110 125 144
111 126 146
103 118 136
100 114 132
94 107 124
86 98 113
79 89 103
68 78 90
61 69 81
53 61 70
45 51 59
28 32 37
20 22 26
25 28 33
31 35 41
33 38 44
38 43 50
36 40 46
36 41 48
37 43 49
48 55 63
54 61 71
69 79 92
82 93 108
89 101 117
101 114 131
105 119 138
112 127 147
124 141 163
119 135 156
131 149 172
131 149 172
129 146 169
126 143 165
130 147 170
128 145 168
128 146 168
130 147 170
120 136 158
125 141 164
117 133 153
105 120 139
105 120 139
97 111 128
95 108 125
87 99 114
81 92 105
74 84 96
68 77 89
67 76 88
67 77 89
56 64 74
52 59 68
46 52 60
40 46 53
36 41 48
35 39 46
35 40 47
33 37 43
38 43 50
44 49 56
46 52 60
45 51 59
41 47 54
43 48 56
38 43 50
33 38 44
39 44 50
42 47 54
46 52 60
52 58 67
56 64 74
50 57 66
46 52 59
37 42 48
38 44 50
38 43 50
36 41 48
40 45 52
46 53 61
49 55 64
47 53 62
46 52 60
37 42 49
35 40 46
37 42 48
40 45 52
39 44 51
39 44 51
43 49 56
46 52 60
48 55 63
50 57 66
45 51 58
41 47 54
35 39 46
36 40 46
37 41 47
44 49 57
45 51 58
52 58 67
56 63 72
58 66 76
52 59 67
36 40 46
20 23 27
29 32 37
34 38 44
31 35 41
25 29 33
23 26 30
21 24 27
22 25 28
20 23 26
22 25 29
21 24 28
20 23 26
22 25 29
22 24 28
27 30 35
27 31 35
37 40 45
36 39 43
27 30 33
27 29 33
26 28 31
24 27 30
27 29 32
14 16 18
11 12 14
8 9 9
15 16 18
18 20 22
21 22 25
23 25 28
11 13 14
6 7 8
7 8 8
11 13 14
14 16 18
14 16 18
12 13 14
7 7 8
17 18 20
19 21 24
23 26 29
25 28 31
28 31 34
36 39 44
39 43 48
42 46 52
43 47 53
43 48 54
42 46 52
56 61 68
42 46 51
43 48 53
37 40 45
38 41 46
40 44 49
32 35 39
29 31 35
35 39 43
26 29 33
26 28 32
35 38 42
28 30 34
31 34 38
33 36 40
33 37 41
34 37 41
33 37 41
34 38 42
46 50 55
33 36 41
42 46 51
50 54 60
35 39 44
46 50 56
46 50 56
41 45 51
40 44 50
32 35 39
39 43 48
40 43 48
38 42 47
35 38 43
38 41 46
34 37 42
32 35 39
25 27 30
18 19 21
19 21 23
22 24 27
30 33 37
30 33 37
31 34 38
34 37 41
40 44 49
41 45 50
43 47 52
38 42 47
43 48 55
50 56 64
55 62 71
57 65 74
57 64 73
61 69 80
65 73 84
57 64 73
50 56 64
42 47 54
37 41 47
43 48 56
45 50 57
54 61 70
52 58 67
56 63 72
53 60 69
53 60 69
59 67 77
63 71 81
62 70 81
68 76 88
65 74 85
58 66 76
60 67 77
59 66 76
61 69 79
60 68 78
61 69 80
64 73 84
59 67 77
66 75 86
63 71 83
72 81 93
73 82 95
80 91 105
79 89 103
82 93 106
89 101 116
91 102 118
90 102 118
94 107 124
96 108 123
95 108 125
98 110 127
102 116 133
97 109 126
100 112 130
96 109 126
93 104 120
93 106 122
89 101 117
84 95 110
77 88 102
70 80 93
67 76 88
67 76 87
69 79 91
66 75 86
70 79 91
67 76 89
72 81 94
68 78 90
64 73 85
65 73 84
60 69 80
53 60 69
47 54 62
48 54 63
47 54 62
44 50 58
47 54 62
53 60 69
51 58 67
50 57 66
56 64 74
61 69 80
66 75 86
65 73 85
67 75 87
69 78 91
69 78 90
71 81 94
72 82 94
75 85 99
73 83 96
70 80 92
64 72 84
58 65 75
46 53 61
28 32 37
28 32 37
50 57 65
67 76 87
75 85 98
82 93 107
79 89 103
87 100 115
89 101 118
88 101 116
88 100 115
92 105 121
98 112 129
98 111 129
108 123 142
106 121 140
113 128 148
113 128 148
119 135 157
125 142 164
121 136 157
123 140 161
115 131 151
115 130 151
114 129 150
111 126 146
104 118 137
103 118 137
103 116 134
99 112 129
97 110 127
93 105 121
92 104 120
88 101 117
81 92 106
67 77 89
54 62 71
34 39 45
36 41 47
43 49 56
51 58 67
57 64 74
61 69 80
69 78 90
75 85 98
81 92 106
82 93 108
83 95 110
83 94 108
78 89 103
75 86 99
72 82 95
73 83 96
72 82 95
69 78 91
68 78 90
68 78 90
68 78 90
66 76 88
69 79 92
77 87 101
79 89 104
82 93 108
80 91 105
76 86 100
76 87 100
78 89 103
80 91 105
83 94 109
81 92 107
84 96 111
80 91 105
71 81 93
60 68 79
44 49 57
27 31 36
27 31 35
36 41 48
43 49 57
46 52 61
53 61 70
58 66 76
54 62 71
51 58 67
50 57 66
50 57 66
54 61 71
65 73 85
70 79 91
79 89 103
82 93 108
81 92 106
85 97 112
90 103 119
95 107 123
92 105 121
97 110 127
98 112 130
103 117 135
102 116 134
105 120 139
109 124 143
109 124 143
107 121 140
107 122 141
102 116 135
104 118 137
97 110 127
97 111 129
96 109 127
94 106 122
93 105 121
91 103 119
79 90 105
70 79 92
65 73 85
56 64 74
46 53 61
35 39 46
26 29 34
39 45 52
52 59 68
59 67 77
63 72 83
68 77 89
70 79 92
70 79 92
73 83 97
74 84 98
80 91 105
88 99 113
87 99 115
89 101 118
93 106 122
94 106 123
99 112 129
106 120 138
98 111 129
103 116 134
108 123 143
102 116 135
103 117 135
97 111 128
94 107 125
92 104 120
89 101 117
85 96 111
82 93 107
79 90 104
73 83 95
72 82 95
72 82 95
65 74 85
68 77 89
65 74 85
62 70 81
58 66 76
54 62 72
54 62 72
50 57 66
44 50 58
30 34 40
25 29 33
36 41 48
46 52 60
59 66 76
66 75 87
70 79 91
75 85 99
70 79 91
72 81 93
73 83 95
74 84 97
76 86 100
75 85 99
80 90 104
77 88 101
75 84 97
62 70 81
53 60 69
37 42 49
26 30 35
41 46 53
52 59 67
61 69 79
68 76 88
67 76 87
63 72 83
67 75 87
70 80 92
68 77 89
61 69 79
63 71 81
56 63 73
63 71 82
59 66 76
69 78 90
73 83 95
74 83 96
80 90 104
79 90 104
75 84 97
74 84 96
77 87 101
73 82 94
71 80 91
71 80 92
72 81 93
70 80 92
62 69 80
56 63 72
59 66 75
50 56 65
49 55 63
39 44 50
28 31 36
19 22 25
20 23 27
21 24 27
22 24 28
26 30 34
27 30 34
30 34 38
32 36 41
43 48 55
41 46 52
42 47 54
42 48 55
43 48 55
38 43 49
40 45 52
40 44 50
31 34 38
24 26 29
18 19 21
14 15 17
18 19 21
19 21 24
11 12 14
9 10 11
6 6 7
7 8 9
12 13 15
17 19 21
11 13 14
15 16 18
9 10 11
5 6 7
6 6 7
6 6 7
9 10 11
14 15 17
18 20 23
23 25 28
29 32 36
27 30 34
34 37 42
36 39 44
34 37 41
32 35 39
39 42 47
36 40 45
36 39 43
36 39 44
40 44 49
28 31 35
38 41 46
27 30 33
27 30 34
27 29 33
27 30 34
18 20 23
20 22 24
18 20 22
24 26 30
25 28 31
28 31 34
26 29 32
26 29 33
30 32 36
37 41 46
33 36 40
40 43 49
42 46 52
47 52 57
41 45 50
48 52 58
44 48 54
40 44 49
37 41 45
33 36 40
28 30 34
30 32 36
35 38 42
31 34 38
27 29 32
18 19 22
15 16 18
19 21 23
24 26 29
25 27 31
32 35 40
33 36 41
40 43 48
36 40 45
37 41 46
46 50 56
31 35 40
51 57 65
56 63 71
59 66 76
64 71 82
59 66 75
63 70 81
66 74 84
61 69 78
62 70 81
65 73 84
55 62 72
57 65 75
56 63 73
59 66 76
58 65 75
57 64 74
50 56 64
51 58 66
55 62 72
65 73 84
65 74 85
77 86 98
70 79 91
80 90 103
80 90 103
74 83 96
80 91 105
80 90 104
75 85 98
84 94 107
85 96 110
80 90 103
79 90 103
78 89 103
82 93 108
89 101 117
89 101 117
100 114 131
101 114 131
101 114 132
103 117 135
111 126 145
108 122 140
107 120 138
118 133 154
116 131 151
113 128 148
119 135 156
114 130 150
110 125 145
108 122 141
111 126 146
107 121 140
105 118 136
114 129 149
105 119 137
102 116 135
105 119 138
100 113 130
96 109 126
97 110 126
102 116 134
97 110 128
91 103 119
93 106 123
89 101 117
88 101 116
81 91 106
79 90 104
80 91 106
74 83 96
75 86 100
77 87 101
75 85 98
76 86 100
74 84 97
73 83 97
71 81 94
70 79 92
69 79 92
72 81 94
76 86 99
69 78 90
64 73 84
61 69 80
64 72 84
70 79 91
71 80 93
72 83 96
69 79 91
62 71 82
53 60 70
31 35 40
37 42 49
59 67 77
73 83 96
84 96 111
96 108 125
99 112 130
104 119 137
106 120 139
109 124 143
114 129 149
113 128 148
111 126 146
111 126 146
118 133 153
111 126 145
115 131 151
127 144 166
126 143 166
126 143 165
128 145 168
123 140 162
123 140 162
116 132 153
118 134 154
111 126 146
111 126 146
107 121 140
106 121 140
105 119 138
106 120 139
99 113 131
96 109 126
93 106 123
86 97 113
79 90 104
63 72 84
41 47 54
22 25 29
43 48 56
56 64 74
67 75 87
69 78 91
70 79 92
70 79 91
72 82 94
73 82 95
69 79 92
73 83 96
76 86 99
75 85 98
74 85 98
74 84 98
75 85 99
73 83 96
71 81 94
60 69 80
55 63 73
57 64 74
58 66 77
58 66 77
60 68 78
60 68 79
59 67 78
60 68 79
62 70 81
63 72 84
63 72 83
64 72 83
58 66 76
79 90 105
74 84 96
66 75 87
59 67 78
60 68 79
61 70 81
61 70 80
62 70 81
65 75 86
61 70 80
57 65 75
52 58 67
43 49 57
32 37 43
28 31 37
44 50 58
54 61 70
58 66 77
57 65 75
62 71 82
66 75 87
66 75 86
67 77 89
67 76 88
75 85 99
77 87 100
77 88 102
78 88 101
80 91 105
84 95 110
84 95 110
85 97 112
88 100 116
89 101 117
84 96 111
81 92 107
76 87 101
74 84 97
71 80 93
69 79 91
64 73 84
58 66 77
51 58 67
46 52 60
44 50 58
42 48 56
41 46 53
34 39 45
28 32 37
33 37 43
39 45 52
43 49 57
47 54 62
54 61 71
61 70 80
64 73 86
72 82 95
78 89 102
80 91 105
78 88 102
80 90 104
79 90 104
84 95 110
85 97 112
88 100 115
92 105 121
90 102 118
86 99 115
79 89 103
83 94 108
78 88 102
70 79 91
71 80 92
63 71 82
47 54 62
35 40 46
27 30 35
18 21 24
22 25 29
33 38 44
40 46 54
46 52 60
50 57 65
55 62 72
49 55 63
50 56 65
44 50 58
46 52 60
44 49 57
40 46 53
36 41 47
30 35 40
28 32 37
34 39 44
38 44 50
42 48 56
44 50 58
43 49 56
46 53 61
48 54 63
50 56 65
48 55 63
47 54 62
40 45 53
43 49 56
46 52 61
36 41 48
31 36 41
30 34 39
29 33 38
31 35 40
40 45 52
45 50 58
49 55 63
55 62 71
57 64 74
61 69 79
59 67 77
65 74 86
73 83 95
76 86 99
78 88 101
86 98 113
89 100 116
90 102 117
93 105 121
104 117 133
103 117 135
107 121 139
107 121 139
104 116 133
104 117 135
100 113 129
99 112 129
92 104 120
92 104 120
90 102 117
82 92 105
83 93 106
70 79 92
73 82 94
66 74 85
65 73 83
58 66 76
49 55 63
31 35 40
20 22 26
31 35 40
32 36 41
36 41 46
40 44 50
38 42 48
43 48 55
49 55 63
44 50 57
43 48 55
41 46 53
43 48 55
46 52 59
43 48 55
39 44 50
36 40 46
34 38 43
25 27 30
23 26 29
21 23 26
15 17 19
15 16 18
20 21 24
21 23 26
15 16 18
7 8 9
13 15 16
14 16 18
18 19 22
16 18 20
22 24 27
18 20 22
10 11 12
6 6 7
6 6 7
12 13 14
19 21 23
18 19 22
24 26 29
31 34 38
27 30 34
26 28 31
30 33 37
33 36 40
26 29 32
29 32 35
27 29 32
33 36 40
30 33 37
18 20 23
29 32 35
21 23 26
22 24 27
21 23 26
18 20 22
18 19 21
11 12 13
13 14 16
17 19 21
13 15 17
14 16 18
18 20 22
25 28 31
26 29 32
28 31 34
29 32 36
35 38 43
32 36 40
33 36 40
29 33 37
31 34 38
30 33 37
29 31 35
31 34 37
23 26 29
25 27 30
25 28 31
22 24 26
19 20 23
16 17 19
18 20 22
19 21 24
26 29 32
27 30 33
32 35 39
40 44 50
34 37 42
41 44 49
34 37 41
46 51 58
44 50 57
67 74 84
63 71 81
63 71 81
60 67 77
54 60 68
53 59 68
53 59 67
53 60 68
60 67 76
61 69 79
59 66 75
53 60 68
57 64 73
53 60 69
57 63 72
65 73 84
63 70 80
65 73 84
71 80 91
71 80 91
72 81 92
72 81 94
77 87 99
84 94 108
84 94 108
85 95 110
81 91 104
82 92 106
80 90 103
87 99 113
87 98 113
85 95 109
83 94 108
82 92 106
75 86 99
87 98 113
83 93 108
83 94 108
80 90 103
72 81 93
77 87 100
78 89 103
80 91 105
82 92 105
88 100 115
92 104 120
99 112 129
102 115 132
106 120 138
101 115 133
108 122 141
106 120 139
117 132 153
116 130 150
119 135 156
114 129 148
122 138 160
116 132 153
118 135 156
121 137 158
126 143 165
119 134 155
124 141 162
128 145 168
124 139 160
122 139 160
124 140 162
118 135 156
121 138 159
126 143 165
122 138 160
107 121 139
108 122 141
109 123 142
108 123 142
107 122 142
113 128 149
115 130 150
112 128 149
110 125 146
107 122 141
108 122 141
104 118 136
101 114 132
99 112 130
97 110 126
89 101 117
92 104 120
89 101 117
87 98 114
85 96 112
82 93 107
76 87 101
69 78 90
58 66 76
46 52 60
34 38 44
41 46 54
54 61 71
76 86 100
83 95 110
91 104 120
100 113 130
104 119 138
105 119 138
114 130 150
117 134 155
119 136 157
126 142 164
128 146 169
128 145 167
128 147 170
131 149 172
123 141 163
124 141 162
117 134 155
115 130 150
110 125 145
106 120 139
105 119 137
102 116 133
97 109 126
92 105 122
93 106 124
93 105 122
89 101 116
89 101 116
83 94 108
75 86 99
67 76 88
57 65 74
49 55 63
39 44 51
44 49 57
43 48 56
47 53 62
52 59 68
58 65 75
63 73 84
73 83 96
78 88 101
81 93 108
85 96 111
80 91 106
82 93 108
82 94 109
79 90 105
75 85 99
70 80 92
72 82 95
71 80 93
72 82 95
76 87 101
80 91 105
79 90 104
78 89 103
75 85 99
74 85 98
73 83 95
76 86 100
80 90 104
81 91 106
79 89 103
75 85 99
83 94 108
83 94 109
84 96 111
82 93 108
82 93 107
79 89 104
76 86 100
74 84 98
74 84 97
67 76 88
64 73 84
58 66 77
54 62 71
44 50 58
38 44 51
38 43 50
34 39 45
28 32 38
30 34 39
36 41 48
42 48 56
46 52 60
47 54 63
44 50 58
38 43 50
45 51 59
48 55 63
49 56 65
58 66 76
59 67 78
62 71 82
61 70 80
59 67 78
59 67 78
54 61 71
52 59 68
41 46 53
41 46 53
38 44 51
39 44 51
37 42 49
36 41 48
42 48 55
42 47 55
41 47 54
44 50 58
50 57 66
55 62 72
55 62 72
58 66 77
63 71 83
68 77 88
68 77 89
65 74 85
62 71 82
62 70 81
57 65 75
58 66 76
55 62 72
55 62 72
47 53 61
39 44 51
44 50 58
44 50 58
33 38 44
42 48 56
45 51 59
48 54 63
49 56 65
48 55 64
49 56 65
49 55 64
45 51 59
41 47 54
35 40 47
46 53 61
49 56 64
50 57 66
56 64 73
60 68 79
67 76 87
68 77 89
75 85 98
75 85 98
78 90 104
81 92 107
84 96 111
79 89 103
77 87 101
70 80 93
70 80 92
71 80 92
65 74 86
64 72 83
64 72 83
63 71 82
60 68 79
54 61 71
54 61 71
46 52 60
38 43 50
26 29 34
23 27 31
27 31 36
27 31 36
26 30 34
25 29 33
26 29 34
32 36 42
33 37 43
31 35 40
29 33 38
31 35 41
31 36 41
40 46 53
49 55 64
54 61 70
64 72 83
70 79 92
78 88 102
92 105 121
92 104 120
93 105 120
102 115 132
100 113 130
106 120 138
105 118 135
106 120 139
112 126 145
109 124 142
115 128 146
109 123 140
103 117 134
99 111 127
93 105 121
86 97 112
87 98 112
82 93 106
81 91 104
71 79 91
66 75 85
57 64 73
53 60 69
42 47 54
28 32 36
22 25 28
30 33 38
34 38 44
32 36 41
40 45 52
31 35 40
38 43 48
44 49 56
35 39 45
33 37 42
32 36 41
27 30 34
36 40 46
30 33 38
28 32 36
25 28 32
24 27 30
30 33 37
33 37 41
30 33 37
30 32 36
22 24 26
16 17 19
13 15 16
19 20 23
11 13 14
13 14 16
11 12 13
6 7 7
8 9 10
11 12 14
15 17 19
15 16 18
13 15 17
13 14 15
8 9 10
15 16 18
22 25 28
25 27 30
26 28 31
29 32 36
23 25 28
24 26 29
26 28 32
27 30 33
28 31 34
23 26 29
21 22 25
21 22 25
17 18 21
15 16 18
14 16 18
15 17 19
18 20 22
17 18 20
12 13 15
12 13 15
9 9 11
8 9 10
7 7 8
5 6 7
9 10 11
17 19 21
17 19 21
22 24 27
31 34 37
29 32 36
22 25 28
31 34 38
24 26 30
27 29 32
26 28 31
24 26 29
23 25 28
21 23 25
23 25 28
14 15 17
13 14 16
16 17 20
23 25 28
26 29 32
27 30 33
28 30 34
36 40 44
28 31 34
44 48 53
39 42 47
44 49 55
43 48 54
51 56 64
52 59 67
51 57 64
59 66 75
63 70 79
66 73 83
68 75 85
77 85 96
72 81 92
76 84 95
74 83 95
69 77 88
74 83 95
74 82 93
73 82 93
74 83 95
70 79 90
78 87 99
88 99 113
86 96 110
79 89 102
89 100 114
86 97 111
85 96 109
91 102 116
90 102 117
90 101 116
81 91 104
77 87 100
86 97 111
80 90 103
81 90 103
83 93 107
74 84 97
71 80 91
69 78 89
73 82 94
69 77 88
65 74 85
72 81 93
62 69 79
54 60 69
40 45 52
39 44 51
40 45 52
35 39 45
37 42 48
34 39 45
32 36 42
40 45 52
52 60 69
57 64 74
67 76 87
87 98 112
89 101 116
92 105 121
100 113 131
103 116 133
107 121 138
112 127 147
114 129 148
123 139 159
118 134 156
126 143 166
118 134 154
122 138 159
126 143 165
128 146 168
123 139 161
130 147 169
133 151 174
122 138 159
133 149 172
128 145 167
116 132 153
120 136 157
114 129 149
113 128 148
108 122 140
104 118 137
109 123 141
106 121 140
101 115 134
97 110 127
93 106 123
96 108 125
89 100 115
86 97 113
78 89 103
74 84 97
67 76 88
64 73 84
66 74 86
66 75 87
64 72 84
58 66 76
52 59 68
47 53 62
44 50 58
23 27 31
35 39 46
50 56 65
69 78 89
82 93 107
95 108 124
103 117 136
112 127 147
116 131 152
121 137 159
126 143 166
128 146 170
134 151 173
130 148 171
130 148 172
131 149 173
130 147 170
127 145 169
123 141 163
124 141 163
119 135 156
112 128 149
111 125 145
106 121 140
103 117 134
103 117 135
98 112 130
93 105 121
85 97 112
84 95 110
83 95 110
86 97 112
82 94 108
76 86 99
74 84 97
68 77 89
68 77 88
56 64 74
46 52 60
43 49 57
37 42 49
29 33 39
20 22 26
24 27 32
33 37 42
45 51 59
57 64 74
64 72 84
69 78 90
72 82 95
78 89 103
87 99 114
93 106 124
94 106 123
101 114 132
97 110 128
96 110 127
94 107 123
93 106 123
90 102 118
89 101 116
83 94 109
75 86 99
71 81 94
63 71 82
56 64 74
71 81 93
74 84 97
83 94 108
84 96 111
81 93 108
79 90 104
76 86 100
76 86 100
82 93 107
82 93 107
85 97 111
78 89 103
71 81 93
70 80 92
75 84 97
73 84 97
71 80 92
71 80 93
70 80 92
75 85 98
74 84 97
75 85 98
78 89 104
79 90 105
75 85 98
70 80 92
71 81 93
63 72 83
60 69 80
56 64 75
60 68 79
57 65 75
53 60 70
55 63 73
58 65 75
50 57 66
48 55 64
51 58 67
53 60 69
53 61 71
58 67 77
66 75 86
68 77 89
72 81 94
72 82 95
76 87 100
75 85 98
73 83 96
73 84 97
70 80 92
70 80 92
69 78 91
65 74 86
66 74 85
59 67 77
51 58 67
42 47 55
39 44 51
29 33 38
28 31 36
29 33 38
35 40 46
48 54 62
54 61 71
64 73 84
66 75 86
62 71 82
69 79 91
73 82 95
79 89 103
83 94 109
88 100 115
87 98 114
91 103 119
94 107 124
95 108 125
93 106 123
96 109 126
95 107 124
100 113 130
88 101 116
90 102 118
96 108 125
93 106 122
95 108 125
87 99 114
83 94 109
84 96 111
82 92 106
73 82 95
72 82 95
69 78 91
68 77 89
57 65 76
54 61 70
45 51 58
40 45 53
42 47 55
47 53 61
44 51 58
39 44 51
37 42 48
22 25 29
19 22 25
25 29 33
28 31 36
32 37 42
33 37 43
39 44 51
45 51 59
45 51 59
53 60 69
54 61 70
58 66 76
59 66 76
66 74 86
77 88 101
77 87 100
80 90 104
94 105 121
96 109 126
100 114 131
106 119 136
97 110 127
99 111 128
96 108 124
103 115 132
108 121 139
110 124 143
113 127 146
113 127 145
109 123 141
116 131 151
110 124 141
104 117 134
97 109 126
102 114 130
87 98 112
89 100 115
76 85 97
74 83 94
70 78 89
66 74 84
60 68 78
50 56 64
41 46 53
32 36 41
24 27 31
18 21 23
15 16 19
15 17 19
16 18 20
15 17 20
26 29 33
36 40 46
43 48 55
40 45 51
44 49 55
43 48 55
46 51 58
46 51 57
50 56 64
51 57 64
50 56 63
50 55 63
52 58 66
49 55 62
57 63 71
43 48 54
40 45 51
14 16 18
8 8 9
7 7 8
8 9 10
8 9 10
9 9 11
7 8 9
7 8 9
8 9 10
8 9 10
6 6 7
4 5 5
9 9 11
11 12 14
26 28 31
23 25 28
24 26 29
22 25 28
26 28 31
24 26 29
27 29 32
29 31 34
20 22 24
22 24 27
18 20 22
10 11 12
10 11 12
5 6 7
5 6 7
8 9 10
9 10 11
9 10 12
8 9 10
13 14 16
11 12 13
7 8 9
5 6 7
8 8 9
7 8 9
9 10 11
9 10 12
16 18 20
20 22 24
25 27 30
25 27 30
23 25 28
23 26 28
24 27 30
19 21 23
22 24 27
17 19 20
12 13 14
13 14 16
19 21 23
27 29 32
30 32 36
27 29 33
32 35 39
38 41 46
43 47 52
37 41 46
45 50 56
58 65 73
51 56 63
54 60 69
58 65 74
66 74 83
67 74 83
79 87 98
81 90 101
71 79 89
76 85 97
88 98 111
84 94 108
97 107 122
92 102 116
90 100 113
87 96 109
87 97 111
79 89 101
94 104 119
79 89 102
89 100 114
75 84 96
83 93 106
80 90 103
74 83 96
76 85 97
72 80 91
67 75 85
75 83 95
71 79 90
70 78 89
76 86 99
75 84 96
72 81 93
77 87 99
63 71 82
58 65 75
38 43 49
33 37 43
36 40 46
38 43 49
38 43 50
44 50 57
46 52 60
46 52 59
54 61 70
55 62 71
59 66 76
55 62 71
57 64 74
43 49 57
44 49 57
34 38 44
32 36 42
38 43 49
49 56 65
60 69 80
66 75 86
74 85 98
83 93 107
87 99 114
92 105 121
94 106 122
91 103 119
93 106 122
94 106 123
97 110 127
105 118 136
104 118 137
104 118 136
107 121 139
113 128 147
116 132 152
114 130 151
117 132 152
111 126 146
116 131 151
114 128 148
110 125 145
111 127 147
108 122 140
105 119 138
112 127 147
113 127 147
103 116 134
104 118 137
103 117 135
95 108 126
89 101 116
86 97 113
83 94 109
75 85 99
63 72 83
54 62 71
47 54 62
41 46 53
28 31 36
22 26 30
29 32 37
37 42 49
48 55 63
50 57 65
44 50 57
48 55 63
49 56 65
59 67 77
65 74 86
76 87 101
85 97 113
90 102 118
98 112 130
108 123 142
105 120 139
111 127 147
120 136 158
122 138 160
125 141 163
128 145 167
122 139 160
128 145 169
124 142 164
126 143 165
127 143 165
123 139 161
116 132 153
115 130 151
112 127 147
99 113 131
101 114 132
95 107 124
93 105 121
89 101 116
79 90 104
71 81 94
68 77 89
62 71 82
61 69 80
52 59 69
49 55 64
42 48 55
31 35 41
26 30 34
25 29 33
29 33 38
33 38 44
42 48 55
51 57 66
50 57 66
49 55 64
53 60 70
58 66 76
67 76 88
76 87 100
83 95 110
93 106 123
100 113 130
101 114 132
102 116 134
104 118 137
104 119 138
107 122 140
104 118 136
97 110 127
92 104 121
88 100 116
77 87 101
67 76 88
63 71 82
44 51 59
45 52 60
43 49 56
41 46 53
33 38 43
30 34 40
37 42 49
42 48 56
47 53 62
40 46 53
41 46 54
43 49 57
49 55 64
58 66 76
63 72 83
64 73 85
63 72 84
67 76 87
69 79 91
74 84 97
76 86 100
80 91 105
76 86 100
78 89 103
77 88 102
81 92 107
81 91 106
84 95 110
86 98 113
81 91 105
81 92 106
84 95 110
82 93 108
83 94 108
77 88 102
75 86 99
71 81 93
65 75 87
67 76 88
67 76 89
68 77 88
66 75 87
65 74 86
65 74 85
65 74 86
63 71 82
63 72 83
64 73 84
56 64 74
59 67 78
50 57 65
48 55 63
39 44 51
34 38 44
32 37 42
40 46 53
49 56 66
57 65 75
61 69 81
60 69 80
62 70 81
64 73 84
68 77 90
71 80 93
75 85 98
77 88 102
83 94 109
84 96 111
88 100 115
94 108 125
106 121 140
108 123 142
111 126 146
111 126 145
113 128 148
115 130 150
118 134 154
116 133 154
112 127 146
118 134 155
113 128 147
117 133 153
116 132 152
117 132 153
106 121 140
104 117 135
101 115 133
103 117 134
104 117 135
97 110 126
90 102 118
80 91 104
69 78 90
61 69 80
55 62 72
45 51 59
31 35 41
23 26 29
30 34 39
35 40 47
43 49 57
47 54 62
48 54 63
46 52 60
45 52 60
50 56 64
55 62 72
62 70 81
65 74 85
65 74 85
65 73 84
67 76 88
70 79 91
76 86 100
78 88 102
89 101 116
88 100 115
91 103 118
95 107 123
89 99 114
102 115 132
100 112 129
108 122 141
98 111 127
107 121 139
105 119 136
107 120 136
101 113 130
102 115 133
102 114 131
97 109 125
105 118 135
107 120 137
95 106 122
94 106 121
91 101 116
82 92 105
83 93 107
70 78 90
75 84 96
66 74 84
71 79 90
65 73 83
66 73 83
64 72 81
57 63 72
55 61 70
56 63 71
56 62 70
48 53 60
52 58 66
58 64 73
50 55 62
50 56 63
54 60 68
64 71 81
58 64 72
59 65 74
64 70 80
59 65 74
69 76 85
70 78 88
61 67 76
65 72 82
76 84 95
76 84 94
70 77 87
62 69 78
68 75 84
60 66 74
63 69 78
50 55 61
21 23 26
10 11 12
14 15 17
20 21 24
21 23 25
24 25 28
17 19 21
11 12 13
15 16 18
12 13 14
10 11 12
12 14 15
17 19 21
19 20 23
26 28 32
23 25 27
18 20 22
17 19 21
19 20 23
13 15 16
14 15 17
14 15 17
12 13 15
13 14 15
7 8 9
11 12 14
13 15 16
12 13 15
4 4 5
4 5 5
7 7 8
10 11 12
8 9 10
5 6 6
11 11 13
12 13 14
12 13 14
12 13 15
20 22 25
21 23 25
19 21 23
19 21 24
24 26 29
21 23 25
23 25 27
17 19 21
13 15 16
7 7 8
10 11 12
15 17 18
20 22 24
24 26 29
22 24 27
30 32 36
32 35 39
37 40 45
47 52 58
47 52 58
54 60 67
52 57 64
47 52 59
49 54 61
58 64 72
58 65 73
49 54 61
52 57 65
55 61 69
58 64 72
64 71 80
61 67 76
66 72 82
64 71 81
73 82 93
82 91 103
85 94 107
81 90 103
87 96 109
87 97 110
74 83 94
82 92 105
91 101 115
91 101 115
74 83 95
90 100 113
83 92 104
79 88 101
85 95 108
79 88 100
79 89 102
74 83 94
72 81 92
67 75 86
59 66 76
62 69 79
49 55 63
48 53 61
39 44 51
21 24 27
34 39 45
50 56 64
64 72 83
69 78 89
69 77 89
77 87 100
78 89 102
80 90 104
77 87 100
70 79 91
69 78 90
68 77 89
60 67 77
61 68 78
54 61 70
53 59 68
45 51 59
44 49 57
37 42 49
35 39 45
41 46 53
55 62 72
59 67 78
65 73 85
72 82 94
78 89 103
82 92 105
86 97 113
88 100 116
93 105 121
96 108 125
96 109 126
99 112 128
96 109 125
99 113 130
86 98 114
104 117 135
103 116 134
106 120 138
111 126 145
103 116 134
107 121 139
107 121 139
108 122 140
108 123 142
103 116 134
104 117 135
97 110 126
96 109 127
99 112 129
94 107 123
99 112 130
91 103 118
84 95 109
75 85 98
68 78 90
63 71 82
55 63 72
50 57 66
43 49 57
36 41 48
37 41 48
41 47 54
52 59 68
59 67 78
62 70 81
68 77 88
74 84 98
75 85 99
75 86 99
79 90 104
83 94 108
83 94 108
90 101 117
90 102 118
96 110 127
98 111 128
104 118 136
100 114 132
103 117 135
98 111 129
100 113 131
97 111 129
95 108 126
90 103 120
87 100 115
86 99 115
79 90 105
77 87 101
74 84 98
75 85 97
74 84 97
66 75 87
63 72 83
65 74 85
63 72 83
58 66 76
52 59 68
56 64 74
54 61 70
50 58 67
49 56 65
48 55 63
44 50 58
36 41 48
23 26 31
45 51 59
58 66 76
63 72 83
69 78 90
80 91 105
82 94 109
84 95 110
85 96 112
85 97 112
88 100 116
88 100 116
87 99 115
92 105 121
96 109 127
98 111 129
101 115 133
102 116 135
104 118 135
99 113 131
98 112 129
93 106 122
88 99 115
77 88 102
66 75 87
36 40 46
40 45 52
43 49 56
47 53 62
48 55 63
43 49 57
37 42 49
37 41 48
41 46 54
50 57 66
61 69 80
64 73 85
72 82 94
72 82 94
77 88 103
79 90 104
81 92 107
82 93 108
86 97 111
85 96 112
80 91 106
78 89 102
77 87 100
74 84 97
74 84 96
73 83 96
68 78 91
63 72 83
57 65 75
52 59 68
54 62 71
58 66 77
57 65 75
56 64 74
57 65 75
54 61 71
46 52 60
44 50 57
44 50 57
38 44 51
45 51 58
49 56 65
55 63 72
57 65 75
59 68 78
62 71 82
63 71 83
61 69 80
54 61 70
48 55 63
45 51 59
38 43 50
30 34 40
25 29 33
34 39 45
39 45 52
48 55 63
55 63 72
61 70 81
66 74 86
74 84 97
80 91 105
85 96 111
89 102 117
88 101 117
100 114 132
99 112 130
107 122 141
103 117 136
109 124 143
115 131 152
109 124 144
116 132 153
121 138 159
123 140 161
124 141 164
125 141 163
119 136 157
125 142 164
126 143 166
118 134 154
113 129 149
112 127 146
111 126 145
107 121 140
99 113 130
106 121 140
97 110 128
93 105 120
89 101 116
82 93 108
76 87 100
71 80 92
65 74 85
58 65 75
44 50 58
29 33 38
22 25 28
37 41 47
48 54 62
51 58 67
56 63 73
61 69 79
65 74 85
70 79 91
71 81 94
76 87 100
78 88 101
81 92 106
88 99 114
88 99 113
91 103 119
95 107 123
96 108 125
98 111 128
99 112 129
101 113 129
97 110 127
102 114 131
99 112 129
108 122 140
107 120 137
106 119 137
107 121 139
104 117 134
98 111 127
92 104 119
99 111 127
92 103 118
100 112 128
88 100 115
84 94 108
85 95 109
74 83 95
73 83 95
72 82 94
69 77 88
68 77 88
66 74 84
62 69 79
56 63 72
60 67 76
63 70 80
60 67 77
63 70 80
62 69 79
68 75 85
63 70 80
58 64 73
60 67 77
59 66 75
64 71 81
55 61 69
64 71 81
68 76 87
75 84 95
68 76 86
76 84 95
56 63 71
75 83 94
70 77 87
89 98 110
72 80 90
87 96 109
89 97 109
80 89 100
78 86 96
76 84 94
73 80 89
56 62 69
51 56 63
53 58 65
53 58 64
44 48 53
37 41 45
41 45 50
38 41 45
20 22 24
22 23 26
19 21 23
26 29 32
19 21 23
18 19 21
9 10 12
9 10 11
11 12 13
7 8 9
16 17 19
17 18 20
17 19 21
14 16 17
10 11 12
10 11 12
13 14 15
13 15 16
12 13 15
23 25 28
14 15 17
21 22 25
18 19 21
11 12 13
7 7 8
6 7 8
6 7 7
7 7 8
11 12 13
12 13 15
19 21 23
14 16 18
19 21 23
22 24 27
21 22 25
18 20 23
17 19 21
21 23 25
17 18 21
12 14 15
12 13 14
8 9 10
8 9 10
15 16 18
24 26 29
19 21 23
25 28 31
31 34 38
38 42 47
29 32 36
41 45 50
39 43 48
38 41 46
39 43 48
38 42 47
33 36 41
38 41 47
32 35 40
25 27 31
26 29 33
23 25 28
29 32 36
27 30 35
33 36 41
29 32 37
25 27 31
26 29 34
29 32 36
44 49 55
53 59 66
48 54 62
52 58 66
60 66 75
60 67 76
64 72 82
70 78 89
71 79 90
66 74 84
72 80 90
71 79 90
67 75 85
70 78 89
63 70 80
58 66 75
55 62 71
52 58 65
42 47 53
30 33 38
22 25 29
19 21 24
30 34 38
37 42 48
41 46 53
50 56 65
52 58 66
62 69 80
72 81 93
71 80 92
81 91 104
75 85 97
86 97 111
77 87 100
80 90 104
72 81 93
78 88 101
68 77 89
65 74 85
62 70 81
58 66 76
54 61 70
52 59 68
41 47 54
31 35 41
21 24 27
30 34 40
40 46 53
46 53 61
55 62 72
69 78 89
75 85 98
77 88 101
82 93 107
85 97 111
85 96 111
80 91 105
75 85 98
78 88 101
83 93 107
87 98 113
86 98 113
93 106 123
90 103 118
87 99 115
96 109 126
81 92 106
91 102 118
95 109 127
95 107 124
94 106 123
103 117 135
99 113 130
94 107 123
87 99 114
87 99 115
88 100 115
84 95 110
79 89 103
73 83 96
66 75 87
59 66 77
53 60 70
52 59 68
47 53 62
37 42 49
27 30 35
23 27 31
23 27 31
33 37 43
41 47 54
44 50 58
47 54 62
55 62 72
67 76 88
72 81 94
76 87 100
81 92 106
78 89 103
75 85 99
79 90 104
80 90 104
85 97 113
81 91 105
84 94 109
86 97 112
83 94 109
86 98 113
79 90 103
78 88 101
73 82 95
72 82 95
68 77 89
61 69 80
50 57 66
35 40 46
22 25 29
19 21 25
24 28 32
34 39 45
40 45 52
46 52 61
51 58 68
54 62 71
53 60 69
55 62 71
49 56 65
47 53 61
50 57 66
43 49 57
39 44 50
36 41 47
32 36 42
30 35 40
38 43 49
45 51 58
47 53 62
48 54 63
52 59 68
54 61 71
52 60 69
52 59 68
54 61 70
61 70 81
66 76 88
67 76 88
69 78 90
66 75 87
71 81 93
61 69 80
57 65 75
57 65 75
63 72 83
67 76 88
66 75 87
38 43 50
41 47 54
51 58 67
53 60 70
53 61 70
49 56 64
48 55 64
47 54 62
47 54 62
47 53 61
54 62 72
60 68 78
66 75 87
67 77 89
69 79 92
76 86 100
76 87 101
80 92 107
85 97 112
93 106 122
89 102 118
93 105 122
91 103 120
86 99 115
84 96 112
76 86 100
76 87 100
76 86 99
78 89 104
73 83 96
71 80 93
69 78 91
62 70 81
58 66 77
52 60 69
52 59 69
52 59 68
50 57 67
45 51 59
40 46 53
38 44 51
39 44 51
43 49 56
47 53 61
49 56 65
48 55 64
49 55 64
49 55 63
54 61 71
49 55 64
47 53 61
46 52 60
41 47 55
32 36 42
26 29 34
23 26 30
27 30 35
42 47 54
54 62 72
72 82 94
83 94 109
96 109 127
100 113 130
101 114 132
106 120 138
103 117 136
109 124 144
115 131 151
117 133 154
119 136 157
116 131 151
123 139 161
118 134 155
119 135 156
115 131 151
117 132 151
113 128 149
116 132 152
124 140 161
121 138 160
117 133 155
115 131 151
106 121 140
108 122 141
106 119 138
98 111 128
92 104 120
87 99 114
81 91 105
74 84 97
69 78 91
64 72 84
59 66 77
55 62 72
47 53 61
36 42 48
20 23 27
20 23 26
30 33 39
36 41 48
42 48 55
53 60 70
59 66 75
64 72 84
72 82 94
77 86 99
80 91 105
82 93 107
85 97 111
87 98 113
84 95 109
86 97 111
92 104 120
86 97 112
88 100 115
89 100 115
87 98 113
87 98 112
87 99 114
83 93 107
87 99 114
91 102 117
89 99 113
97 109 124
89 100 115
93 104 120
84 94 108
78 88 100
79 88 101
71 80 91
69 78 88
66 75 86
59 66 76
56 63 72
51 57 65
49 55 63
49 55 63
45 51 57
45 51 58
43 48 55
39 44 50
45 51 58
43 48 55
47 53 61
50 56 64
62 69 78
62 69 78
64 71 80
69 76 87
72 80 90
58 64 73
68 75 85
78 86 97
63 70 79
66 73 83
68 75 85
69 76 86
70 77 86
71 79 89
75 83 93
76 84 95
71 78 88
73 80 90
74 81 92
63 69 77
62 68 76
57 63 71
66 72 81
57 62 70
54 60 67
55 60 67
56 60 67
47 51 57
59 64 71
55 60 67
55 60 67
62 67 75
46 51 56
44 48 53
44 48 53
32 34 38
21 23 26
15 16 18
17 19 20
11 12 13
12 14 15
8 9 10
12 13 14
10 11 12
9 10 11
7 8 9
6 6 7
3 3 4
5 6 6
11 12 14
9 9 10
13 14 16
15 16 18
11 12 14
11 12 13
17 18 20
12 13 15
11 12 14
11 12 13
10 10 12
10 11 12
7 8 9
13 14 16
14 15 17
14 15 17
16 17 19
16 17 19
15 16 18
13 14 16
6 7 8
5 6 6
9 10 11
17 18 20
11 12 13
14 15 17
23 24 27
12 13 15
15 16 18
25 27 30
23 25 27
32 35 39
25 28 31
25 27 30
25 27 31
28 31 34
16 18 20
12 14 15
13 15 16
17 19 22
17 18 21
28 31 34
40 44 50
43 47 53
47 52 59
43 47 53
32 36 41
42 46 52
36 40 46
38 42 47
29 32 36
25 28 31
16 17 20
25 27 31
28 31 35
35 39 45
40 45 51
42 47 53
40 45 51
43 48 55
46 51 58
50 55 63
53 59 68
47 53 60
46 52 59
56 62 70
53 59 68
49 55 63
38 42 48
31 34 39
24 27 31
20 23 26
18 20 23
29 33 38
36 41 46
43 48 55
50 56 65
51 58 67
51 57 65
57 64 73
60 67 77
55 62 71
51 58 67
59 67 77
60 68 78
57 65 74
53 60 68
45 51 58
44 50 57
38 43 50
36 41 48
33 37 43
28 32 37
35 39 45
35 40 46
33 37 43
25 28 33
23 26 30
29 33 38
31 35 41
35 40 46
42 48 55
47 54 62
52 59 68
60 68 78
56 64 74
68 78 90
67 76 87
63 71 81
59 67 78
64 72 84
60 68 78
59 67 77
55 62 72
55 62 71
46 53 61
53 60 69
59 67 77
55 63 73
65 73 85
72 81 94
73 83 96
83 94 108
81 91 105
81 92 107
80 91 105
78 88 102
78 89 103
74 84 97
70 79 91
64 73 84
56 64 74
45 52 60
36 41 47
29 33 38
23 26 31
24 27 31
29 33 38
33 38 44
37 42 49
41 46 54
47 54 62
55 62 72
61 68 79
65 74 85
71 80 92
65 74 86
65 74 86
62 70 81
59 66 76
58 66 76
54 62 72
52 58 67
46 53 61
49 56 65
44 50 58
43 49 56
37 42 48
35 39 46
38 43 50
43 49 57
45 51 59
42 48 56
40 46 53
45 52 60
49 56 65
47 53 62
42 48 55
40 45 53
40 45 52
46 52 60
52 59 69
54 62 71
56 63 73
58 67 77
64 73 85
71 81 94
76 86 99
78 89 104
79 90 104
86 98 113
88 100 116
88 100 116
82 94 108
80 91 105
72 82 95
74 83 96
71 81 94
68 77 89
64 74 86
64 73 84
62 70 81
61 70 81
57 65 76
56 63 73
48 55 63
47 53 61
42 48 56
34 39 45
34 39 45
30 34 40
30 34 39
31 36 41
33 38 43
37 42 48
40 45 53
28 32 37
30 34 40
33 38 44
37 42 48
34 39 45
28 32 36
21 24 28
21 24 28
27 30 35
32 37 43
29 34 39
27 31 36
27 30 35
35 40 46
46 52 61
54 62 72
62 71 82
72 82 95
78 89 103
85 96 112
91 103 119
91 104 121
92 105 123
91 103 119
91 102 117
87 99 114
86 98 113
85 97 112
83 95 110
78 89 103
80 91 105
82 93 107
75 85 98
69 79 91
64 72 84
61 69 80
55 62 71
51 58 66
46 53 61
35 40 46
21 24 28
23 26 30
28 32 37
28 32 38
20 23 27
19 21 24
25 28 32
31 36 41
42 47 55
44 50 58
52 59 68
57 64 75
64 73 84
72 82 95
71 81 93
69 78 91
78 89 103
86 98 114
92 104 119
97 111 128
104 118 137
113 128 148
116 132 152
117 133 154
120 136 157
122 139 160
123 139 160
123 140 161
120 137 158
116 132 153
114 128 148
115 131 152
116 132 152
115 131 151
113 129 149
116 133 154
108 122 141
110 125 145
112 126 145
105 118 136
107 122 141
110 125 145
95 108 125
95 108 125
89 101 117
83 95 110
81 92 106
72 82 94
61 69 80
56 64 74
48 54 62
42 48 55
33 38 44
30 34 39
20 23 26
28 32 37
43 48 56
44 50 58
47 53 61
56 63 72
60 68 78
59 68 78
61 69 79
55 62 72
59 66 76
60 68 79
69 78 90
74 83 95
79 89 103
81 91 104
84 94 108
83 93 107
82 92 106
84 94 108
79 89 102
80 90 103
71 80 93
76 85 98
74 84 97
77 86 99
69 79 91
73 82 94
72 81 93
65 73 84
64 72 82
59 67 76
61 69 79
46 52 60
50 56 65
46 51 58
41 46 53
33 37 42
30 34 39
24 27 31
21 24 27
21 24 28
23 25 29
23 26 30
23 26 30
25 28 32
28 32 36
34 38 44
36 40 46
47 52 59
53 59 67
58 64 73
54 61 69
53 59 67
63 70 80
54 60 68
61 68 76
52 58 66
62 69 78
62 69 78
62 69 78
58 64 72
58 64 72
57 63 71
51 57 64
59 65 74
53 59 66
51 56 64
51 56 64
49 54 60
44 49 55
45 50 56
44 49 55
38 42 47
39 43 48
40 44 49
36 40 45
48 53 59
53 58 65
45 49 55
37 41 45
43 47 52
44 48 53
39 43 47
33 36 39
45 49 54
31 34 38
35 38 42
33 36 40
18 19 21
24 26 29
24 26 28
13 14 16
13 14 16
4 4 5
9 9 10
3 4 4
7 7 8
6 6 7
5 5 6
3 3 3
5 5 6
8 9 10
5 5 5
6 7 7
3 3 3
2 2 3
1 2 2
4 5 5
9 9 10
6 6 7
6 7 8
9 10 11
11 12 13
12 13 14
7 8 8
4 5 6
6 7 8
10 11 12
9 9 10
9 9 10
9 10 11
7 8 9
8 9 10
6 7 8
7 8 9
4 5 5
9 10 11
9 10 11
3 3 3
10 11 12
9 10 11
10 12 13
12 14 15
10 11 13
12 13 14
16 17 19
16 18 20
18 20 22
26 29 32
29 31 35
35 39 43
27 30 34
34 37 42
33 36 41
30 33 37
34 38 43
27 30 34
29 32 36
27 30 34
19 21 23
28 31 35
22 24 28
24 26 30
24 27 31
18 20 23
18 20 23
20 22 25
17 19 21
20 22 25
14 16 18
18 20 23
17 19 22
16 17 20
22 25 28
25 28 32
22 24 28
22 25 29
24 26 30
19 22 25
16 18 21
22 25 29
32 36 41
36 41 46
44 49 56
39 44 51
42 48 55
44 49 57
42 47 53
30 34 39
28 32 37
25 28 33
23 26 30
20 22 25
25 29 34
24 27 31
31 35 40
37 42 48
43 49 56
42 47 54
47 53 61
44 49 56
48 55 63
48 54 62
50 56 64
47 53 62
46 53 61
46 52 60
43 49 56
39 44 51
35 39 45
38 43 50
35 39 46
38 43 50
38 43 50
42 47 54
48 54 62
51 57 66
45 52 59
32 36 42
21 24 28
18 21 24
17 20 23
21 24 27
22 25 28
27 31 36
30 34 39
33 37 43
27 30 35
22 25 29
19 22 25
20 23 27
27 30 35
36 41 48
37 42 48
33 38 44
32 37 42
40 46 53
33 38 44
39 44 51
37 42 48
36 41 47
32 37 43
30 35 40
26 30 35
23 26 30
31 36 41
41 46 54
47 54 62
55 63 73
61 69 79
63 72 83
68 77 89
68 77 89
66 75 87
66 76 88
66 76 88
65 74 86
63 72 83
64 73 85
67 76 87
59 67 78
52 58 67
42 47 55
33 37 43
23 26 30
24 27 31
30 33 39
34 39 45
45 51 59
52 60 69
61 69 79
64 72 84
67 76 88
67 76 88
72 81 94
75 85 98
80 90 104
87 100 116
93 105 122
90 102 118
89 102 118
94 106 123
95 108 125
101 115 133
96 109 126
96 109 127
90 103 120
96 110 127
95 107 124
93 106 122
96 110 127
93 106 122
96 109 126
93 105 122
86 98 113
85 97 112
81 92 107
80 91 105
80 91 105
78 89 102
73 82 94
66 76 88
61 69 80
60 68 79
54 62 72
53 60 69
52 59 68
48 54 63
46 52 60
41 47 55
35 40 46
31 35 41
34 38 44
33 37 43
32 36 42
38 43 49
34 39 45
29 33 38
33 38 44
34 39 45
37 42 49
38 43 50
40 46 53
43 49 56
42 47 55
48 54 63
57 65 75
67 76 88
66 75 87
71 81 94
77 88 102
80 90 104
85 97 112
87 99 114
86 99 114
85 96 111
84 95 111
81 91 106
82 93 108
77 88 101
73 83 96
71 81 93
62 71 82
61 70 80
55 63 73
58 65 75
56 64 74
56 63 73
53 60 70
50 57 66
51 58 66
55 62 72
54 61 71
50 57 66
48 54 63
48 55 63
48 55 64
47 53 61
45 52 60
40 46 53
30 34 39
29 34 39
45 51 59
57 65 74
69 79 91
77 87 101
84 96 111
92 105 122
97 110 128
99 113 130
104 118 136
107 121 140
118 134 154
115 130 150
120 137 158
118 134 155
119 135 156
119 135 156
118 134 154
123 141 164
119 136 158
120 136 157
117 133 154
120 136 156
107 123 143
107 121 140
106 120 138
100 114 131
99 112 128
98 112 130
89 100 116
83 95 110
86 97 111
72 82 95
73 84 97
74 84 97
66 75 86
70 80 92
64 73 85
65 72 82
62 70 81
54 61 70
50 57 65
39 44 50
32 36 42
40 45 52
47 54 62
51 57 66
56 64 73
63 72 82
66 75 86
69 78 90
72 82 94
76 86 99
71 80 92
72 82 95
75 85 98
80 91 104
75 85 97
76 85 98
71 81 93
80 90 104
75 84 97
76 85 98
82 92 106
76 86 99
76 85 98
71 81 93
70 79 91
64 72 83
59 67 77
56 63 72
56 64 73
53 60 69
48 54 62
47 53 61
47 53 61
45 51 58
40 45 51
33 37 43
23 26 29
22 24 28
31 35 40
36 41 47
38 43 49
48 54 62
47 52 59
43 48 55
46 52 59
38 42 48
38 42 48
28 32 36
20 22 26
28 31 35
33 37 42
35 39 45
32 36 41
40 45 51
42 46 53
51 56 64
50 56 64
49 54 61
52 57 65
53 58 66
49 54 62
47 52 59
48 53 60
47 52 59
46 51 58
41 45 50
46 51 58
42 47 53
37 41 47
32 35 40
29 31 35
28 31 35
28 31 35
19 20 23
15 17 19
15 17 19
16 17 20
14 15 17
16 17 19
14 15 17
21 23 26
17 18 21
20 22 24
27 29 33
22 24 27
18 20 22
24 26 29
21 23 26
19 20 23
14 15 17
15 17 18
17 19 21
15 16 18
13 15 16
8 9 10
10 11 12
11 12 13
10 11 12
16 17 19
9 9 10
9 10 11
11 12 13
6 7 7
7 8 9
11 12 13
1 1 2
6 6 7
4 4 5
4 4 5
7 8 9
1 1 2
10 11 12
10 10 11
11 12 13
4 5 5
7 8 9
7 7 8
12 12 14
0 0 0
4 4 5
0 0 0
3 3 3
9 10 11
3 4 4
4 5 5
6 6 7
7 8 9
4 4 4
6 7 7
8 9 10
12 13 15
8 9 10
10 11 12
15 16 18
20 22 24
15 16 18
13 14 16
11 12 13
14 16 18
16 17 19
18 20 22
22 25 27
24 26 29
26 28 32
25 28 31
27 29 33
31 34 38
29 32 36
25 28 31
24 27 30
15 16 19
16 18 21
9 10 12
12 13 15
10 12 13
14 15 17
16 18 21
19 21 24
24 27 30
26 29 33
25 28 32
22 25 28
14 16 18
15 17 19
16 18 21
19 21 24
18 20 23
16 18 20
12 13 15
14 16 18
15 17 20
16 18 21
25 29 33
22 25 29
18 20 23
17 19 22
21 24 28
19 21 24
21 23 27
17 19 22
24 26 30
24 27 30
23 26 29
23 26 30
25 28 32
19 22 25
21 24 27
24 27 31
30 34 39
38 43 49
41 47 54
52 58 67
54 61 71
65 73 84
70 78 90
67 76 87
72 81 93
70 79 91
79 88 101
73 83 95
68 76 87
70 78 90
66 75 86
57 64 73
61 69 80
56 62 71
48 54 62
44 49 57
37 41 48
29 33 39
31 36 41
34 38 44
29 33 39
27 30 35
32 36 42
32 36 42
22 25 30
21 24 28
20 23 26
25 28 33
22 25 28
20 22 26
28 31 36
28 32 37
28 32 37
26 30 35
22 25 29
26 29 34
26 30 35
27 31 36
28 32 37
37 41 48
38 43 50
38 43 50
37 43 49
43 49 56
48 55 63
50 57 65
46 52 61
40 45 52
41 47 54
41 46 53
41 46 54
46 52 60
52 59 68
50 57 65
45 51 59
51 58 66
51 58 67
52 59 68
50 57 66
58 66 76
58 66 77
57 65 75
56 63 73
45 52 60
39 44 51
34 38 44
21 24 27
29 34 39
39 44 51
46 53 61
53 60 70
59 67 77
60 68 78
62 70 81
63 72 83
68 78 90
72 81 94
72 82 95
75 85 99
79 90 104
84 96 111
88 100 116
92 105 121
98 112 129
105 119 139
109 124 143
116 132 153
113 128 147
117 133 153
117 133 154
116 132 153
116 132 153
115 131 152
119 134 154
116 132 153
115 131 153
115 131 152
109 124 144
110 125 144
105 120 140
104 118 137
103 117 135
96 110 127
93 106 123
87 99 114
78 89 103
71 81 94
59 68 79
51 58 68
42 48 55
39 44 51
34 39 45
28 31 36
23 26 30
32 36 42
37 42 48
42 48 55
41 47 54
40 45 52
67 77 89
72 81 94
81 91 105
83 95 109
90 103 119
87 99 114
81 92 107
86 98 114
88 100 116
90 102 117
92 105 121
90 103 120
92 104 121
100 113 131
102 115 133
104 117 135
106 120 139
111 125 144
111 126 145
105 119 138
103 118 136
101 115 132
101 114 131
94 107 124
94 106 123
89 101 117
80 91 106
70 79 91
64 73 85
60 67 77
58 66 76
52 59 69
52 59 69
44 50 57
41 47 54
40 45 52
36 41 47
37 42 49
41 47 54
37 42 49
40 45 52
44 49 57
49 55 64
50 57 66
46 52 60
38 43 50
28 31 36
29 33 38
43 48 56
52 60 69
61 69 79
64 74 85
73 83 96
80 91 105
81 92 106
87 99 114
91 104 121
100 114 132
102 116 134
101 115 133
102 115 134
107 120 139
109 124 144
108 123 142
111 126 145
111 126 146
111 125 144
105 118 137
95 108 125
98 111 128
95 109 126
89 101 116
77 87 101
69 79 92
64 73 84
55 62 72
43 48 55
32 36 42
33 37 43
34 39 45
41 46 53
42 48 55
42 48 55
41 47 54
47 53 62
46 52 60
43 49 57
51 58 67
56 64 74
61 69 80
64 73 84
64 73 84
67 76 88
69 77 89
68 78 89
71 80 92
73 82 94
76 86 98
75 85 98
75 85 98
76 86 99
70 79 91
66 75 87
66 75 87
66 74 86
57 64 73
60 68 78
66 74 85
65 74 85
66 74 85
67 75 86
69 78 89
66 74 85
68 77 89
60 67 77
63 71 81
50 56 65
56 63 72
49 55 64
42 47 54
31 35 41
23 26 30
19 21 24
19 22 25
33 36 41
38 43 49
43 49 56
54 60 69
50 56 64
60 67 77
57 64 73
49 55 64
54 61 70
48 54 62
52 58 66
45 51 59
40 44 51
38 42 47
37 41 47
31 35 40
26 29 34
27 30 34
27 31 35
29 33 37
28 32 36
27 30 35
37 41 47
29 32 36
30 34 38
32 35 40
26 29 33
31 35 40
32 36 40
30 34 38
33 37 42
30 33 37
33 37 42
30 34 38
30 34 38
23 26 29
29 32 36
27 29 33
22 24 27
24 27 30
23 25 28
23 26 29
23 25 28
20 22 25
24 26 30
28 30 34
21 23 26
20 22 24
19 21 23
11 12 14
16 17 19
17 19 21
13 14 16
17 18 20
14 15 17
23 25 28
20 21 24
15 16 18
12 13 15
4 4 5
6 6 7
0 0 0
12 13 14
14 15 16
17 18 20
10 11 13
12 13 14
12 13 14
7 8 9
4 4 5
11 12 13
7 8 8
7 8 8
5 5 6
6 6 7
6 7 7
10 11 12
6 6 7
7 8 8
2 3 3
4 4 5
5 6 6
5 5 6
2 2 2
1 1 2
5 6 6
7 8 9
10 11 12
4 4 5
10 11 13
12 13 14
14 15 16
14 15 17
18 20 22
22 24 27
24 26 29
17 19 21
29 32 36
34 37 41
34 37 42
31 34 38
37 41 45
27 29 32
23 25 28
22 24 26
20 22 25
23 25 29
25 28 31
23 25 28
22 24 27
25 27 30
28 30 34
19 21 24
33 36 41
33 37 41
35 39 43
29 32 37
35 38 43
25 28 32
23 26 29
33 36 40
30 33 37
39 44 49
42 46 52
42 47 53
47 52 59
46 51 58
37 41 46
26 29 33
23 26 30
23 26 30
27 30 34
24 26 30
21 23 26
20 22 25
24 27 31
20 23 26
19 21 24
18 20 23
20 22 25
17 19 21
16 19 22
22 25 29
25 28 32
30 34 38
29 33 38
30 33 38
29 32 37
27 31 35
27 31 36
33 37 43
34 38 44
37 42 48
38 42 48
47 53 61
61 69 79
62 69 79
64 71 82
66 74 85
77 87 100
74 84 96
75 85 98
75 85 98
72 81 94
77 87 99
80 90 103
76 85 98
72 82 95
72 81 94
67 75 87
64 72 83
58 66 76
56 64 73
53 60 69
50 57 66
49 56 65
46 52 61
46 51 59
46 52 60
51 58 67
46 52 59
47 53 61
42 47 54
43 49 57
43 49 57
34 38 44
36 41 48
30 34 40
24 27 31
23 26 30
22 25 29
18 21 24
21 24 28
25 28 32
26 30 34
22 26 30
25 28 32
23 27 31
22 24 28
22 25 29
29 33 38
35 40 47
36 41 47
24 27 31
16 18 21
22 26 30
27 31 35
25 28 32
27 31 35
29 33 38
27 31 36
27 31 36
27 30 35
19 21 25
34 39 45
44 50 58
48 54 63
51 58 67
49 55 64
51 58 67
46 53 62
44 50 58
37 42 49
39 44 51
38 44 51
36 41 47
36 41 48
45 52 60
47 53 61
60 67 78
63 72 83
66 75 87
73 83 96
75 85 99
77 88 102
79 90 104
87 99 115
94 106 122
94 107 124
101 115 133
106 121 140
115 130 150
114 130 151
113 128 148
117 133 153
121 137 158
121 137 158
124 139 160
125 142 163
129 145 167
126 142 164
131 149 172
132 149 171
133 152 176
130 147 169
123 140 162
124 141 163
123 139 161
118 134 155
115 131 151
116 132 153
113 129 150
112 127 146
108 123 142
97 110 127
86 98 113
81 92 106
76 86 100
66 76 87
53 60 70
42 48 56
35 39 46
38 43 50
43 49 56
47 54 62
52 59 68
98 112 129
99 112 130
96 109 127
96 108 125
92 104 120
90 102 118
87 99 114
87 99 115
88 100 116
91 103 119
90 102 118
93 106 122
91 103 119
96 109 127
100 113 131
103 117 136
102 116 134
105 119 138
107 121 140
108 122 141
109 124 144
112 127 146
108 122 141
114 129 149
109 124 144
109 123 142
105 119 136
101 115 134
102 116 133
100 113 131
99 112 130
97 110 127
89 101 118
88 100 115
84 96 111
79 90 104
74 84 97
72 81 94
60 68 79
52 58 67
41 46 53
36 41 48
28 32 37
24 27 31
25 29 33
27 31 36
21 24 28
34 39 45
45 51 59
55 63 73
64 73 84
66 75 87
74 84 97
78 88 102
83 94 109
85 96 111
86 97 112
85 96 111
86 98 113
90 102 118
93 105 121
91 104 120
89 101 117
92 104 120
91 104 121
87 99 114
86 97 112
84 96 110
84 95 109
79 90 105
78 88 102
66 75 86
65 73 84
60 68 78
45 52 60
41 46 54
37 43 49
35 39 45
30 34 39
23 26 30
18 21 24
31 35 40
32 36 42
35 40 46
44 50 58
36 41 47
36 41 47
36 41 47
37 42 49
35 39 46
36 40 46
46 52 60
50 57 66
52 59 68
57 65 75
54 62 71
59 67 77
61 70 80
50 57 65
49 56 64
46 52 60
42 47 54
43 49 56
38 43 49
31 35 41
30 34 39
31 35 40
40 45 51
43 48 55
47 53 61
45 51 59
45 51 58
38 43 49
32 36 41
29 33 38
26 29 33
28 31 36
29 33 38
37 42 48
33 37 43
32 36 42
29 33 38
24 26 30
17 20 22
15 17 19
22 25 29
29 32 37
33 38 43
38 43 49
40 45 51
45 50 57
42 47 55
41 46 53
49 55 62
48 54 62
51 57 66
52 58 67
54 60 69
48 54 61
45 51 59
40 45 51
41 46 53
41 46 52
36 40 46
36 41 46
39 44 50
38 42 48
37 41 46
42 47 53
40 44 50
44 50 56
52 57 65
55 61 69
44 49 55
56 62 70
59 65 74
46 51 57
51 56 64
49 55 62
48 53 60
45 50 56
44 49 55
45 49 56
42 47 53
40 44 49
37 41 46
41 45 50
37 41 46
30 33 37
33 36 41
31 34 39
24 26 29
24 26 29
21 23 26
14 15 17
14 15 17
15 17 19
15 17 19
21 23 26
17 19 21
18 20 22
20 22 25
14 15 17
15 17 19
12 13 14
11 12 14
8 9 10
7 7 8
8 8 9
6 7 8
10 11 12
11 12 13
9 10 11
9 10 11
10 10 12
6 7 8
7 8 9
11 12 14
12 13 14
15 16 18
11 12 13
20 22 24
20 22 25
21 23 26
14 15 17
15 16 18
15 16 18
8 8 9
11 12 14
4 4 5
9 10 11
11 12 13
10 11 12
6 6 7
6 6 7
18 20 22
16 17 19
23 25 28
28 31 35
36 39 44
35 38 43
38 42 47
41 45 50
32 35 39
43 47 53
39 43 48
40 43 48
32 35 39
39 42 47
29 31 35
35 38 42
29 32 35
27 29 33
28 30 34
34 37 42
44 48 54
37 41 46
37 41 46
43 47 53
46 51 58
48 54 61
47 52 59
43 47 53
50 56 63
50 55 63
51 57 65
58 64 73
50 55 62
50 56 63
49 54 61
42 48 54
42 47 53
40 44 50
37 41 47
38 42 47
34 38 43
24 26 30
15 17 19
12 14 16
15 17 19
17 19 22
17 19 22
25 28 32
26 30 34
29 33 37
32 36 41
35 39 45
39 43 49
41 46 53
44 49 56
43 48 55
41 46 53
40 45 52
40 45 52
36 41 47
43 48 55
47 52 60
50 56 64
53 60 69
60 67 77
62 69 80
66 74 85
70 79 90
67 75 87
71 80 93
74 83 96
72 81 93
68 76 87
64 72 82
64 72 83
57 64 74
50 56 65
49 56 65
45 51 60
38 43 49
41 46 53
35 39 45
34 38 44
31 36 41
33 38 44
37 42 49
37 42 48
30 34 39
25 29 34
35 40 46
45 51 59
52 59 68
58 66 77
63 71 82
61 69 79
60 68 79
58 66 76
60 68 79
55 62 72
44 50 58
40 46 53
30 34 40
21 24 28
25 29 33
34 39 45
39 44 51
41 46 54
36 41 47
41 47 54
43 49 57
40 45 52
40 45 51
42 47 55
39 45 52
39 44 51
43 49 56
33 38 43
34 39 45
26 30 34
18 21 24
14 16 19
18 21 25
23 26 30
26 30 34
28 32 37
32 36 42
31 36 42
34 38 44
44 50 58
52 59 68
55 62 71
52 59 68
56 64 73
58 66 77
55 62 72
50 58 67
42 48 55
41 46 54
34 38 45
27 30 35
24 27 31
29 33 39
35 40 46
50 57 66
64 72 84
77 87 101
87 99 114
93 106 123
96 109 127
102 117 135
102 116 135
108 123 142
109 124 143
117 132 153
116 131 152
118 134 154
119 135 157
122 139 161
123 140 162
128 145 168
128 146 169
129 146 169
124 142 164
129 148 171
128 145 168
131 148 171
125 143 166
118 135 157
120 136 156
121 137 158
117 133 154
113 129 149
111 126 146
111 126 146
106 121 139
102 116 134
88 101 116
89 101 117
86 98 114
85 96 111
86 98 113
74 84 97
62 70 81
51 58 67
48 54 63
86 97 112
81 92 106
82 94 109
79 90 105
81 93 107
77 88 102
76 87 101
76 86 99
76 86 99
78 88 102
83 94 109
89 101 117
92 104 120
92 104 120
93 105 122
100 114 132
100 114 133
110 124 143
113 128 148
109 124 143
111 126 146
111 127 147
108 122 142
113 128 148
111 127 147
114 130 150
113 128 147
113 128 149
112 127 147
112 128 148
111 126 145
111 126 145
109 124 144
106 121 140
100 113 129
99 112 129
93 105 122
86 97 113
80 90 104
80 91 105
77 88 102
70 80 92
66 75 86
61 70 81
47 54 62
34 38 45
36 41 47
39 44 51
44 50 57
48 55 63
51 58 67
63 72 83
73 83 96
76 87 100
71 80 93
78 88 102
71 81 94
77 87 101
76 86 100
79 90 104
74 83 96
73 83 96
70 79 91
69 78 90
70 79 90
67 76 88
71 81 94
66 75 87
64 73 84
63 71 82
61 70 81
53 60 70
51 58 66
45 51 58
45 51 59
36 41 48
33 38 45
24 28 32
18 20 23
19 22 25
28 32 37
38 43 49
47 54 62
49 56 65
54 61 71
50 56 65
51 58 67
42 48 55
39 44 51
40 45 51
36 41 48
38 43 50
35 40 46
38 43 50
38 43 50
36 41 47
33 38 44
34 38 44
38 43 50
44 50 58
40 46 53
39 45 52
38 42 49
44 49 57
40 46 53
43 48 56
40 45 52
48 54 63
45 51 58
45 51 59
45 51 59
39 45 51
39 44 51
34 39 45
37 42 49
36 41 47
43 49 56
48 54 62
56 63 72
53 59 69
54 61 70
46 52 60
40 45 52
38 43 49
39 44 51
42 47 53
37 41 47
35 39 45
35 39 45
34 38 44
38 43 49
40 45 51
42 47 54
47 53 61
57 63 72
56 63 73
62 69 78
52 58 66
58 64 74
50 56 64
52 57 65
51 57 65
49 55 62
53 59 67
49 55 62
49 54 62
47 52 59
46 51 58
51 57 65
45 50 57
57 64 73
52 58 67
51 57 65
58 64 73
58 64 72
64 70 80
62 68 78
64 71 80
59 65 74
54 61 69
70 77 88
57 63 71
49 54 61
48 53 59
43 47 53
46 51 58
40 44 50
30 33 37
36 40 45
27 30 34
24 27 30
15 17 19
17 18 20
20 22 25
27 29 33
31 35 39
30 33 37
30 33 37
23 26 29
29 31 35
20 22 25
18 20 23
11 12 13
12 13 15
12 13 14
10 11 13
9 10 11
12 13 14
13 14 15
13 14 16
9 10 11
12 13 15
14 16 17
12 14 15
10 11 12
11 13 14
13 14 16
7 7 8
16 18 20
17 18 20
14 15 17
17 19 21
18 20 22
15 17 19
14 16 18
9 10 11
7 7 8
14 15 17
9 10 12
16 17 19
17 19 21
16 18 20
13 15 16
11 12 13
7 8 8
17 19 21
21 23 25
19 20 23
27 29 33
32 35 39
29 31 35
35 38 43
30 33 37
37 41 47
32 36 40
31 34 38
38 42 47
35 38 43
31 34 38
35 38 43
37 41 46
37 41 47
36 40 44
42 47 53
46 51 58
43 48 54
48 53 60
61 67 76
63 70 79
77 85 96
65 73 82
72 80 90
66 73 83
63 70 80
61 67 75
64 71 81
62 69 78
60 67 76
64 71 80
66 73 83
59 66 74
53 59 67
58 65 74
55 61 70
53 59 68
54 60 69
38 42 47
22 24 28
16 18 20
25 28 32
31 34 39
34 38 43
35 39 45
36 40 46
38 42 49
42 47 53
40 45 52
39 44 51
45 50 58
45 50 57
45 50 57
45 50 57
47 53 61
45 51 58
46 52 60
40 45 52
40 45 51
39 43 50
38 42 48
39 44 50
42 47 54
43 48 55
45 51 59
47 54 62
52 59 68
58 65 75
61 68 79
60 68 79
64 72 83
62 70 80
57 64 73
52 59 68
44 50 58
35 39 45
28 32 36
29 33 38
43 49 56
52 59 68
58 65 75
63 71 82
67 76 87
67 76 88
64 72 83
57 64 73
48 55 63
45 50 58
37 42 49
37 42 48
46 52 60
50 57 65
62 70 81
60 68 79
61 69 80
63 71 82
59 67 77
56 64 74
45 51 59
38 43 50
36 40 47
30 34 39
34 39 45
44 50 58
48 54 63
54 62 71
54 61 71
57 65 75
56 64 74
59 67 78
60 68 78
62 71 82
58 65 75
63 71 81
63 72 83
59 66 76
53 60 69
44 50 58
46 52 61
33 38 44
24 27 32
22 25 28
25 29 33
26 30 34
29 33 38
30 34 40
29 33 38
22 26 30
17 19 22
18 20 23
22 26 30
19 22 25
24 27 31
30 33 39
34 39 45
35 40 46
37 42 49
39 44 51
37 42 49
44 50 58
57 64 75
61 69 80
72 82 94
81 92 106
89 101 117
95 108 125
93 106 122
107 122 141
110 125 145
113 129 149
123 139 161
121 137 158
129 146 169
130 147 169
128 146 170
127 145 168
129 146 168
130 148 171
129 146 168
129 146 169
129 147 169
133 151 175
134 152 175
131 148 171
131 149 173
127 144 167
129 146 168
126 143 165
123 140 163
126 143 165
118 134 155
111 126 145
109 124 143
106 121 140
99 113 130
97 110 127
95 108 125
88 100 116
86 98 113
81 93 107
84 96 110
77 88 101
72 82 95
75 85 98
78 89 103
80 91 106
78 89 104
81 92 107
84 96 111
84 96 111
86 98 113
95 108 126
100 113 131
100 114 132
108 123 142
105 120 139
104 118 136
109 124 143
113 128 148
115 130 150
113 129 150
115 130 151
113 129 149
114 130 151
113 129 149
111 126 145
115 130 151
107 121 141
114 130 150
112 127 146
110 125 144
111 126 145
111 126 145
111 127 147
111 126 145
106 121 140
100 114 132
96 109 126
90 102 119
87 99 115
87 99 114
80 90 104
79 90 104
77 87 101
77 88 101
72 82 95
72 81 94
67 76 88
61 69 80
60 69 80
51 58 68
50 57 66
42 48 55
27 30 35
25 29 33
30 34 39
29 33 39
31 34 40
38 42 49
40 45 52
42 48 55
45 51 59
46 52 61
50 56 65
49 56 64
52 59 68
56 64 74
60 68 79
63 72 83
65 74 86
64 73 84
61 69 79
57 65 76
52 59 69
50 57 66
49 55 63
36 41 47
28 32 37
19 21 25
33 38 44
38 43 50
37 43 50
30 35 40
21 24 28
21 24 28
33 37 43
38 43 49
44 50 58
45 51 59
45 51 60
54 61 70
50 57 66
51 57 66
44 50 57
44 50 58
41 46 53
39 44 51
42 48 55
47 53 61
50 57 65
53 60 69
58 65 75
57 64 74
58 65 75
57 64 74
56 64 73
62 70 80
62 70 81
63 71 82
63 71 82
67 76 87
59 67 77
56 63 73
53 60 69
45 50 57
39 44 51
42 48 55
41 46 53
46 52 60
50 57 65
50 56 64
50 57 65
44 50 57
43 49 56
43 48 56
46 51 59
47 53 60
48 55 63
52 58 67
48 54 62
47 53 61
50 56 65
57 63 73
58 65 75
51 57 66
58 66 76
65 73 84
59 67 77
59 67 77
53 59 67
59 66 75
49 55 63
58 65 74
57 64 73
50 56 64
49 54 62
48 54 61
41 46 52
39 44 50
36 40 46
43 48 55
42 47 53
44 49 56
41 45 52
47 52 59
44 49 55
38 43 49
45 50 57
45 50 56
46 51 58
53 58 66
46 51 57
53 59 66
52 58 65
43 48 54
48 53 60
39 43 49
44 49 56
37 41 46
38 42 48
34 38 43
29 32 36
29 32 37
31 35 40
27 31 35
24 27 30
24 26 30
18 20 22
16 18 20
17 19 21
17 18 21
17 18 21
18 20 23
23 26 29
21 23 26
27 29 33
30 33 37
27 29 33
14 16 18
13 15 17
21 23 26
20 22 25
12 13 15
10 11 12
11 12 13
11 12 13
12 13 14
10 11 13
9 10 11
10 12 13
9 10 11
7 8 9
12 13 14
14 15 17
21 23 25
16 17 20
17 18 21
14 16 17
10 11 13
16 17 19
22 24 27
20 22 25
14 15 17
14 16 18
16 17 19
11 12 14
13 14 16
13 15 16
11 12 13
14 15 17
21 24 27
20 23 25
15 17 19
13 14 16
14 15 17
16 18 20
19 21 24
20 22 24
19 22 24
19 21 23
19 21 24
22 25 28
32 36 40
28 30 34
42 46 52
43 48 54
41 46 52
55 62 70
52 57 65
59 66 76
72 80 90
73 81 92
63 70 80
72 80 91
78 87 98
71 78 88
75 83 94
61 67 76
74 82 94
71 78 89
78 87 99
73 82 94
72 80 92
65 73 84
62 70 79
55 62 71
56 63 72
53 59 68
42 47 53
36 40 46
22 25 28
23 26 30
30 34 39
37 42 49
37 41 47
43 48 55
39 44 51
47 53 60
48 53 61
54 61 70
51 57 66
44 50 57
47 53 61
52 58 66
53 60 69
54 60 69
52 59 68
49 55 63
37 42 49
28 31 36
21 24 27
34 38 44
39 44 50
38 42 49
34 39 45
32 36 41
32 37 42
35 40 46
33 38 44
33 37 42
37 41 48
38 43 49
34 39 45
29 33 38
31 36 41
39 44 51
52 59 69
59 67 76
65 73 84
64 72 84
71 80 92
77 87 100
76 86 99
74 83 96
71 80 93
68 77 89
64 73 84
62 71 82
57 65 75
53 60 69
46 51 59
41 46 54
38 43 49
43 49 56
41 47 54
36 41 47
33 38 44
32 36 42
30 34 39
28 31 37
28 32 38
32 36 42
32 36 41
28 32 37
28 31 36
28 32 36
31 35 41
34 39 45
34 39 45
36 41 47
43 49 56
39 44 51
38 43 50
32 37 43
36 41 47
38 43 50
39 44 51
34 39 45
27 30 35
23 26 30
28 31 36
31 35 41
29 33 38
31 36 41
30 34 40
29 33 38
22 24 28
22 25 28
22 25 29
23 26 30
25 28 33
25 28 32
28 32 37
34 39 45
39 45 52
42 48 56
47 54 63
59 66 76
69 78 91
76 86 100
78 88 103
83 95 110
85 97 112
91 103 118
96 109 126
98 111 129
106 121 140
110 126 146
115 131 151
121 138 160
119 135 157
128 145 167
125 142 164
129 146 168
126 143 165
122 139 161
121 137 158
120 137 159
120 136 157
116 131 152
114 130 150
116 132 153
122 138 159
120 137 159
121 137 158
121 138 159
120 136 158
120 137 159
120 136 157
117 132 153
117 133 153
111 126 146
113 128 148
107 122 141
103 117 135
98 110 127
94 107 124
90 102 118
89 101 117
84 96 111
78 88 102
75 85 99
41 47 54
40 46 53
36 42 48
39 44 51
43 49 57
44 50 58
45 51 59
56 63 73
71 80 93
82 93 107
88 100 116
98 111 129
98 111 129
105 120 138
108 123 142
107 122 141
106 121 140
109 123 142
101 115 133
99 113 130
99 113 130
90 102 118
94 107 124
94 106 123
96 109 127
96 108 125
94 107 124
92 105 121
96 108 124
97 111 129
96 109 125
96 109 127
92 105 122
89 102 118
86 97 113
84 95 110
81 91 105
80 91 106
80 91 106
84 96 111
88 100 115
92 104 121
96 109 127
101 115 132
97 111 128
95 108 124
95 107 124
94 107 123
90 102 117
89 101 117
79 89 102
76 86 99
72 81 94
63 72 83
52 60 69
52 59 68
50 56 65
47 54 62
46 52 60
41 47 54
52 59 68
44 51 59
42 48 55
39 44 51
37 42 49
32 36 42
35 40 46
41 47 54
42 48 56
43 48 55
41 46 53
34 39 45
31 35 41
28 32 37
23 26 30
20 22 26
18 20 23
19 21 25
22 25 29
21 24 27
21 24 28
25 28 32
26 30 35
28 32 37
32 37 43
37 42 49
39 44 51
40 46 53
37 42 49
36 41 48
29 34 39
25 28 33
23 27 31
27 31 36
37 41 48
42 47 55
46 52 59
50 56 65
51 57 65
54 61 70
59 67 77
63 71 82
70 80 92
69 78 90
75 85 98
76 86 98
84 95 110
76 86 100
75 85 99
76 85 98
70 80 92
70 79 91
69 78 90
69 78 91
62 71 82
64 72 83
64 72 83
58 65 75
59 67 77
62 70 80
66 74 86
68 77 89
68 76 87
66 75 86
66 74 85
72 81 93
67 76 87
63 71 81
67 76 87
71 80 91
63 72 83
68 76 87
62 70 79
62 69 79
56 63 72
52 59 67
48 54 62
51 57 65
51 58 66
47 53 60
51 57 65
50 56 64
50 56 64
47 52 60
37 41 47
34 38 43
32 36 41
30 34 39
22 25 29
25 28 32
31 35 40
38 42 48
40 45 51
41 46 52
42 46 52
37 42 47
37 41 47
35 39 45
37 41 47
33 37 42
30 33 37
33 37 42
26 29 33
21 23 26
22 25 28
18 21 24
22 25 28
25 28 31
28 31 35
26 29 32
27 30 33
27 30 34
32 36 41
40 45 51
39 43 48
33 37 41
38 42 47
42 46 52
43 48 54
36 40 45
35 39 44
48 53 59
36 40 45
35 38 44
42 46 52
43 47 54
36 39 44
39 43 49
32 35 40
29 32 36
31 34 38
29 32 36
29 32 37
22 24 27
27 30 34
22 24 27
18 20 23
18 20 23
12 14 16
7 7 8
10 11 12
18 20 22
23 25 28
21 23 26
28 31 35
36 39 44
33 37 42
35 39 44
39 43 48
35 38 43
33 36 41
28 31 35
28 31 35
27 30 34
25 28 32
17 19 21
14 16 18
12 14 15
14 15 17
20 22 24
24 27 30
26 29 33
31 34 39
38 42 48
32 36 40
37 41 47
34 38 43
27 30 34
21 23 26
15 17 19
17 19 21
25 28 32
33 36 41
42 47 53
41 45 51
43 48 54
48 54 62
55 61 69
52 58 66
61 68 78
60 67 76
63 69 78
81 90 101
84 94 107
84 93 106
74 82 93
77 86 97
78 87 98
67 74 85
78 87 100
69 78 89
72 80 91
59 66 75
59 67 76
58 65 74
56 62 71
50 56 64
48 54 62
42 48 55
32 35 40
28 31 36
24 27 31
23 25 29
19 21 24
21 23 27
25 28 32
29 33 38
35 39 44
36 40 46
33 37 42
33 37 43
33 37 42
31 36 41
28 31 36
24 27 31
21 23 27
24 27 31
31 34 39
37 42 48
41 46 53
45 51 59
41 47 54
40 45 52
41 46 53
45 51 59
55 62 72
52 59 68
59 66 76
59 67 77
56 64 74
60 67 77
61 70 80
67 76 87
66 74 86
68 77 89
72 82 94
76 86 99
80 91 104
79 90 103
71 80 92
73 83 96
74 84 97
67 75 87
62 70 80
63 72 83
62 71 82
61 69 80
62 70 81
60 69 79
64 72 84
65 73 84
66 74 86
59 67 77
64 73 85
59 67 78
59 66 76
55 63 72
55 63 73
49 55 64
44 50 58
46 51 59
46 51 59
46 52 60
44 50 58
48 55 63
51 58 66
47 53 62
41 47 54
35 40 46
35 40 46
39 44 50
35 39 45
29 33 38
26 30 35
32 36 42
38 43 50
38 43 50
44 50 58
45 51 59
43 49 56
49 56 65
49 56 65
47 54 62
49 55 64
46 52 60
42 48 55
38 43 50
35 40 46
34 38 44
31 35 41
22 25 29
33 37 43
35 40 46
24 27 31
36 41 47
45 51 59
51 57 66
59 67 78
64 72 83
76 85 99
83 94 109
85 96 111
87 99 114
94 107 124
98 112 130
100 113 131
106 121 140
114 129 148
113 129 150
114 129 149
113 128 148
114 130 152
120 136 156
118 134 156
129 146 168
120 136 157
119 135 157
122 139 161
117 133 154
113 129 149
113 129 150
113 128 147
110 125 144
103 117 135
102 116 135
95 108 124
90 103 119
91 103 119
90 102 118
90 102 118
89 101 117
82 93 107
81 92 107
82 94 108
83 94 108
80 91 106
75 85 97
72 82 96
63 72 83
50 57 66
30 34 40
25 29 34
22 25 29
25 29 33
27 31 35
20 23 27
31 35 40
49 55 64
60 69 80
70 79 91
77 87 101
82 94 108
84 96 111
86 98 113
87 99 114
83 95 111
85 96 111
81 92 106
78 88 101
80 91 105
79 89 103
76 86 100
82 93 107
80 91 105
82 93 109
85 96 110
82 94 109
79 90 104
81 92 107
78 89 103
69 79 92
68 78 90
71 80 93
69 79 91
74 84 98
82 93 108
87 99 115
91 103 120
98 111 129
107 122 140
107 121 140
110 124 143
108 123 142
109 123 142
110 124 143
109 123 142
110 125 145
105 119 138
101 114 133
96 110 127
99 112 130
97 110 128
98 110 127
97 110 126
98 111 129
99 112 129
96 109 126
96 109 125
97 110 128
95 107 123
92 104 119
87 98 113
87 99 114
79 90 104
76 86 99
70 79 92
67 76 88
61 69 79
50 57 66
46 52 60
37 42 49
31 35 41
30 34 39
35 40 46
37 42 48
39 44 51
36 41 48
33 37 43
31 35 40
27 30 35
25 29 33
27 31 36
31 36 41
32 36 42
29 33 38
32 36 42
33 38 44
32 36 42
28 32 37
23 26 30
24 27 32
22 25 28
20 22 26
17 19 22
21 23 27
27 31 36
32 36 42
35 40 46
41 47 54
48 54 63
59 66 77
62 70 81
64 72 83
71 80 93
77 86 99
79 90 105
81 91 105
86 98 113
91 104 120
93 105 121
91 103 119
91 103 119
91 103 118
97 109 124
92 103 119
93 105 121
82 94 109
84 95 110
83 94 108
82 92 106
83 93 107
84 95 109
85 96 110
83 93 107
85 96 111
86 97 111
79 89 102
81 92 105
71 80 92
74 84 97
69 78 89
66 74 85
61 68 78
62 70 80
56 63 72
53 60 69
52 58 66
46 52 60
49 55 63
39 44 51
35 39 45
27 31 35
22 24 28
28 31 36
27 30 35
32 36 41
34 38 44
34 38 43
37 42 48
46 51 58
48 53 60
60 66 75
53 60 69
60 68 77
57 64 73
53 60 68
50 55 62
63 70 79
53 59 68
52 58 66
50 56 64
43 48 55
37 41 47
33 37 42
29 33 37
21 24 27
21 23 26
18 20 23
17 20 22
19 22 24
22 25 28
30 33 38
35 39 44
37 41 46
38 42 48
45 51 58
36 40 45
43 48 54
52 58 66
52 59 67
51 57 64
55 61 68
56 63 71
51 56 63
58 64 73
51 57 65
57 63 72
59 65 73
54 59 67
55 61 69
49 54 61
46 51 58
43 48 54
33 36 41
28 31 35
24 27 30
23 25 29
20 22 25
18 20 23
15 17 19
20 23 26
26 29 32
27 30 34
30 33 38
28 31 35
34 38 42
40 44 50
30 33 38
38 42 47
36 40 45
35 39 44
24 27 30
20 23 26
26 29 33
21 23 26
18 20 23
24 27 30
30 34 38
27 30 34
38 42 48
37 41 46
39 44 50
46 51 58
42 46 52
47 53 60
32 36 41
48 54 61
41 45 51
37 42 47
36 40 46
26 29 33
22 25 28
23 26 29
29 33 37
36 40 46
44 49 55
50 55 63
53 59 67
53 60 68
52 58 66
66 73 84
60 67 77
66 74 84
71 79 90
78 87 99
70 79 90
75 84 97
66 73 83
73 82 94
70 78 89
70 78 89
64 72 82
68 76 87
55 61 70
54 61 69
51 57 64
51 58 66
55 61 70
50 56 64
34 39 44
25 28 32
17 19 22
23 26 29
29 33 37
30 34 39
31 34 39
36 41 47
39 44 51
34 38 44
23 26 30
24 27 31
39 43 50
44 50 57
49 56 64
50 57 66
50 56 65
48 54 62
52 59 67
62 70 81
62 70 80
64 72 83
69 78 91
72 82 94
74 84 97
77 87 100
83 94 108
84 95 109
81 91 105
76 86 98
77 88 101
77 87 100
74 84 97
77 87 100
80 91 105
82 93 107
80 91 104
79 90 104
82 92 105
79 89 103
91 102 118
86 97 112
84 94 109
83 94 109
76 86 99
73 82 95
73 83 96
72 81 94
75 85 98
75 84 97
78 88 101
79 88 101
79 90 105
81 92 106
79 89 104
78 88 102
69 78 90
65 74 85
57 64 74
52 59 69
46 52 61
43 48 56
41 46 53
39 45 52
40 45 52
41 46 53
44 50 58
48 54 63
53 60 70
53 60 70
50 57 65
44 51 59
45 51 59
50 57 65
53 60 69
50 57 66
48 55 63
40 46 53
37 43 50
29 33 38
26 29 34
30 34 40
27 31 36
30 34 39
35 40 46
38 43 50
38 43 50
45 51 58
44 50 58
45 51 59
39 45 52
41 46 53
42 48 55
43 49 56
33 37 43
34 39 45
34 39 45
30 34 40
24 27 31
28 31 36
37 42 48
44 51 59
49 55 64
54 61 70
54 61 70
60 68 79
67 77 89
71 81 93
78 89 103
83 95 109
89 101 116
92 103 119
92 105 122
97 109 125
99 112 130
99 112 129
109 124 143
113 128 147
116 131 151
111 126 146
108 123 143
109 124 144
107 122 140
108 123 142
107 121 139
105 120 139
98 112 130
98 112 130
88 100 116
84 95 110
78 89 104
74 84 97
68 77 89
62 71 82
55 63 73
48 54 63
46 52 60
39 45 52
32 36 42
29 33 38
30 35 40
34 38 44
27 30 35
24 28 32
18 21 25
24 27 31
33 38 43
42 48 55
48 54 62
50 57 66
53 61 70
54 61 70
55 63 72
60 68 78
63 71 82
68 77 89
71 81 93
74 84 97
81 92 106
83 94 109
84 96 111
89 101 117
93 106 122
91 103 119
94 106 123
94 106 122
94 106 122
89 100 116
83 94 108
73 83 96
68 77 89
64 73 84
65 74 85
71 81 93
70 79 92
74 84 97
75 85 99
80 91 105
83 94 109
88 100 116
91 103 119
92 104 120
96 109 126
99 113 131
100 114 132
99 113 130
103 118 137
108 122 142
108 123 142
109 124 143
114 128 148
111 127 148
118 134 154
117 133 154
116 132 153
113 128 148
112 127 146
108 122 140
105 119 138
100 114 132
98 111 128
91 104 120
83 95 109
82 93 107
72 82 94
67 77 89
67 75 86
56 64 74
45 51 59
45 51 59
41 47 54
36 41 48
39 45 52
37 42 49
39 45 52
36 41 47
36 41 48
33 37 43
26 29 34
25 28 33
21 24 28
16 18 21
25 28 33
27 30 35
25 28 32
21 23 27
24 28 32
26 29 34
23 26 30
24 27 31
29 32 37
31 35 41
43 49 57
48 55 63
59 66 76
62 70 80
65 74 86
65 73 85
68 77 88
71 80 93
78 88 101
75 85 98
78 88 102
77 87 99
79 89 103
74 83 95
75 85 98
82 92 106
89 100 116
90 102 118
100 113 130
101 114 131
102 116 134
102 116 134
100 114 131
100 112 129
100 113 130
100 112 129
96 108 123
90 103 118
87 98 113
89 100 114
79 89 102
76 86 99
78 87 99
73 82 94
68 76 87
58 66 76
54 60 69
45 51 59
48 54 62
47 53 60
42 48 55
40 46 53
40 45 52
42 47 54
40 45 52
40 45 51
32 36 42
29 32 37
30 34 39
41 46 53
56 63 72
55 62 71
55 62 71
62 70 80
59 66 76
62 70 81
67 75 86
71 80 91
77 86 99
72 80 91
73 82 93
71 80 91
70 78 90
67 75 86
77 85 97
65 73 84
64 71 81
63 71 80
50 55 63
44 50 57
39 44 50
30 34 39
23 26 29
25 28 32
18 20 23
18 20 23
25 28 32
31 34 38
33 36 41
35 39 44
31 35 40
38 42 49
39 44 50
45 51 58
46 52 58
47 52 59
52 58 66
54 60 68
46 51 57
49 55 62
42 47 53
52 57 64
40 44 50
48 53 60
45 50 56
44 49 56
53 59 67
45 50 57
45 50 57
48 54 61
54 59 67
48 53 60
42 46 53
42 46 52
39 43 48
36 40 45
31 35 40
34 38 43
32 35 40
32 36 40
30 33 37
37 41 47
34 37 42
31 34 39
27 30 34
35 39 44
32 35 40
34 38 43
36 40 46
37 41 47
36 41 47
38 43 48
44 48 55
44 50 56
48 53 61
51 56 64
49 55 63
58 65 74
51 57 64
56 63 72
62 69 79
53 58 66
56 63 71
48 53 61
56 62 70
55 61 69
58 64 73
49 55 62
53 59 67
41 46 53
33 37 42
28 32 36
23 25 29
18 20 23
21 24 27
30 33 38
36 39 45
38 43 49
48 54 62
47 52 59
53 59 67
55 61 70
54 60 69
54 60 68
50 56 64
54 61 70
54 60 69
54 61 69
51 57 65
47 53 61
42 47 54
34 38 44
37 42 48
30 33 39
24 27 32
26 29 34
35 40 46
34 38 44
36 40 46
31 35 40
25 28 32
22 25 28
24 27 31
20 23 26
23 26 30
24 27 31
33 37 42
32 36 42
36 40 46
41 46 53
47 53 61
51 57 66
55 61 70
57 65 75
61 69 79
69 78 90
80 90 104
85 96 111
89 99 113
93 105 121
100 112 129
104 117 134
100 114 131
103 116 133
104 117 135
104 117 134
103 115 132
95 107 123
104 117 135
99 112 129
94 106 122
86 98 113
90 102 117
96 109 126
92 104 120
92 104 120
93 105 121
95 108 125
97 110 127
92 104 120
100 113 130
102 116 134
98 112 130
102 115 132
93 105 121
92 104 119
88 99 114
92 103 119
95 107 122
98 111 129
104 117 135
106 120 138
98 111 129
101 114 132
98 111 128
87 99 114
76 86 99
61 70 81
56 63 72
50 57 65
39 44 51
29 33 38
22 26 30
27 31 36
22 24 28
25 28 33
24 27 31
16 18 21
21 24 28
32 36 42
42 47 54
42 47 54
40 45 52
35 40 46
38 43 50
45 51 59
49 55 64
42 48 55
39 44 51
42 48 55
43 49 56
37 42 48
33 38 44
34 38 44
34 38 45
31 35 40
19 21 24
19 21 25
32 37 43
35 40 46
37 42 49
43 49 57
50 57 66
55 62 72
53 60 70
49 56 64
46 53 61
35 40 46
38 44 50
40 46 53
43 49 57
42 48 56
46 52 60
50 57 66
57 64 74
60 67 78
60 68 79
64 73 84
70 80 92
76 85 98
71 81 93
73 83 96
76 86 100
83 94 109
87 100 116
89 101 118
95 109 127
99 112 130
101 115 133
106 120 139
103 117 136
104 119 138
106 120 139
112 127 147
110 125 144
110 124 143
106 121 140
105 119 138
95 107 124
98 111 128
96 108 124
84 96 111
80 90 104
77 87 101
72 82 95
57 65 76
39 44 51
25 29 33
34 38 44
63 71 82
55 63 72
51 58 67
44 50 58
37 42 49
30 35 40
29 33 39
24 27 32
22 25 29
30 34 39
34 39 45
43 49 57
51 58 67
57 64 75
65 74 85
71 80 92
77 87 101
82 93 108
81 93 107
88 100 115
90 102 119
94 107 124
97 111 128
96 109 125
96 110 127
91 103 119
94 107 124
89 101 117
91 103 119
89 101 117
94 107 123
91 103 120
93 105 121
89 102 119
96 109 126
97 110 127
103 118 136
99 112 130
109 123 142
112 127 146
105 121 141
109 123 143
103 117 136
102 116 134
101 115 134
100 113 130
99 113 131
101 114 132
103 117 135
103 117 135
102 116 134
97 109 126
100 114 131
101 114 132
95 107 123
91 103 120
88 99 114
84 95 109
75 85 98
67 76 88
60 68 79
55 63 72
47 54 62
42 48 55
35 40 46
27 30 35
26 30 35
26 30 34
27 30 35
31 35 41
28 31 36
26 29 33
29 33 38
31 36 41
40 46 53
44 49 57
46 52 60
42 48 56
44 50 57
45 51 59
42 48 56
39 44 51
40 46 53
44 50 58
49 56 65
46 53 61
42 48 55
40 45 52
40 45 52
48 55 63
50 57 66
58 65 75
65 73 85
70 80 92
77 87 101
79 89 103
80 91 105
82 92 106
83 93 107
83 94 109
79 90 105
89 100 115
90 102 117
93 106 122
96 109 125
93 105 121
96 109 126
101 114 132
101 115 132
107 122 140
99 112 130
109 123 142
111 126 145
110 125 144
113 127 146
103 116 134
103 116 134
108 122 139
93 106 122
92 104 119
89 101 116
84 95 109
79 89 103
77 87 100
65 73 84
65 72 83
55 61 70
59 67 77
53 60 69
47 53 61
38 43 50
28 31 36
15 17 19
12 13 15
11 12 14
18 20 23
19 21 24
28 31 36
39 43 50
45 51 58
50 56 64
57 63 72
60 67 76
67 75 87
65 74 85
74 84 97
77 86 98
77 87 100
78 88 101
79 89 103
73 82 93
69 76 86
74 83 95
64 71 81
64 72 83
72 80 92
62 69 79
53 60 69
55 61 70
48 54 61
35 39 44
30 33 37
28 31 35
30 33 38
37 41 47
38 42 48
40 45 52
46 52 59
47 53 60
57 63 72
55 61 70
51 57 65
50 56 63
52 58 66
54 61 69
55 62 70
52 58 66
56 62 71
53 59 67
39 43 49
36 40 46
32 36 41
32 36 42
34 38 44
33 38 43
34 38 43
38 43 48
41 46 53
33 37 42
37 41 46
40 44 50
38 43 49
42 47 53
44 49 55
48 54 62
46 52 59
49 54 62
45 51 58
47 52 60
42 47 53
40 45 51
43 48 55
43 48 54
50 55 63
40 45 52
39 44 50
36 41 46
46 51 58
44 49 55
53 59 66
47 53 60
54 60 68
51 56 63
64 72 82
61 69 78
69 77 87
66 73 84
69 77 88
67 74 85
73 81 93
65 73 82
67 75 86
70 78 89
63 70 80
68 76 87
64 72 82
65 73 83
58 65 74
56 62 71
57 63 72
51 57 65
46 52 59
42 48 55
32 36 41
26 29 33
19 22 25
18 20 23
19 21 24
21 24 27
20 22 25
24 26 30
22 25 29
26 29 34
29 33 38
27 31 35
29 32 37
37 41 47
42 47 54
39 43 49
39 44 51
41 46 53
42 47 53
46 52 60
45 51 58
44 49 57
42 47 54
46 52 59
45 51 58
43 48 54
37 42 48
37 42 48
31 35 40
29 32 37
20 23 26
17 20 23
19 22 25
18 21 24
28 32 36
33 37 43
38 43 49
44 49 57
48 54 63
50 57 66
56 64 73
63 72 83
72 81 93
74 83 95
84 95 110
89 100 115
95 107 124
101 114 131
99 112 129
117 132 151
111 125 144
125 141 162
121 137 157
113 128 147
119 135 156
114 129 149
112 127 147
116 132 152
111 125 144
101 114 132
104 117 135
104 118 136
101 114 131
98 111 128
98 111 128
103 117 135
105 118 137
110 125 145
112 127 146
111 126 145
111 126 145
110 124 144
111 125 144
118 133 153
113 128 147
108 122 140
98 112 130
108 123 142
108 122 140
103 118 136
97 109 126
99 112 130
92 104 120
87 98 114
84 96 111
81 92 107
81 91 105
74 84 97
63 72 83
54 61 71
39 44 51
25 28 33
24 27 32
29 33 39
28 32 37
24 28 32
27 31 36
27 31 36
31 35 40
23 26 30
19 21 25
19 22 25
25 29 33
29 32 38
25 29 33
33 37 43
37 43 49
39 45 52
39 45 52
38 43 50
36 41 48
33 37 43
45 51 59
45 51 59
39 44 50
32 36 42
30 34 40
29 33 39
28 32 37
35 40 46
37 42 49
37 42 49
34 39 45
27 31 36
24 27 32
17 20 23
18 21 24
26 29 34
26 30 34
28 32 37
32 37 43
37 42 48
41 46 54
42 48 55
41 46 53
45 51 58
51 57 66
51 58 67
52 59 68
61 69 80
65 74 85
71 80 93
77 87 101
80 91 106
85 97 112
86 97 112
93 105 122
95 108 125
98 111 129
101 115 133
103 117 135
104 118 137
103 117 136
108 122 140
105 119 138
109 123 143
105 119 138
97 109 126
91 103 120
86 98 114
83 94 108
72 82 94
56 64 75
40 46 53
33 37 43
28 32 37
26 29 34
54 61 71
51 58 67
51 58 68
50 57 67
47 54 62
40 45 53
37 42 49
36 41 47
37 41 48
39 44 52
49 55 64
58 66 76
67 76 88
72 82 95
81 92 107
88 100 115
98 111 128
100 114 132
104 118 137
105 119 137
104 118 137
108 122 141
104 118 136
101 115 134
100 114 133
98 112 129
100 114 132
101 114 133
100 114 131
103 117 135
102 116 135
108 122 142
109 124 144
114 129 149
113 128 148
117 133 154
115 131 151
120 136 157
114 130 151
120 136 158
111 127 147
111 126 145
109 124 144
105 119 137
105 119 138
101 114 132
102 116 134
97 109 126
95 108 125
96 109 126
97 110 127
94 106 122
93 105 121
91 103 119
85 96 110
80 91 105
77 88 101
68 77 89
60 69 79
53 60 70
45 52 60
39 44 51
29 33 38
23 26 30
25 29 33
22 25 29
20 23 27
23 26 31
23 26 30
21 24 27
21 24 28
24 27 31
29 33 38
36 41 47
37 42 49
39 44 51
43 49 56
42 48 55
39 44 51
39 44 51
43 48 56
43 49 57
49 56 65
40 45 52
30 34 39
16 18 21
17 19 22
17 19 23
20 23 26
23 26 30
25 29 33
36 41 47
36 41 47
42 48 55
47 53 61
55 62 72
60 68 78
61 69 79
65 73 84
68 77 89
75 85 98
65 74 85
63 72 83
71 80 93
72 81 94
74 84 97
77 87 100
84 95 110
83 93 107
89 101 116
90 102 118
87 98 113
90 103 118
95 108 124
91 103 119
93 105 121
89 100 114
87 98 113
87 97 112
92 104 121
85 96 110
86 97 113
79 90 103
73 82 94
63 71 82
60 68 78
49 56 64
39 44 51
35 40 45
31 35 40
26 30 34
19 21 25
24 27 31
27 30 35
25 28 32
27 30 35
27 30 35
26 30 34
28 31 36
27 31 35
27 31 36
31 35 40
30 34 39
32 36 41
39 44 50
41 46 53
49 55 63
44 50 57
41 46 53
46 52 60
38 43 49
36 40 46
40 45 52
41 46 53
38 43 49
40 45 51
32 36 41
28 31 36
22 25 28
21 24 28
21 24 27
32 36 42
40 45 52
51 58 66
56 63 72
57 64 74
58 65 74
61 69 79
57 63 72
57 65 75
60 67 77
62 69 79
53 60 68
61 69 79
61 68 78
61 69 79
66 73 84
65 72 83
65 74 85
56 62 71
54 61 69
49 55 63
49 54 62
43 49 56
39 44 50
36 41 47
38 42 48
38 42 48
39 44 51
44 49 55
52 58 66
53 59 66
50 55 63
55 61 69
57 64 73
61 68 77
56 63 72
56 62 71
55 61 70
59 66 75
60 66 75
55 62 71
58 64 73
46 51 58
52 57 65
48 54 62
49 55 63
50 56 64
57 63 72
59 66 76
58 65 74
67 75 86
69 77 88
64 72 82
62 69 79
77 86 98
70 78 89
71 80 91
83 93 106
78 87 99
80 89 101
76 85 96
74 83 95
73 82 94
72 80 91
64 72 82
63 71 81
67 74 85
60 67 77
59 66 76
54 61 70
47 53 61
50 56 64
53 60 70
52 59 67
53 60 69
45 50 58
42 47 54
42 47 54
45 50 58
45 50 58
53 59 67
51 58 66
57 64 73
62 70 81
60 67 76
61 69 79
64 72 82
70 78 89
67 75 86
74 83 95
73 82 94
75 84 96
78 88 101
78 87 100
81 91 105
78 88 102
78 88 101
70 79 90
70 78 90
67 75 86
54 61 71
60 68 78
51 58 66
36 40 46
30 33 38
24 27 31
29 33 39
39 44 51
45 50 58
47 53 61
44 50 58
58 66 76
64 72 82
67 76 87
73 82 95
74 84 97
84 95 109
89 100 115
97 110 127
106 119 137
105 118 135
114 129 149
119 134 154
117 132 153
118 132 152
111 126 145
115 130 149
115 131 151
109 124 143
114 130 150
110 125 143
111 125 143
106 120 138
109 123 141
103 117 135
111 126 145
110 125 144
110 124 143
117 133 154
114 128 148
114 130 150
116 132 153
122 138 160
118 134 154
116 132 153
122 137 158
112 127 147
110 124 143
99 112 129
97 110 126
100 114 131
94 107 124
99 111 128
88 101 117
90 102 117
84 95 110
80 90 104
81 92 106
81 92 107
79 89 103
69 78 90
53 60 69
36 41 48
29 33 38
16 19 21
26 30 34
32 37 42
32 36 42
26 30 34
19 21 24
27 30 35
32 36 42
35 39 45
27 30 35
32 37 43
36 41 47
41 47 54
46 52 60
47 54 62
51 58 67
51 58 67
52 59 68
59 67 77
63 71 82
63 72 83
59 67 77
61 68 79
59 67 78
63 71 82
62 71 82
60 68 79
59 67 78
57 65 75
62 70 81
60 68 78
61 69 80
57 65 76
53 59 68
44 50 58
33 38 44
23 26 30
23 26 30
31 36 41
42 48 56
51 58 68
57 65 76
62 71 82
65 74 86
65 73 85
60 68 79
53 60 70
46 53 61
46 53 61
46 52 61
48 54 62
50 57 66
55 63 73
65 74 86
69 78 91
76 86 99
79 89 103
82 93 107
87 99 114
87 99 115
90 101 116
89 101 117
91 103 118
90 103 120
90 102 118
89 101 117
83 95 110
76 87 101
74 84 97
72 81 94
61 69 80
47 53 62
33 38 44
24 28 32
37 42 48
28 32 37
26 29 34
25 29 34
27 30 35
35 40 46
39 45 52
47 53 61
54 61 71
60 68 79
67 76 88
76 86 100
83 94 108
90 102 118
98 112 130
104 119 137
110 125 145
118 134 154
118 134 155
120 136 157
123 140 162
119 136 159
118 134 154
117 134 155
115 131 152
108 122 141
114 128 148
108 123 143
106 121 140
107 122 140
105 120 139
110 124 144
113 129 149
116 131 152
120 136 157
120 136 158
117 133 154
119 135 156
114 130 151
118 133 153
114 129 150
113 129 150
114 129 149
115 130 150
112 127 147
106 120 139
115 130 151
115 131 151
112 128 149
109 124 145
107 121 140
108 123 142
104 118 135
103 117 135
95 108 125
87 99 115
80 91 105
72 82 95
66 74 86
55 62 72
48 55 63
44 50 58
38 43 50
38 43 50
38 44 51
38 43 50
42 48 55
48 54 63
49 56 65
46 52 60
37 42 49
35 40 46
30 34 39
22 26 30
17 19 22
18 20 23
18 21 24
19 22 25
22 25 29
29 33 38
29 33 39
29 33 38
29 33 39
33 38 43
34 38 44
38 44 50
38 43 50
36 41 47
30 34 39
23 26 30
18 21 24
21 23 27
19 22 26
19 21 25
20 23 26
23 26 30
24 27 31
29 33 38
34 39 45
42 47 54
45 51 59
42 48 55
39 45 52
35 40 46
32 37 42
31 35 41
30 34 40
32 36 41
34 38 44
28 31 36
30 33 38
29 33 38
31 35 39
41 46 53
43 48 56
44 50 58
48 54 62
55 63 72
51 58 67
46 52 59
43 49 56
38 44 50
41 46 54
47 54 62
44 50 57
42 48 55
45 51 58
41 47 54
45 50 58
39 45 51
38 43 50
37 42 48
40 45 52
36 41 47
39 43 50
40 45 52
43 48 56
49 55 63
44 50 57
45 50 58
42 47 54
41 46 53
40 45 52
36 41 47
34 39 45
33 37 42
23 26 30
16 18 20
18 20 23
21 24 28
22 25 28
19 22 25
16 18 20
21 24 28
27 31 36
34 38 43
36 40 46
38 42 48
40 45 52
41 45 52
41 46 53
43 49 56
43 49 56
48 54 63
55 62 71
60 67 77
67 76 87
73 81 93
68 77 88
66 74 85
65 73 83
58 65 75
57 63 72
59 66 76
59 66 76
60 67 77
59 67 76
63 70 81
58 64 74
60 68 77
55 62 72
47 52 60
48 54 61
48 53 61
52 57 65
52 58 66
53 59 68
51 57 65
53 59 67
51 57 65
54 60 69
60 68 78
60 67 77
65 73 84
61 69 79
71 80 92
65 73 84
67 75 85
66 74 84
64 72 83
62 69 79
62 69 78
59 66 75
60 68 78
62 69 80
55 62 71
51 57 65
48 53 61
55 62 71
54 61 69
49 55 62
53 59 68
52 58 66
67 74 84
54 61 70
56 63 72
65 72 82
63 70 79
62 70 81
63 71 81
75 85 97
72 80 91
70 79 89
63 71 82
66 74 84
60 67 76
60 68 78
58 66 75
54 61 70
55 62 71
59 66 75
56 63 72
60 67 77
61 69 79
61 68 78
63 70 80
67 75 86
63 70 80
63 70 80
63 71 82
59 66 75
57 65 74
61 69 79
62 70 80
58 66 76
67 75 86
73 82 94
69 77 88
83 94 108
78 88 101
90 101 115
83 94 108
94 106 122
95 107 122
90 102 117
89 101 116
94 106 122
96 108 124
94 106 122
94 105 121
99 112 128
91 103 118
79 88 101
78 88 102
76 86 99
72 81 94
60 68 78
63 71 81
51 58 67
44 49 56
41 46 53
32 36 42
24 27 31
40 46 53
47 53 61
55 63 72
68 77 89
72 80 92
79 90 104
86 97 111
84 96 110
90 101 116
103 117 136
103 116 133
102 115 132
107 122 141
109 123 142
103 116 134
112 126 145
108 122 141
108 122 141
100 113 130
109 123 142
102 116 135
112 127 146
114 128 148
113 128 149
114 129 149
113 128 147
120 136 158
118 134 154
121 136 157
117 134 156
122 138 159
125 142 164
120 136 157
118 134 155
112 126 146
105 118 136
108 122 141
105 119 138
95 108 125
92 105 121
95 108 124
93 105 122
95 107 124
95 107 123
94 106 123
87 99 114
79 89 102
74 84 97
70 80 92
59 67 77
54 62 71
51 57 66
36 41 47
25 29 33
28 31 36
45 51 58
48 54 63
51 58 67
50 57 66
51 58 67
52 59 69
55 62 71
54 61 71
52 59 69
54 61 70
55 62 71
58 65 75
59 67 77
60 68 78
68 77 88
71 81 93
66 75 87
61 69 80
52 59 68
44 50 58
37 42 49
39 45 52
47 53 61
47 54 63
51 58 67
58 66 76
63 71 83
63 71 82
64 73 84
68 78 90
63 71 83
63 72 84
59 67 77
50 57 66
36 40 47
21 24 28
35 40 47
48 55 64
57 65 75
67 76 87
71 81 94
78 89 103
82 93 107
82 93 107
77 88 102
74 84 97
63 71 82
61 69 80
58 66 76
53 60 69
39 45 52
30 34 40
40 46 53
48 54 62
56 64 73
60 68 79
59 67 78
59 67 77
59 68 78
63 72 83
65 74 86
59 67 77
66 75 87
69 78 90
71 81 94
69 78 91
63 72 83
61 70 81
55 62 72
45 51 58
31 35 41
19 22 26
22 25 29
39 44 51
41 47 55
34 39 45
22 24 28
29 33 38
44 50 58
59 66 77
71 80 93
82 93 108
89 101 116
97 111 129
102 116 135
109 123 142
107 122 141
114 129 149
115 130 151
112 128 149
115 131 151
115 130 151
114 130 150
114 129 149
114 129 150
112 128 148
112 127 148
114 130 150
116 132 153
120 135 155
122 138 159
121 138 160
124 142 164
128 145 168
125 142 164
126 143 164
124 140 162
121 138 160
118 134 156
112 128 148
112 127 146
105 119 139
104 118 137
102 115 133
100 114 132
104 119 138
104 118 136
100 113 130
98 112 130
97 110 127
98 112 129
98 111 129
99 112 129
89 102 118
86 98 112
82 93 108
80 90 104
73 83 96
67 76 88
65 73 85
60 68 79
60 68 78
57 65 76
56 64 74
52 59 68
53 60 69
50 57 67
53 60 69
55 62 72
55 62 72
50 57 66
48 55 64
44 50 58
36 40 47
29 32 38
19 22 25
16 19 21
14 16 19
17 20 23
20 22 26
17 19 22
15 17 19
16 18 20
16 19 21
22 25 29
26 29 34
31 35 41
35 40 46
37 42 49
34 39 45
30 34 39
21 24 27
16 19 22
20 23 27
25 29 33
33 37 43
36 41 48
41 47 54
52 59 69
67 76 89
73 83 96
72 81 94
72 81 93
75 86 99
77 88 102
77 87 100
72 82 94
69 78 90
64 72 83
57 64 74
54 61 70
47 54 62
36 41 47
38 43 49
37 42 49
42 47 54
45 51 58
52 60 69
48 54 62
50 56 65
55 62 72
59 67 78
54 62 72
48 55 63
51 57 66
49 56 64
35 40 46
27 31 36
24 27 31
28 32 37
24 27 32
28 31 36
29 33 37
28 32 37
27 31 36
29 33 38
35 40 46
39 44 51
42 48 55
50 57 65
51 58 67
55 62 72
57 65 75
50 57 65
46 52 60
42 48 55
40 45 52
39 44 51
33 38 43
35 39 46
32 37 42
39 44 51
34 39 45
44 50 58
52 59 68
50 56 65
51 57 66
54 61 71
52 59 67
49 55 63
58 66 76
60 68 78
60 68 79
63 70 81
62 69 80
61 69 79
70 79 90
78 88 101
79 89 102
77 87 100
79 89 103
76 86 99
67 75 86
59 67 77
62 69 80
63 70 81
61 69 80
66 73 84
61 68 79
60 67 77
57 64 74
52 59 68
60 67 77
60 68 78
66 74 86
65 73 83
71 80 91
67 76 87
65 73 84
70 79 90
58 65 74
61 69 80
67 75 86
70 80 92
71 80 91
67 75 86
74 84 96
70 79 90
63 71 81
61 69 79
59 66 75
56 63 72
61 69 79
59 67 77
66 74 85
62 70 80
57 64 74
55 61 70
51 57 65
46 52 60
47 53 61
46 52 59
42 47 53
30 34 39
28 31 36
27 30 34
29 33 38
34 39 44
36 40 46
32 35 40
36 41 47
37 42 48
43 49 56
41 46 53
46 51 58
41 46 53
41 46 52
46 51 59
38 43 49
41 46 53
40 45 52
45 51 58
48 54 62
53 59 68
56 62 71
57 64 73
64 72 83
58 66 76
68 77 89
68 76 87
70 78 90
71 80 91
75 84 96
70 79 91
75 85 98
82 93 107
83 93 106
83 93 107
87 98 113
86 96 110
98 110 127
91 103 118
101 114 131
107 120 138
112 126 145
102 115 133
103 115 132
104 117 134
102 115 133
109 123 141
107 120 139
102 115 133
98 110 127
101 113 130
94 105 121
90 102 118
81 92 106
88 99 113
77 87 100
76 86 99
71 80 93
60 67 77
58 66 76
50 56 65
41 47 54
37 41 48
30 35 40
23 26 30
32 36 42
47 53 61
59 67 77
60 68 78
61 70 81
69 78 90
72 82 95
79 89 102
89 101 116
93 106 123
89 102 119
100 113 130
100 113 130
102 115 133
101 115 132
111 126 146
107 121 140
107 121 140
109 124 143
109 122 141
117 133 153
111 125 144
109 123 143
110 125 144
114 129 149
121 136 157
112 128 148
113 128 148
108 122 141
108 122 141
115 129 149
109 123 142
103 116 133
97 111 128
94 106 123
95 109 126
90 102 118
90 102 117
94 107 124
94 107 124
96 109 126
87 99 115
84 95 109
80 91 105
83 94 109
79 90 104
74 84 97
70 80 92
64 72 84
50 57 66
39 44 51
22 25 29
19 21 25
19 22 25
23 26 31
28 31 36
29 33 38
26 29 34
34 39 45
38 43 50
33 38 44
32 36 42
29 33 38
34 38 44
41 46 54
46 52 60
50 57 66
49 56 65
48 54 63
42 48 56
37 41 48
30 35 40
22 25 29
25 28 33
28 32 38
35 40 46
36 41 48
38 43 50
37 42 49
37 42 48
40 45 52
34 39 45
28 32 37
25 29 34
27 31 36
29 32 38
29 33 38
34 39 45
40 46 53
50 57 66
60 68 78
62 70 81
66 75 86
65 73 85
64 73 84
61 69 80
59 67 78
59 67 77
54 61 70
50 57 66
46 52 60
46 53 61
41 46 54
46 52 60
43 48 56
42 48 56
40 45 52
36 40 46
28 32 38
25 28 33
29 34 39
31 36 42
28 32 37
26 30 35
28 32 37
29 33 38
30 34 39
34 38 44
36 41 47
36 41 47
35 40 46
32 36 42
26 30 34
20 23 26
25 28 33
21 24 28
19 22 25
23 26 30
35 40 46
43 50 57
50 57 66
58 66 76
60 68 79
63 72 82
67 76 88
70 80 92
75 85 98
73 82 95
81 92 107
87 98 113
90 103 119
99 112 129
96 109 126
100 114 132
101 115 133
104 118 136
105 119 138
107 122 141
112 127 147
110 125 144
111 126 146
113 128 148
111 126 146
106 121 140
107 122 141
103 117 135
103 117 135
97 110 127
91 103 120
90 102 118
88 100 116
86 98 114
84 94 108
83 94 108
77 87 101
76 87 101
77 87 100
79 90 104
75 85 98
77 88 102
75 85 98
77 88 102
71 82 95
67 76 88
63 71 83
54 62 71
50 56 65
45 51 59
37 42 49
36 41 47
36 41 47
41 46 53
39 45 52
41 47 54
47 53 62
50 57 66
53 60 69
54 61 71
56 64 75
62 70 81
59 68 78
60 68 78
47 53 62
39 45 52
26 29 34
23 26 30
26 30 35
33 37 43
34 39 45
35 40 47
36 41 47
37 42 49
37 42 48
35 39 46
33 37 43
30 34 40
35 40 47
37 43 49
39 44 51
39 44 51
41 46 53
36 41 47
33 38 43
23 26 30
23 27 31
45 50 58
54 61 70
67 75 87
69 78 90
79 89 103
83 94 108
90 102 118
90 102 117
94 107 124
93 105 121
94 106 122
89 101 117
92 104 120
94 107 124
89 101 116
87 99 114
85 98 114
88 101 117
88 99 115
88 100 115
90 102 117
97 109 126
92 105 122
93 105 122
90 102 117
91 103 118
94 106 122
86 98 113
85 97 111
71 80 92
72 82 95
67 76 88
62 70 81
57 65 75
56 63 72
53 60 70
52 59 68
48 54 63
46 52 59
44 50 58
44 50 57
40 45 52
40 45 52
45 51 59
48 55 63
46 52 60
46 53 61
43 49 56
38 43 50
29 33 38
21 24 27
25 28 33
33 38 43
37 42 48
47 53 61
54 61 71
61 69 79
63 71 82
64 72 83
70 79 91
68 77 88
74 84 96
72 81 93
81 91 104
73 82 95
67 76 89
75 85 98
68 77 89
69 78 90
66 74 85
70 79 91
72 82 95
71 79 90
69 79 91
66 75 87
69 78 89
78 87 100
77 87 100
83 93 107
83 94 109
88 100 114
79 88 100
89 100 115
84 95 109
82 93 108
85 96 110
81 92 106
76 85 98
81 91 105
81 90 103
82 93 107
85 95 109
85 95 109
84 94 108
79 89 102
82 92 105
82 92 105
81 91 105
80 91 105
80 89 102
77 86 99
79 89 102
73 83 95
70 79 90
76 86 98
63 71 81
62 69 80
62 69 80
62 70 81
62 69 79
56 62 71
49 55 63
49 55 63
50 56 64
43 48 55
43 49 56
47 53 61
43 49 56
39 44 51
30 34 38
21 23 27
24 28 32
35 39 45
45 50 57
48 55 63
51 57 66
57 65 74
57 65 74
63 71 81
63 71 81
62 69 79
61 69 79
53 59 67
46 52 60
44 50 57
36 41 47
34 38 44
31 35 40
26 29 33
27 31 35
30 34 39
34 38 44
53 60 69
48 53 61
59 67 76
65 73 84
64 72 83
67 76 87
76 85 98
73 82 95
75 85 97
73 82 95
80 90 104
85 96 110
87 98 113
91 103 118
92 103 118
99 112 129
97 109 126
102 115 131
101 115 132
106 120 137
106 119 137
109 123 141
109 122 140
102 116 134
98 112 129
93 104 120
101 114 131
89 101 117
97 109 125
91 103 118
81 92 106
78 88 102
72 82 94
71 80 93
71 80 92
58 65 75
50 57 65
46 52 59
39 43 50
28 32 37
25 29 33
24 27 32
24 27 32
26 29 34
24 28 32
26 30 35
32 37 42
37 42 48
46 52 60
49 56 65
61 69 79
70 79 90
75 84 97
86 97 112
94 106 122
98 112 129
101 114 132
104 118 137
112 126 145
118 134 155
116 131 151
123 139 161
119 134 154
127 143 164
120 136 158
117 133 153
128 145 167
116 131 152
122 139 161
121 138 160
118 134 155
119 135 156
115 130 150
107 122 140
110 125 144
98 111 128
99 112 129
98 111 128
97 110 127
96 109 126
93 106 122
82 93 108
82 93 108
74 83 96
77 87 101
79 90 104
76 86 100
78 88 102
70 80 93
70 79 91
67 76 88
67 76 87
67 76 88
57 65 75
53 61 70
50 57 66
48 54 63
35 39 45
33 37 43
30 34 39
38 43 50
44 50 58
42 48 56
30 34 40
17 19 22
19 22 25
19 21 25
25 29 33
27 30 35
29 33 38
36 41 47
42 47 55
46 52 60
51 58 68
50 57 66
49 55 64
46 53 61
42 48 55
44 50 59
46 53 61
42 48 56
36 41 47
24 27 31
26 29 34
30 34 39
22 26 30
23 27 31
26 29 34
19 22 25
29 32 37
36 41 47
42 48 55
46 52 60
45 52 60
49 56 65
54 61 71
55 63 72
57 64 74
55 62 71
54 61 70
47 54 62
42 47 55
32 36 41
25 29 33
20 23 27
19 21 25
23 26 30
27 31 36
33 37 43
40 46 53
43 49 57
43 48 56
39 44 51
35 40 46
28 31 36
30 34 39
31 35 40
27 31 36
31 35 40
33 37 43
30 34 40
25 28 32
23 26 30
23 26 30
25 29 33
31 35 40
31 35 41
29 33 39
21 24 27
16 19 22
22 25 29
29 33 39
36 41 48
38 43 50
37 42 49
37 43 50
43 49 57
45 51 59
49 56 65
49 56 65
51 58 68
53 60 69
51 58 67
53 61 70
57 65 76
65 74 85
73 83 95
79 90 104
83 95 109
89 101 118
87 99 115
87 99 115
91 104 120
87 100 115
82 94 109
74 84 98
69 78 90
57 65 76
51 58 68
45 52 60
36 41 47
43 49 56
39 45 52
40 46 53
40 46 53
41 47 54
43 49 56
43 49 56
38 43 50
37 42 48
35 39 45
41 47 55
37 43 49
36 41 47
32 37 43
37 42 49
40 46 53
39 45 52
37 43 49
34 38 45
37 42 49
37 42 48
38 43 49
35 40 46
35 40 46
34 39 45
29 33 38
20 22 26
16 19 22
25 28 33
27 31 35
29 33 38
33 37 43
29 33 38
28 32 37
26 30 35
24 28 32
22 25 30
22 25 29
23 26 30
20 23 27
24 28 32
35 40 47
37 42 49
39 44 51
38 43 49
35 40 47
36 41 48
32 37 43
25 28 32
26 29 34
33 37 43
40 45 52
37 42 48
32 37 43
32 36 41
25 28 32
22 25 29
34 38 44
47 53 61
55 62 71
62 70 82
71 81 94
82 93 107
84 95 109
91 104 120
89 101 117
98 111 127
100 113 130
95 108 126
105 119 136
99 113 130
101 114 132
102 116 135
105 119 138
105 119 136
105 119 137
107 122 141
107 121 140
108 123 142
105 118 136
106 120 139
99 112 128
102 115 132
101 114 132
97 110 127
94 106 122
91 103 119
83 94 109
81 92 106
77 88 101
77 87 101
77 88 101
67 76 88
69 78 90
76 86 100
74 83 96
75 85 98
68 77 89
73 83 97
73 83 95
77 87 100
72 81 93
67 76 88
58 66 76
53 60 69
38 43 49
23 26 29
23 26 30
34 39 45
43 49 56
46 52 60
52 59 68
57 64 74
64 72 82
62 71 81
71 80 92
67 75 87
66 74 86
75 84 97
77 87 100
82 92 106
76 86 99
79 89 103
84 95 109
78 89 102
75 85 97
82 92 106
79 89 102
87 98 112
87 98 113
87 98 113
91 103 119
96 109 126
92 104 120
101 114 131
100 113 130
102 114 131
103 116 133
102 115 132
114 129 148
107 120 138
109 122 141
107 121 138
96 108 124
100 113 130
87 98 112
86 97 112
93 104 119
94 106 122
83 93 107
83 93 107
86 97 112
80 91 104
74 83 95
75 84 97
71 79 91
72 80 92
68 77 89
65 74 86
61 69 80
63 70 81
63 71 82
61 68 78
62 70 80
53 60 69
59 66 76
52 58 67
48 54 62
36 40 46
34 39 45
30 34 38
25 28 32
25 28 32
24 27 32
30 34 39
35 39 45
41 46 53
52 58 67
55 62 71
64 73 83
62 70 81
63 72 82
60 67 77
62 70 80
61 69 80
67 76 87
61 69 79
60 68 78
60 67 76
55 62 71
49 55 63
41 46 53
35 39 45
35 40 46
33 37 43
34 39 45
33 37 43
27 31 35
23 26 29
16 18 21
14 15 18
23 26 30
31 35 40
40 45 52
42 47 54
51 58 67
60 68 78
67 75 86
76 85 98
74 84 96
80 90 104
80 90 104
88 100 115
92 103 118
85 96 111
97 109 126
98 111 128
96 109 127
95 108 124
105 118 136
94 106 122
98 111 128
94 106 122
102 115 133
100 113 129
96 109 126
100 113 130
96 109 127
94 106 123
91 102 117
80 90 104
74 84 96
67 76 87
60 68 79
57 64 74
52 59 69
40 46 53
36 40 47
24 27 31
24 28 32
28 32 37
26 30 34
24 27 31
26 30 35
33 38 43
32 37 42
33 37 43
37 41 48
35 40 46
41 46 53
45 52 60
53 60 70
67 76 88
73 83 95
84 95 110
87 99 115
89 101 116
103 116 134
110 124 143
108 123 141
117 133 154
122 138 160
116 133 154
119 134 155
120 135 156
122 140 162
127 143 165
119 136 158
123 140 162
126 142 164
120 136 157
119 135 155
115 131 152
118 134 154
118 134 155
110 125 145
106 121 140
103 117 136
93 106 123
88 99 114
84 95 110
82 94 109
79 90 104
70 80 93
67 76 88
63 71 83
66 74 85
63 72 83
58 65 76
52 59 68
50 56 65
45 51 59
38 43 50
35 39 45
28 32 37
26 30 34
26 29 33
26 30 34
24 28 32
33 37 43
41 46 54
37 43 50
40 46 53
44 50 58
42 47 55
36 41 48
34 38 44
29 33 39
24 27 31
30 34 39
45 51 58
52 59 68
60 68 78
60 68 78
56 64 74
54 62 72
45 52 60
34 39 45
25 29 33
28 31 36
31 35 40
37 42 48
44 50 58
48 54 63
45 51 59
44 50 59
50 57 67
47 54 62
39 44 51
36 41 48
40 46 53
42 47 54
43 49 57
42 48 55
42 47 55
47 53 61
48 55 64
53 60 70
51 57 66
51 58 67
45 51 59
42 48 55
38 43 49
34 39 46
36 41 47
40 46 53
44 50 58
48 55 63
52 59 68
53 61 70
58 66 77
61 70 81
55 63 72
49 56 66
36 41 47
24 27 31
28 32 38
37 42 49
36 41 48
35 40 46
29 33 38
18 21 24
19 21 25
25 29 33
29 33 38
33 37 43
29 33 39
38 43 50
46 53 61
51 58 67
48 55 64
49 56 64
51 58 67
48 54 63
46 53 61
41 47 54
34 38 44
37 42 49
42 48 55
43 49 57
39 45 52
40 45 52
42 48 55
41 47 54
46 53 61
47 54 62
43 49 57
45 51 60
47 54 62
51 59 68
62 71 82
63 72 84
64 72 83
64 73 84
57 64 75
49 56 66
36 42 48
25 28 32
14 16 19
20 22 26
24 27 31
29 33 39
33 38 44
38 43 50
41 47 54
40 45 53
34 39 45
23 26 30
22 25 30
23 26 31
21 24 28
21 24 27
18 20 23
18 21 24
28 32 37
36 41 47
38 43 50
38 43 50
38 43 50
39 44 51
38 43 50
39 44 51
41 46 54
34 38 44
29 33 38
26 30 35
22 25 29
20 22 26
18 20 23
23 26 29
22 25 29
20 23 26
24 27 32
26 30 35
27 31 35
26 30 34
29 33 38
26 29 34
32 36 42
40 45 52
44 50 58
46 52 60
47 53 62
50 57 66
56 64 73
54 62 72
55 62 71
48 55 63
43 49 56
36 41 48
36 41 47
41 47 54
42 47 54
46 52 61
46 53 61
49 56 65
56 63 73
62 70 81
69 78 91
72 82 95
78 89 103
85 96 110
86 98 113
84 96 111
89 100 116
85 96 111
87 99 115
88 100 116
88 100 116
96 109 125
100 113 130
102 116 134
110 125 144
110 124 143
112 127 147
114 129 148
113 128 148
108 122 141
105 119 138
100 113 129
99 113 131
97 109 125
92 104 120
86 98 113
84 95 110
84 94 108
80 91 105
81 92 107
77 87 100
77 87 100
75 85 98
72 81 94
70 79 91
66 75 87
66 75 86
64 72 83
66 74 86
68 77 89
64 72 83
55 63 72
54 61 70
53 60 69
48 55 63
44 50 58
27 31 36
16 19 22
37 42 48
43 49 56
50 56 65
57 64 74
54 62 71
60 68 79
63 71 81
62 70 80
68 77 88
64 73 84
62 70 81
63 72 83
68 77 89
69 78 90
70 79 91
80 91 105
79 89 102
82 93 107
84 95 110
94 107 123
93 106 122
94 105 121
96 109 125
102 114 131
100 113 130
105 119 137
107 121 138
106 119 137
118 133 153
118 133 152
118 134 155
117 133 153
117 133 153
119 134 154
118 134 154
114 129 148
105 118 136
101 113 129
106 121 140
89 101 116
97 110 128
88 100 115
87 98 113
81 91 105
83 93 107
71 81 93
68 76 87
64 72 83
64 72 82
57 65 75
57 64 73
51 58 66
52 58 67
48 54 62
43 49 56
41 46 53
44 50 58
45 51 58
46 52 59
43 48 56
34 39 44
21 24 27
22 25 28
35 39 46
38 43 50
43 49 56
45 51 58
48 55 64
45 51 59
51 58 66
52 59 68
56 63 73
58 66 76
64 72 83
67 75 86
61 69 80
68 76 88
67 76 87
69 78 89
68 77 89
71 81 94
64 72 83
64 72 83
59 66 76
49 55 64
40 46 53
37 42 48
36 41 47
36 41 47
36 41 46
36 41 47
33 38 43
29 33 38
19 22 26
19 22 25
29 33 38
38 43 50
44 50 57
46 52 59
52 59 68
60 67 77
63 71 82
75 85 98
80 90 103
84 95 110
86 98 114
92 104 119
97 108 124
94 106 122
92 105 121
101 114 132
109 123 142
101 114 131
102 115 133
101 115 133
112 126 145
106 120 139
104 117 135
103 116 134
99 113 130
96 109 126
100 113 130
99 112 128
96 109 126
99 111 128
87 99 114
89 101 116
89 101 117
82 93 107
73 83 96
65 74 86
59 66 76
50 57 65
40 45 52
24 27 31
18 20 23
35 39 45
40 46 53
48 55 63
54 61 70
55 62 72
56 64 73
54 61 71
56 64 74
60 68 79
64 73 84
68 77 89
75 84 97
75 86 100
81 91 105
79 90 105
85 97 112
90 102 117
91 103 119
92 104 119
96 109 126
96 109 125
110 125 144
107 121 140
107 121 139
104 118 136
111 126 146
110 124 143
102 116 134
107 121 140
107 121 140
107 121 140
103 116 133
102 116 135
94 106 122
91 104 120
93 105 121
87 99 115
87 98 114
88 99 115
83 94 109
84 95 110
81 93 108
72 82 95
68 77 89
62 71 82
62 71 82
56 64 74
54 61 71
52 60 69
46 52 60
36 41 48
21 24 28
23 26 30
23 26 30
31 35 41
44 50 58
54 61 71
62 71 82
64 73 84
67 77 90
66 75 86
64 74 86
65 73 85
61 70 81
62 70 81
63 72 84
69 79 91
71 80 93
75 85 98
82 92 106
81 92 106
73 83 96
72 81 93
62 70 81
54 61 71
39 44 51
28 32 37
38 43 50
50 57 66
52 59 69
57 65 75
64 73 84
70 80 92
71 81 94
68 77 90
66 76 88
65 74 86
62 70 81
50 57 66
47 54 62
47 53 62
49 56 64
49 56 65
51 59 68
53 61 70
56 63 74
55 63 73
63 71 82
65 74 86
73 83 96
71 80 93
64 73 85
64 73 84
63 71 82
61 69 80
62 70 80
65 74 85
73 83 96
78 89 102
80 91 106
83 94 110
76 87 101
69 78 90
60 68 79
51 58 67
42 48 56
39 44 52
41 47 55
32 37 42
32 36 42
33 37 43
33 38 44
33 37 43
31 35 41
27 31 36
33 37 43
42 48 55
47 54 62
51 58 67
53 61 71
54 61 70
55 63 73
57 64 74
62 70 81
68 78 90
70 79 92
74 84 97
75 86 99
76 87 100
74 85 99
71 81 94
67 76 88
61 70 80
61 69 80
54 61 71
48 55 64
39 44 51
31 35 40
32 36 41
36 41 48
34 39 45
32 36 42
32 36 41
28 32 37
23 26 30
12 13 15
11 12 14
18 21 24
22 25 29
24 27 31
20 23 27
22 25 29
21 24 28
29 33 38
31 35 41
31 35 41
29 33 38
26 29 34
22 25 29
25 28 33
28 32 37
32 36 42
33 38 44
34 39 45
36 41 47
38 43 49
32 36 42
31 35 41
25 28 33
19 21 24
16 19 22
16 18 21
17 19 22
21 23 27
18 20 23
23 26 30
30 34 39
34 39 45
23 26 30
17 19 22
23 26 30
23 26 30
23 26 30
26 29 34
33 37 43
40 45 52
45 52 60
53 61 70
61 70 81
66 74 85
65 74 85
67 76 88
66 75 87
69 79 91
69 78 91
72 82 96
72 81 94
74 84 97
78 89 102
81 92 107
84 95 110
80 90 104
86 97 112
86 98 114
92 105 121
93 105 121
98 111 129
102 116 135
105 120 139
108 123 142
111 126 145
106 119 137
99 112 129
97 110 127
94 107 124
90 102 119
100 114 131
97 110 127
94 106 122
98 112 129
96 108 125
95 108 125
95 107 124
95 108 125
97 110 127
96 109 125
96 109 126
88 100 116
91 104 120
84 95 109
83 95 109
78 89 102
81 91 104
77 87 100
70 80 93
66 75 87
67 76 88
61 69 80
59 67 77
53 60 69
49 55 63
45 51 59
43 48 55
43 49 56
44 50 58
46 53 61
48 54 63
45 51 59
38 43 49
32 36 42
27 31 36
22 24 28
15 17 19
12 14 16
24 27 31
39 44 51
42 47 55
41 46 54
37 42 49
38 43 49
40 45 52
46 52 60
47 54 62
50 57 65
52 59 69
61 70 80
59 66 76
68 77 89
70 80 93
75 84 97
81 92 106
86 97 111
80 91 106
88 100 115
89 101 116
85 96 110
85 96 111
94 106 123
97 110 128
88 100 115
83 95 109
99 112 129
99 112 129
97 110 127
110 124 142
104 117 136
112 126 144
102 116 134
109 123 141
102 116 133
103 116 133
97 110 127
104 118 136
104 118 135
92 104 119
97 109 124
86 98 113
85 96 111
80 90 103
71 80 91
69 78 90
60 67 77
63 72 82
56 63 73
53 60 70
52 59 67
50 56 65
46 52 60
44 50 57
40 46 53
40 46 52
45 51 59
47 53 61
47 54 62
45 51 59
49 55 63
41 47 54
43 49 56
42 47 54
38 44 50
35 39 45
30 34 39
29 33 38
39 44 51
43 49 56
45 50 58
43 48 56
43 49 56
47 53 61
45 51 59
45 51 59
44 50 58
42 47 54
40 45 52
38 43 50
37 42 48
30 34 39
28 31 36
23 26 31
17 19 22
20 23 26
24 27 31
26 29 34
35 39 45
38 43 50
44 50 57
43 49 56
48 54 62
53 60 70
58 66 75
63 72 83
69 78 90
74 83 96
74 83 96
76 86 99
80 90 104
85 95 110
82 93 107
94 107 123
87 99 114
88 100 115
95 108 125
95 107 122
100 113 130
107 121 140
108 122 141
107 122 141
110 124 144
103 115 132
108 122 141
107 121 140
104 118 137
106 121 140
104 117 135
100 114 131
100 113 131
98 111 128
97 110 128
96 109 126
90 102 117
86 98 113
78 89 102
69 79 92
70 79 92
66 75 87
60 68 79
57 65 75
53 60 69
44 51 59
33 37 43
27 30 35
32 36 42
45 52 60
52 59 68
54 61 71
57 65 76
65 73 85
67 76 88
72 81 94
70 80 92
78 88 101
79 89 103
74 84 97
79 90 103
81 92 106
83 94 108
90 102 118
93 105 121
95 107 124
94 107 123
95 108 124
95 108 124
97 110 126
98 111 128
93 105 121
91 103 119
90 102 117
88 100 116
83 94 108
82 93 107
78 88 102
74 84 97
70 80 92
66 75 86
62 70 82
65 74 85
62 71 82
60 69 80
55 62 72
50 57 66
51 58 67
56 64 74
51 58 66
53 60 70
46 53 61
53 60 69
52 60 69
52 59 68
46 53 61
48 54 63
51 58 67
49 56 65
42 47 55
23 26 30
33 38 44
48 54 62
55 62 71
58 66 76
68 77 90
72 82 95
79 89 104
82 93 108
83 95 110
83 94 109
84 95 110
85 96 110
82 93 108
85 96 110
82 94 108
85 97 112
83 94 108
81 93 107
78 88 102
72 81 94
61 69 80
54 61 71
38 44 50
26 29 34
29 33 38
51 58 68
63 72 83
72 82 95
80 90 105
79 90 103
80 91 106
79 90 104
76 86 100
76 86 100
75 85 99
76 86 99
70 80 92
71 80 93
71 81 94
69 79 92
70 79 91
72 81 94
82 93 107
84 96 111
87 99 114
87 98 113
87 99 114
90 102 118
90 103 119
95 108 125
94 107 124
92 104 121
92 105 122
91 104 120
93 106 123
93 105 122
86 97 113
87 99 114
81 92 106
72 82 95
70 79 92
67 77 89
64 72 83
64 73 84
56 64 74
47 53 62
40 46 53
29 33 38
17 19 23
17 20 23
20 23 27
35 39 45
45 51 59
54 61 71
59 67 77
64 73 85
68 78 90
70 80 92
75 86 99
77 88 102
82 93 107
85 97 113
84 96 112
87 99 116
91 103 119
92 105 120
88 100 116
83 95 110
79 90 104
78 89 103
73 82 95
70 79 91
67 76 88
63 71 82
60 69 80
59 68 78
57 65 75
49 56 64
46 53 61
43 49 56
45 51 59
43 49 56
40 45 52
37 42 49
35 40 46
27 31 35
22 26 30
36 40 47
46 52 60
54 61 71
58 66 76
65 74 86
68 77 89
70 79 92
65 74 85
61 69 80
63 72 83
64 72 83
58 67 77
59 66 76
54 62 71
50 56 65
47 53 62
45 51 59
45 51 59
44 50 58
37 42 49
31 35 41
29 33 38
20 23 26
13 15 17
16 18 21
18 20 23
17 19 22
17 20 23
21 24 28
24 27 32
36 42 48
49 56 65
54 62 71
63 71 83
76 87 101
86 98 113
87 99 114
87 99 115
87 99 114
91 103 120
95 107 124
91 103 120
93 105 122
93 106 122
88 100 115
86 98 113
90 101 116
89 102 118
92 105 122
95 108 125
99 113 130
99 111 128
100 114 131
107 122 141
107 122 142
109 124 143
118 134 155
110 126 146
112 126 145
111 125 145
111 125 145
114 129 148
108 122 141
110 125 144
107 122 140
104 119 137
99 113 130
102 116 135
98 111 128
102 116 133
103 117 135
100 114 132
99 111 128
95 107 124
93 105 121
91 103 119
85 97 113
81 92 105
79 89 103
71 81 93
67 76 88
65 73 85
62 70 80
61 69 79
61 70 81
62 71 81
60 68 78
65 73 84
65 74 85
66 74 85
59 67 77
51 58 67
44 50 57
36 41 47
28 32 37
19 21 25
19 22 25
20 23 27
23 26 30
17 19 22
15 17 20
17 19 22
22 25 29
25 28 32
31 35 40
35 40 46
45 50 58
46 52 60
54 61 71
52 59 67
50 57 66
51 57 66
58 66 76
57 64 74
66 74 85
64 73 84
65 74 86
68 77 90
71 80 92
73 82 95
72 82 95
72 81 94
73 83 95
66 75 87
69 78 90
64 73 84
65 73 85
68 77 89
62 71 82
58 66 77
56 64 74
54 61 70
57 65 75
63 71 81
72 81 94
79 89 102
76 86 99
81 92 106
83 94 109
83 94 109
76 87 100
82 93 108
75 85 98
79 89 103
78 88 101
74 84 97
69 77 89
64 73 84
59 67 77
49 55 64
46 51 59
41 47 54
33 37 42
28 31 36
30 34 40
30 34 39
28 32 37
25 28 33
22 25 30
26 29 34
27 31 36
30 34 40
34 38 44
40 45 52
45 51 59
54 61 71
50 56 64
48 55 63
47 53 61
47 53 61
43 49 56
41 46 53
42 47 55
39 45 52
39 44 51
43 49 55
43 48 55
42 48 55
39 44 50
34 39 45
34 39 44
34 39 45
41 46 53
48 54 62
50 56 65
44 50 57
44 50 58
45 51 59
49 56 65
49 56 64
47 53 61
49 55 64
52 59 68
56 64 73
57 64 74
58 66 77
67 75 86
62 71 82
73 83 96
77 86 98
75 86 99
79 90 104
86 97 112
85 96 111
87 98 113
87 98 113
89 101 116
92 104 120
91 103 119
95 107 124
98 112 129
97 110 127
95 107 124
101 114 132
99 112 130
104 117 134
101 114 132
102 115 133
109 123 142
110 125 145
112 127 146
104 118 136
102 115 133
95 108 125
95 108 125
97 110 127
97 110 127
91 103 118
87 98 113
87 99 115
80 91 105
74 84 96
67 77 89
58 66 77
62 70 81
62 70 81
57 65 75
53 60 69
43 48 56
29 33 38
15 18 21
18 20 24
24 28 32
33 38 44
39 44 51
44 49 57
47 53 62
50 57 65
57 65 75
61 70 81
69 78 90
70 80 93
73 83 96
74 84 97
74 85 98
76 85 98
79 89 104
74 85 98
80 91 106
86 97 112
84 96 111
88 101 117
86 99 114
90 101 117
85 96 111
85 96 110
83 94 109
78 89 102
70 79 91
73 82 95
68 76 88
64 73 84
52 59 68
42 48 55
31 36 41
23 26 30
14 16 18
16 18 21
26 30 34
35 39 46
38 43 50
42 48 55
41 46 53
44 50 58
45 51 59
44 51 59
44 50 58
40 45 52
31 36 41
36 41 48
37 42 49
30 34 40
24 28 32
27 31 36
23 26 30
21 24 28
26 29 34
37 42 49
43 49 56
49 56 65
46 52 60
47 53 61
50 57 65
56 64 74
51 58 67
57 64 74
60 68 79
62 71 82
65 73 84
57 65 75
58 66 76
54 61 71
51 58 67
46 52 60
35 39 45
28 31 36
18 21 24
28 32 37
44 50 58
51 58 67
59 67 78
65 74 86
68 77 89
71 81 94
71 81 94
67 77 89
75 86 100
77 87 100
82 94 109
82 93 108
81 92 106
86 98 114
84 95 110
89 101 116
95 108 125
97 109 126
101 114 132
99 113 131
109 124 143
113 127 147
114 130 151
120 137 158
121 138 159
118 134 155
114 129 150
113 128 149
112 127 147
109 123 142
106 121 139
97 111 129
99 112 130
100 114 132
102 115 133
95 108 125
92 104 120
84 95 110
85 96 111
84 95 110
81 92 107
72 82 96
56 64 74
43 48 56
30 34 39
31 35 40
71 81 93
73 82 95
78 89 104
87 99 115
88 100 116
89 102 117
93 105 121
86 98 114
86 97 113
85 96 111
84 96 110
84 96 112
86 98 113
90 103 118
93 105 122
96 109 125
93 105 121
89 102 118
84 95 110
78 88 102
74 84 97
74 83 96
70 80 92
65 73 85
64 73 84
63 72 84
60 68 79
53 60 70
44 50 58
31 35 41
20 23 27
28 32 37
37 42 48
45 50 58
48 54 62
55 62 72
59 67 78
65 74 85
70 79 92
70 80 93
71 81 94
75 86 99
78 88 102
78 89 103
81 92 107
82 93 107
78 88 101
80 91 105
80 90 104
81 92 105
76 87 100
71 81 93
68 78 90
66 75 87
60 69 79
56 64 74
50 57 65
43 49 57
39 44 51
36 41 47
34 39 45
36 41 47
37 43 49
40 46 53
45 52 60
56 64 74
64 73 84
76 86 99
80 91 105
89 100 116
97 110 127
100 114 131
102 116 135
103 117 135
105 119 137
109 124 143
107 121 141
114 129 148
106 119 136
105 120 138
110 125 144
106 120 139
104 118 136
106 120 138
108 121 139
103 118 137
106 121 140
113 128 149
118 133 153
116 132 152
121 137 159
116 132 153
117 133 154
119 134 154
121 138 159
115 130 150
116 131 151
115 131 151
121 136 157
116 131 151
118 134 155
115 131 152
115 130 150
120 136 157
117 132 153
111 127 146
111 126 145
109 123 143
103 117 136
106 121 140
104 118 136
88 100 115
79 90 104
74 85 98
64 72 84
61 69 80
56 63 73
49 56 65
47 53 61
46 52 60
39 44 51
40 45 52
44 50 57
42 48 55
37 42 49
38 43 50
28 32 37
20 23 27
15 17 20
13 15 17
12 13 15
14 16 19
18 21 24
23 26 30
27 31 35
28 32 37
29 33 38
28 31 36
23 26 31
26 30 34
31 36 41
35 40 46
39 45 52
43 49 56
43 48 56
43 48 56
43 49 56
44 50 57
44 50 58
45 51 59
44 49 57
42 48 55
50 57 65
48 54 63
44 50 57
44 50 57
44 50 58
36 40 46
36 40 46
32 36 42
38 43 50
40 45 52
39 44 51
36 41 48
34 39 45
31 35 40
27 31 36
18 21 24
13 14 16
24 27 32
26 29 34
29 32 38
36 41 48
44 50 58
41 46 53
47 53 61
50 57 65
50 56 65
46 52 60
47 53 61
50 56 65
53 61 70
60 68 78
61 69 80
57 64 74
62 71 81
57 65 75
58 65 75
49 55 64
50 56 64
48 54 62
45 51 59
44 49 56
32 36 41
24 27 32
22 26 30
37 42 48
39 44 51
36 41 47
32 36 42
24 27 31
19 21 25
34 39 45
38 43 50
39 44 51
42 47 54
44 50 58
50 56 64
50 57 66
50 56 65
52 58 67
46 53 61
44 49 56
40 46 52
39 44 51
38 42 48
37 42 48
40 46 52
48 54 62
51 57 65
53 60 69
55 62 72
62 70 80
63 71 82
62 70 80
58 66 77
63 72 82
61 69 79
66 75 87
68 78 90
70 79 90
70 80 92
75 84 97
72 83 96
82 93 107
82 93 108
82 94 108
87 98 114
87 98 113
85 96 111
86 98 113
93 105 121
94 107 124
100 113 131
100 113 130
104 117 135
103 116 133
101 114 131
104 118 136
106 121 140
103 116 134
108 122 141
108 122 141
113 128 148
105 119 137
108 123 142
113 128 148
112 126 146
100 113 130
102 116 134
106 120 138
96 109 126
96 109 125
89 100 115
91 104 120
82 93 108
80 91 106
74 84 97
69 78 90
62 70 81
60 68 79
55 62 72
46 52 60
45 51 59
44 49 56
39 44 52
33 38 44
19 21 25
26 30 35
36 41 48
37 42 48
43 49 57
57 64 74
63 71 83
70 79 91
74 84 97
71 80 92
69 78 91
73 83 96
75 85 98
71 81 93
70 79 91
72 82 95
67 76 87
64 73 85
65 74 85
62 70 81
65 74 86
68 78 90
68 77 89
61 69 79
63 71 82
60 69 79
62 71 82
65 74 86
63 72 83
60 68 78
57 65 75
56 63 73
47 53 62
37 42 49
20 23 27
15 17 20
20 23 26
28 31 36
32 36 42
41 46 53
47 53 62
57 64 74
57 65 75
58 66 76
61 69 80
59 67 77
63 71 82
67 76 88
72 81 94
72 82 94
65 74 86
67 76 87
61 70 81
60 69 79
56 63 73
50 57 66
46 53 61
50 57 66
55 62 72
51 57 66
52 59 69
48 54 63
49 56 64
47 54 62
44 50 58
43 49 57
41 47 55
31 35 41
28 31 37
22 25 30
25 28 33
30 34 40
31 35 40
27 31 36
29 33 38
30 34 40
30 34 40
36 42 48
39 44 51
38 43 50
40 45 52
43 49 56
44 50 58
49 56 65
54 61 70
53 60 69
58 66 76
61 70 81
71 80 92
79 89 103
85 97 111
92 104 120
98 111 128
102 116 134
107 121 140
108 123 142
112 127 147
113 128 147
122 139 161
126 143 165
130 147 170
133 151 175
136 154 177
137 157 182
130 147 170
127 144 166
120 136 158
120 137 159
119 136 157
118 134 155
115 131 152
117 133 153
114 130 150
112 127 147
108 123 143
102 116 134
92 105 121
88 100 115
81 92 107
74 84 97
65 74 86
57 65 76
44 50 58
96 109 126
99 113 131
100 114 133
108 122 141
107 122 141
108 123 143
112 126 145
110 125 145
107 123 143
109 123 142
107 122 141
107 122 141
112 127 147
109 123 143
105 119 138
105 119 137
102 115 134
95 108 125
95 108 125
88 100 116
84 95 111
86 98 113
81 92 107
81 92 106
78 88 103
72 82 95
70 79 92
62 70 81
57 65 76
48 54 63
35 40 47
23 26 30
27 31 35
36 41 48
45 51 59
49 56 64
49 56 64
50 57 66
48 54 63
43 49 57
47 54 62
48 55 63
49 56 65
50 57 66
59 67 77
60 68 79
57 64 74
59 67 78
62 70 81
65 74 86
69 79 91
72 82 95
80 90 104
78 89 103
76 86 100
71 80 93
60 68 78
50 56 65
45 51 59
46 52 60
47 54 62
53 60 70
61 69 80
70 80 92
78 89 103
82 94 108
90 103 119
95 108 126
97 110 127
100 114 132
102 115 133
107 122 141
106 121 140
105 119 137
107 122 141
112 127 147
108 122 141
109 123 142
105 119 138
114 128 148
109 125 145
114 129 149
118 134 155
119 136 158
116 132 153
127 145 168
126 143 165
130 148 171
126 143 165
126 144 166
126 144 167
124 140 162
124 141 163
120 135 156
122 139 160
116 132 152
115 131 152
120 136 157
121 137 158
117 133 153
118 134 155
116 131 151
114 129 149
111 126 146
108 123 142
110 126 146
109 123 143
106 120 138
101 114 132
96 109 126
89 101 117
80 91 106
76 86 99
70 80 93
63 71 82
59 67 78
51 58 67
42 48 56
41 47 55
36 41 47
28 32 37
21 24 28
18 21 24
20 22 26
24 28 32
26 29 34
30 34 39
37 42 49
45 51 60
49 55 64
44 51 58
49 55 64
49 55 64
52 58 68
49 55 64
48 55 64
43 48 56
32 37 43
28 31 36
17 19 22
20 23 27
25 28 33
20 23 27
16 18 21
20 23 26
22 25 29
26 29 33
27 31 36
27 31 36
22 25 30
21 24 27
23 26 30
25 28 33
28 32 37
32 37 42
37 42 49
52 59 69
63 71 83
66 75 87
68 78 90
69 78 90
74 83 96
77 88 101
73 83 96
74 84 97
67 76 87
65 74 85
60 68 78
53 60 69
51 59 68
39 45 52
31 35 40
28 31 36
30 35 40
28 32 37
27 30 35
26 30 35
24 28 32
27 31 35
31 35 40
28 32 37
31 36 41
27 31 35
33 38 43
44 50 57
47 53 61
48 54 63
48 54 62
43 49 56
45 51 58
41 47 54
36 41 48
30 34 40
27 30 35
25 28 33
19 21 25
21 24 27
25 28 33
25 28 33
22 25 29
18 21 24
24 27 31
23 26 30
19 21 25
20 22 25
26 29 33
32 36 42
36 40 46
34 39 45
34 39 45
38 43 49
42 47 54
36 40 46
34 39 45
35 40 47
37 42 48
46 52 60
46 53 61
53 60 70
53 60 69
54 61 71
54 61 71
57 65 75
55 62 72
56 64 74
63 71 82
70 79 91
76 86 99
78 89 102
79 90 104
79 89 103
76 86 100
80 90 104
81 92 106
84 95 110
87 98 113
90 101 117
95 107 124
94 106 122
94 107 125
99 113 130
97 109 126
105 119 137
99 113 131
106 119 137
92 105 121
96 108 125
89 101 116
93 106 122
94 106 122
93 105 121
96 109 126
93 106 123
104 119 137
97 110 128
101 115 132
104 118 136
100 114 131
96 109 126
103 117 134
97 110 127
96 109 126
91 104 121
87 98 114
82 93 107
82 92 106
77 88 102
64 73 84
61 69 80
51 58 67
44 50 57
40 45 52
34 39 45
21 24 28
20 23 26
24 27 32
26 30 34
32 36 41
42 47 54
49 55 64
51 58 66
56 64 74
55 63 73
64 72 84
61 70 81
66 75 87
62 70 81
58 66 77
57 64 74
56 63 73
49 56 65
46 52 61
44 50 58
41 47 55
42 48 55
44 50 58
37 42 49
31 36 41
27 30 35
19 22 25
20 23 26
28 32 37
37 42 49
39 44 51
32 36 42
33 37 43
35 40 46
47 53 61
43 49 57
41 47 54
41 47 54
42 47 54
41 46 54
38 43 50
47 53 62
54 61 71
55 63 72
56 63 73
54 61 71
61 69 79
66 75 87
69 79 92
76 87 100
77 87 101
78 89 102
80 92 106
84 95 110
90 102 117
90 102 118
92 104 120
89 102 118
89 101 117
82 94 109
75 86 100
78 88 103
76 86 99
71 80 93
70 79 91
68 77 89
71 81 93
71 81 93
67 76 88
63 71 83
59 67 77
59 66 77
53 60 69
43 49 57
37 42 49
32 36 42
32 36 42
34 39 45
35 39 46
34 39 45
33 37 43
30 34 39
31 36 41
33 37 43
36 41 48
38 43 49
39 45 52
35 40 47
35 40 47
33 38 44
37 42 49
48 54 63
58 66 76
65 74 85
69 79 92
77 88 102
85 96 111
92 105 122
100 113 131
102 116 135
112 127 147
114 129 149
117 133 153
121 138 160
129 146 169
128 145 168
130 147 169
132 150 174
132 149 171
129 146 169
130 147 170
134 152 175
128 145 168
126 144 167
127 144 167
126 143 165
122 139 160
124 141 163
117 133 154
110 125 146
103 117 136
96 109 126
89 101 117
87 98 114
81 92 107
71 81 94
62 70 81
115 131 151
121 137 159
121 137 158
124 142 164
126 143 164
129 147 170
129 147 169
130 147 171
128 146 169
128 145 168
126 143 165
130 147 170
128 145 167
122 139 161
119 134 155
123 140 162
113 129 149
114 130 149
117 134 155
113 128 147
110 125 145
104 119 138
103 117 134
101 114 132
92 106 123
90 102 117
87 98 114
82 93 108
77 87 101
78 89 103
65 75 87
63 72 83
52 59 69
46 52 61
37 43 49
37 42 49
35 40 46
33 37 43
33 38 44
38 43 50
36 41 48
28 32 37
18 21 24
29 33 38
33 38 44
43 49 56
47 54 63
51 58 67
55 62 72
57 65 75
60 68 78
65 74 86
65 74 86
63 71 83
63 71 82
57 65 75
57 65 75
55 63 73
53 60 70
51 58 67
47 53 62
48 55 63
50 57 66
54 62 72
61 69 80
62 71 82
67 76 88
70 80 92
77 88 102
85 97 113
88 100 116
91 104 120
92 105 121
94 107 124
99 113 131
103 117 135
107 121 140
106 120 138
107 122 141
114 130 150
113 128 148
118 134 155
116 132 153
118 134 155
121 137 158
120 137 159
118 135 156
117 133 153
116 132 152
119 135 156
116 131 152
116 132 153
113 128 149
118 133 154
113 129 149
111 125 144
109 124 144
109 123 141
106 120 139
107 121 140
103 118 136
106 120 139
108 123 142
108 124 144
105 119 138
103 116 133
99 113 130
96 110 127
88 99 115
78 88 102
76 86 99
73 83 95
64 72 83
55 62 72
41 46 54
44 50 57
39 44 51
40 46 53
42 48 55
42 48 55
44 50 57
46 53 61
41 46 54
39 45 52
38 43 49
35 40 46
38 43 50
46 53 61
52 59 69
60 68 79
64 72 84
63 72 83
62 70 81
65 74 86
61 69 80
56 63 73
55 63 72
52 59 68
52 59 68
49 55 64
39 45 52
38 43 49
35 40 47
36 40 46
38 43 49
39 44 50
41 47 54
37 42 48
27 30 35
26 30 34
15 18 20
31 35 40
47 53 61
59 67 77
67 76 87
69 78 91
72 82 94
79 89 102
83 94 108
89 101 118
85 96 111
87 99 114
85 97 112
85 97 113
90 103 118
81 92 105
88 99 114
87 98 113
82 94 108
79 90 104
82 93 108
79 90 104
80 90 104
76 86 99
79 89 103
74 84 97
76 86 99
79 89 103
77 88 102
74 84 98
69 79 91
69 78 89
66 75 86
59 66 76
46 52 60
42 48 55
36 41 47
33 37 43
33 38 44
33 37 42
31 35 40
22 25 29
21 24 27
23 26 30
20 23 26
21 24 28
26 29 34
20 23 27
17 19 22
19 21 24
18 21 24
22 25 29
24 28 32
31 35 40
33 37 43
32 37 42
33 37 43
33 38 44
40 45 53
37 42 48
35 40 46
29 33 37
23 26 30
18 21 24
14 15 18
15 17 19
15 17 20
16 18 21
28 32 37
41 46 53
45 51 59
49 55 64
51 58 67
54 61 71
64 73 84
70 79 92
76 86 99
72 82 94
83 95 110
81 92 106
87 99 114
91 104 119
90 103 119
89 100 116
98 111 129
105 118 136
105 119 138
107 121 139
107 121 140
106 120 138
104 118 137
108 122 141
98 111 128
102 116 134
96 109 126
96 109 126
95 107 124
88 100 115
86 98 113
81 92 107
86 97 112
85 96 112
86 97 112
83 94 108
80 90 104
85 96 111
86 97 111
83 94 108
80 91 106
76 85 98
76 86 99
72 81 94
74 84 97
69 78 90
73 83 95
70 79 91
68 78 90
61 70 81
60 68 78
54 61 70
48 55 63
37 42 48
27 31 36
21 24 28
28 32 36
36 41 48
44 50 58
53 60 69
57 65 75
64 73 84
65 73 85
65 74 85
62 70 81
66 75 87
63 72 84
61 70 80
57 64 74
59 68 78
62 71 82
61 70 80
58 66 76
56 64 74
50 57 66
46 53 61
38 43 50
24 28 33
23 26 31
29 34 39
34 38 44
36 41 48
46 52 61
53 60 70
58 66 76
55 63 73
54 61 71
59 67 78
63 72 83
67 76 88
71 81 93
69 79 91
77 88 101
79 89 103
82 93 107
83 95 110
86 97 112
88 100 116
87 99 115
84 95 110
88 100 115
86 98 114
91 104 121
91 103 120
88 100 115
89 101 117
88 101 117
92 104 121
91 103 119
92 104 120
94 107 123
87 99 115
85 97 113
84 95 109
84 95 110
81 92 107
77 87 101
79 90 103
76 86 100
76 86 100
76 86 99
70 79 92
66 75 87
65 73 84
63 72 83
61 70 80
62 70 81
62 70 81
55 63 73
49 56 65
42 47 54
36 41 47
29 33 38
24 28 32
25 28 33
25 29 33
21 24 28
25 28 32
32 36 42
37 42 49
42 47 54
44 50 57
46 53 61
47 54 62
48 55 63
54 62 71
58 67 78
64 72 84
69 79 91
77 87 101
82 93 108
91 103 119
96 109 126
103 117 135
107 122 141
112 128 148
115 130 151
115 131 152
117 134 155
120 136 157
121 137 159
123 139 161
127 144 167
129 147 170
134 152 176
136 155 180
138 157 182
143 162 187
145 165 190
141 161 186
141 160 184
134 153 178
135 154 178
130 148 171
124 141 162
115 131 152
116 131 152
108 122 141
101 114 132
93 105 121
86 98 113
81 92 106
130 148 171
133 150 173
134 152 176
132 150 173
136 155 179
137 156 180
138 157 182
135 154 178
135 154 178
135 153 177
127 145 167
131 149 171
129 146 169
125 141 163
125 142 165
119 136 157
119 136 157
120 136 158
117 133 155
121 138 159
118 134 154
116 132 152
113 129 149
113 129 150
110 124 143
105 119 138
103 117 135
100 113 130
90 102 118
83 94 109
75 86 99
70 80 92
65 73 85
57 65 75
52 60 69
47 53 62
46 53 61
45 52 60
44 50 58
40 45 53
35 40 47
33 37 43
32 36 42
30 34 39
25 28 32
36 41 48
44 51 59
51 58 67
56 64 73
58 66 76
57 65 76
57 65 76
54 61 71
51 58 67
46 52 60
44 50 58
38 43 50
36 41 47
36 41 48
39 44 51
42 48 55
41 47 54
45 51 58
44 50 58
46 52 60
48 55 64
50 57 66
51 58 66
53 60 69
45 52 60
47 53 62
45 51 59
47 54 62
57 65 75
64 73 84
74 84 97
82 93 107
92 105 121
96 109 126
101 115 133
107 121 140
105 119 138
107 121 139
106 120 139
107 121 140
103 118 137
96 110 127
97 110 128
99 112 130
95 108 124
89 102 118
94 108 125
86 97 111
90 102 118
90 102 118
94 107 124
92 104 120
93 105 121
90 103 119
90 103 119
86 97 112
86 97 112
85 96 111
79 90 104
77 88 102
80 90 104
73 83 96
68 77 89
65 74 85
60 69 79
52 59 68
46 52 60
35 40 46
23 26 30
39 45 52
54 62 71
62 70 81
63 71 82
65 74 85
66 75 86
62 70 81
57 65 75
58 66 76
58 66 76
55 62 72
58 65 75
58 66 77
55 63 73
59 67 78
59 68 78
60 69 79
57 65 75
57 65 75
54 61 71
54 61 70
51 58 67
51 57 66
41 47 54
40 46 53
35 40 46
33 38 44
37 42 49
36 40 47
42 48 55
42 47 55
49 55 64
53 60 69
48 55 63
46 52 61
38 43 50
32 36 42
29 32 37
37 42 48
45 51 59
60 68 78
69 79 91
78 88 102
82 93 107
86 98 114
86 97 113
91 103 118
94 106 123
93 106 122
98 111 128
94 107 124
94 106 123
96 109 126
94 106 123
97 110 126
99 112 129
101 114 132
96 109 125
103 117 135
103 117 134
104 118 136
104 118 136
101 114 131
99 113 130
95 108 124
88 100 116
87 98 113
82 94 108
79 89 102
78 89 103
72 82 94
76 86 100
73 83 96
68 77 89
59 67 77
56 64 73
47 53 61
40 46 53
33 37 43
32 36 42
35 40 46
41 47 54
44 51 59
42 48 55
37 42 48
38 43 50
38 43 50
29 33 38
23 26 30
28 32 37
33 37 43
36 41 47
35 40 46
36 41 47
35 40 46
36 41 48
34 38 44
31 35 41
27 31 35
26 29 34
27 31 36
24 27 31
17 20 23
21 24 28
25 28 32
29 33 39
31 36 41
34 39 45
40 45 52
48 54 63
51 58 67
59 67 78
61 70 80
67 76 88
71 80 92
79 90 104
76 87 101
80 91 106
88 100 116
96 109 125
104 117 135
108 123 142
108 122 141
112 126 145
108 122 142
108 122 141
108 122 140
110 125 145
107 122 141
110 124 143
113 129 149
104 118 136
107 121 140
105 120 139
97 110 127
100 114 132
96 109 126
84 96 110
93 105 121
87 99 116
83 94 108
74 84 98
70 80 92
62 71 82
59 66 77
55 63 73
53 60 69
52 59 68
51 58 67
45 51 59
41 46 53
38 43 50
37 42 49
35 40 46
35 40 46
32 36 42
29 33 38
25 28 32
18 20 23
24 27 31
34 38 44
45 51 59
50 56 65
52 59 69
53 60 69
61 69 80
58 66 77
61 70 81
60 68 79
62 70 81
67 76 88
68 78 90
69 78 90
70 78 90
68 77 89
62 70 81
54 61 71
46 52 60
37 42 48
23 26 30
25 28 33
28 32 37
30 34 40
32 37 43
36 40 47
40 46 53
46 52 60
50 57 66
59 67 77
66 75 87
70 79 92
70 80 93
73 83 96
79 89 102
80 91 105
84 95 110
89 101 117
96 108 125
98 111 129
95 108 124
94 106 123
98 111 129
103 117 135
105 120 139
110 125 145
106 121 140
107 122 142
107 120 138
107 121 139
103 116 135
104 118 136
99 114 132
97 110 128
104 118 135
101 115 133
103 116 134
99 112 130
97 110 126
94 106 123
91 103 119
84 96 111
82 94 108
80 91 105
75 86 99
69 79 92
68 77 88
61 69 80
56 64 74
49 56 65
37 42 49
31 35 41
31 36 41
38 43 50
43 49 57
41 46 53
39 44 51
33 37 43
28 31 36
14 16 19
24 27 32
34 39 45
39 44 51
42 48 55
43 49 56
47 54 62
47 54 63
50 56 65
56 64 73
57 65 75
59 67 77
61 69 80
66 76 88
69 79 91
74 84 98
81 92 106
84 96 111
89 102 118
96 109 126
100 114 132
104 118 137
107 122 141
116 132 153
120 136 158
123 140 162
121 138 159
129 146 169
127 144 166
127 145 168
130 149 173
132 150 173
133 152 177
135 153 177
137 157 182
139 157 181
139 159 184
135 154 179
133 151 175
135 153 178
128 146 169
124 142 165
123 140 162
118 134 155
112 127 148
106 121 139
100 113 130
90 102 118
117 133 154
119 135 156
123 140 162
121 137 159
127 144 166
119 136 157
122 139 161
123 140 161
122 139 161
123 139 161
123 141 164
122 139 161
126 142 163
125 141 163
124 141 163
123 140 163
124 141 163
118 134 155
115 131 152
116 133 154
116 131 151
111 126 146
112 128 148
111 127 147
108 123 142
110 125 145
106 120 139
102 115 133
93 106 122
88 100 116
80 92 106
79 89 103
71 81 94
68 77 90
60 69 79
48 55 64
32 37 43
24 28 32
38 42 49
40 46 53
48 55 63
44 50 58
42 48 55
40 46 53
42 47 55
46 52 60
51 58 67
58 66 76
61 70 81
62 70 82
63 72 83
64 73 85
64 72 84
61 69 80
55 62 72
53 60 69
55 62 72
50 57 66
45 51 59
44 51 59
41 47 54
44 50 58
41 47 54
40 45 52
35 40 46
34 39 45
34 38 44
36 40 47
31 35 41
22 25 29
26 30 35
23 26 30
22 25 29
35 39 46
45 52 60
53 60 69
59 67 77
65 73 85
60 69 80
59 67 78
64 72 83
67 76 88
68 77 89
63 71 83
62 70 81
57 65 75
60 68 79
61 69 79
57 64 74
58 66 76
61 69 80
59 67 78
59 67 77
51 58 68
51 58 68
54 62 72
53 60 70
56 64 73
52 60 69
47 53 62
44 49 57
42 48 56
47 53 62
49 56 65
52 59 68
54 61 71
56 63 73
49 56 64
44 50 57
36 41 47
32 36 42
25 28 33
16 18 21
15 17 19
28 32 37
42 47 54
48 55 63
50 57 66
51 57 66
52 60 69
54 61 70
54 61 71
56 64 74
57 64 74
65 74 86
65 74 86
65 74 85
64 73 84
62 71 82
57 65 75
53 60 69
48 55 63
43 49 57
34 39 45
24 27 32
18 21 24
14 16 18
16 18 21
23 27 31
29 33 38
35 39 45
36 40 46
27 31 36
22 25 29
34 39 45
40 45 52
42 48 55
41 47 54
35 40 46
34 39 45
31 35 40
29 33 38
35 40 46
42 48 55
48 54 63
52 60 69
62 71 82
69 78 90
75 85 98
74 85 98
80 91 106
82 93 108
85 95 110
90 103 119
93 106 122
95 108 126
95 108 125
98 112 130
109 123 142
109 124 144
110 124 144
106 120 139
113 128 147
110 125 144
110 124 142
97 111 129
106 120 138
99 112 130
99 112 129
98 111 127
86 98 113
85 96 111
79 90 104
71 81 93
70 78 90
62 70 81
60 68 78
53 60 69
47 54 62
41 47 54
38 43 50
39 45 52
37 42 49
40 46 53
40 46 53
40 46 53
39 45 52
36 41 47
32 37 42
34 38 44
25 29 33
24 27 31
21 24 28
18 20 23
19 21 24
25 29 33
28 31 36
22 25 29
18 20 24
23 26 30
23 26 30
21 24 28
24 27 31
21 24 28
23 26 30
35 40 46
45 51 59
55 62 71
59 67 76
67 76 88
72 81 94
68 77 89
66 75 86
73 83 96
77 88 101
81 91 106
81 92 106
84 95 109
83 95 110
87 99 114
78 89 103
77 88 102
86 97 112
86 98 113
95 108 125
98 112 129
105 118 136
107 122 141
113 128 147
115 130 150
113 129 149
112 127 146
109 124 143
112 127 147
109 124 143
111 126 145
102 116 134
107 121 140
95 108 126
94 106 122
90 102 118
90 101 117
87 98 112
84 96 112
82 94 108
80 91 105
67 76 89
68 78 90
58 66 76
49 56 64
44 50 58
35 40 46
35 40 46
28 32 37
21 23 27
26 30 35
28 32 38
23 26 30
20 23 26
15 17 20
18 20 23
19 22 25
17 19 22
18 21 24
34 39 45
33 38 44
35 40 46
33 38 44
36 41 47
39 44 51
39 45 52
44 50 58
44 51 59
48 55 64
51 58 68
51 58 67
49 56 64
45 51 59
43 49 56
36 41 48
31 35 40
26 30 35
21 24 28
32 36 42
39 44 51
47 53 61
51 58 67
58 66 76
67 76 87
64 73 84
58 66 77
64 73 85
66 75 86
68 78 90
71 80 93
67 76 88
68 78 91
76 86 99
84 95 110
87 99 115
86 98 113
92 105 121
92 105 121
101 115 133
106 120 139
112 128 148
115 130 151
115 131 151
117 132 153
118 134 155
115 131 152
120 136 158
119 135 156
119 136 157
120 136 158
116 132 152
115 131 151
120 136 158
121 137 158
119 136 158
118 134 154
113 128 148
113 128 148
105 118 136
108 122 142
108 123 142
104 117 135
104 118 135
97 109 125
90 101 116
82 92 106
76 86 100
68 77 88
61 69 80
54 61 71
46 52 61
39 44 51
31 35 40
22 25 28
19 21 25
29 32 38
44 50 57
45 52 60
48 55 64
50 57 66
50 57 66
45 51 59
44 50 58
47 54 62
53 60 69
59 66 77
60 69 79
64 73 85
65 74 85
69 78 91
71 81 94
75 86 100
78 89 102
80 92 107
85 96 111
91 104 120
96 109 126
101 114 132
103 117 134
107 122 141
112 128 148
113 128 147
118 133 154
118 133 154
119 135 155
127 144 167
123 141 163
128 145 167
129 146 169
128 145 168
131 148 171
128 146 170
131 149 173
129 147 170
134 152 176
127 145 168
124 140 162
128 145 168
121 137 159
114 130 150
109 124 143
101 115 133
95 108 125
90 102 118
86 98 114
100 114 131
98 112 129
99 113 130
103 117 135
101 115 133
102 116 134
104 118 137
101 115 134
103 116 134
100 114 132
101 115 133
99 113 131
100 113 130
102 116 133
103 118 137
107 122 141
106 121 140
107 121 140
109 123 141
105 119 138
108 123 142
109 124 143
107 121 140
110 125 145
103 117 135
102 115 134
96 109 126
93 106 123
87 99 114
80 91 105
79 90 104
72 82 95
69 78 90
62 71 82
57 65 75
49 56 65
36 41 47
23 26 30
25 28 33
28 32 37
29 33 38
31 35 41
29 33 38
26 29 34
25 29 34
31 35 41
38 43 50
40 45 52
41 47 54
45 51 59
47 53 62
42 48 56
40 45 53
39 45 51
38 43 50
36 41 48
37 42 48
35 39 45
38 44 51
36 41 48
33 38 44
34 39 46
36 41 48
41 47 54
38 43 50
34 38 44
27 31 36
25 28 33
23 26 30
21 24 27
23 26 30
25 28 33
27 30 35
34 38 44
36 41 47
32 37 42
31 36 41
29 33 39
28 31 36
21 23 27
20 23 27
23 27 31
23 26 30
26 30 34
27 31 36
37 42 48
39 44 52
42 48 55
39 44 51
38 43 50
32 36 42
27 31 36
21 24 28
21 24 28
32 37 43
43 48 56
47 53 62
51 58 68
61 69 80
61 69 80
60 68 78
56 64 74
49 55 63
47 53 61
42 47 54
38 43 49
33 37 43
30 34 40
27 30 35
28 32 37
31 36 41
35 39 46
36 41 47
36 41 48
33 37 43
22 25 29
25 29 33
35 40 46
41 47 54
45 51 59
50 57 66
47 53 62
46 52 60
43 49 56
50 57 65
54 61 70
54 61 71
53 60 69
47 53 62
39 44 51
33 38 43
27 31 36
27 31 36
22 25 29
18 21 24
24 27 32
29 33 39
41 46 54
46 52 60
51 58 67
51 58 67
51 58 67
48 54 62
48 55 63
48 55 64
47 53 61
49 56 65
53 60 70
51 58 67
57 64 75
54 61 70
57 65 75
65 75 87
73 82 95
77 88 102
78 89 102
84 95 110
90 102 118
91 103 119
90 102 117
93 105 121
92 105 121
93 105 121
85 97 112
90 102 118
93 106 122
95 108 125
95 108 125
103 117 136
103 117 135
101 115 132
103 116 134
98 112 130
102 116 133
99 113 130
93 105 121
87 98 113
88 100 115
83 94 109
76 87 100
74 84 97
66 74 86
62 71 82
55 63 72
50 57 66
44 50 58
41 47 54
30 34 40
27 30 35
25 29 33
26 30 35
31 35 41
32 37 42
32 37 43
30 34 39
29 33 38
29 33 38
36 41 47
41 46 53
40 45 52
42 48 55
38 44 51
38 43 50
39 44 51
37 42 49
34 39 45
38 43 50
38 43 49
40 46 53
40 46 53
45 51 59
43 49 57
40 46 53
41 46 53
42 48 56
51 58 66
54 62 71
58 67 77
65 73 84
75 85 98
80 90 104
79 89 103
79 89 104
83 95 110
86 97 113
85 97 112
90 102 118
87 99 115
88 100 116
91 104 120
96 109 126
92 104 121
103 116 134
102 115 132
105 119 137
107 122 141
109 124 143
105 120 140
112 128 148
110 125 144
115 130 150
112 127 147
112 127 146
110 125 144
104 118 136
106 120 138
101 115 133
99 112 129
94 107 124
94 106 122
89 100 116
79 89 103
79 90 104
83 95 109
80 91 105
78 88 102
77 87 100
66 76 88
62 70 81
58 66 76
57 64 74
56 63 73
54 61 70
51 58 67
51 58 67
49 55 64
43 48 56
41 47 54
36 41 48
30 34 39
22 26 30
27 31 36
29 33 39
36 40 46
32 36 42
29 32 37
29 32 38
31 36 42
31 36 41
22 25 29
19 21 24
30 35 40
43 49 57
47 54 62
51 57 66
48 55 64
46 52 60
43 48 56
36 41 48
30 34 39
25 28 32
26 30 34
29 33 39
34 39 45
38 44 51
44 50 57
50 57 66
57 65 75
61 69 80
65 74 86
69 78 90
70 80 92
71 81 94
71 81 94
77 88 102
75 85 98
80 91 105
88 99 113
92 104 120
93 105 121
95 108 124
97 110 127
105 119 137
106 121 140
114 129 149
117 133 153
119 136 157
116 131 152
121 138 160
120 137 159
120 136 157
126 144 166
127 143 165
125 142 164
127 145 168
131 149 172
127 145 167
134 153 177
132 150 174
133 152 176
126 143 166
116 131 151
118 134 155
120 136 157
115 130 150
117 133 154
114 130 151
113 128 149
110 124 143
109 124 143
104 118 137
98 111 128
90 102 117
86 98 113
78 88 101
71 81 94
66 75 87
57 65 75
43 49 57
31 35 41
27 30 35
31 35 40
39 45 52
45 52 60
47 53 62
52 59 68
55 62 72
55 63 73
59 67 77
57 65 75
63 71 83
63 71 82
69 78 89
73 84 97
82 92 106
82 93 107
84 96 111
84 95 109
84 96 112
86 98 113
85 97 112
89 101 117
91 104 120
97 111 128
103 117 136
112 126 146
110 126 146
114 129 149
113 128 147
117 133 154
119 134 154
120 137 158
124 141 163
123 139 161
123 140 162
121 137 159
128 145 168
124 140 162
121 138 160
119 136 157
116 131 151
113 129 150
115 130 150
113 129 149
109 125 145
107 121 140
103 117 135
98 111 127
93 106 122
86 97 113
51 58 68
55 62 72
62 70 81
59 67 77
67 77 89
64 73 85
65 74 85
68 77 89
71 80 93
74 84 98
72 81 93
73 82 95
74 84 98
79 89 103
78 88 102
79 90 104
81 92 107
82 94 109
79 89 103
77 87 101
78 89 103
80 91 106
77 88 103
78 89 104
75 85 99
76 87 100
78 88 102
78 88 102
73 83 96
71 81 94
69 79 91
68 78 90
70 79 92
66 74 86
64 73 85
59 67 78
53 61 71
46 53 61
41 47 54
34 38 44
39 44 51
46 53 61
51 58 67
52 58 67
52 59 68
53 60 70
53 60 70
52 59 68
49 55 64
50 57 66
52 59 68
57 65 75
59 66 77
62 70 81
63 72 84
65 75 87
63 72 83
66 75 86
62 70 81
58 66 77
57 65 75
61 69 80
63 72 84
63 71 82
61 69 80
55 63 73
54 62 71
56 63 73
54 61 71
51 58 67
53 60 70
57 65 75
61 69 80
61 70 81
60 69 80
57 65 75
56 64 74
53 61 70
48 55 63
39 44 51
39 45 52
39 45 52
42 48 55
42 48 56
44 50 58
51 58 68
50 56 65
55 62 72
52 59 68
43 49 57
30 35 40
17 19 22
20 22 26
23 27 31
36 41 47
45 51 58
50 57 66
53 60 70
55 62 72
50 57 66
44 50 57
37 42 49
35 40 46
36 41 47
35 40 46
38 43 51
46 52 60
48 54 63
46 52 60
40 46 53
36 41 47
36 41 47
37 42 48
33 38 44
26 29 34
17 19 22
34 39 45
43 49 56
45 51 59
44 50 58
45 51 59
49 56 65
51 58 67
49 56 65
47 53 62
42 48 56
37 42 49
30 34 40
29 33 38
32 37 43
35 39 45
35 40 46
37 42 49
48 54 63
54 61 70
59 67 78
61 69 79
63 71 83
66 75 87
66 75 87
66 75 87
61 69 80
62 71 81
67 76 87
70 79 91
76 87 101
80 91 105
81 92 106
83 94 109
84 96 110
83 95 111
91 103 119
94 106 123
95 108 124
94 107 124
96 109 126
101 115 134
109 124 143
107 122 141
107 122 141
101 114 131
98 111 128
94 107 123
91 103 118
88 100 117
92 104 120
85 97 112
88 100 115
90 103 119
92 105 122
93 106 122
90 102 117
91 104 120
87 99 115
89 101 117
92 104 120
87 98 113
85 96 111
77 87 100
66 76 88
62 71 82
51 58 67
47 54 63
42 48 56
38 43 50
26 30 35
20 23 26
14 16 19
23 26 31
20 23 26
19 21 25
21 24 28
21 24 28
17 20 23
20 22 26
16 19 22
15 17 20
24 27 32
34 38 44
43 49 56
43 50 57
48 55 64
50 57 66
49 56 64
51 58 67
47 53 62
47 54 63
50 57 67
52 59 68
46 53 61
41 47 54
35 40 46
27 31 36
30 34 39
30 34 39
33 37 43
42 47 55
46 52 60
55 63 72
63 72 83
66 75 87
69 78 91
73 83 96
78 89 103
80 91 105
86 98 112
85 97 112
87 98 113
88 99 114
85 96 111
86 97 113
88 101 117
88 101 117
97 110 127
98 112 130
102 116 134
99 112 130
107 122 141
109 124 144
112 126 145
110 125 144
112 127 146
114 129 149
109 123 142
108 123 143
105 119 137
99 113 130
97 110 127
92 105 121
83 94 109
82 93 107
73 83 95
75 85 98
71 80 92
66 75 86
62 70 81
64 73 84
62 70 81
61 69 80
57 64 74
51 58 67
49 56 65
49 56 65
52 60 69
56 64 75
50 57 66
43 49 57
36 41 48
36 41 47
38 43 49
36 41 48
39 44 51
39 44 51
43 49 57
41 46 54
35 40 47
33 38 43
33 37 43
28 31 36
21 24 28
31 35 40
39 44 51
41 46 53
42 48 56
47 53 62
49 56 65
54 61 70
60 68 79
63 70 81
62 70 81
57 66 76
59 67 77
55 62 72
50 56 65
40 46 53
26 30 35
24 27 31
25 29 33
25 28 33
33 38 43
40 46 53
46 52 61
53 60 70
60 68 78
69 79 91
73 83 96
81 92 106
85 96 111
92 105 121
95 109 127
98 111 129
103 117 135
103 117 135
109 124 143
109 124 144
108 123 143
113 128 148
114 129 150
111 126 145
119 135 156
117 133 154
127 144 167
124 141 163
126 143 165
130 148 172
131 148 172
131 150 173
126 143 165
126 144 167
125 142 164
130 148 172
128 145 168
124 141 163
127 144 166
121 137 159
119 135 155
115 131 151
118 134 155
118 134 156
115 130 149
108 122 141
103 118 137
98 112 130
94 107 124
90 102 118
88 100 115
81 92 107
81 92 106
78 89 103
75 85 98
68 77 89
59 67 77
42 48 55
37 42 49
35 40 47
36 41 48
38 43 50
44 50 58
48 54 63
49 56 65
47 54 62
53 61 70
64 73 84
66 75 87
69 79 91
73 83 95
81 92 108
81 93 107
87 98 114
87 98 114
89 101 117
95 107 123
101 114 132
98 111 129
102 116 134
101 115 134
103 117 135
105 119 138
106 120 138
112 127 148
113 128 149
116 131 152
120 136 158
117 134 156
117 133 154
117 133 153
116 132 153
119 136 157
115 131 151
110 125 145
106 121 140
105 120 138
99 112 130
94 107 124
93 106 123
89 101 118
86 97 112
82 93 107
75 86 99
69 78 90
45 52 60
38 43 49
29 33 38
21 24 28
22 25 29
21 24 28
22 25 29
27 30 35
30 34 39
31 36 42
35 40 47
37 42 49
42 48 55
46 52 60
45 51 60
44 50 58
38 43 49
32 37 43
31 35 41
27 31 36
33 38 44
34 38 45
36 41 48
45 51 59
51 58 67
52 60 70
53 60 69
53 60 69
49 56 65
53 60 69
58 66 77
64 73 84
68 78 91
66 75 87
65 74 86
62 70 82
57 65 76
56 63 73
54 61 71
54 62 72
54 61 71
55 62 72
60 68 78
62 70 81
61 70 81
59 68 78
58 66 76
60 68 78
61 69 80
66 75 87
68 78 90
68 78 90
74 84 96
76 86 100
81 92 106
84 95 110
86 97 113
81 91 105
79 90 104
82 93 108
80 91 105
75 85 99
77 88 102
78 88 102
76 87 101
78 88 102
78 88 102
78 89 103
76 87 100
77 87 101
77 87 101
76 86 100
70 80 92
63 72 83
59 67 78
59 68 78
54 61 71
48 55 63
42 47 55
37 42 48
28 31 36
30 34 39
40 46 54
44 50 57
43 49 57
44 50 57
43 49 57
45 51 59
37 43 49
33 38 44
29 33 38
30 34 39
31 35 41
28 32 37
18 20 23
17 19 22
24 27 31
26 30 35
24 27 31
22 25 29
23 26 30
24 27 31
28 32 37
30 34 40
28 32 37
27 31 36
29 32 37
34 39 45
35 39 45
40 46 53
46 52 61
50 56 65
53 61 70
54 62 72
61 69 80
62 70 81
53 60 70
45 51 59
40 45 52
36 41 48
33 37 43
26 29 34
19 22 25
20 22 26
20 23 26
23 26 30
20 23 27
21 24 27
31 35 40
40 45 52
50 56 65
59 67 78
69 78 90
77 88 102
86 98 113
90 101 116
86 98 113
91 103 120
90 102 118
91 104 121
92 105 121
89 101 117
87 99 115
77 88 103
85 96 111
86 98 113
83 94 109
88 99 115
89 101 116
87 98 113
91 103 119
93 105 121
94 107 124
102 115 133
104 119 138
109 123 142
105 119 138
109 124 143
109 123 142
107 121 140
112 128 147
112 127 146
104 119 138
105 119 137
107 120 139
105 120 138
106 120 139
97 110 128
99 112 130
100 114 132
100 113 130
102 115 131
96 109 127
99 112 129
94 107 125
91 104 120
84 95 110
83 94 109
82 93 107
76 86 99
64 73 85
63 71 82
56 63 73
50 57 65
46 52 60
39 44 51
37 42 49
37 42 49
30 35 40
30 34 40
28 32 37
33 37 43
29 33 38
24 28 32
16 19 21
20 23 26
29 33 38
37 42 49
40 45 52
35 40 46
36 40 47
37 42 48
34 38 44
31 35 40
33 37 43
35 40 47
38 43 50
42 47 55
44 51 59
42 48 56
34 39 45
19 21 25
15 17 20
16 18 21
18 20 23
21 23 27
22 26 30
21 24 28
23 26 30
23 26 30
22 25 29
27 31 36
30 34 40
36 41 48
41 46 53
54 61 71
59 67 77
61 70 80
63 71 83
65 74 85
62 71 81
59 67 77
59 67 77
63 71 83
64 73 84
67 76 87
72 82 94
76 85 98
78 89 103
80 91 105
78 89 103
82 93 107
83 94 109
88 100 116
86 98 114
81 92 106
79 90 104
78 88 102
71 81 93
69 79 91
65 74 85
59 67 78
59 67 77
51 58 67
44 49 57
34 38 44
38 44 51
37 42 49
37 42 49
40 45 52
41 47 55
43 49 56
39 44 51
45 52 60
38 43 50
40 46 54
41 47 54
40 45 52
39 45 52
39 45 52
37 41 48
30 35 40
31 35 41
20 22 26
16 18 21
13 15 17
17 19 22
24 28 32
22 25 29
17 19 23
13 15 18
24 27 31
27 31 35
19 21 24
20 23 27
36 41 48
45 52 60
48 55 63
51 58 67
48 55 63
51 58 67
57 64 73
62 71 82
61 69 80
56 63 73
50 57 65
48 55 64
47 54 62
44 50 58
34 39 45
27 31 36
25 29 34
26 29 34
23 27 31
39 45 52
54 61 70
67 76 88
79 89 102
84 96 111
89 101 117
97 110 127
98 111 129
101 115 133
102 116 135
103 117 135
110 126 146
116 132 153
113 129 149
111 125 145
122 138 160
124 141 164
121 137 157
125 141 163
121 137 158
125 141 163
126 143 165
123 140 162
127 144 166
126 143 165
129 147 169
128 146 170
130 147 170
128 146 169
125 142 164
124 141 163
121 138 159
118 134 155
117 134 155
114 130 150
112 127 147
111 127 148
112 127 147
108 123 143
108 122 142
101 115 132
99 112 130
92 105 121
92 105 121
94 107 124
93 106 122
86 98 113
78 89 103
76 87 100
71 81 93
68 77 89
67 75 87
65 73 84
59 68 78
56 63 73
55 62 71
49 55 64
41 47 54
28 32 37
34 39 46
46 52 61
52 59 69
60 68 78
68 78 90
73 83 97
76 86 100
77 88 102
78 89 103
83 94 109
88 99 114
89 102 118
92 104 121
91 103 120
92 104 119
94 108 125
93 106 122
96 109 126
94 107 123
97 111 128
96 110 127
104 117 135
105 119 138
105 119 137
100 114 131
97 111 128
96 109 126
93 106 122
91 103 119
86 98 113
84 95 110
79 90 104
81 92 106
76 86 100
73 83 96
69 78 91
64 72 84
36 40 47
28 31 36
19 22 25
17 20 23
23 26 30
27 31 36
26 30 35
24 28 32
25 28 33
34 39 45
38 44 51
40 46 53
40 45 53
26 30 35
17 19 23
33 38 44
43 49 56
50 57 66
53 61 71
53 60 70
53 60 69
48 55 64
53 60 69
54 62 72
51 58 66
54 61 71
51 58 67
46 52 60
36 41 47
25 28 32
17 20 23
25 29 33
35 40 46
44 50 58
48 55 64
46 53 61
47 53 61
51 58 67
54 62 72
56 64 74
57 65 75
56 64 74
55 62 71
53 60 70
54 62 72
54 62 71
59 67 78
64 73 84
67 76 88
67 77 89
72 81 94
78 88 102
76 86 100
83 94 108
85 96 111
93 106 122
96 110 128
101 115 132
101 115 133
103 117 135
99 113 132
98 111 128
95 108 125
96 110 127
96 109 126
95 107 124
89 101 116
85 96 111
82 94 109
78 89 103
73 83 96
74 85 98
67 76 87
60 68 79
49 56 64
40 46 53
31 35 41
29 34 39
31 36 41
37 42 49
47 53 62
53 61 71
55 63 72
58 66 76
62 70 81
60 68 79
51 58 67
48 55 64
43 49 57
39 44 52
31 35 41
28 32 36
25 29 33
17 19 22
16 18 21
18 20 24
24 27 31
28 32 37
29 33 39
31 35 41
34 39 45
36 41 47
41 47 54
37 42 48
28 32 37
20 23 26
32 37 42
42 47 55
47 53 62
48 55 63
50 56 65
53 60 70
54 62 72
54 62 72
56 64 73
53 60 69
45 51 59
38 43 50
35 40 46
33 37 43
29 33 39
24 27 31
15 17 19
13 15 17
13 15 17
19 21 25
27 30 35
39 44 51
52 60 69
65 75 87
72 82 96
81 91 106
86 98 113
93 106 122
93 106 123
95 108 125
102 116 135
101 114 131
103 116 134
106 121 140
101 115 133
104 118 135
101 115 133
103 117 135
98 111 129
94 107 125
97 110 127
98 111 128
96 109 125
102 116 135
102 116 133
109 124 143
111 126 145
112 128 148
116 132 153
112 127 147
115 130 150
115 130 150
115 130 150
110 125 144
114 130 150
110 126 146
110 125 144
107 121 140
108 123 142
110 125 145
104 118 136
106 120 139
113 128 148
113 128 147
111 126 146
110 124 144
107 122 142
106 120 139
102 116 134
101 115 133
99 112 129
89 101 117
80 92 107
75 86 99
67 75 87
60 68 79
53 61 70
46 52 60
42 47 55
39 44 51
35 40 47
33 38 44
35 40 46
36 41 47
42 48 56
48 55 63
49 56 64
51 58 68
46 52 60
43 49 56
35 40 46
32 37 43
21 24 28
14 16 18
15 17 20
15 17 20
13 15 18
21 24 28
26 29 34
32 36 42
31 35 41
26 30 34
24 28 32
28 32 37
27 31 35
34 39 45
42 47 54
42 48 55
37 42 49
33 37 43
29 33 38
20 23 27
16 18 21
20 23 26
19 22 25
15 17 20
21 23 27
26 30 35
27 31 35
25 29 33
28 32 37
35 40 46
42 47 54
39 45 51
41 47 54
37 42 48
38 43 50
32 36 42
31 35 41
33 37 43
31 36 41
32 37 43
30 35 40
31 35 41
25 29 33
29 33 38
39 45 52
48 55 63
61 70 81
59 67 77
58 66 76
62 71 81
62 70 81
59 67 77
55 62 72
45 51 59
38 43 50
29 33 38
20 23 27
26 29 34
39 44 51
49 56 65
56 64 74
61 70 80
61 69 80
64 73 85
60 68 78
61 70 81
62 70 80
63 71 82
66 75 87
66 75 87
66 75 87
65 73 85
66 76 88
66 75 86
61 69 79
56 64 74
49 56 65
44 50 57
47 53 61
45 51 59
40 45 53
27 31 36
16 18 21
20 22 26
18 20 23
21 24 28
23 26 30
21 24 27
19 22 26
25 29 34
30 35 40
24 27 31
18 21 24
18 21 24
24 27 32
29 33 38
25 28 33
29 33 39
30 34 40
29 33 39
24 27 32
26 29 34
21 24 28
17 20 23
22 25 29
23 26 31
36 41 48
48 54 63
59 67 78
69 79 91
81 91 105
85 97 112
93 106 123
99 112 128
102 116 134
104 118 136
109 124 143
110 126 146
114 129 150
115 130 150
120 137 159
122 138 159
125 141 163
124 140 161
127 144 166
127 143 165
126 144 167
124 141 163
123 140 162
131 148 171
126 143 166
128 146 169
133 150 173
129 146 168
132 149 173
133 152 176
138 156 180
134 153 177
128 146 170
131 149 172
126 144 167
126 143 165
121 138 160
119 135 157
114 130 150
110 125 145
105 119 138
104 118 136
102 116 134
100 114 131
98 111 129
96 108 125
95 108 125
93 106 122
92 105 121
92 105 122
84 96 112
79 89 103
78 88 102
76 86 99
73 83 96
69 79 92
63 71 82
52 59 68
42 47 55
35 40 46
31 35 41
27 30 35
35 40 46
40 45 52
46 52 60
55 62 72
58 66 76
64 73 84
66 75 87
66 75 88
69 78 90
65 74 85
68 78 90
74 83 96
75 85 98
74 85 98
76 86 99
77 87 101
77 88 102
81 92 106
83 94 109
86 97 112
88 100 116
91 104 121
94 107 123
92 105 122
94 106 122
91 104 121
88 100 116
86 98 113
81 92 107
82 93 108
78 89 103
72 81 94
62 71 82
55 63 73
36 40 47
23 27 31
16 18 21
31 35 40
38 43 50
45 51 59
49 55 64
47 54 63
47 53 61
43 49 57
46 52 60
48 55 64
51 58 67
57 64 75
60 68 79
61 70 81
63 71 83
60 68 79
61 70 81
63 72 83
66 75 87
70 80 92
69 78 90
66 75 87
62 71 82
52 59 69
46 52 60
33 37 43
22 26 30
26 30 34
37 42 49
44 50 58
48 55 64
49 55 64
50 57 66
53 60 69
58 66 77
60 68 79
61 69 79
60 68 79
59 68 79
62 70 81
61 69 80
60 68 79
63 72 83
66 75 86
74 84 97
81 92 106
81 92 106
80 91 106
85 96 111
88 100 115
93 105 122
93 107 124
94 107 124
98 112 130
105 120 138
106 121 140
110 125 144
108 123 142
103 117 136
105 119 137
100 114 132
98 112 130
89 102 118
83 94 109
79 89 103
74 84 97
66 75 87
60 68 79
59 67 78
58 66 76
52 59 68
40 45 52
24 27 32
31 35 41
39 44 50
46 53 61
53 60 70
59 66 76
61 69 80
57 65 76
62 70 82
58 66 76
56 63 73
46 52 60
34 38 44
32 36 42
31 35 41
26 30 35
33 38 44
34 39 45
33 38 43
27 30 35
28 32 37
31 35 40
24 27 32
20 23 27
30 34 39
36 41 47
35 40 47
35 40 46
32 36 42
35 40 46
30 34 40
27 31 35
24 27 32
29 33 38
36 41 47
39 45 51
37 42 49
36 41 47
35 41 47
38 44 51
34 39 45
28 32 37
18 21 24
21 24 28
33 38 44
47 53 61
48 54 63
45 51 59
42 48 56
35 40 46
20 23 27
32 37 43
51 58 67
65 73 85
73 83 96
83 95 109
87 99 114
91 104 120
94 107 123
101 115 133
101 115 133
103 116 133
103 117 135
100 113 131
102 116 134
108 123 142
106 120 139
104 118 136
102 117 136
98 112 131
110 125 145
109 124 143
113 128 147
109 124 143
119 135 156
116 132 153
122 139 160
120 137 158
122 139 161
120 137 159
117 134 155
114 131 152
112 128 148
118 134 155
109 124 143
110 125 144
107 121 140
104 118 137
105 119 138
103 116 134
105 119 137
102 115 133
99 113 130
103 117 135
99 113 130
96 109 126
99 112 130
98 111 128
98 111 128
99 112 129
99 112 129
92 104 121
80 91 106
80 91 104
75 85 99
72 82 95
67 76 89
63 72 83
59 67 77
58 66 76
59 67 77
56 64 74
53 60 69
51 59 69
49 55 63
50 57 66
52 59 68
52 59 68
49 56 65
51 58 66
50 57 66
47 54 62
46 52 60
35 40 46
30 34 40
20 23 27
18 20 23
14 16 19
15 17 20
21 24 28
18 20 23
16 18 21
14 16 19
12 14 16
19 22 25
24 28 33
29 32 37
31 36 41
34 39 45
37 42 49
39 45 52
39 44 51
31 35 41
23 26 30
17 20 23
17 20 23
25 28 33
25 29 33
21 24 28
21 24 28
32 36 42
46 52 60
59 67 77
65 74 85
71 81 93
70 79 91
70 79 91
77 88 102
75 86 99
77 87 100
75 85 99
69 78 90
62 70 81
50 57 66
50 57 66
49 56 65
45 51 59
28 32 37
19 22 25
26 30 35
31 35 40
35 40 46
38 43 50
35 39 45
35 39 45
35 39 45
33 38 44
30 34 40
30 34 39
32 36 42
29 33 38
29 33 38
40 45 52
43 48 56
47 53 62
53 60 70
62 70 81
67 76 87
72 81 94
64 73 84
68 78 90
69 79 91
66 75 87
70 79 92
70 80 92
68 77 89
68 78 90
68 77 89
68 77 89
66 75 87
66 75 87
64 73 84
58 66 77
49 55 64
46 52 60
44 50 58
46 52 60
52 59 68
45 51 59
43 49 56
34 39 44
30 34 39
24 28 32
27 30 35
31 35 41
33 38 44
32 36 42
29 33 38
28 32 38
23 26 30
16 18 20
21 24 28
31 35 41
32 37 43
33 37 44
39 44 51
40 45 52
49 56 65
58 66 77
64 73 84
62 70 81
65 74 86
70 79 91
75 86 99
81 92 106
83 94 109
88 100 116
96 109 127
102 115 133
107 121 139
113 128 148
115 131 152
122 138 159
120 136 157
123 140 162
124 141 163
120 136 157
123 140 162
117 133 154
118 135 156
114 130 151
117 134 155
119 136 157
123 139 161
122 137 158
124 141 163
125 143 165
129 146 169
129 146 169
124 141 163
124 141 163
123 140 162
124 141 163
123 140 162
125 143 165
122 139 161
117 134 155
117 132 152
114 129 149
114 129 149
112 128 148
105 119 138
98 111 128
97 110 128
98 111 128
97 110 127
93 107 124
92 105 121
87 100 116
86 98 114
86 97 112
83 94 109
82 93 108
80 91 105
80 91 106
77 87 101
71 81 93
63 72 83
59 67 78
57 65 76
60 69 80
59 67 78
59 67 78
58 66 76
53 60 69
49 55 64
39 45 52
37 42 49
43 49 57
51 59 68
57 65 75
63 71 82
64 72 84
67 76 88
68 77 89
67 77 88
72 82 95
66 75 87
71 80 93
70 79 92
66 75 87
64 73 85
68 77 89
68 77 89
70 79 92
72 82 95
72 81 94
78 89 102
78 88 102
78 89 103
78 89 104
79 89 102
78 88 102
73 83 95
67 76 88
61 69 80
42 47 55
56 64 74
66 75 87
68 77 90
73 82 95
77 87 101
75 85 98
73 83 96
78 88 102
80 91 105
82 94 108
85 96 111
92 104 119
90 102 118
93 106 123
90 102 119
87 98 113
85 96 110
79 90 104
78 88 102
76 87 101
73 83 96
71 80 92
66 75 87
59 67 77
49 56 66
37 42 49
24 27 31
23 26 30
26 30 35
26 30 36
31 35 40
34 39 45
38 43 50
44 49 57
46 52 61
47 53 61
49 56 64
48 55 63
51 57 66
49 55 64
43 49 57
39 44 51
42 48 55
46 52 60
49 56 64
48 55 64
56 63 73
64 73 84
66 75 87
69 78 91
68 77 88
71 80 93
77 87 100
78 89 103
80 90 105
84 96 111
86 98 114
89 100 115
88 100 116
89 101 117
85 97 113
85 97 112
85 97 112
84 95 109
79 90 104
67 76 88
67 75 87
62 70 82
59 67 77
59 67 77
57 64 74
52 59 69
51 58 67
48 54 62
46 52 60
40 45 52
36 41 48
38 43 50
37 42 49
35 39 46
28 32 38
27 31 36
28 32 37
32 37 43
34 38 44
38 43 50
51 57 66
51 59 68
54 62 71
52 59 68
48 54 63
45 50 58
43 49 57
45 51 59
44 50 58
34 39 46
21 24 28
15 17 20
20 23 27
26 30 34
32 36 42
34 38 44
28 32 37
26 30 34
23 27 31
21 24 28
20 23 26
18 20 23
18 20 23
24 28 32
33 38 44
34 39 45
28 32 37
21 24 28
19 21 25
21 24 28
30 34 39
42 48 56
48 55 64
51 57 66
43 49 56
33 38 43
29 33 38
16 18 21
24 27 31
36 41 48
45 51 60
55 62 71
61 70 81
70 79 92
73 84 98
83 94 108
88 101 117
95 108 125
97 110 127
102 116 134
97 110 127
101 114 132
101 114 132
102 116 134
103 117 135
101 115 134
105 119 138
107 121 140
112 127 146
108 123 142
111 126 145
114 130 150
121 137 158
111 126 146
114 130 150
113 128 148
110 125 144
108 123 142
106 120 140
102 116 134
95 107 123
95 108 125
95 108 125
95 108 124
93 105 122
90 102 118
84 96 111
83 94 109
83 95 110
84 96 111
85 96 111
84 95 110
83 94 108
83 94 108
83 93 107
76 85 98
80 90 104
70 79 91
65 74 86
64 72 83
60 68 78
52 59 68
50 57 67
50 56 65
48 55 64
54 62 71
51 58 67
55 62 72
58 66 77
55 62 71
62 70 81
62 71 82
61 69 80
65 74 85
67 76 88
66 75 86
65 73 85
62 70 81
51 58 68
43 49 57
35 39 45
27 30 35
26 29 34
26 30 34
29 33 38
26 29 34
25 28 33
24 27 31
27 30 35
28 32 38
33 37 43
34 39 45
28 32 37
19 21 24
21 24 28
27 30 36
28 32 37
29 34 39
30 34 40
29 33 38
25 29 34
23 27 31
19 22 25
22 25 29
31 36 41
45 51 59
55 62 72
64 73 84
69 78 90
72 82 95
79 89 103
83 94 109
87 98 114
89 101 117
91 103 120
92 104 121
93 105 120
94 106 123
90 102 118
90 102 117
92 104 121
89 101 117
82 94 108
80 91 105
77 87 100
78 89 103
74 85 98
71 80 93
69 78 90
63 72 83
66 75 86
65 73 85
63 71 82
63 71 83
65 73 84
65 74 85
66 75 86
63 72 83
60 68 78
62 70 81
63 72 83
64 73 85
65 73 85
68 77 89
69 79 91
67 76 89
71 80 93
71 80 93
70 79 91
71 81 93
69 78 90
62 70 81
61 69 80
61 69 80
59 67 78
59 67 77
57 65 75
57 65 75
55 63 73
55 63 72
56 64 74
60 68 78
60 69 80
56 63 73
56 63 74
56 64 74
60 68 78
60 68 78
56 63 73
52 58 67
49 56 66
52 59 69
52 59 69
51 58 68
52 59 68
50 56 65
50 57 66
41 46 53
34 39 45
31 35 41
21 23 27
22 25 29
39 44 51
55 62 72
61 69 80
67 76 88
69 79 91
74 85 98
76 87 100
78 89 103
83 94 109
90 102 117
93 106 123
92 104 120
101 115 133
108 124 143
111 126 146
115 130 150
115 131 151
117 133 154
119 135 156
110 124 144
117 133 154
112 127 147
108 123 143
112 127 146
114 129 149
111 126 146
107 122 142
106 121 139
103 117 136
106 121 140
106 121 139
108 122 140
107 122 141
110 126 146
113 128 148
113 129 149
115 130 151
114 129 149
112 127 147
115 130 151
113 128 149
114 130 151
116 132 152
113 128 147
111 126 146
109 123 143
107 122 142
105 120 138
99 113 130
98 111 129
98 111 129
96 109 125
90 102 118
89 101 117
84 96 110
84 95 110
83 94 109
78 89 103
71 80 93
62 70 82
60 68 79
65 73 85
65 74 86
63 72 83
63 72 83
61 69 79
64 73 85
64 73 84
62 70 81
59 67 78
54 61 71
53 60 70
45 51 59
37 42 49
30 34 40
21 24 28
25 29 33
33 37 44
39 45 51
33 38 44
34 38 44
31 35 40
35 40 46
39 44 51
39 44 51
41 47 55
41 47 54
47 54 62
51 58 66
51 58 67
54 62 72
61 69 79
65 74 86
68 77 89
70 79 91
68 78 90
63 72 84
60 68 79
58 66 77
55 63 73
53 61 70
92 104 121
99 113 130
97 110 128
101 114 131
103 117 135
99 113 131
104 118 137
103 118 136
108 123 142
106 121 140
110 125 145
107 122 141
109 124 144
101 115 133
98 111 129
97 110 127
93 106 123
90 102 118
92 105 121
88 101 117
85 97 113
80 91 105
76 86 100
69 78 90
61 69 80
52 59 68
44 50 58
42 48 56
38 43 50
40 45 53
39 44 51
38 43 49
33 38 44
22 25 29
20 22 26
20 23 27
23 26 30
24 28 32
21 24 28
19 22 25
23 26 30
24 27 31
18 20 23
18 20 23
28 32 37
30 35 40
33 38 44
38 43 50
41 47 54
41 47 54
44 50 58
41 47 54
36 41 47
35 40 47
36 41 47
42 48 56
46 52 60
45 51 59
46 52 60
47 53 62
47 53 61
44 50 58
43 49 57
47 54 62
54 62 72
60 68 79
61 70 81
63 71 82
59 67 78
62 71 82
66 75 87
69 78 90
68 78 90
66 75 87
61 69 81
60 68 79
54 62 72
49 55 64
50 57 66
52 59 69
58 66 77
59 67 77
59 67 77
58 66 77
60 68 78
60 68 79
61 69 80
69 78 90
68 77 90
64 73 84
55 63 72
50 57 65
48 55 64
47 53 62
44 50 58
38 42 49
35 40 46
37 42 48
34 38 44
28 32 37
29 33 38
29 33 38
35 40 45
33 38 44
30 34 40
19 22 25
16 18 21
16 18 21
21 24 28
30 35 40
39 44 51
43 48 56
47 53 62
49 56 65
56 64 74
59 67 77
57 65 76
57 65 75
51 58 68
44 50 58
42 48 56
35 40 47
35 40 46
37 42 49
44 50 58
50 57 66
52 59 69
51 58 68
50 57 66
54 61 71
58 66 76
62 71 82
66 74 86
65 74 85
66 75 87
67 75 87
67 76 88
73 83 96
79 91 105
84 95 111
84 95 110
89 101 117
95 108 125
99 112 130
104 117 135
104 119 139
105 120 139
105 119 138
105 120 139
103 117 135
96 109 127
90 102 117
87 99 114
81 93 107
79 89 104
75 86 100
76 87 101
75 86 100
76 85 98
71 80 92
69 79 91
68 77 89
67 76 88
68 77 89
65 74 85
62 70 81
60 68 79
65 74 85
65 73 85
69 78 91
63 72 84
61 70 81
57 65 76
58 65 76
57 64 74
48 54 63
36 41 48
30 34 39
28 32 37
24 27 31
19 21 25
19 22 25
27 31 36
34 39 45
31 35 41
29 33 38
29 33 39
31 35 41
31 36 41
39 44 52
44 50 58
51 58 67
54 61 70
46 51 59
43 49 57
37 42 49
31 36 41
26 29 33
22 25 29
24 28 32
32 36 42
28 32 37
31 35 40
37 42 49
40 46 53
43 49 57
40 46 53
35 39 46
35 39 45
29 33 38
34 39 45
42 47 55
46 52 60
42 48 56
49 55 64
51 59 68
51 58 67
52 59 69
47 54 62
38 43 50
22 25 29
32 36 42
48 54 63
58 66 76
66 75 87
80 90 104
83 94 109
89 101 116
93 105 121
99 112 130
94 107 124
97 110 126
94 107 124
98 112 130
99 113 131
103 117 135
98 111 128
96 109 126
96 109 126
98 112 130
102 116 133
105 118 136
105 119 138
103 117 135
101 115 134
107 121 139
105 119 138
107 121 140
106 120 139
101 115 132
99 112 130
100 114 132
95 108 125
97 110 127
97 110 128
92 105 122
94 107 124
98 112 130
93 106 123
91 104 120
92 104 120
91 104 121
91 104 120
88 100 115
81 93 108
77 88 102
76 87 101
82 93 107
77 87 101
73 83 95
73 82 95
66 75 87
55 63 73
53 60 69
49 56 64
47 54 62
50 56 65
48 55 64
49 56 65
50 57 66
42 48 55
39 44 51
43 49 57
46 53 61
51 58 68
54 61 70
51 58 67
54 62 72
60 68 78
60 68 79
60 68 79
59 67 78
60 69 80
66 75 87
68 77 89
62 71 82
54 62 72
35 39 46
25 28 33
34 40 46
41 47 54
47 53 62
59 67 77
67 76 88
78 89 102
81 92 106
83 95 110
87 99 115
85 97 112
89 101 117
93 105 121
94 108 126
103 117 135
106 120 139
109 124 144
106 121 140
104 118 136
103 118 137
102 116 134
110 125 144
112 127 147
116 132 152
119 135 155
113 128 149
111 126 145
109 125 145
104 119 137
107 121 139
103 117 135
102 116 134
100 114 131
100 113 131
94 107 124
96 110 127
93 106 122
93 105 121
89 101 117
88 99 114
84 96 111
84 95 110
84 95 110
88 99 114
90 102 118
84 95 110
84 96 111
88 100 115
88 100 115
90 101 117
83 95 110
84 94 109
78 88 101
76 86 100
69 78 90
63 71 83
56 64 73
51 58 67
44 50 58
41 47 54
37 42 49
33 37 43
32 36 42
33 38 44
31 35 41
30 35 40
33 37 42
38 43 50
41 47 54
35 40 47
29 33 38
29 33 38
26 30 35
21 24 28
22 25 29
18 21 24
13 14 17
17 19 22
24 27 31
29 33 38
29 32 38
29 33 38
24 27 32
14 16 19
15 18 20
23 27 31
36 41 48
41 47 55
40 45 53
37 42 49
34 39 45
32 37 43
31 35 41
33 37 43
45 51 60
52 60 69
57 64 74
64 72 83
65 74 86
66 75 86
66 75 86
69 78 90
107 122 142
111 126 145
111 127 147
115 131 151
116 132 153
117 133 154
112 128 149
113 128 148
110 125 145
106 121 140
103 117 135
99 113 131
99 112 130
94 107 124
91 104 121
87 99 115
86 98 113
87 99 115
81 92 106
75 85 99
67 75 87
55 63 73
52 58 67
46 52 60
44 50 59
46 53 62
49 56 64
54 61 71
57 65 75
57 65 75
57 64 74
49 56 65
43 49 57
37 42 49
30 34 39
28 32 37
29 33 39
29 33 38
27 31 36
28 32 37
20 23 26
18 20 23
21 24 27
30 34 39
42 48 56
55 63 73
63 71 82
68 78 90
72 82 96
71 80 93
68 78 90
68 77 89
68 77 89
68 77 89
65 74 85
62 70 82
64 73 84
62 70 81
60 68 79
54 62 71
45 52 60
36 41 48
27 30 35
30 34 39
28 32 37
29 33 38
31 35 41
34 38 45
35 39 46
29 33 38
31 36 41
39 45 52
48 55 63
56 63 73
60 68 79
66 75 87
71 81 94
70 79 91
77 86 99
80 91 106
77 87 102
77 88 101
74 84 97
74 84 97
70 79 92
68 78 91
70 80 92
75 86 99
79 90 104
81 92 106
80 91 105
82 93 107
74 84 98
75 85 98
67 76 89
70 79 91
71 80 93
69 78 90
63 72 83
61 69 81
59 67 78
56 64 74
53 60 70
45 51 59
37 42 49
23 27 31
15 17 19
21 24 28
34 39 45
44 50 58
46 53 61
46 53 61
53 60 69
60 68 79
68 78 91
72 81 94
74 85 98
76 87 101
76 86 100
75 85 99
71 81 93
65 73 85
59 67 77
56 63 73
49 56 65
49 56 65
53 61 70
57 65 74
60 68 79
57 65 76
60 68 79
56 64 75
61 69 81
63 71 82
64 73 84
65 74 86
62 70 81
62 70 81
66 75 87
70 80 92
76 86 99
79 90 104
80 91 105
83 95 110
86 99 115
87 99 114
84 95 111
82 92 106
80 90 104
79 89 104
77 87 100
67 76 87
64 72 83
52 59 68
42 48 55
36 41 47
33 38 44
32 36 42
29 33 38
30 34 39
31 35 41
34 38 45
35 39 46
34 39 46
34 38 44
30 34 39
31 35 41
29 34 39
28 32 37
31 35 41
29 33 39
24 27 31
22 25 29
29 34 39
37 42 49
38 43 50
40 46 53
44 50 58
40 45 52
41 46 53
40 46 53
42 47 55
39 45 52
40 45 53
38 44 51
37 42 49
32 37 42
23 26 31
16 19 22
14 16 18
19 21 24
21 24 28
22 25 30
27 30 35
27 31 36
26 30 35
28 32 37
25 28 33
17 19 22
16 18 21
17 19 23
17 20 23
15 17 20
18 20 24
25 28 32
35 39 46
35 39 46
34 38 44
32 36 42
34 39 45
34 39 46
33 38 43
25 28 32
30 34 39
36 41 47
43 49 57
47 54 62
47 53 61
42 47 55
42 48 56
41 47 55
37 42 49
26 30 35
22 25 29
35 40 47
48 55 64
56 63 73
63 72 83
69 79 91
77 88 102
86 97 113
91 102 118
99 112 129
101 114 131
100 114 131
103 117 136
106 121 139
102 117 135
103 117 136
108 123 142
113 128 148
110 125 144
121 137 159
118 134 155
121 138 160
119 136 157
121 137 158
119 136 158
120 136 158
117 132 152
111 126 146
115 131 151
115 130 150
110 125 144
105 119 137
107 121 140
103 117 136
101 115 134
103 116 134
100 113 130
102 116 135
106 120 139
104 118 136
101 115 133
102 115 134
97 110 127
93 106 122
98 111 129
94 107 123
91 103 119
90 101 117
89 101 117
87 99 115
79 89 104
72 82 95
69 78 90
66 75 87
64 72 84
58 66 76
54 61 71
55 62 72
53 60 69
48 54 63
45 52 60
48 55 63
47 53 62
48 55 63
47 54 62
49 56 65
51 57 66
50 57 66
55 63 72
64 72 84
66 75 87
69 78 91
68 77 89
61 70 81
67 76 88
66 75 87
59 67 77
50 57 66
43 49 56
34 38 44
31 36 41
29 32 37
34 39 45
31 36 41
40 46 53
49 55 64
55 63 73
61 70 80
70 79 91
79 89 103
79 90 103
76 87 101
77 87 100
78 88 102
81 92 106
86 98 113
91 104 120
92 105 122
96 110 128
98 112 130
103 117 135
98 112 129
104 118 136
101 114 132
94 107 123
90 102 119
91 102 118
89 102 117
87 99 115
82 93 108
76 86 100
77 87 101
73 82 95
66 75 87
62 70 81
56 64 74
55 62 72
57 64 74
54 61 71
47 54 62
44 50 58
46 53 61
49 56 64
49 56 64
46 52 59
46 52 60
45 51 59
43 49 57
39 44 51
32 36 42
28 31 36
36 42 48
37 43 50
38 43 49
40 45 52
41 47 54
43 49 57
46 52 60
45 51 59
42 48 56
47 53 62
53 60 69
55 62 71
56 64 74
57 65 75
53 61 71
44 50 58
30 35 40
15 17 20
17 19 22
29 33 38
37 41 48
44 50 58
45 52 60
43 48 56
43 49 57
41 47 55
41 46 53
32 37 43
32 36 42
38 43 50
38 43 50
38 43 49
37 42 49
33 38 44
33 37 43
24 27 32
17 19 22
15 17 20
17 19 22
12 14 16
15 18 20
21 24 28
35 40 46
48 54 63
58 66 76
60 68 79
114 130 151
115 130 151
119 135 155
114 129 149
114 130 150
116 131 151
113 128 148
111 126 146
105 119 138
99 113 131
95 108 124
91 103 119
88 99 114
80 91 105
80 92 106
78 89 104
73 83 96
71 81 94
67 76 88
61 69 80
53 60 70
51 58 67
49 56 64
46 52 60
48 54 63
52 60 69
57 65 75
58 66 77
57 65 75
52 59 69
51 58 68
54 62 71
58 65 75
58 66 77
59 67 78
60 69 80
62 71 82
62 70 81
59 67 77
52 59 68
46 53 62
51 58 67
52 60 69
55 63 72
62 70 81
69 78 90
72 82 95
75 85 97
76 87 100
75 86 100
82 94 110
86 98 113
88 100 116
89 101 117
88 100 116
84 95 110
78 89 102
72 82 95
66 75 88
62 70 81
59 67 77
51 59 68
47 53 61
37 42 49
33 37 43
33 38 44
34 39 45
33 38 44
31 35 41
30 34 39
38 44 50
54 62 71
62 71 82
66 74 86
67 76 88
72 82 95
72 82 95
75 85 98
74 84 97
76 86 99
81 92 107
82 94 109
86 98 114
89 101 116
90 102 118
94 106 122
97 110 128
97 110 128
104 118 136
102 116 134
101 115 133
100 114 132
96 110 127
91 103 120
83 95 110
79 90 104
76 86 100
69 78 91
62 70 81
53 60 70
46 52 60
39 44 51
32 37 43
27 31 36
26 30 34
20 22 26
24 28 32
42 47 55
51 58 67
54 61 71
55 62 72
58 66 76
64 73 85
69 78 90
71 81 94
69 79 91
69 79 91
70 79 92
68 77 88
61 69 80
51 58 68
39 45 52
38 43 49
39 45 52
43 48 56
42 48 55
43 49 56
35 40 47
34 38 44
31 35 41
34 39 45
35 39 46
42 48 55
38 43 50
38 43 50
35 41 47
32 37 42
40 46 53
44 50 58
42 48 56
48 55 63
46 53 61
43 49 56
42 48 55
46 52 59
52 59 68
58 65 76
62 70 81
66 75 87
72 82 95
71 80 93
66 75 86
62 71 82
58 65 75
47 53 62
34 39 45
21 24 27
14 16 18
14 16 19
15 17 20
19 22 25
27 31 36
32 36 42
36 41 48
38 43 50
34 38 44
22 25 29
17 19 22
20 23 27
18 21 24
19 22 26
23 26 30
23 26 31
18 21 24
19 22 25
32 36 41
37 42 48
39 44 51
41 46 53
42 48 55
44 51 58
42 48 55
40 45 53
42 48 56
41 47 55
39 44 50
35 40 46
28 32 37
24 27 31
22 25 29
17 20 23
14 16 18
18 20 23
16 18 21
24 27 31
30 34 40
33 38 43
37 42 48
35 40 47
33 37 43
24 28 32
18 21 25
19 22 26
23 26 30
31 35 41
33 38 44
34 38 45
33 38 44
36 41 47
40 46 53
43 49 57
42 48 55
38 43 50
24 27 31
18 20 23
30 33 39
36 41 48
40 45 52
41 46 54
35 40 46
32 36 42
27 31 36
31 36 42
41 47 54
44 50 58
47 54 62
56 64 74
66 76 88
72 81 94
77 87 100
77 88 102
78 89 103
83 95 109
83 95 110
84 95 110
89 101 117
95 108 124
99 112 129
104 118 137
110 125 144
116 131 151
117 134 155
124 141 164
124 140 162
128 146 169
129 146 169
124 141 163
125 142 164
122 139 161
117 133 154
118 134 155
119 135 156
116 132 152
116 131 152
112 127 146
111 127 147
108 122 140
104 118 136
104 118 137
106 121 140
103 117 135
105 119 138
105 119 138
108 122 141
108 122 141
107 122 141
102 116 134
102 115 133
104 118 136
104 118 136
106 120 138
100 113 130
105 119 137
99 113 131
97 111 128
94 107 123
94 107 123
86 98 114
82 93 107
83 94 108
83 94 109
83 95 110
82 93 107
75 86 100
69 78 90
69 79 91
65 74 85
64 73 84
60 68 79
64 72 83
66 74 86
62 70 82
61 69 80
59 68 78
57 64 75
65 74 86
67 76 88
66 75 87
63 72 83
65 74 86
65 74 85
63 71 82
57 65 74
50 57 66
43 50 58
40 46 53
34 39 45
31 36 42
26 30 34
23 26 30
21 24 28
23 26 31
23 26 30
33 38 44
39 44 51
40 46 53
51 57 66
51 57 66
50 57 66
52 59 68
55 63 74
59 67 78
69 78 90
72 82 95
71 81 94
70 79 92
69 78 91
69 78 91
69 79 91
67 76 88
65 74 85
64 73 84
67 75 87
66 75 87
66 75 87
65 73 85
59 67 78
50 57 66
40 46 53
32 36 42
23 26 31
22 25 29
22 24 28
25 28 33
37 42 49
42 48 55
42 47 55
39 44 51
39 45 52
40 46 53
47 54 63
50 56 65
52 60 69
53 61 70
55 62 72
57 66 76
57 65 75
56 64 75
58 66 76
57 65 75
61 69 80
64 73 84
63 72 83
64 72 83
64 73 84
65 73 84
62 71 82
55 62 72
45 51 59
34 38 44
27 31 35
16 19 22
23 27 31
31 35 41
32 37 43
37 41 48
40 46 53
49 56 64
50 57 66
52 59 68
53 60 70
55 62 72
58 65 75
56 64 74
58 67 77
58 66 77
60 68 79
61 69 81
60 68 78
56 64 74
54 61 71
50 56 65
40 46 53
33 37 43
29 33 39
26 30 35
31 36 41
33 38 44
37 42 48
46 52 60
110 124 143
110 125 144
108 123 142
111 126 146
111 125 144
111 126 146
108 123 143
106 121 140
107 121 140
100 114 132
96 109 126
94 107 124
91 103 119
90 102 118
91 103 120
88 100 116
83 94 109
81 91 105
76 86 100
76 86 100
73 84 97
68 77 89
66 75 87
64 72 84
65 74 85
65 74 85
62 71 82
63 71 83
63 72 83
64 72 83
66 75 87
71 80 93
74 84 97
78 89 103
82 93 108
83 94 109
82 93 108
79 90 104
80 91 106
84 95 110
85 97 113
87 99 115
90 102 118
94 106 123
90 102 119
97 110 127
95 108 126
95 107 123
92 105 121
90 102 118
87 99 114
87 98 113
86 98 113
82 93 108
80 91 105
72 82 95
72 82 95
66 75 87
59 66 76
54 61 71
43 49 57
37 42 49
29 33 39
24 27 32
23 26 30
28 32 37
32 36 42
38 43 50
47 53 62
49 55 64
49 56 65
57 65 74
61 69 80
64 72 83
64 73 85
66 74 86
67 77 89
71 80 93
77 88 102
84 95 110
85 97 112
88 100 115
88 100 116
88 100 116
87 98 113
86 98 113
91 103 119
91 104 120
94 107 123
97 110 127
93 106 123
97 110 127
94 107 124
91 103 118
87 98 113
83 94 109
75 85 99
66 75 87
59 67 78
55 62 72
51 58 67
48 54 62
43 49 57
45 51 58
43 49 56
46 52 60
44 51 58
41 47 54
37 42 49
33 37 43
36 41 48
40 46 53
40 46 52
41 47 54
42 48 55
39 44 51
41 46 54
39 45 52
38 43 50
39 44 51
39 44 51
46 52 60
46 52 60
45 51 59
45 50 58
47 54 62
49 56 64
51 58 67
50 57 66
52 60 69
57 65 76
60 68 79
68 77 89
70 79 92
75 85 99
79 90 104
80 91 106
79 90 105
80 91 104
72 83 96
68 78 90
63 72 84
57 65 75
53 60 69
45 51 58
36 40 47
27 31 36
29 33 38
38 43 50
46 52 61
51 58 67
49 56 64
48 55 64
45 51 59
40 45 52
31 36 41
25 28 33
20 23 27
15 17 19
14 16 19
23 26 30
25 28 33
27 31 35
27 31 35
23 27 31
22 25 29
18 21 24
17 19 22
23 26 30
26 30 35
26 30 34
24 27 31
17 19 22
21 24 28
22 25 28
22 25 28
23 26 30
27 31 36
26 30 35
25 29 33
28 32 37
24 28 32
26 30 34
26 29 34
21 24 28
22 25 29
20 23 27
19 22 25
22 25 29
21 23 27
16 19 22
21 24 28
28 32 37
22 25 29
21 24 28
25 29 33
32 37 42
30 35 40
26 29 34
23 26 31
25 29 33
24 27 31
20 23 27
19 22 25
17 19 23
26 29 33
33 37 43
39 44 52
46 52 60
49 55 64
50 57 66
46 52 60
46 52 60
44 50 58
46 52 61
49 55 64
46 53 61
45 51 59
47 54 62
49 56 65
51 58 68
50 57 65
52 59 69
57 65 75
67 76 87
71 81 94
77 88 102
81 92 107
84 95 110
87 99 114
93 105 122
99 111 128
96 109 126
97 109 126
91 104 121
93 106 123
93 105 121
98 111 128
100 113 131
100 114 132
105 119 138
106 121 140
109 123 141
109 124 143
113 128 148
109 124 144
114 130 151
113 128 148
112 127 147
113 128 148
107 122 141
105 119 138
104 118 136
103 117 135
101 115 133
97 110 128
96 109 127
90 103 120
90 102 119
93 105 121
91 103 118
93 106 122
95 109 126
93 106 122
93 105 122
96 109 126
101 115 133
99 113 131
105 119 137
107 121 139
106 121 140
104 118 137
112 126 146
111 126 146
112 128 148
115 130 151
109 124 143
105 119 139
108 123 142
102 116 134
105 119 137
105 120 138
103 117 136
106 120 139
102 116 135
102 115 133
97 110 127
95 108 125
94 107 123
90 102 119
88 99 115
85 97 112
81 92 106
79 90 104
70 80 93
68 77 89
65 74 85
62 71 82
62 71 82
62 71 81
67 76 88
71 80 93
70 80 93
66 75 88
63 72 83
60 68 79
59 67 78
56 64 74
49 55 64
46 53 61
44 50 58
42 48 55
39 44 52
38 43 50
35 40 46
33 38 44
36 41 48
42 48 55
46 53 61
43 49 57
42 48 55
35 40 47
34 38 44
35 40 46
30 34 39
30 34 40
38 43 50
38 43 50
40 45 52
34 39 45
37 42 48
41 47 54
46 53 61
54 61 71
55 63 73
55 62 72
49 55 64
41 47 54
37 42 49
32 37 43
33 38 44
34 38 44
26 29 34
15 17 20
15 17 19
24 27 32
35 40 46
43 49 57
54 61 71
60 68 79
69 78 90
74 84 97
73 83 96
74 84 96
72 82 96
74 84 97
78 89 104
77 87 101
77 87 101
75 85 98
74 84 98
77 87 101
79 90 104
81 92 107
83 94 109
83 95 110
76 86 100
66 75 87
61 69 80
53 60 69
40 46 53
30 34 39
23 27 31
27 31 36
34 38 44
34 39 45
39 45 52
43 49 57
48 55 64
51 58 67
53 60 70
52 59 69
53 60 70
58 66 76
61 69 80
61 70 81
65 74 86
68 77 90
69 78 91
75 85 99
73 83 96
70 79 91
68 77 89
67 76 89
66 75 86
64 72 84
62 71 82
56 64 75
57 64 75
48 55 64
106 120 139
107 121 140
108 122 141
111 126 146
110 125 144
107 122 141
104 118 137
104 119 138
105 120 139
103 117 135
103 118 137
102 115 133
104 118 136
100 113 131
100 114 131
100 114 132
95 107 124
93 106 122
90 103 119
87 98 113
87 99 114
82 93 109
77 88 101
75 86 99
67 76 87
66 75 87
68 78 90
70 79 92
71 81 95
78 89 102
86 98 114
91 104 120
97 110 127
100 113 130
104 117 136
103 117 136
102 117 135
99 113 131
101 114 131
96 110 127
95 108 126
102 116 134
106 120 139
110 125 144
110 125 144
104 118 137
103 117 136
106 120 139
104 117 136
100 113 130
98 112 130
97 110 127
94 106 123
88 100 116
81 92 106
73 83 96
62 70 81
51 58 68
42 47 54
34 39 45
31 36 42
32 36 42
31 36 41
31 35 40
39 45 52
43 49 57
47 54 62
51 58 68
56 64 74
55 63 73
59 67 78
59 68 78
67 76 88
68 78 90
71 81 94
74 84 98
74 83 96
75 84 97
76 86 100
77 88 102
75 85 99
73 83 96
67 77 89
66 75 87
65 74 85
65 74 85
65 74 86
68 78 90
72 81 94
76 87 100
77 87 101
80 91 106
78 89 103
79 90 104
78 89 104
79 89 103
78 88 102
75 86 99
71 81 93
68 77 89
60 68 80
57 65 75
51 58 67
45 52 60
47 54 62
51 59 68
58 66 76
60 68 79
61 70 81
64 72 83
64 72 84
64 72 83
61 69 80
56 64 74
60 68 79
62 70 81
67 76 88
70 79 92
71 81 94
73 83 96
76 87 100
76 87 100
81 92 106
81 92 106
82 93 107
86 98 113
92 104 120
90 103 120
93 105 121
92 104 120
93 105 121
95 109 126
96 109 126
97 110 126
96 109 127
100 114 132
104 118 136
101 115 133
99 112 130
92 105 121
92 105 121
88 101 117
82 93 108
78 89 103
73 82 95
68 77 89
64 72 84
57 64 75
49 55 64
43 49 56
34 39 45
33 38 44
30 34 39
26 30 35
27 31 36
27 31 36
25 28 33
23 26 30
24 28 32
29 32 37
29 33 38
23 26 30
20 23 27
19 22 26
17 20 23
28 32 37
41 46 53
47 54 62
50 57 66
49 56 65
49 55 64
50 57 66
50 56 65
48 55 64
47 54 63
44 51 59
50 56 65
49 56 64
49 56 64
47 53 62
45 51 59
38 44 50
30 34 40
21 24 28
24 27 31
26 29 34
23 26 29
21 24 28
23 27 31
20 22 26
13 15 17
24 28 33
31 36 42
39 44 51
38 44 50
31 36 41
30 34 39
24 28 32
24 27 31
24 28 32
25 28 33
30 34 40
31 35 40
37 43 49
44 50 58
49 56 64
55 62 72
58 65 76
59 67 78
57 65 75
58 66 76
56 64 74
56 64 73
56 63 73
53 61 70
54 61 71
57 65 76
64 73 84
68 77 89
68 77 90
70 79 92
73 83 95
77 88 102
82 93 109
86 98 113
86 98 113
87 99 114
89 102 118
96 109 126
97 111 129
104 118 137
102 115 133
100 113 130
97 111 129
98 111 127
97 110 127
93 106 122
89 101 117
94 106 122
90 103 119
92 104 120
96 109 126
100 114 131
100 114 132
96 109 126
96 109 127
100 114 131
100 113 131
105 119 137
105 119 138
101 114 132
104 118 136
100 113 131
93 106 123
89 101 117
88 100 116
83 94 109
83 94 109
89 102 118
89 101 116
87 99 115
86 98 113
85 97 112
86 97 112
93 106 124
96 108 124
100 113 131
102 115 133
106 119 137
103 118 137
102 116 135
102 116 134
101 115 133
106 121 140
110 124 143
106 121 140
108 123 143
110 125 145
110 126 146
113 129 150
113 129 149
112 127 148
111 126 146
113 128 148
115 131 151
121 138 160
114 130 151
111 126 146
109 123 143
102 116 134
102 115 133
99 113 131
101 114 131
93 106 123
89 101 117
83 95 110
79 90 105
85 97 112
81 93 108
83 94 108
80 91 105
78 88 102
78 88 102
66 75 87
63 72 83
62 70 81
59 67 77
54 61 71
45 52 60
40 46 53
40 45 52
39 45 52
34 39 45
33 38 44
29 32 38
30 34 39
39 45 52
39 45 52
43 49 56
45 51 58
45 51 59
38 43 50
29 33 38
22 25 29
20 23 26
20 22 26
18 20 23
18 20 24
16 18 22
20 23 26
28 32 37
32 36 42
40 45 52
42 47 55
42 48 55
43 49 57
45 51 59
44 50 58
48 54 63
43 49 57
32 36 42
21 24 27
20 23 27
18 21 24
17 20 23
15 17 20
31 35 41
47 54 62
60 68 79
62 71 82
67 76 88
71 80 93
74 84 97
76 86 99
75 85 98
74 85 98
78 89 103
82 93 107
81 92 106
79 90 104
81 92 107
85 96 111
87 99 115
89 101 116
84 95 109
83 94 108
81 92 106
83 95 109
83 94 108
78 89 103
74 84 97
65 74 85
58 66 76
52 59 69
46 52 61
40 46 53
40 45 52
39 44 52
39 44 51
40 45 52
41 47 55
42 47 55
40 45 52
41 47 55
41 46 54
39 44 51
39 44 51
47 54 62
56 64 73
59 67 78
65 74 85
68 77 89
71 80 93
76 87 100
76 87 101
75 86 99
75 85 99
72 82 95
69 78 90
66 75 87
102 117 136
101 115 133
100 114 132
99 113 131
101 114 132
101 114 132
97 111 128
98 111 128
98 111 129
95 108 125
98 111 128
94 107 125
92 106 124
91 103 120
84 96 111
84 96 111
84 96 111
81 92 107
82 93 109
80 91 106
81 92 107
85 96 111
80 91 105
78 89 103
74 84 97
73 83 96
74 84 98
79 89 103
84 96 112
87 100 116
93 106 123
102 115 132
103 116 134
102 116 134
101 115 133
105 119 137
105 119 138
108 122 141
109 124 143
113 128 148
113 129 148
112 127 146
114 130 150
109 123 142
109 124 144
103 117 135
105 119 137
102 116 134
100 114 132
99 112 129
96 109 126
91 104 121
87 99 115
73 83 96
68 77 89
53 61 70
41 47 54
33 38 43
31 35 40
34 39 45
43 49 57
47 53 62
49 56 65
54 62 71
64 73 85
67 76 88
70 80 92
69 78 91
71 81 93
69 79 91
65 74 86
65 74 85
68 77 90
71 80 93
71 80 93
74 84 97
71 81 94
71 81 94
68 77 90
62 70 81
56 63 73
47 54 62
48 54 63
47 53 62
46 52 60
51 58 67
56 64 75
59 68 79
68 77 89
68 77 90
68 78 90
67 77 89
69 78 90
70 79 92
73 83 96
79 90 104
78 89 103
82 93 108
81 92 107
80 92 106
77 88 101
76 86 99
74 84 97
77 87 101
76 86 100
71 81 95
76 86 100
76 86 99
81 92 106
80 91 105
79 89 103
79 90 104
74 85 98
78 89 103
82 93 108
86 97 111
86 98 113
87 99 114
91 103 119
97 110 127
95 108 126
102 116 134
105 119 137
106 121 140
109 124 143
106 120 139
108 122 141
105 119 139
105 119 139
109 124 144
110 125 144
109 124 145
111 126 146
113 128 148
113 128 148
111 127 147
113 128 147
110 125 144
109 124 143
111 126 146
109 124 143
106 120 139
98 112 130
98 111 129
91 104 121
86 98 113
81 92 106
75 85 98
68 77 89
67 76 89
64 72 84
59 67 77
59 67 77
57 65 75
51 58 67
52 59 68
53 61 70
48 55 63
40 46 53
35 40 46
33 37 44
30 34 40
26 29 34
22 25 29
33 37 43
47 53 61
54 61 70
58 66 77
62 70 81
65 74 85
69 78 90
68 77 90
72 81 94
66 75 86
66 75 87
68 77 89
67 76 88
65 75 86
61 70 81
55 63 73
54 62 71
53 60 69
48 55 64
48 55 63
47 53 62
46 53 61
43 49 57
39 44 51
28 32 37
21 24 28
18 21 24
23 26 30
26 30 34
27 31 35
30 34 40
30 34 39
33 38 43
32 36 42
25 28 33
18 20 23
23 26 30
32 37 43
44 50 58
51 58 67
60 69 80
72 81 93
74 85 99
77 88 102
74 84 98
78 89 103
75 85 98
75 86 99
78 89 102
76 86 100
71 81 93
66 75 87
62 70 81
62 71 81
65 74 86
68 77 90
68 77 90
67 76 88
68 77 89
72 82 94
78 89 103
81 92 106
87 98 112
91 103 119
97 109 126
97 110 127
101 115 133
102 116 134
99 113 130
101 114 132
98 111 128
102 116 134
98 111 129
97 111 128
97 110 128
102 116 135
99 112 130
101 114 131
97 110 126
100 113 131
98 112 130
100 114 132
102 116 134
106 120 139
105 119 138
102 116 134
103 116 134
102 115 133
99 113 131
98 111 128
93 106 122
86 97 112
84 95 110
83 93 108
78 89 103
77 87 101
78 88 101
78 89 104
83 94 109
90 102 117
86 98 114
87 99 115
92 104 120
95 107 124
101 115 133
106 120 139
106 120 139
106 121 139
106 120 138
106 120 139
109 124 143
108 123 141
105 119 137
107 122 142
104 118 137
109 124 144
114 129 148
112 127 147
112 128 148
112 128 148
113 129 149
114 130 150
111 126 145
110 126 146
117 133 154
114 130 151
115 130 151
111 126 146
107 122 141
107 121 141
104 118 136
102 117 135
104 118 137
104 117 135
99 113 131
96 110 127
93 106 123
95 108 125
91 103 119
87 99 114
81 92 107
73 83 96
71 81 93
69 79 91
70 79 91
68 77 89
67 76 88
62 70 81
57 65 75
51 58 68
46 52 61
42 48 55
45 51 59
45 51 59
45 51 59
47 53 62
47 53 62
43 49 57
40 45 52
33 37 43
32 36 42
32 36 42
24 28 32
19 22 25
25 28 33
34 38 45
38 43 50
43 49 57
51 58 67
52 58 67
46 52 60
43 49 57
43 49 57
41 46 54
36 41 47
27 30 35
25 28 33
25 29 33
27 31 36
35 39 46
38 44 51
34 38 44
31 35 40
37 42 49
39 45 52
37 43 49
38 43 50
48 54 63
56 63 74
58 66 76
62 70 80
67 76 87
69 79 92
74 84 98
75 86 99
79 90 104
78 88 101
79 90 105
78 89 103
78 88 102
77 87 101
78 89 103
77 88 102
78 89 103
82 93 107
78 89 104
75 85 98
72 82 96
68 77 89
64 73 84
56 64 73
55 63 73
55 63 73
59 67 78
67 75 87
70 79 91
69 78 91
71 81 93
71 81 94
70 80 92
70 79 91
64 73 85
61 69 80
52 60 69
45 51 59
38 43 49
21 24 28
37 42 49
46 52 60
50 56 65
54 61 71
56 63 72
50 57 66
45 51 59
43 49 57
45 51 59
80 91 105
80 90 104
74 84 98
72 82 96
76 87 101
75 85 98
73 83 97
74 84 97
74 84 97
80 90 105
77 88 101
76 86 100
74 84 97
72 82 95
70 79 92
66 76 88
68 77 90
70 79 92
72 82 94
70 79 92
71 80 93
68 77 89
66 75 86
64 72 84
63 72 83
66 75 86
65 74 86
69 78 89
71 80 93
73 83 96
73 83 96
75 85 99
76 86 100
82 93 108
87 99 115
93 106 123
97 111 129
101 115 133
99 113 130
94 108 126
93 106 123
91 104 121
93 105 120
89 102 118
87 98 114
86 98 114
84 96 111
80 91 105
81 92 107
78 88 102
74 84 97
65 74 85
56 64 74
44 50 58
35 40 46
35 40 47
51 57 66
59 67 77
61 70 81
64 73 85
65 74 86
66 75 87
69 78 90
70 80 94
75 85 98
77 88 102
82 92 106
80 91 105
80 90 104
77 88 102
79 89 104
81 92 106
84 96 111
86 97 113
86 98 114
86 97 113
79 90 104
78 88 102
69 78 91
62 71 81
54 61 71
48 54 62
46 53 61
45 51 59
48 54 62
47 53 62
45 51 59
43 49 56
43 49 56
42 48 56
44 50 57
48 55 64
55 62 72
59 67 78
67 76 88
70 79 92
71 80 93
79 90 104
82 94 108
83 94 110
84 95 109
81 93 108
86 98 113
88 100 116
87 100 115
86 98 113
90 102 118
88 99 114
84 96 111
87 98 114
89 101 117
89 101 117
88 100 115
91 104 120
94 107 123
97 109 126
98 112 129
105 119 138
105 119 137
108 122 141
110 125 145
117 133 154
121 137 159
126 142 163
124 140 162
123 140 163
123 140 162
128 145 167
129 147 170
127 144 167
124 142 164
120 138 160
122 139 161
123 139 160
118 134 155
111 126 145
109 124 143
110 125 145
108 122 142
107 121 140
108 122 141
110 125 144
108 122 141
104 118 137
100 113 131
92 105 120
88 100 116
82 93 108
79 89 103
74 84 97
73 83 96
63 72 84
63 72 83
59 67 78
60 68 79
54 61 71
44 50 58
35 40 46
23 27 31
19 22 26
33 38 44
40 45 52
47 53 61
50 56 65
53 60 70
57 65 75
61 70 81
66 74 86
70 79 91
72 82 95
72 81 94
74 84 98
76 87 100
77 88 101
76 87 101
80 90 104
81 92 107
81 92 106
80 91 105
80 91 105
79 89 103
79 89 102
76 86 99
72 81 94
67 76 88
62 71 82
58 67 77
54 61 71
47 54 62
44 51 59
35 40 46
25 29 34
26 30 34
25 28 32
22 25 29
21 24 28
20 23 27
19 22 26
20 23 27
23 26 30
35 40 46
48 54 63
56 64 74
65 73 85
70 80 93
72 82 95
76 87 100
81 92 107
83 94 109
86 97 112
86 98 113
86 98 113
85 96 111
81 92 107
80 91 106
78 89 103
77 87 100
77 88 102
70 80 93
65 74 86
62 70 81
62 71 82
62 71 83
70 80 92
75 85 98
84 95 110
87 99 115
89 102 118
93 106 123
95 108 124
92 104 120
94 106 123
90 103 119
96 109 126
92 104 120
95 108 125
96 109 125
95 108 125
98 112 130
100 113 131
99 113 130
103 117 135
103 116 135
104 118 137
109 124 143
109 124 143
113 127 147
108 123 142
107 122 142
111 126 146
110 125 145
107 121 140
101 115 133
97 110 127
89 101 116
84 95 110
73 83 96
73 82 95
73 83 96
78 88 101
80 90 105
79 90 104
84 95 110
88 99 114
89 101 116
92 105 121
93 106 123
92 106 123
96 110 127
101 115 134
103 118 136
104 117 135
106 120 139
107 121 140
106 121 140
104 118 137
102 115 134
106 121 140
106 121 140
104 117 136
113 128 148
108 122 142
107 122 141
105 119 138
106 120 139
110 125 144
112 127 147
113 128 149
114 130 151
113 128 148
113 129 150
110 125 145
106 120 139
111 126 145
105 119 137
102 116 133
97 110 128
96 109 126
93 106 122
92 105 122
90 103 119
86 98 114
84 97 112
84 95 110
79 90 104
75 85 99
71 80 93
66 75 87
64 73 85
65 73 84
61 69 80
61 69 79
64 72 83
61 69 80
57 64 74
49 56 65
40 46 53
34 39 45
29 33 39
26 30 34
22 25 30
28 31 36
32 36 42
30 34 39
27 31 36
22 25 29
21 24 27
27 30 35
43 49 56
50 57 65
58 66 77
61 70 81
61 69 80
60 68 79
59 67 77
46 53 61
30 34 39
18 21 24
31 35 41
32 36 42
27 31 36
25 28 33
19 21 25
14 16 19
15 17 19
28 32 37
39 44 51
47 54 62
50 57 66
48 54 63
43 49 56
35 40 47
35 40 46
34 39 45
34 38 45
35 40 47
37 42 49
37 42 48
38 43 50
37 42 49
46 53 61
55 62 72
58 66 76
58 66 77
58 65 75
54 61 71
54 61 70
56 63 73
58 65 75
57 65 76
64 72 84
70 79 91
72 82 95
74 84 97
78 88 102
79 90 104
79 89 103
78 89 103
80 90 105
81 92 106
81 92 106
81 92 106
79 90 105
81 91 105
76 87 101
72 82 96
68 77 90
67 75 87
59 67 78
55 62 72
48 55 64
38 43 50
24 28 32
24 28 32
23 26 30
22 25 29
20 22 26
18 21 25
21 24 28
28 32 37
54 61 71
52 59 68
52 60 69
48 54 63
43 48 56
40 45 53
42 47 55
44 51 59
50 57 67
51 58 67
54 62 72
59 67 77
65 74 85
66 75 86
64 72 83
62 71 82
61 69 80
63 71 82
63 72 83
61 69 80
58 66 76
52 59 69
53 60 69
53 61 70
55 63 73
58 66 76
57 65 75
56 64 74
53 61 70
53 60 69
51 58 67
51 58 67
51 58 67
53 61 70
56 64 74
57 65 75
62 70 80
58 66 76
57 64 75
57 65 75
55 63 72
55 62 72
55 63 73
52 59 68
51 59 68
53 60 70
53 60 70
47 53 62
41 47 55
37 43 49
36 40 47
27 31 36
21 23 27
20 23 27
28 32 38
41 47 54
52 59 68
57 64 74
62 70 81
65 74 86
71 80 92
73 83 96
76 87 100
74 84 98
74 85 98
75 86 99
75 85 99
73 83 96
74 84 97
71 81 94
73 83 96
77 87 101
81 92 107
84 95 109
84 95 110
84 95 110
80 91 105
71 80 93
70 80 93
67 77 89
68 77 89
68 77 89
66 74 86
60 69 80
54 61 71
50 57 66
46 52 60
46 52 61
51 58 67
56 63 73
61 69 80
68 78 91
76 86 99
81 92 106
85 97 112
90 102 117
93 105 121
93 106 122
94 107 124
96 110 127
96 109 127
99 113 131
102 115 133
102 116 134
103 117 136
101 114 132
101 115 134
103 118 136
101 115 133
105 120 138
100 114 132
101 114 131
113 129 149
120 135 156
119 136 157
120 136 157
120 137 159
126 143 166
124 142 165
123 140 162
122 139 161
129 146 169
132 149 173
136 154 179
138 157 183
141 160 184
142 162 187
141 159 184
141 160 185
139 159 184
137 156 181
134 152 175
139 157 181
134 152 176
131 149 171
122 139 161
123 141 164
121 138 159
120 137 159
117 133 154
117 134 156
111 125 145
113 129 149
110 125 144
109 124 143
102 116 134
94 107 124
91 103 119
86 98 113
84 96 111
81 92 107
79 90 104
73 83 96
74 84 97
67 77 89
63 71 82
56 64 74
50 57 66
44 50 58
36 41 48
29 33 38
21 24 28
32 37 43
43 49 56
51 57 66
53 61 70
59 67 77
61 69 80
62 70 81
61 70 80
58 66 77
59 67 77
60 69 80
66 75 87
65 74 85
66 75 87
71 80 92
70 79 92
67 76 88
61 69 80
64 73 85
63 72 84
68 77 88
69 78 90
69 79 91
74 84 97
77 87 100
75 85 99
70 80 92
62 70 81
50 57 66
38 43 50
27 31 36
23 26 30
25 28 32
23 27 31
18 20 23
22 25 29
35 40 46
46 52 60
53 60 70
59 67 78
63 71 82
66 75 86
66 75 87
70 79 91
73 84 97
75 86 99
77 87 101
73 82 95
68 77 89
70 80 92
72 82 94
71 81 94
71 80 93
68 77 89
65 74 85
69 78 90
69 79 91
74 84 97
74 85 99
76 86 99
75 86 99
81 92 106
82 94 109
89 101 117
94 106 123
89 101 116
89 101 118
90 102 118
92 105 122
88 100 115
87 99 115
90 102 118
90 102 118
85 97 112
84 96 111
84 96 111
82 93 108
86 97 112
92 104 121
92 105 122
93 106 123
96 110 127
97 111 128
97 110 127
96 109 127
95 108 125
99 113 130
100 113 131
100 114 132
96 108 125
92 104 121
87 99 114
82 93 108
75 85 98
73 83 96
71 81 93
68 77 89
65 74 86
62 70 81
63 72 83
67 76 88
74 85 98
83 95 110
85 96 111
88 100 115
90 102 119
94 107 124
99 113 130
103 117 136
105 119 138
104 118 137
104 118 136
105 119 138
107 121 140
105 119 138
106 121 140
105 120 138
104 118 137
101 114 131
102 116 134
101 115 134
101 115 134
104 118 136
102 116 135
99 113 131
98 111 129
100 114 132
100 114 132
100 114 132
99 113 132
102 116 134
100 114 131
99 113 130
96 109 125
91 103 118
85 97 112
84 95 110
77 88 102
69 79 92
69 78 90
68 77 89
63 72 83
61 69 80
56 64 74
51 58 67
47 53 61
41 46 53
39 45 52
37 42 48
36 41 48
41 47 54
42 47 55
41 46 54
37 42 49
37 42 49
36 41 47
33 38 44
27 31 36
18 21 24
19 22 25
25 29 33
28 32 37
29 33 38
33 37 43
40 46 53
49 56 64
57 64 75
59 67 77
61 69 80
61 69 80
58 66 76
52 60 70
43 49 56
32 36 42
26 29 34
27 31 36
29 33 38
30 34 39
25 29 33
20 23 26
20 23 26
30 34 39
38 43 50
46 51 59
45 51 59
41 47 54
36 41 48
37 42 48
40 45 52
45 52 60
52 59 68
52 59 68
48 54 63
46 53 61
49 56 64
50 57 66
43 49 57
33 37 43
20 22 26
26 29 34
37 41 48
45 52 60
49 56 65
56 63 73
57 65 75
56 63 73
54 61 71
53 61 70
56 63 73
60 68 79
66 75 87
68 77 90
71 80 93
74 85 99
77 87 100
77 88 102
81 92 106
84 96 110
83 94 109
82 93 108
83 94 109
83 94 108
80 91 105
77 88 101
75 85 98
74 84 97
74 85 98
73 83 96
71 80 93
66 75 87
56 64 74
49 56 64
45 52 60
42 48 56
36 40 47
29 33 38
30 34 39
37 42 48
47 54 62
44 50 58
42 48 55
38 43 50
32 36 41
27 31 36
21 23 27
22 25 29
28 31 37
32 36 42
31 35 40
29 34 39
33 37 43
34 38 44
28 32 37
28 32 38
31 35 41
32 36 42
35 39 45
35 40 47
33 37 43
34 39 45
33 38 44
34 38 44
30 34 40
29 34 39
28 32 37
25 29 33
25 28 33
27 31 36
32 37 43
31 35 41
29 32 38
21 23 27
20 23 26
30 34 40
32 37 43
32 37 42
28 31 36
26 29 34
24 28 32
21 24 28
30 34 40
31 36 41
40 45 53
40 46 53
39 44 51
30 34 39
23 26 30
20 23 27
20 23 27
20 22 26
18 21 24
24 27 32
30 34 39
41 47 54
55 63 72
62 70 81
66 75 87
68 77 89
71 81 93
70 80 92
71 81 94
70 79 91
64 73 84
59 68 79
57 64 75
60 67 78
60 68 79
64 72 83
65 73 84
65 74 85
64 72 84
62 70 81
61 69 80
61 69 80
56 64 74
53 60 70
50 57 65
51 58 67
55 63 73
60 68 79
65 73 85
66 74 86
68 77 89
69 79 92
70 79 92
72 82 95
73 83 96
76 86 99
81 92 106
89 102 119
93 106 123
99 113 131
99 112 129
103 117 135
101 115 133
103 117 136
103 117 136
103 118 136
110 125 144
110 125 145
109 124 144
108 123 143
110 126 146
110 125 145
109 123 142
106 121 140
107 121 141
108 123 142
109 124 143
110 125 144
117 132 152
118 133 154
119 135 156
124 139 160
125 141 162
124 141 162
129 147 169
129 146 168
131 149 172
136 154 178
138 157 182
141 160 186
141 160 185
145 165 190
141 160 186
142 161 186
141 161 186
145 165 191
139 157 181
145 164 190
146 165 190
141 160 185
138 157 181
139 159 184
133 150 173
131 149 172
128 145 169
127 145 167
125 142 164
119 136 159
117 133 155
115 131 151
115 130 151
114 130 150
107 122 141
104 119 137
102 116 134
99 112 130
96 109 126
96 109 126
93 106 122
88 100 116
80 91 106
78 88 102
73 83 95
70 80 92
65 74 86
58 66 77
51 58 67
44 51 59
36 41 48
25 29 34
27 31 36
34 39 45
36 41 47
37 42 49
34 39 45
33 37 43
29 33 39
22 26 30
17 20 23
22 25 29
20 22 26
19 22 26
28 32 37
36 41 47
37 41 48
38 43 50
42 48 55
47 54 62
51 58 67
50 57 66
53 60 69
57 65 75
61 69 80
59 67 77
55 62 71
44 50 58
36 40 46
19 22 25
26 30 34
33 38 44
38 44 51
37 42 49
35 40 47
32 36 42
35 40 46
38 43 50
35 39 46
45 51 60
45 51 59
47 54 63
49 56 65
55 62 72
53 60 69
55 62 73
55 63 73
55 63 73
57 64 74
57 65 75
56 64 74
51 57 67
47 53 62
48 54 62
49 56 65
51 58 67
53 61 70
61 69 79
58 66 76
66 75 87
70 80 92
76 87 100
84 95 110
85 97 112
86 97 112
81 92 107
80 91 105
83 95 110
81 93 108
85 96 111
79 90 104
79 89 103
77 87 101
74 85 98
75 86 99
75 85 98
74 84 98
77 87 100
77 88 101
77 88 101
77 88 101
75 85 98
76 86 99
79 90 104
79 89 103
77 88 102
80 91 106
77 87 101
73 83 96
68 78 90
60 68 78
60 68 79
57 64 74
53 61 70
50 56 65
47 54 62
48 54 63
50 56 65
42 48 56
40 46 53
38 44 51
42 48 55
50 57 67
56 64 74
62 70 81
65 74 86
68 77 89
76 87 101
77 88 102
82 93 107
83 94 109
90 102 119
93 106 122
99 112 129
99 112 130
94 108 125
92 104 121
90 102 118
89 102 118
91 104 121
92 105 121
93 106 123
89 101 116
87 99 114
80 91 106
77 88 101
77 88 102
79 90 104
79 90 104
80 91 105
81 92 106
81 92 107
81 91 105
75 85 99
74 84 98
66 75 87
58 65 76
51 58 67
50 57 66
51 58 67
53 60 70
55 62 72
58 66 77
62 70 81
63 72 83
59 67 78
52 60 69
47 53 61
39 44 51
32 36 42
29 34 39
29 33 38
29 33 38
25 29 33
28 32 37
29 33 38
29 33 38
33 38 44
44 49 57
49 55 63
49 56 65
47 53 61
47 53 62
50 57 66
52 60 69
54 61 70
57 64 74
59 67 77
57 64 75
50 57 66
38 43 49
18 20 23
22 25 29
35 40 46
43 49 57
43 49 56
37 43 49
33 37 43
30 34 39
27 31 36
20 23 27
20 23 26
26 29 34
30 34 40
30 34 39
29 33 38
29 33 38
31 36 41
37 43 50
41 47 54
42 47 55
42 48 55
41 47 54
40 45 52
39 44 50
28 31 36
24 27 32
34 39 45
47 53 62
54 62 71
54 61 70
54 61 71
55 62 72
56 64 74
61 69 80
61 70 81
59 67 78
58 66 77
62 70 81
63 72 83
68 77 88
70 81 94
71 81 94
69 79 91
74 84 97
75 85 99
76 86 99
81 93 108
84 96 111
86 98 113
88 100 116
87 99 115
87 99 115
86 98 113
81 92 107
79 90 104
77 88 101
73 83 96
75 86 99
79 90 104
77 88 102
77 88 101
72 82 95
68 78 90
67 76 88
62 70 81
58 66 76
52 58 67
44 50 58
44 51 59
45 51 59
42 48 56
38 43 50
34 39 45
32 37 42
22 25 29
17 20 23
27 31 36
35 40 46
39 45 52
43 49 57
46 53 61
48 55 63
48 54 63
45 52 60
48 54 62
52 59 69
50 58 67
55 63 73
58 66 77
63 71 83
68 77 89
67 75 87
64 72 84
61 69 80
58 66 76
57 64 74
52 59 68
47 54 62
39 44 51
26 30 35
20 23 27
28 31 36
35 40 47
47 54 62
52 59 68
51 58 67
47 53 61
37 43 49
29 33 39
24 27 32
15 18 20
15 17 20
21 24 28
22 25 29
29 33 38
34 39 45
29 33 38
21 24 28
14 16 19
17 19 22
20 23 27
26 29 34
34 39 45
45 51 59
53 61 70
57 65 75
62 70 81
63 72 83
60 68 78
56 63 73
47 54 62
37 42 48
30 34 40
28 32 38
28 32 37
32 36 42
35 40 47
43 49 57
46 53 62
50 57 66
53 60 70
49 56 65
39 45 52
36 41 48
37 42 48
42 47 55
47 53 62
50 57 67
54 61 70
54 61 71
57 65 75
58 66 76
60 68 79
63 71 83
68 77 88
73 83 96
78 89 104
86 98 114
93 105 122
97 110 127
101 115 132
102 115 133
103 117 136
103 117 136
102 116 134
102 116 135
104 118 137
110 125 144
105 120 139
108 124 144
107 122 141
109 124 143
112 127 146
109 123 143
107 121 140
105 120 139
105 119 137
111 125 145
108 123 143
112 127 147
112 127 147
112 127 147
111 126 145
114 129 149
113 129 150
114 130 151
115 131 151
115 131 152
119 135 157
117 133 154
124 141 163
126 143 165
129 147 170
133 152 176
138 156 180
135 154 179
139 158 182
138 157 181
136 155 180
134 152 176
136 154 178
135 154 179
136 154 178
134 152 175
133 152 176
135 153 177
135 153 176
131 148 172
129 147 171
128 146 169
126 144 167
126 142 163
118 135 156
115 131 152
114 130 150
114 130 150
112 128 148
109 125 145
107 122 141
102 115 133
98 112 129
96 109 126
91 103 119
89 101 116
82 93 107
78 89 103
75 85 98
71 80 93
67 76 88
64 72 83
55 63 73
44 50 58
33 38 44
23 27 31
20 23 26
17 20 23
16 18 21
16 18 21
21 24 27
32 36 42
33 37 43
31 35 41
24 27 31
25 28 32
29 33 38
27 31 36
27 31 36
27 30 35
28 31 36
29 32 37
26 30 35
20 23 26
25 28 32
28 32 36
30 34 39
30 34 39
28 31 37
27 30 35
30 34 39
33 37 43
37 43 49
40 46 53
45 51 60
51 58 68
60 68 78
64 73 85
64 72 84
63 72 83
62 70 81
62 71 82
65 74 86
64 72 84
63 71 82
56 64 74
49 56 64
50 57 65
50 57 66
51 58 66
46 52 61
42 48 55
40 45 52
33 37 43
30 34 39
31 36 41
28 32 38
27 31 36
37 42 48
48 55 63
53 60 70
57 65 76
61 69 80
62 70 81
61 69 79
62 71 82
62 71 83
60 69 80
60 68 78
60 68 78
58 65 76
58 66 76
60 68 79
61 70 81
64 73 85
65 74 86
65 74 85
60 69 80
57 64 74
56 64 74
59 67 78
62 70 81
57 65 75
63 71 83
63 71 83
59 68 79
59 67 78
49 57 66
47 54 62
41 47 54
38 43 50
34 39 45
27 31 35
18 21 24
15 17 20
16 18 21
22 25 29
22 25 29
22 25 30
23 26 31
21 24 28
19 22 25
17 20 23
22 25 29
23 26 30
21 24 28
22 25 29
19 22 25
25 28 33
35 40 46
41 46 54
49 55 64
55 63 72
58 66 76
66 74 86
72 81 94
76 86 100
79 90 104
79 89 103
80 91 105
80 91 105
81 92 106
72 82 95
75 86 99
70 79 92
66 74 86
66 75 87
67 75 87
67 76 88
67 77 89
66 75 86
62 70 81
63 72 83
63 72 82
56 64 75
52 59 69
49 55 64
44 50 58
43 49 56
44 50 59
47 53 62
52 59 68
61 69 80
67 77 89
70 80 93
75 85 98
75 85 99
71 81 93
61 69 81
49 56 65
39 44 51
36 40 47
34 39 45
33 37 43
28 32 37
29 32 38
25 29 33
24 27 31
30 34 39
38 43 50
47 54 62
50 57 66
49 55 64
47 53 62
44 50 58
44 50 58
50 57 65
51 58 66
49 56 64
42 48 56
38 43 50
34 39 45
31 35 41
25 28 33
24 28 32
30 34 39
31 35 41
34 39 45
36 40 47
36 42 49
32 36 41
21 24 28
21 23 27
34 38 44
38 44 51
43 49 57
44 50 57
37 42 49
25 28 32
17 20 23
31 35 40
41 46 54
47 54 62
51 58 67
47 54 62
41 47 55
26 29 34
30 34 40
42 48 56
53 61 70
58 66 76
60 68 79
59 67 78
59 67 78
57 65 75
51 58 67
46 52 60
44 50 58
46 52 60
50 57 66
55 63 72
58 66 76
62 71 82
62 71 82
67 76 88
68 77 89
70 80 92
71 81 94
70 79 92
68 77 89
71 80 93
74 84 97
78 88 102
83 94 108
84 96 111
86 98 113
84 96 111
83 94 108
81 93 108
83 94 109
84 96 110
83 94 109
86 97 112
87 98 112
89 101 117
90 102 119
90 103 119
85 96 111
80 90 104
16 18 21
17 19 23
23 26 30
26 30 34
26 30 35
33 37 43
40 46 54
48 54 62
51 58 67
52 59 69
53 60 70
57 65 75
56 64 73
54 61 71
51 58 67
50 56 65
53 60 70
57 65 75
62 71 82
62 71 82
67 76 88
70 80 92
73 83 96
73 83 96
73 83 96
71 81 93
63 72 83
54 62 72
48 54 62
38 43 50
35 40 46
24 27 32
23 26 30
32 37 42
37 42 48
41 46 54
39 44 51
37 42 48
25 28 33
27 31 36
26 30 34
24 27 32
24 27 31
25 28 32
18 20 23
18 21 24
23 26 30
21 24 28
18 21 24
23 25 29
29 33 39
34 39 45
34 39 46
38 44 50
43 49 57
50 57 66
60 69 79
63 72 83
64 73 84
62 71 82
55 62 72
47 53 62
37 42 49
25 29 33
18 20 24
15 17 20
14 16 19
15 17 20
18 21 24
24 27 31
24 28 32
18 21 24
19 21 25
22 25 29
25 29 33
27 30 35
32 36 42
42 47 54
47 54 62
55 62 72
60 68 79
65 73 85
67 76 88
69 78 90
68 77 89
72 81 94
76 87 100
80 91 105
88 99 114
88 101 117
93 106 123
96 108 125
97 110 127
95 107 124
95 107 124
96 109 127
94 107 124
97 110 127
97 110 128
103 117 135
105 120 139
106 120 138
107 121 140
107 121 140
106 121 140
107 121 139
107 121 140
104 118 137
109 123 142
108 123 142
111 126 145
107 122 141
109 124 144
107 121 140
102 116 134
97 110 128
95 108 124
94 107 124
92 104 120
94 107 124
98 112 129
104 117 135
102 116 134
110 125 145
114 129 149
117 132 152
115 130 151
118 133 154
117 133 154
121 138 160
123 140 161
124 140 162
125 142 165
126 144 167
127 145 168
131 149 172
129 147 170
127 144 167
125 143 166
125 142 164
121 137 158
123 139 161
118 134 155
113 128 148
109 124 144
113 128 148
111 126 146
107 121 140
110 125 144
108 123 142
108 122 141
103 118 136
104 119 138
103 117 135
99 112 130
94 106 122
92 104 121
86 98 113
86 97 112
80 91 105
75 85 99
68 78 90
56 64 74
43 49 57
28 32 37
27 30 35
25 29 33
24 28 32
23 26 30
25 28 33
24 27 32
24 27 31
22 25 29
25 29 33
26 29 34
25 29 33
29 33 38
33 37 43
33 38 44
24 28 32
13 15 17
16 18 21
20 23 27
18 20 23
17 20 23
16 19 22
15 17 20
25 29 33
36 41 48
45 51 59
50 57 66
55 63 73
63 71 82
64 73 85
69 78 90
72 82 94
73 82 95
71 81 93
75 84 97
78 88 102
80 91 105
81 93 107
86 98 114
87 99 114
81 92 106
81 92 106
81 92 106
87 98 113
89 101 117
89 102 118
88 99 115
87 99 114
83 94 109
80 90 104
75 85 98
71 80 93
61 69 80
52 58 67
35 40 47
28 32 37
30 34 40
32 36 42
34 38 44
33 37 43
26 30 35
27 31 36
32 36 42
33 38 44
33 37 43
32 36 42
27 31 36
31 35 40
37 42 49
41 47 54
41 46 53
41 46 53
39 44 51
32 37 42
32 36 42
34 39 45
33 38 43
35 40 46
36 41 48
38 43 50
34 38 44
31 36 41
31 35 41
29 33 39
30 34 40
35 41 47
37 42 48
38 43 50
31 35 41
27 31 36
27 31 36
27 31 36
22 25 29
19 22 26
18 21 24
20 23 26
26 29 34
30 34 40
33 37 43
28 32 37
20 23 27
16 18 21
20 23 27
25 29 33
29 33 39
29 32 37
24 28 32
25 28 32
30 34 39
31 36 42
29 33 39
32 36 42
35 40 46
42 47 54
42 48 56
44 50 57
48 55 63
46 52 61
48 55 64
55 62 72
56 63 73
54 62 71
56 63 73
58 66 76
61 70 81
63 72 83
64 73 84
60 69 80
62 70 81
63 71 82
62 70 82
61 70 81
65 74 86
67 76 88
69 79 91
69 79 91
72 82 95
73 82 95
72 82 95
73 82 95
74 84 98
78 88 102
73 83 96
67 76 88
65 73 85
59 66 76
52 59 68
44 50 58
42 47 54
40 46 53
44 50 58
44 50 58
38 44 51
36 41 48
33 38 44
27 31 36
19 21 25
27 30 35
37 42 49
41 46 53
44 50 58
41 47 55
39 45 51
39 44 50
37 43 50
27 31 36
23 26 30
24 28 32
26 30 35
21 24 28
15 17 20
15 18 20
16 18 21
18 20 23
26 30 35
36 41 47
36 41 47
33 37 43
24 27 32
22 25 29
27 30 35
27 31 36
29 33 38
28 32 37
25 29 33
20 22 26
21 24 28
28 32 37
30 34 39
29 33 38
22 26 30
22 25 29
31 35 41
38 43 49
43 48 56
43 49 57
45 51 59
42 48 55
43 49 57
46 53 61
44 50 57
44 50 57
48 54 63
48 54 63
47 53 62
46 52 60
42 48 55
39 44 51
36 41 48
32 37 42
33 37 43
29 33 39
34 38 44
34 38 45
36 41 47
32 37 43
36 41 47
43 49 56
53 60 69
59 67 78
65 74 85
66 76 88
72 81 94
77 87 100
79 89 103
76 87 101
72 82 95
69 79 91
67 76 88
67 77 89
70 80 92
77 87 100
79 90 105
85 96 112
88 99 115
84 95 110
34 39 45
34 39 46
36 42 48
44 50 57
51 59 68
56 63 73
56 64 74
54 62 72
52 60 70
52 59 68
51 58 67
46 53 61
43 49 57
40 45 52
36 41 47
35 40 46
33 37 43
33 38 44
34 39 45
36 41 48
32 37 43
36 40 46
36 41 48
37 42 49
33 37 43
33 39 45
39 44 51
39 45 52
40 46 53
40 45 52
45 51 59
42 48 56
40 45 53
37 42 48
39 44 52
40 45 52
38 43 50
38 43 49
39 44 51
45 51 59
41 46 53
34 39 46
31 36 41
31 35 41
29 33 38
29 33 39
34 39 45
36 41 47
31 36 42
26 30 35
19 21 25
15 17 20
17 19 22
26 30 35
31 35 41
33 37 43
37 42 48
43 49 57
45 51 59
46 52 60
46 52 61
48 55 63
47 53 62
46 52 60
48 54 62
50 57 66
46 52 60
43 49 56
34 39 45
27 31 36
26 30 34
28 32 36
38 43 50
46 52 61
59 67 77
64 72 84
69 78 90
73 83 96
73 84 98
78 88 102
77 87 101
80 91 106
83 94 109
83 94 109
85 97 113
90 102 119
95 107 124
96 109 125
99 113 131
99 112 129
101 115 133
103 117 135
101 115 133
100 114 131
97 110 128
96 109 126
96 109 126
96 109 126
101 114 131
102 116 134
103 118 137
105 120 138
107 122 141
104 118 137
103 117 136
106 121 139
108 122 142
107 121 141
110 125 144
109 124 144
105 119 138
105 119 138
97 111 128
90 103 119
87 99 114
85 97 111
79 90 104
79 89 103
76 87 100
78 88 102
79 89 103
77 88 102
79 89 104
79 90 104
77 87 100
76 87 101
82 94 109
85 96 111
91 104 120
96 108 125
95 108 125
104 118 138
110 124 143
107 123 143
112 127 147
113 129 149
113 128 149
113 128 148
107 123 143
111 126 146
108 123 141
107 122 141
103 117 135
107 121 139
105 119 138
106 121 140
109 124 143
110 125 145
107 121 140
100 114 132
101 115 133
99 113 131
90 103 120
91 104 120
89 101 117
85 96 111
83 94 108
83 94 109
79 90 105
75 85 99
70 80 92
62 71 82
53 60 70
37 43 49
25 28 33
21 24 28
18 21 24
18 21 24
29 33 38
38 43 50
44 50 57
48 54 63
53 61 70
56 64 74
56 64 75
52 59 68
48 55 64
47 53 61
40 45 52
36 41 48
30 34 39
26 30 35
29 33 38
33 38 44
38 43 50
34 39 45
26 30 35
18 20 24
20 23 26
26 30 35
36 41 48
48 55 63
58 65 76
61 70 80
64 73 85
72 81 94
74 85 98
80 91 106
89 101 117
93 105 122
93 106 122
92 105 121
93 105 121
94 107 123
91 104 120
97 110 126
94 107 124
91 102 118
87 99 114
88 100 115
88 101 117
89 101 117
91 104 120
89 102 118
87 99 115
84 96 111
80 90 105
76 86 100
72 82 95
69 79 92
67 76 88
65 74 86
60 68 79
57 65 75
56 63 73
58 66 76
57 65 75
63 72 84
64 73 84
65 74 85
65 74 86
62 70 81
59 68 79
58 65 75
54 61 71
54 61 71
61 68 79
62 70 81
63 72 83
70 80 92
67 77 89
65 74 85
62 71 82
60 67 78
60 68 79
58 66 77
58 66 77
63 72 83
64 73 84
63 71 83
63 71 83
59 67 77
58 66 77
58 66 76
54 62 72
49 56 64
43 49 56
38 43 50
32 37 43
25 29 34
23 26 31
23 26 30
22 25 29
21 24 28
18 20 24
22 26 30
28 32 37
28 32 37
26 30 35
28 32 37
35 40 46
42 47 54
44 50 58
45 51 59
47 54 62
47 53 62
47 54 63
43 50 57
42 47 55
41 46 53
37 42 48
29 33 39
28 31 36
29 34 39
35 40 47
41 47 54
44 49 57
44 50 57
46 52 61
49 56 64
52 59 68
58 67 77
60 68 79
66 75 86
69 78 91
73 83 96
74 84 97
76 87 100
75 85 99
76 86 100
78 89 103
76 86 99
77 87 101
77 88 102
74 84 97
73 83 96
69 79 91
71 80 93
68 77 89
66 74 86
62 70 81
54 61 71
49 56 64
47 54 62
47 53 61
42 48 55
40 45 53
35 40 46
24 28 32
19 21 25
31 35 41
40 46 53
44 50 58
40 45 52
33 37 43
24 28 32
17 20 23
28 32 37
39 44 51
40 45 52
34 39 45
27 30 35
12 14 16
18 20 23
24 27 31
28 31 36
30 34 39
33 37 43
24 28 32
22 25 29
33 38 44
44 50 58
47 53 62
47 53 62
43 49 57
41 47 54
42 47 55
43 49 57
35 39 46
27 31 35
24 28 32
26 30 34
29 33 38
23 26 30
23 27 31
30 35 40
35 40 46
37 42 49
41 46 54
41 47 54
40 45 52
32 37 42
22 25 29
13 14 17
15 17 20
17 19 23
24 27 31
30 34 39
36 41 47
39 45 52
35 40 46
28 32 37
17 20 23
29 33 38
40 45 53
45 51 59
51 58 66
51 58 67
47 54 62
44 50 58
36 41 47
32 36 42
32 37 42
46 52 60
52 59 68
50 57 66
48 55 64
50 57 66
52 59 68
51 57 66
50 57 66
48 54 63
40 45 52
29 34 39
29 33 38
34 39 45
42 48 56
46 53 61
49 56 65
50 57 65
63 72 83
65 74 85
67 76 88
68 78 90
66 75 87
61 70 81
55 63 72
51 58 67
49 56 64
44 50 58
37 42 48
35 39 45
30 34 40
32 37 43
31 35 41
27 31 36
35 40 46
45 51 59
50 57 66
56 63 73
53 61 70
54 61 70
49 55 64
42 47 55
35 39 46
26 30 35
22 24 28
18 21 24
21 24 27
29 33 39
41 46 54
45 51 59
48 55 64
48 55 64
54 61 71
57 65 75
58 65 75
59 66 77
65 74 85
65 74 86
65 73 85
60 68 79
57 65 74
53 60 69
46 52 61
40 45 52
27 31 35
23 26 30
19 21 25
22 26 30
29 33 38
31 36 41
36 41 48
37 43 49
34 39 46
34 38 44
31 35 41
35 41 47
42 47 55
43 49 56
48 54 63
52 60 69
56 64 74
60 68 79
63 72 83
64 73 84
59 67 77
58 66 77
59 67 77
57 65 76
57 64 74
53 60 70
54 62 71
62 70 81
69 78 90
75 85 99
82 92 107
84 95 110
85 96 111
88 100 116
91 103 120
89 102 118
93 105 121
91 103 119
95 108 125
96 110 127
98 111 128
98 111 128
102 116 134
104 118 137
103 117 135
103 117 135
97 110 128
98 112 129
99 113 131
100 114 131
100 114 132
102 116 135
102 115 132
101 114 132
99 113 130
96 109 126
95 107 124
94 107 124
95 107 123
92 105 121
94 106 123
100 113 131
97 111 129
99 113 132
96 109 126
93 106 123
92 104 120
84 96 111
83 94 108
76 86 99
77 88 101
75 86 99
69 78 90
64 72 84
55 63 73
52 58 67
46 52 61
45 51 59
50 57 66
53 60 70
57 65 75
63 71 82
67 76 88
73 83 96
79 90 104
87 99 114
88 101 117
91 104 120
91 103 119
92 105 121
94 107 124
96 110 127
93 106 123
93 105 122
90 102 119
89 101 117
91 104 120
95 108 125
97 110 128
95 108 125
96 109 126
97 110 127
93 105 122
91 103 120
86 98 114
87 98 113
85 97 113
82 93 107
78 89 103
80 91 105
79 90 105
78 89 103
76 86 100
70 79 92
66 75 86
58 66 77
48 55 64
34 39 46
21 24 28
18 21 24
24 28 32
33 37 43
43 49 57
46 52 61
47 53 62
52 59 69
59 67 77
62 71 82
64 73 84
59 67 78
59 67 77
54 62 72
51 58 67
47 54 62
41 47 54
34 39 46
31 36 41
33 38 44
33 38 44
33 38 44
29 33 39
24 27 32
17 19 22
17 19 22
20 23 27
30 34 40
35 40 46
39 44 51
44 50 58
53 60 69
58 66 76
66 75 87
68 77 89
75 85 98
80 91 105
90 102 118
94 107 124
99 112 130
98 112 130
95 107 124
92 105 122
88 100 115
87 99 115
88 100 116
89 101 117
91 104 121
89 101 117
89 100 116
88 100 115
86 98 113
86 97 112
85 96 111
77 88 102
77 87 100
76 87 100
76 87 101
79 89 103
78 89 102
78 89 103
82 93 107
83 94 109
85 96 111
87 99 114
89 101 116
88 100 116
88 100 116
90 102 118
88 100 115
91 103 119
88 99 115
88 100 115
86 97 112
86 98 114
85 96 111
82 93 107
78 88 102
77 88 103
80 90 104
83 94 109
87 99 114
86 98 113
87 99 115
84 95 110
78 88 102
80 90 104
78 89 102
74 84 98
72 82 94
67 77 89
65 74 85
62 71 82
62 70 81
60 69 79
58 65 75
51 58 67
44 51 59
39 44 52
40 45 52
42 47 55
40 45 52
34 39 45
26 30 35
26 30 34
24 27 32
19 22 25
16 18 21
24 27 31
28 32 38
28 32 38
29 33 38
34 39 45
32 36 42
30 34 40
27 31 36
26 30 35
29 33 38
32 37 43
31 36 41
33 38 44
33 38 44
32 36 42
25 28 33
21 24 28
18 21 24
17 19 22
20 23 27
29 33 38
39 44 51
46 53 61
50 57 66
55 62 72
60 68 78
63 72 83
64 72 84
64 73 84
59 68 79
61 69 80
63 72 83
65 74 85
70 80 92
69 79 92
66 75 87
64 73 83
62 70 81
58 66 76
50 56 65
43 50 57
40 46 53
42 47 55
47 53 61
45 51 59
38 43 50
32 36 42
34 38 44
33 37 44
37 42 48
37 42 48
34 38 44
29 33 38
28 32 37
33 38 44
38 44 50
45 51 59
44 50 58
39 44 51
26 30 34
17 19 23
28 32 37
37 42 49
45 50 58
48 54 63
43 49 57
33 38 44
22 25 28
25 28 33
31 35 40
32 37 43
40 45 52
48 54 62
50 57 66
53 60 69
53 60 70
48 54 63
41 47 54
40 46 53
42 48 55
47 53 62
48 55 63
43 50 58
39 45 53
35 40 46
31 35 41
26 30 34
28 32 37
29 33 38
27 31 36
24 27 31
22 26 30
27 30 35
30 34 39
34 39 45
29 33 39
29 33 38
26 30 35
22 25 28
20 23 26
16 18 20
25 29 33
36 41 48
45 51 59
53 60 70
57 64 74
61 69 80
56 64 74
50 57 66
38 44 51
29 33 39
22 25 29
17 20 23
20 23 27
26 30 34
29 33 38
31 36 41
32 36 42
31 35 40
26 30 34
32 36 42
29 33 39
20 23 26
12 13 16
15 17 19
20 22 26
29 33 39
32 37 43
54 61 71
50 57 66
49 56 66
48 55 64
50 57 66
47 54 62
44 50 58
34 39 45
32 36 42
32 36 41
33 38 44
37 42 48
43 48 56
50 57 66
58 66 76
61 69 80
64 73 84
62 71 82
63 71 82
61 69 80
55 62 72
46 52 61
36 41 47
28 32 37
23 26 30
22 25 28
28 32 37
30 34 40
34 38 44
33 37 43
39 44 51
43 48 56
47 54 62
50 56 65
53 61 70
47 54 62
47 54 62
47 53 62
48 55 63
55 63 72
59 67 78
57 64 74
53 60 69
46 52 60
39 45 51
30 34 39
23 26 30
26 30 34
31 35 41
32 36 42
32 36 42
35 40 47
37 42 48
42 48 56
49 55 64
53 60 70
58 65 76
60 68 78
63 72 83
68 77 89
68 77 90
74 84 97
78 89 103
81 92 107
82 94 109
84 96 111
82 93 108
79 90 104
75 85 99
72 82 95
68 77 90
65 74 86
66 75 87
67 77 89
69 79 91
73 83 96
79 90 104
82 94 109
83 94 108
83 94 109
85 96 111
84 96 110
86 97 113
91 103 119
92 104 121
90 103 120
94 106 122
92 104 120
94 107 123
96 109 126
97 111 128
98 111 129
99 112 130
96 110 127
99 113 130
96 109 126
98 111 129
95 109 127
94 107 124
93 106 122
87 99 114
85 96 111
82 93 107
81 92 107
77 87 101
78 90 104
81 92 106
74 85 98
70 79 91
66 75 86
67 76 88
59 67 78
55 63 73
47 54 62
37 42 49
37 42 49
36 41 48
41 46 54
43 49 57
45 51 59
44 50 58
42 47 55
41 47 54
42 48 55
45 51 58
46 53 61
51 58 67
56 64 74
67 76 87
69 79 91
77 87 100
80 91 106
81 92 107
84 95 110
86 98 113
87 99 114
87 99 114
82 93 108
83 94 108
82 93 108
82 93 108
80 90 104
79 90 105
76 86 100
77 87 101
77 87 100
80 92 106
83 94 109
82 93 108
81 92 107
78 89 103
77 87 100
79 90 104
79 90 104
78 89 102
75 85 98
73 83 96
68 78 90
61 69 80
54 62 71
49 56 65
37 42 49
22 25 29
27 31 36
36 41 47
42 48 56
44 50 58
48 54 63
49 56 65
50 57 66
48 55 63
48 54 62
50 57 66
54 61 71
50 57 66
47 54 63
43 49 57
44 50 58
46 53 61
46 53 61
50 57 65
48 54 63
50 57 66
49 56 65
52 60 69
46 53 62
44 50 58
37 42 49
30 34 39
27 31 36
28 32 37
30 34 40
28 32 37
31 35 40
27 31 36
29 32 37
34 39 46
44 51 58
54 61 71
62 71 82
69 78 91
75 85 98
82 93 107
86 98 113
88 100 116
91 103 119
93 106 123
91 103 119
89 102 118
87 99 115
87 99 115
88 100 116
85 97 113
86 97 113
86 98 114
87 99 114
88 100 115
87 99 114
87 99 114
84 95 109
85 97 112
90 103 119
93 106 122
95 108 125
96 109 126
97 109 126
95 108 125
97 109 126
94 106 122
94 107 123
92 104 120
95 108 125
92 104 121
94 106 122
91 103 118
88 100 116
84 96 111
82 93 108
78 89 102
74 84 98
74 83 96
73 83 96
75 85 98
75 85 98
81 92 106
85 96 112
87 99 114
86 98 114
88 100 115
86 98 113
86 98 113
84 95 110
78 89 103
76 87 101
73 83 96
74 85 98
71 81 94
73 83 96
72 82 95
71 81 93
70 80 93
70 79 92
68 77 89
65 74 86
59 68 79
53 60 70
43 49 57
33 38 44
23 26 30
19 22 26
17 19 22
15 18 20
18 21 24
23 26 30
22 24 28
23 26 30
25 28 33
25 28 33
20 23 26
17 20 23
22 25 29
24 27 31
22 25 29
21 24 28
21 24 27
19 22 25
21 24 28
29 33 38
32 37 43
37 42 48
42 48 56
45 51 59
46 53 62
49 56 65
54 61 71
57 65 75
57 64 74
59 68 78
60 68 79
63 71 82
62 71 82
59 68 78
58 65 76
58 66 77
61 69 79
64 72 83
62 71 83
59 68 78
60 68 78
59 67 77
55 63 73
50 57 67
45 52 60
43 49 56
48 54 62
49 55 64
50 57 67
58 66 76
61 70 81
62 70 81
64 72 84
60 69 80
58 66 77
56 64 74
54 62 72
52 59 68
47 54 62
44 50 57
36 41 48
23 26 31
25 28 33
29 34 39
42 48 55
46 52 61
52 59 68
56 64 74
57 65 76
58 65 75
54 62 72
48 55 63
44 50 58
38 43 50
32 36 42
28 32 37
34 39 45
35 40 46
35 40 47
30 35 40
28 31 36
30 34 39
33 38 44
37 42 49
40 45 52
42 47 55
42 48 56
31 36 42
20 23 27
19 22 25
29 33 39
38 44 51
43 49 57
39 45 52
31 35 41
18 21 24
29 33 38
43 48 56
49 56 64
51 58 67
50 57 66
49 55 64
41 47 54
37 42 48
29 33 39
15 17 20
22 25 30
30 34 39
32 36 42
30 34 39
24 27 31
22 25 28
23 26 30
28 32 37
29 33 39
29 32 37
18 21 24
16 19 22
17 19 22
17 19 23
27 30 35
37 42 49
44 50 58
47 53 61
39 44 52
33 37 43
29 33 39
27 31 36
31 36 42
38 44 51
38 43 50
38 43 50
48 54 62
44 50 57
41 46 53
39 44 51
41 46 53
36 41 48
22 25 29
28 32 37
39 45 52
47 54 63
53 60 69
59 66 77
63 71 82
64 73 85
65 74 85
66 75 87
63 72 83
61 70 81
55 63 73
48 55 63
35 40 46
35 39 46
37 42 49
39 44 51
37 42 49
41 47 55
43 50 58
46 52 60
42 48 55
40 46 53
43 49 57
44 50 57
39 45 52
28 32 37
16 19 22
17 19 22
18 21 24
25 28 33
31 35 40
32 37 42
32 36 41
33 38 44
38 43 50
44 50 58
42 48 56
43 48 56
42 48 56
42 48 55
44 50 57
45 51 60
45 51 59
45 51 59
48 55 63
51 57 67
53 61 70
59 68 78
67 76 87
69 79 91
70 80 92
73 83 96
75 85 98
76 86 101
75 85 99
79 89 103
79 90 103
79 90 105
80 91 105
77 88 102
76 87 100
73 82 95
69 79 91
71 80 92
72 82 95
74 84 97
74 84 98
74 84 98
74 84 97
75 84 97
75 85 99
71 81 94
72 82 95
73 83 96
73 84 97
75 85 98
79 90 104
77 87 101
80 91 106
84 94 108
86 98 113
87 99 114
91 103 118
93 106 122
92 104 121
94 108 125
93 106 123
90 103 120
92 105 121
87 99 115
80 91 106
72 82 96
63 72 83
56 63 73
51 58 68
50 56 65
46 53 61
45 51 59
49 56 65
45 51 59
48 55 63
43 49 57
35 40 46
28 32 37
30 34 40
31 35 41
31 35 41
30 35 40
30 34 39
29 32 37
31 35 40
30 34 40
33 38 44
34 38 44
34 39 45
31 35 41
31 35 41
27 31 36
31 35 41
45 52 60
54 61 71
57 65 75
61 69 80
59 67 77
60 69 80
63 72 83
66 75 86
70 79 91
71 81 94
70 80 93
70 80 92
72 82 95
74 84 97
73 83 96
73 83 96
71 81 94
70 79 92
69 78 91
71 80 93
69 79 91
70 80 92
68 77 88
69 79 91
68 77 89
69 79 92
69 79 91
66 75 86
65 73 85
65 74 85
65 74 85
63 72 84
61 69 80
59 67 78
54 62 72
50 57 66
44 50 57
41 47 54
38 43 49
33 37 43
33 37 43
34 39 45
37 42 49
37 42 49
31 35 41
29 33 38
26 30 35
25 28 33
28 32 37
29 33 38
31 36 41
32 36 41
31 36 41
26 29 34
28 32 37
36 41 47
41 46 53
45 51 60
50 57 66
53 60 70
55 63 73
58 65 76
56 64 74
59 67 78
56 64 74
57 66 76
52 60 69
46 52 60
42 48 56
33 38 44
27 31 36
24 27 31
26 30 35
37 42 49
44 50 58
56 63 73
62 70 81
69 78 90
71 81 94
75 86 100
82 93 108
84 95 110
85 96 111
82 93 107
83 94 109
85 96 111
86 97 112
86 98 114
85 97 112
87 99 114
89 101 117
84 96 111
90 103 119
93 105 122
95 108 125
97 110 128
98 112 130
97 111 128
95 108 125
97 110 127
92 105 122
90 102 119
86 98 113
80 90 105
82 93 108
81 92 107
79 91 105
78 89 102
71 81 94
69 78 90
66 75 87
66 75 87
68 77 89
63 71 83
58 66 76
55 62 72
55 62 72
60 68 78
63 72 84
66 75 87
70 79 92
75 85 98
78 88 102
81 91 106
78 89 103
77 88 101
74 85 99
74 85 98
71 81 93
70 80 92
71 81 93
73 83 96
73 84 97
75 85 98
75 85 99
69 79 91
64 73 84
59 67 78
55 63 73
52 59 68
46 52 60
37 42 49
37 42 48
33 38 44
33 37 43
35 40 46
34 39 45
34 39 46
37 42 49
31 35 41
20 23 27
10 11 13
18 20 23
22 25 29
22 25 29
20 23 26
21 24 28
23 26 30
22 25 29
19 22 25
18 20 23
22 25 29
30 35 40
36 40 46
42 48 55
49 56 65
57 65 76
63 71 82
65 74 85
66 76 88
69 78 90
67 77 89
64 73 85
64 73 84
64 73 85
62 70 82
61 70 81
59 67 77
62 71 82
59 67 78
57 65 75
58 66 77
55 63 73
57 65 75
56 63 73
48 55 64
44 50 58
44 50 58
46 52 61
49 56 64
50 57 65
51 58 67
55 62 72
60 68 78
59 67 77
58 66 77
57 65 75
55 62 72
49 55 64
44 50 59
36 41 48
22 25 29
26 30 35
39 44 51
52 59 68
57 65 75
57 65 75
58 65 76
60 68 79
63 72 84
67 76 88
70 79 92
72 82 95
73 82 95
73 83 97
75 85 99
71 80 93
67 77 89
62 71 82
59 67 78
58 65 75
57 65 75
59 67 78
60 68 79
63 72 83
62 71 82
58 66 77
57 65 75
48 55 63
43 49 57
37 43 50
32 36 42
27 30 35
29 33 38
30 34 39
25 29 34
18 20 23
20 23 26
31 35 41
38 43 50
40 46 53
43 49 57
45 51 59
45 51 59
41 46 53
29 33 38
17 19 23
25 28 33
32 36 42
30 34 40
22 25 29
21 24 28
26 30 34
29 33 38
28 32 38
30 35 40
32 37 42
33 37 42
38 44 51
42 47 55
42 48 55
40 46 53
40 45 52
35 39 45
26 30 34
16 18 21
19 21 25
20 23 26
17 19 22
30 35 40
38 43 49
44 50 58
47 54 63
48 54 63
47 53 62
50 57 66
50 57 66
45 51 59
43 48 55
39 44 51
38 43 49
33 38 44
32 36 42
34 38 44
31 35 41
33 37 43
31 35 41
24 28 32
26 29 34
25 29 33
21 24 28
21 24 28
21 24 28
30 34 39
41 46 53
46 52 60
48 54 63
50 57 66
50 56 65
47 54 63
43 49 57
44 50 58
48 55 64
50 57 65
45 51 60
39 44 51
31 36 41
25 28 33
14 16 19
22 25 29
27 31 36
25 29 33
25 29 33
29 33 38
35 40 46
38 43 50
41 47 54
44 50 59
47 54 62
48 54 63
47 53 61
44 50 58
40 46 53
44 50 57
50 57 65
53 61 70
56 64 74
58 66 76
62 70 81
68 78 90
75 85 98
75 86 99
77 87 100
77 87 101
75 85 99
71 80 92
68 77 89
69 78 90
67 76 88
66 75 86
66 76 87
65 74 85
64 73 85
67 76 88
68 77 90
69 78 91
69 79 91
69 78 90
68 77 89
68 78 90
67 76 88
67 77 89
68 77 89
69 78 90
73 83 96
76 87 100
78 89 103
79 89 103
79 90 104
82 93 108
81 91 106
78 89 103
76 86 99
75 86 99
77 88 101
83 94 109
83 94 109
79 90 104
77 87 101
67 76 88
59 67 78
47 53 61
38 43 49
31 35 40
24 28 32
24 27 31
26 30 35
23 26 31
21 24 28
21 24 28
29 33 38
34 39 45
37 42 49
44 50 58
48 54 63
47 53 61
45 51 59
40 46 53
34 39 45
29 34 39
34 38 44
37 42 48
37 42 48
41 47 54
41 46 53
43 48 56
42 48 55
38 43 50
32 37 42
19 21 25
23 26 31
30 34 40
31 35 41
30 34 39
33 38 44
34 39 45
38 43 50
40 45 53
42 48 55
43 49 57
46 52 61
46 52 60
45 51 60
42 48 55
44 51 59
51 58 67
50 56 65
48 55 64
45 51 59
47 53 62
47 54 62
47 54 62
51 57 66
52 59 68
54 61 70
53 60 69
56 64 74
59 67 77
63 72 83
67 77 89
69 79 91
70 80 92
69 78 91
68 77 88
66 74 86
63 72 83
61 69 80
61 69 80
65 74 86
64 73 84
65 73 85
64 73 84
56 64 73
53 60 69
46 53 61
43 48 56
47 54 62
55 63 73
58 66 76
60 68 79
58 66 77
60 68 79
60 68 78
57 65 76
51 58 67
43 49 57
34 39 45
21 24 27
16 18 21
21 24 27
33 37 43
47 54 63
56 63 73
64 73 85
68 78 90
74 84 97
75 85 98
76 86 100
76 86 99
71 80 93
61 70 81
56 63 73
44 49 57
37 43 49
30 35 40
21 24 28
30 34 40
48 55 63
59 67 77
66 75 87
70 79 92
71 82 95
78 89 102
80 90 105
79 90 104
82 94 109
82 94 108
85 97 112
88 100 115
86 99 114
92 104 120
91 104 120
95 108 124
94 107 124
96 109 126
97 110 127
97 111 129
99 113 131
95 108 125
90 103 119
87 99 115
84 95 110
77 88 102
73 83 96
70 79 91
70 79 91
68 77 90
66 75 87
65 74 85
62 71 82
62 70 81
59 67 77
53 60 69
46 53 61
49 56 65
50 57 66
51 58 67
52 59 69
55 63 73
57 65 75
58 66 77
60 68 79
62 71 82
66 75 87
69 78 90
69 79 91
70 79 92
72 82 94
74 84 97
75 85 99
74 85 99
74 83 96
66 75 87
62 71 82
59 67 78
56 63 73
50 57 66
48 54 63
51 58 68
54 61 70
49 56 65
49 56 64
50 56 65
51 58 67
52 59 69
51 58 67
45 51 59
37 42 49
25 28 33
20 23 27
24 27 31
36 40 46
43 49 57
44 50 58
41 47 55
42 48 55
40 45 52
33 37 43
29 33 39
22 25 29
20 23 26
18 20 24
22 25 29
26 30 34
31 35 41
39 44 51
47 54 62
55 62 73
59 67 77
56 64 74
59 67 78
62 70 81
62 70 82
57 65 75
52 60 69
47 53 61
45 51 59
46 53 61
45 50 58
47 53 61
46 52 61
44 50 57
43 49 56
38 43 50
31 35 40
22 25 29
15 17 20
16 18 21
20 23 26
19 21 24
19 22 26
20 22 26
22 25 28
26 30 35
29 33 38
36 40 47
35 40 47
31 35 41
26 30 35
25 28 32
24 27 31
34 38 44
42 47 55
49 57 66
53 60 70
52 59 68
58 66 76
63 71 82
63 72 83
65 74 86
71 81 94
74 84 97
77 87 101
81 92 106
86 98 114
86 98 113
87 99 114
85 96 111
81 92 107
77 88 102
76 86 99
76 86 100
75 85 98
77 87 101
74 84 98
71 81 94
70 80 93
70 80 92
67 77 89
65 74 85
59 67 78
51 59 68
46 53 61
41 46 54
33 37 43
24 27 31
25 28 33
27 30 35
26 30 35
28 31 36
24 27 32
23 27 31
26 29 34
22 25 29
17 20 23
17 20 23
12 13 16
16 19 22
24 27 31
25 28 32
20 23 27
20 23 27
30 34 40
37 42 49
43 48 56
48 54 63
50 57 66
53 60 70
57 65 75
63 72 83
63 71 82
59 67 78
52 59 68
43 48 56
36 41 48
31 36 41
28 32 36
25 28 32
28 31 36
36 41 47
45 51 59
49 55 64
51 58 67
67 76 88
64 73 84
65 74 86
65 74 86
65 74 86
63 71 83
59 68 78
57 64 74
46 53 62
38 43 50
28 32 37
29 33 38
32 37 43
31 35 41
29 34 39
28 32 37
29 33 39
28 32 37
24 27 31
23 26 30
32 36 42
43 49 57
44 50 58
42 48 55
34 39 45
28 31 36
24 27 31
28 31 36
29 34 39
29 33 38
27 31 35
21 24 28
15 17 20
13 15 17
14 16 18
17 19 22
16 18 21
20 23 26
30 34 39
40 45 53
46 53 61
46 52 60
46 53 61
44 50 58
42 48 55
34 39 45
28 32 37
24 27 31
21 24 28
18 21 24
21 24 28
27 31 36
33 38 44
35 39 46
35 40 46
36 41 48
41 46 54
50 57 66
57 65 76
58 66 76
57 65 75
62 71 82
63 72 84
65 74 86
65 73 85
66 75 87
65 74 85
68 77 89
69 79 91
73 82 95
71 81 94
73 82 95
74 84 97
74 85 98
78 88 102
76 87 101
76 86 99
76 86 100
75 85 99
80 90 104
82 93 107
85 97 113
90 102 117
91 103 119
87 99 115
87 99 115
87 99 114
82 93 108
83 95 110
81 92 106
78 89 104
76 87 101
74 84 97
71 80 93
70 79 91
62 70 81
54 62 72
44 51 59
31 35 41
25 28 33
35 40 46
41 46 53
46 52 60
48 55 63
48 55 64
50 56 65
50 57 66
54 61 71
53 60 70
52 59 68
52 59 68
48 54 63
47 54 62
46 53 61
45 51 59
42 48 56
39 44 51
32 37 42
30 35 40
28 32 37
24 27 31
22 25 29
22 25 30
25 28 33
28 32 37
30 34 40
20 23 26
21 24 28
27 31 36
23 26 31
15 17 20
25 29 33
31 35 41
35 40 46
33 38 44
33 37 43
23 26 31
17 19 22
13 15 17
22 25 28
31 36 41
42 47 55
46 52 60
48 54 63
47 54 62
44 50 58
46 53 61
49 55 64
44 50 58
43 49 57
43 49 56
47 54 63
52 59 69
57 65 75
65 74 86
69 78 91
70 79 92
75 86 99
76 86 99
78 89 102
85 96 111
87 99 114
91 104 120
89 101 117
89 102 118
90 102 118
90 101 117
92 104 120
87 100 115
86 97 112
79 90 105
74 84 98
70 79 92
70 79 92
68 77 89
69 78 90
70 79 92
72 81 94
71 81 94
68 78 90
66 76 88
63 72 83
55 63 73
51 58 67
42 48 56
37 42 49
26 29 34
26 30 34
32 37 42
47 53 62
61 69 80
67 76 87
70 80 93
72 82 95
72 82 94
70 79 92
66 75 87
65 74 85
63 71 82
59 67 78
53 60 70
40 45 53
22 25 29
23 26 31
41 47 54
54 61 71
60 68 79
63 71 82
64 73 85
64 72 84
64 73 84
67 76 88
69 78 90
69 79 91
73 82 95
77 88 102
82 93 108
85 97 112
87 100 116
90 102 117
90 103 119
90 102 118
88 101 117
87 98 113
88 101 117
87 99 115
84 95 110
80 91 105
77 88 101
76 86 99
70 79 92
67 77 89
66 75 86
64 72 84
61 69 81
59 67 78
56 64 74
50 56 65
48 54 63
46 52 60
45 52 60
47 53 62
52 60 70
58 66 76
60 68 79
61 70 81
62 70 81
65 74 86
68 77 89
66 75 87
66 75 87
65 73 84
65 74 86
66 76 87
66 75 87
65 74 86
64 73 84
60 69 80
54 62 72
49 56 65
44 50 58
40 45 52
33 38 43
32 37 42
35 40 47
36 41 47
39 44 51
40 45 52
40 46 53
37 42 48
35 40 46
31 35 41
25 28 33
24 27 32
31 36 41
35 40 46
37 43 49
35 40 46
31 35 40
25 29 34
30 34 40
33 38 44
33 37 43
37 42 48
42 48 55
45 51 59
41 47 54
38 43 50
37 42 49
36 41 48
38 43 50
36 41 47
35 40 47
43 49 57
47 54 63
50 57 66
50 57 67
49 55 64
49 55 64
44 50 57
42 48 56
32 37 43
28 32 37
28 32 37
25 28 32
24 28 32
27 31 36
30 34 39
29 33 38
32 37 42
35 40 46
33 38 44
34 39 45
36 41 47
36 41 48
40 45 53
40 46 53
42 47 55
43 48 56
40 45 52
36 41 48
32 36 42
26 30 34
20 23 27
20 23 27
29 33 38
40 45 52
42 48 55
43 49 57
42 47 55
42 48 56
45 52 60
44 50 59
44 50 58
41 46 54
44 50 58
50 57 66
50 57 66
51 58 68
57 66 76
63 71 83
68 77 90
70 80 92
70 80 92
69 79 91
68 77 89
70 80 92
70 80 93
69 78 91
66 75 87
62 70 81
62 70 82
64 73 85
68 77 89
68 78 90
70 80 92
65 74 86
62 70 81
59 67 78
58 66 76
54 62 71
54 61 71
50 58 67
44 50 57
30 35 40
16 18 21
21 23 27
19 22 26
16 18 21
19 22 25
15 17 20
14 16 19
20 22 26
23 27 31
25 29 33
23 26 30
26 30 35
21 24 28
17 19 22
20 23 27
25 29 34
31 35 41
34 39 45
43 49 57
50 57 66
56 64 74
59 67 77
56 63 74
52 59 68
46 53 61
40 46 53
41 47 54
45 51 59
46 52 60
48 55 64
51 58 67
52 59 69
52 59 69
52 59 69
50 57 65
51 58 67
56 63 73
59 67 78
58 66 77
58 65 76
56 63 73
53 60 69
50 57 66
46 52 60
43 49 57
40 46 53
44 50 58
44 50 57
40 46 53
36 41 48
31 36 41
31 36 41
28 32 38
25 29 34
27 31 36
37 42 49
44 50 58
43 49 57
39 44 51
32 36 41
32 36 42
24 28 32
19 22 25
20 23 26
26 30 35
35 40 46
38 43 50
40 45 52
39 45 51
43 49 57
44 50 58
52 59 69
57 65 75
56 64 75
52 59 68
44 50 57
36 41 47
33 37 43
32 36 42
27 31 36
19 22 26
13 15 17
17 20 23
22 25 29
29 33 38
42 48 55
51 58 67
56 63 74
57 65 76
59 67 78
54 61 71
51 58 67
46 53 61
33 38 44
22 25 29
34 39 45
45 52 60
51 58 68
55 62 73
56 64 74
59 67 78
63 72 83
68 77 89
72 81 93
73 83 95
75 85 99
76 87 100
76 86 100
78 89 103
78 89 103
76 87 100
76 86 99
74 84 97
76 86 100
77 87 101
78 89 102
78 89 103
78 88 102
80 91 106
81 92 107
85 96 111
81 92 106
78 89 103
76 86 99
73 83 96
72 82 94
67 76 88
59 67 77
52 59 68
42 47 55
40 46 53
44 50 58
55 62 72
64 73 84
64 73 85
72 81 94
71 81 94
71 81 94
68 78 90
66 75 87
70 80 92
68 78 91
70 79 91
65 75 87
62 70 81
61 69 80
58 67 78
60 68 79
61 69 80
59 67 78
54 61 71
48 55 64
36 41 47
20 22 26
19 21 25
29 33 38
38 44 51
44 50 58
44 50 58
40 46 53
34 39 45
19 22 25
16 18 21
26 30 34
31 35 41
30 34 39
29 33 39
29 33 39
28 32 38
30 35 40
29 33 39
25 29 33
25 29 34
33 37 43
36 41 48
37 42 49
39 44 51
32 36 42
22 25 29
18 20 24
25 29 34
30 34 40
28 32 38
24 27 31
15 17 20
28 31 36
40 46 53
48 55 64
55 62 72
57 65 75
59 68 78
65 74 85
72 81 94
75 86 100
78 89 103
81 93 107
82 94 109
83 95 110
87 99 115
87 99 114
89 101 117
92 105 121
93 105 121
92 104 121
90 103 119
89 100 115
85 97 111
84 95 111
82 93 108
79 90 105
78 88 102
79 89 103
76 86 100
70 80 92
66 75 87
60 68 78
56 64 74
49 56 65
45 51 59
40 45 52
33 37 43
30 34 39
22 25 29
14 16 19
27 31 36
39 45 51
48 55 63
52 60 69
55 62 72
59 67 77
53 61 70
49 56 64
43 49 57
43 48 56
38 44 51
36 41 48
32 36 42
24 28 32
17 19 22
24 27 32
28 32 37
32 36 42
39 44 51
44 50 58
47 54 62
48 55 64
51 58 67
55 63 73
61 69 80
63 72 84
65 73 85
67 76 88
69 79 92
70 79 92
70 79 92
67 76 88
63 72 84
63 71 82
67 76 87
66 75 87
66 75 87
68 78 90
71 80 93
74 84 97
72 83 96
70 80 92
66 75 86
61 69 80
59 67 77
60 68 78
57 65 75
52 59 68
54 61 70
55 62 72
59 66 76
59 66 76
59 67 77
58 66 77
64 72 83
67 77 89
70 79 91
72 82 96
74 84 97
72 82 95
67 77 89
62 70 81
60 68 79
59 67 77
58 66 77
58 66 76
53 61 70
50 57 66
48 54 63
42 47 55
39 43 50
40 46 53
36 41 47
32 37 42
25 28 33
18 20 23
19 21 25
18 20 23
20 23 26
23 26 30
17 20 23
14 16 19
16 18 21
20 23 26
23 26 31
24 27 31
32 36 42
34 39 45
30 35 40
26 29 34
18 21 24
20 23 27
26 29 34
34 39 45
39 45 52
45 51 59
50 57 66
59 67 77
61 69 80
62 71 82
56 64 74
49 55 64
41 46 54
33 38 44
29 33 38
28 31 36
26 30 34
22 25 29
22 25 29
21 24 28
15 17 20
15 17 20
20 23 27
31 35 41
36 41 48
35 40 46
30 34 39
25 29 33
27 31 36
22 25 30
17 20 23
28 32 37
35 40 46
37 42 48
36 41 48
41 47 54
47 54 62
54 61 71
57 64 75
59 68 78
60 68 79
60 68 78
59 68 79
53 60 69
50 57 66
43 49 56
36 40 47
31 35 40
31 35 41
29 33 38
26 30 35
28 32 37
32 36 42
44 50 57
47 54 62
53 61 70
55 63 73
50 58 67
52 59 68
48 54 63
44 50 58
41 46 54
42 49 56
45 51 59
43 50 57
44 51 59
46 53 61
49 56 65
56 64 74
62 70 81
68 76 88
67 76 88
67 76 88
70 80 92
69 78 90
70 79 91
66 75 86
61 68 79
52 59 68
42 47 54
36 41 48
41 46 54
40 45 52
39 44 51
34 39 45
30 34 40
29 33 38
26 29 34
24 27 31
24 27 31
32 37 43
31 36 41
30 34 40
26 30 35
22 25 29
26 30 35
30 35 40
27 31 36
23 26 30
17 19 22
16 18 21
21 24 28
28 32 37
37 41 48
46 52 60
54 61 71
52 60 69
47 53 62
37 42 49
27 31 36
23 26 31
26 30 34
32 36 42
31 35 41
34 38 44
31 35 41
36 40 46
44 49 57
48 55 64
53 60 70
54 61 71
24 27 31
20 22 26
19 21 25
31 35 41
38 43 50
42 48 56
46 53 61
50 57 65
52 59 68
50 57 66
48 55 64
55 62 71
53 60 70
48 54 63
40 46 54
34 38 44
30 34 39
23 26 31
30 34 40
34 38 44
41 46 54
51 58 67
54 61 71
58 66 77
61 70 81
59 67 78
53 61 71
53 60 69
50 57 66
53 60 69
57 65 75
60 68 80
64 73 84
62 71 82
63 71 83
62 71 82
62 71 82
58 66 77
57 65 76
54 61 71
49 56 65
49 56 64
45 51 59
38 43 50
30 34 39
24 28 32
23 26 30
21 24 28
20 23 26
27 31 36
38 43 49
43 49 57
47 53 61
53 60 70
56 63 73
57 65 75
54 61 71
47 53 61
36 40 46
22 26 30
26 29 34
35 40 46
39 45 52
43 49 57
44 50 57
49 55 64
56 63 73
60 68 78
64 72 83
65 74 85
66 75 87
70 80 93
72 82 94
70 79 92
68 77 89
64 73 84
64 73 84
65 75 87
68 77 89
71 80 93
72 82 94
72 82 94
72 82 96
75 84 97
71 80 93
69 78 91
66 75 87
58 66 76
54 62 72
47 53 62
38 43 50
31 35 41
36 41 47
51 59 68
63 72 83
73 83 96
73 83 96
79 89 103
82 94 108
84 96 111
85 96 111
83 94 109
83 94 108
84 96 111
85 97 112
85 97 113
89 101 117
88 100 115
86 98 113
87 99 114
90 102 118
92 104 119
85 96 111
78 89 103
73 83 96
64 73 84
55 63 73
49 56 65
44 50 58
40 46 53
38 44 51
35 39 45
35 40 46
30 34 40
26 29 33
16 18 21
25 28 33
39 44 51
45 51 59
49 56 66
52 59 68
54 61 71
54 62 72
58 66 76
59 68 78
58 66 77
49 56 65
49 55 64
47 53 62
46 52 60
41 47 54
38 43 50
34 38 44
30 34 39
24 27 32
19 22 25
16 18 21
16 18 21
14 16 19
11 13 15
13 15 18
17 19 22
25 29 34
37 43 50
44 50 58
45 51 59
51 58 67
54 61 70
58 66 76
60 69 80
68 77 89
74 84 97
82 93 108
83 95 110
86 97 112
86 98 113
85 97 112
82 94 109
82 93 107
80 91 105
73 83 96
67 76 89
67 76 89
68 77 89
69 78 91
70 80 92
69 78 90
67 76 87
63 72 83
60 68 79
57 65 76
54 62 71
49 56 65
45 51 59
41 47 54
42 47 55
39 45 52
37 42 49
29 32 37
18 20 23
28 32 37
41 46 54
48 54 63
48 54 63
44 50 58
43 48 56
38 43 50
35 40 46
33 38 44
30 34 39
24 27 32
25 29 34
31 35 41
34 39 45
28 32 37
25 28 33
27 31 36
23 26 30
24 27 32
33 38 44
38 43 50
39 44 51
40 45 53
41 46 53
45 51 59
46 52 60
42 48 56
41 47 54
44 51 59
48 54 62
49 56 65
44 50 58
43 49 57
41 47 54
43 48 56
48 54 62
52 59 68
51 58 67
51 58 67
50 57 66
47 54 62
40 45 52
43 49 57
44 50 58
43 49 57
45 51 59
47 54 62
49 55 64
51 59 68
54 61 71
57 65 75
60 68 79
60 68 78
61 69 80
66 75 86
70 79 91
69 79 91
68 77 88
62 71 82
55 63 73
51 58 67
44 50 59
40 46 53
38 43 50
36 41 47
31 35 41
28 32 37
26 30 35
20 23 27
17 19 22
21 24 28
33 37 43
35 40 46
31 36 42
30 35 40
28 32 37
28 33 38
28 32 38
26 30 35
30 34 39
32 36 41
36 41 47
38 44 51
34 39 45
29 33 37
29 33 38
27 31 35
26 29 34
25 29 33
25 29 34
22 25 29
20 23 27
26 30 34
38 43 50
49 55 64
53 60 69
59 68 78
64 73 84
61 69 80
57 65 75
47 54 63
37 42 48
27 30 35
24 27 32
27 31 36
32 36 41
30 34 40
28 32 37
30 34 39
28 31 36
25 28 32
23 26 30
25 29 33
31 35 41
29 33 38
22 25 30
15 17 20
20 23 26
23 26 30
21 24 28
27 30 35
34 39 45
43 49 57
49 56 64
53 60 70
58 66 77
62 71 82
69 79 91
71 81 94
70 80 92
68 76 88
66 75 86
63 71 83
57 65 75
55 62 72
52 60 69
49 55 64
46 53 61
44 50 58
41 47 54
37 43 50
32 36 42
28 32 37
29 33 39
31 36 41
37 42 49
45 51 59
51 58 67
53 60 69
53 61 70
51 58 67
56 64 74
58 66 76
57 65 75
58 67 77
57 65 76
58 67 77
62 71 82
61 69 80
62 71 82
65 74 85
67 76 88
67 77 89
69 78 91
67 76 88
61 70 81
56 64 74
50 58 67
46 52 60
45 51 58
35 40 47
30 34 40
24 27 31
24 27 32
32 36 42
36 40 47
34 38 44
27 31 36
17 19 22
21 23 27
34 38 44
40 45 52
40 46 53
39 44 51
35 40 46
36 41 47
36 41 47
35 40 46
31 36 42
30 34 39
34 39 45
34 38 44
27 31 35
23 26 30
24 27 31
27 31 36
31 35 41
30 34 40
26 30 34
23 27 31
26 29 34
19 22 25
16 18 21
17 20 23
18 21 24
22 25 29
33 38 43
40 46 53
45 51 59
43 49 56
26 30 35
34 38 45
43 49 57
45 51 59
43 49 56
42 48 55
40 46 53
40 46 53
33 37 43
28 31 36
27 31 36
28 32 37
33 37 43
36 41 47
39 45 52
44 50 58
44 50 58
47 53 62
50 57 66
52 59 69
59 67 78
64 72 83
63 72 83
63 72 84
65 74 86
66 75 86
65 74 85
64 73 85
66 75 87
66 75 87
65 74 85
63 71 82
61 69 80
60 69 79
60 68 78
58 66 76
56 64 75
55 62 72
59 67 77
59 67 77
56 64 74
50 56 65
38 43 50
29 32 38
21 24 28
19 21 24
18 21 24
22 25 29
33 37 43
39 45 52
41 47 54
40 46 53
40 46 53
39 44 51
38 43 50
33 38 44
21 24 28
19 22 25
24 28 32
20 23 26
21 24 28
23 26 30
22 25 29
24 28 32
26 30 34
34 38 44
39 44 51
44 50 58
46 53 62
48 54 63
51 58 67
52 59 69
52 59 68
53 61 70
55 63 73
56 63 73
59 67 78
61 69 80
63 71 82
63 72 83
66 75 87
64 73 84
66 75 86
63 72 82
59 67 77
53 60 70
46 52 60
35 40 47
21 24 27
27 31 36
39 45 52
51 58 68
61 69 80
71 81 93
75 86 99
80 91 105
81 92 106
81 92 106
79 90 104
81 92 106
82 93 108
82 93 108
86 98 113
91 103 120
97 110 128
98 111 129
100 114 131
100 114 131
102 115 132
99 113 131
97 109 126
96 109 126
86 98 113
83 94 109
78 89 103
71 81 94
67 76 88
62 71 82
63 71 82
63 72 84
62 71 83
63 72 83
57 65 75
54 61 70
46 52 61
32 37 43
23 26 31
41 46 53
48 54 63
53 61 71
57 65 75
61 70 81
61 70 81
61 69 80
55 62 72
52 60 69
54 61 71
55 63 72
57 65 76
58 65 75
53 61 70
49 56 64
40 46 53
32 36 42
20 23 27
14 16 19
22 25 29
28 32 37
27 31 35
28 32 37
23 27 31
25 28 32
29 34 39
36 41 47
40 45 53
43 49 56
40 46 53
40 45 53
45 51 59
53 60 69
64 72 83
70 80 92
76 87 101
79 90 104
84 95 110
85 96 111
83 94 110
78 89 103
76 87 100
73 84 97
74 84 97
69 78 91
69 78 90
67 75 87
64 72 83
62 70 81
56 64 74
56 64 74
56 63 73
57 65 76
59 67 77
58 67 78
58 66 77
58 65 75
55 63 73
56 64 74
56 64 74
53 60 70
49 55 64
41 47 55
36 42 48
31 35 41
29 33 38
27 31 36
33 37 43
33 37 43
33 38 44
32 36 42
26 29 34
23 27 31
20 23 26
23 27 31
33 37 43
38 43 50
44 50 58
45 52 60
40 46 54
39 45 52
36 41 48
30 34 39
21 24 28
16 18 21
13 15 17
26 30 35
37 42 48
42 48 55
46 52 60
48 55 63
48 55 64
49 56 65
49 56 65
44 50 58
42 48 55
43 49 57
45 51 59
48 55 63
50 56 65
50 57 65
48 54 63
40 45 52
27 31 36
15 17 20
12 14 16
18 20 23
24 27 31
27 31 36
33 38 44
37 42 48
35 40 46
37 42 48
39 45 52
42 48 55
43 49 57
38 44 51
40 45 53
39 44 51
38 43 50
38 44 51
36 41 48
32 36 42
29 33 38
24 27 32
17 20 23
19 21 25
12 13 16
12 13 15
19 21 25
23 26 30
27 31 36
28 32 37
23 26 30
24 27 32
28 32 37
24 28 32
22 25 29
29 33 38
35 40 47
42 48 55
44 50 58
47 53 61
48 55 64
47 54 62
42 47 55
37 42 48
36 41 47
25 29 33
19 22 25
27 30 35
30 34 40
36 41 47
40 45 53
44 50 58
47 54 62
47 54 62
48 55 64
51 58 67
53 60 69
45 51 60
41 46 53
35 40 46
33 38 44
26 29 34
23 26 30
23 26 31
18 21 24
22 25 29
28 32 37
27 31 36
31 35 41
33 38 44
33 38 44
30 34 40
28 32 37
20 22 26
11 12 14
18 21 24
22 26 30
29 34 39
38 43 50
42 48 55
43 49 56
51 59 68
58 66 77
65 74 85
73 83 96
73 83 95
77 88 101
79 89 103
78 88 102
75 86 100
73 83 97
69 78 90
70 79 91
70 79 92
67 76 88
69 78 90
68 77 89
65 74 85
61 69 80
56 64 74
53 61 71
51 58 67
47 53 62
46 52 61
41 47 55
35 40 46
29 33 38
24 27 31
23 27 31
25 28 32
34 39 45
39 45 52
45 51 60
50 57 66
55 62 72
60 68 78
61 70 81
62 70 81
61 70 81
63 72 83
62 70 81
59 67 78
57 64 74
53 60 69
52 59 68
53 60 70
53 61 70
51 58 68
51 58 67
51 58 67
51 58 67
50 56 65
46 53 61
45 51 59
48 55 63
46 52 61
44 50 58
39 44 51
29 32 37
18 21 24
17 19 22
19 22 25
26 30 35
34 39 45
43 49 56
44 50 57
38 43 50
26 30 35
17 20 23
16 19 22
17 19 22
18 21 24
20 23 27
25 29 33
33 37 43
34 39 45
33 38 44
35 40 46
32 36 42
25 28 33
19 21 25
31 35 40
36 41 48
32 37 43
29 33 39
25 28 33
20 22 25
17 19 22
22 25 29
28 32 37
26 29 34
30 34 39
34 39 45
26 30 35
24 28 32
28 32 37
26 29 34
20 23 27
21 23 27
19 22 25
16 19 21
16 18 21
26 30 35
27 31 35
26 30 34
24 27 31
24 28 32
29 33 38
32 37 42
40 46 53
49 55 64
56 64 74
61 69 80
63 72 83
63 73 85
65 74 86
68 77 88
67 76 88
66 74 86
64 73 84
62 70 81
61 69 81
64 72 84
70 79 91
69 78 90
70 79 92
70 79 92
69 79 91
69 79 91
67 76 88
61 69 80
51 58 67
45 51 59
35 40 47
28 32 37
17 20 23
23 27 31
29 33 39
31 35 41
27 31 36
25 29 33
21 23 27
19 22 25
17 19 22
16 18 21
14 16 19
23 26 30
30 34 39
29 33 38
29 33 39
32 36 42
29 33 38
27 30 35
27 30 35
28 32 37
27 30 35
21 24 28
22 25 29
30 34 39
40 46 53
47 54 62
52 59 68
55 62 72
55 63 72
55 63 73
57 65 75
57 65 75
58 66 76
63 71 82
61 70 81
64 73 85
61 69 80
55 63 73
47 53 62
36 41 48
31 35 41
29 33 38
26 30 34
34 39 45
45 51 59
55 63 72
59 67 77
64 73 84
67 76 88
71 80 92
71 81 94
78 88 102
80 91 105
84 96 112
90 102 119
91 103 118
91 103 119
96 109 126
99 113 131
98 112 129
98 112 130
95 107 124
93 106 123
94 107 124
93 106 122
93 105 122
89 102 117
85 97 112
84 96 111
86 97 112
88 101 117
89 101 117
89 102 119
87 99 115
83 95 110
78 89 103
74 84 97
68 77 89
60 68 79
54 61 70
48 54 63
40 46 53
36 40 47
38 43 50
36 41 48
34 38 44
31 36 41
35 40 46
37 42 48
33 38 44
33 37 43
32 36 42
31 35 41
33 37 43
29 32 37
26 30 35
25 28 32
26 30 35
33 37 43
38 42 49
44 50 58
48 55 63
50 57 67
52 59 68
51 58 68
49 56 65
45 51 59
43 49 57
38 44 51
38 43 50
34 39 46
33 37 43
29 33 38
36 41 48
44 50 58
52 59 68
61 69 80
63 72 83
63 71 83
65 74 86
67 77 89
70 79 92
68 78 90
71 81 95
74 84 97
75 85 99
77 88 102
79 89 103
77 88 102
75 84 97
76 86 99
70 80 93
66 75 87
63 72 83
60 69 79
56 63 73
52 59 68
48 55 63
45 51 59
42 48 55
41 47 54
44 50 57
48 55 64
50 56 65
48 55 63
46 53 61
44 50 58
40 45 53
41 46 53
37 42 49
36 41 47
36 41 47
37 42 49
39 44 50
36 41 47
26 30 35
23 26 30
23 27 31
24 28 32
28 32 37
29 33 38
29 33 38
31 35 41
28 32 37
27 30 35
25 29 33
21 23 27
30 34 39
41 46 54
49 56 65
56 63 73
58 66 77
59 67 78
60 68 78
57 64 74
53 61 70
50 56 65
48 55 63
50 57 65
49 55 64
50 56 65
46 52 61
40 45 52
31 36 41
24 28 32
20 23 27
23 26 30
36 41 48
44 49 57
50 57 66
55 63 73
58 66 77
58 66 76
57 65 75
60 69 79
59 67 78
60 68 79
63 72 83
64 73 85
64 73 85
58 65 76
52 59 69
52 59 68
46 52 61
40 46 53
29 33 39
29 33 39
31 35 41
33 37 43
38 43 50
37 42 49
37 42 48
37 42 49
38 44 51
35 40 46
32 37 43
28 32 38
19 22 26
14 16 19
22 25 29
31 36 42
40 46 53
44 50 57
44 50 57
45 51 59
44 50 58
42 47 55
34 39 45
28 31 37
20 23 26
17 19 22
17 20 23
15 17 20
14 16 19
16 18 21
23 26 30
31 35 41
36 41 48
39 44 51
39 45 52
35 39 46
29 32 38
27 31 36
25 29 33
20 22 26
19 22 25
25 28 32
34 39 45
37 41 48
32 37 42
30 34 39
32 36 42
30 35 40
26 29 34
30 34 39
34 39 45
38 43 49
43 49 57
40 46 53
31 35 41
23 26 30
29 34 39
42 48 55
53 61 70
63 71 83
70 80 93
74 84 97
72 82 95
74 84 97
76 86 99
79 90 105
80 91 105
79 90 104
83 95 110
83 95 110
84 96 111
84 96 110
84 96 111
86 97 112
89 100 116
85 97 113
86 98 113
82 93 108
80 91 106
81 92 107
76 87 101
71 80 93
65 73 85
61 70 81
58 66 77
54 61 71
51 58 67
42 48 55
37 42 49
34 38 44
30 34 40
26 29 34
24 28 32
22 25 29
24 28 32
31 35 40
35 40 46
44 51 59
46 52 61
49 55 64
51 58 68
50 57 65
46 52 61
45 52 60
46 52 60
49 56 65
54 61 71
60 68 79
64 73 84
66 76 88
65 74 86
64 73 85
61 69 80
56 64 74
53 61 71
53 60 69
48 55 64
43 49 57
38 43 49
32 36 42
24 27 32
17 20 23
16 19 22
21 24 27
22 25 28
23 26 30
19 22 25
19 21 25
24 27 31
33 38 43
32 36 42
26 29 34
19 22 26
18 20 23
20 23 26
19 22 25
19 22 26
17 20 23
23 27 31
33 38 43
39 44 51
41 46 54
43 49 57
48 55 63
46 52 61
37 42 48
23 26 31
18 21 24
31 35 41
47 54 62
36 41 48
39 44 51
36 41 48
32 37 42
24 27 31
21 24 28
19 21 25
14 16 19
15 17 20
22 25 29
26 29 34
25 28 32
31 35 41
35 40 46
33 38 44
32 36 42
33 38 43
33 38 44
29 33 38
20 22 26
32 36 42
47 53 62
60 68 79
66 74 86
66 75 87
67 76 88
67 76 87
64 72 83
60 68 78
58 66 77
60 68 79
63 72 83
62 71 83
67 75 87
69 78 90
68 78 90
67 76 88
63 72 83
55 62 72
55 63 73
54 62 71
53 61 70
52 59 68
51 58 67
53 60 69
53 61 71
53 61 71
54 61 70
53 61 70
48 54 63
43 49 57
32 36 42
19 22 25
20 23 26
21 24 28
21 23 27
22 25 28
29 33 38
30 34 39
25 28 33
26 30 35
31 35 41
36 41 47
38 43 50
41 47 55
48 54 63
47 53 61
44 50 58
48 55 63
47 54 62
49 56 65
53 61 70
58 65 75
63 72 83
65 73 85
68 77 89
66 75 87
61 70 81
58 66 76
52 59 68
43 49 57
34 39 45
25 29 33
25 29 33
32 37 43
45 52 60
49 56 65
54 61 71
55 63 73
58 66 76
61 68 79
65 74 86
69 79 91
76 87 101
80 91 106
86 98 113
88 100 116
92 104 120
92 104 120
88 101 117
90 103 119
91 103 119
90 102 117
93 106 123
89 101 117
87 99 115
83 94 109
82 94 108
83 94 109
81 93 108
84 96 110
90 103 119
96 109 126
98 111 129
97 110 128
95 108 126
95 107 124
93 105 121
91 104 120
86 98 114
84 95 110
80 91 105
75 85 99
74 85 98
72 82 95
74 84 97
74 83 96
75 85 99
73 83 96
75 85 98
75 86 100
72 82 95
68 77 89
67 76 87
64 73 85
64 73 85
59 68 79
59 67 77
57 65 76
60 68 79
63 71 81
66 75 87
71 80 93
76 87 100
76 86 100
72 81 93
70 80 93
69 79 91
72 82 94
71 81 93
70 79 92
66 76 88
65 74 85
59 67 77
51 58 67
45 51 59
43 49 57
36 41 48
25 29 33
17 19 22
26 30 35
36 41 47
42 48 56
52 59 68
56 64 74
61 69 80
64 72 83
64 72 84
67 77 89
72 82 95
72 82 95
77 87 101
77 88 102
80 91 105
82 94 109
79 89 103
72 83 96
68 77 90
61 69 80
58 66 76
59 67 78
59 67 77
60 68 79
58 66 76
53 60 70
49 55 64
47 53 62
45 52 60
44 50 58
44 51 59
41 47 55
41 47 54
40 46 53
40 46 53
37 42 49
37 42 49
43 48 56
45 51 60
46 53 61
44 50 58
39 45 52
35 40 46
33 37 43
27 30 35
25 28 32
21 24 28
30 34 39
39 45 52
43 48 56
44 50 58
50 57 66
54 62 71
54 61 71
58 66 77
61 69 79
58 66 77
56 64 75
56 64 74
53 61 71
53 61 70
59 67 78
61 69 80
60 68 78
58 65 75
51 58 67
43 49 57
38 43 50
28 32 37
20 23 26
26 29 34
30 35 40
40 46 53
46 53 61
53 60 69
58 66 76
63 72 83
66 74 86
70 79 92
73 83 96
75 85 99
76 86 100
74 85 98
76 86 99
79 89 103
79 89 103
76 86 100
73 83 97
66 75 87
62 71 82
61 69 79
54 61 70
50 57 65
48 55 63
46 52 61
48 54 63
43 49 57
42 47 55
39 45 52
39 44 51
36 41 48
30 34 40
17 19 22
16 19 21
18 21 24
25 28 33
33 38 44
35 40 46
44 50 58
48 54 62
46 52 60
41 47 55
37 42 49
29 33 38
20 22 26
11 12 14
11 12 14
11 13 15
13 14 17
19 22 25
24 27 32
29 33 38
36 41 47
31 35 40
24 27 31
27 31 36
27 31 36
26 29 34
31 35 40
33 38 44
40 46 53
47 53 62
56 63 73
58 66 77
63 71 82
64 73 84
59 67 77
56 64 74
51 58 67
54 62 71
57 65 75
57 64 74
58 66 76
59 67 77
52 59 69
45 52 59
36 41 47
18 21 24
39 45 52
52 59 69
63 71 82
72 82 95
78 88 102
77 87 100
74 84 97
70 80 92
71 81 93
70 80 93
72 81 94
75 85 98
77 88 102
83 95 109
89 102 119
92 104 121
93 106 123
98 112 130
101 115 133
99 113 131
98 111 129
97 110 127
97 109 126
91 104 120
89 102 118
87 99 115
82 94 108
82 93 108
78 88 101
79 89 103
71 81 94
68 78 90
61 70 81
61 69 80
59 68 78
57 65 75
53 61 70
53 60 69
49 55 64
44 50 57
37 42 48
31 35 41
31 35 41
30 34 39
27 31 36
27 31 36
29 33 38
30 35 40
32 36 42
33 37 43
35 40 46
41 47 55
46 52 61
55 62 72
60 69 79
64 73 84
65 74 85
62 70 81
64 73 85
67 76 88
67 76 88
62 71 82
55 63 73
45 51 59
45 51 59
40 46 53
38 43 50
32 36 42
37 42 49
38 43 49
35 40 46
39 44 51
35 40 46
28 32 37
26 30 35
27 30 35
22 25 29
20 22 26
27 30 35
26 30 35
23 26 30
29 33 38
31 35 41
33 37 43
36 41 47
36 41 48
34 38 44
33 37 43
33 37 43
29 32 37
32 37 43
40 46 53
45 51 59
40 46 53
44 50 58
45 51 59
39 44 51
35 40 46
24 28 32
19 22 26
24 27 32
29 33 38
36 40 47
37 42 49
48 54 63
54 61 70
52 60 69
48 55 64
43 49 56
32 37 43
25 29 34
25 29 33
29 33 39
38 43 50
47 54 62
59 67 77
65 74 85
73 82 94
74 84 97
78 89 103
77 88 103
81 91 105
82 93 107
82 93 107
83 94 108
78 89 102
73 83 96
69 78 90
64 73 85
61 69 80
61 69 79
57 64 75
55 63 72
55 63 73
60 68 79
63 72 84
72 81 94
72 82 95
72 82 95
71 80 93
65 74 85
65 74 85
63 72 84
60 69 80
56 64 74
49 56 65
44 50 58
43 49 57
44 50 58
50 57 67
56 64 75
61 69 80
63 72 83
68 77 90
72 82 96
82 93 107
79 90 104
84 95 110
79 90 104
80 91 106
77 88 102
83 94 108
82 93 107
87 99 114
83 95 110
84 95 109
79 90 104
72 82 95
71 80 93
66 75 86
60 68 79
51 58 67
42 47 55
31 36 41
17 19 23
28 32 38
37 42 48
47 54 62
53 60 70
58 66 76
62 71 82
67 76 87
65 74 86
69 78 91
72 82 95
77 88 101
82 92 107
84 95 110
88 100 115
91 104 120
96 109 125
93 105 121
92 105 122
89 101 116
82 93 107
82 93 107
80 91 105
79 89 104
75 85 99
74 84 97
76 87 100
80 91 105
85 97 112
87 98 113
89 101 117
86 98 113
87 99 115
84 96 110
83 94 110
80 91 106
77 87 101
75 85 98
75 86 99
73 83 96
68 78 90
75 86 100
81 92 106
85 97 112
87 99 115
89 101 117
88 101 117
90 102 117
91 103 119
89 102 118
86 99 114
82 93 107
83 94 108
82 93 107
81 93 108
85 96 111
88 100 116
91 103 119
95 108 125
99 113 131
98 111 129
99 112 130
100 113 130
101 115 133
98 111 129
102 116 133
100 114 132
98 111 129
95 108 125
92 104 121
89 101 117
84 95 110
81 91 105
76 86 99
67 77 89
65 74 85
57 65 75
45 51 59
31 35 41
28 32 37
26 29 34
29 33 38
29 33 38
28 32 37
30 34 39
31 36 41
41 47 54
47 54 63
55 63 73
59 67 78
66 75 86
70 80 93
74 84 97
76 86 99
76 86 99
73 83 97
66 75 87
60 68 79
56 64 74
57 65 76
60 68 79
60 69 79
61 69 79
60 68 79
55 62 72
51 58 67
48 55 64
47 53 61
43 48 56
35 40 46
29 33 38
28 32 37
29 33 38
33 38 44
39 44 51
43 49 57
44 50 58
45 52 60
43 49 57
42 48 55
47 53 61
53 61 70
55 62 72
56 64 75
54 61 71
55 63 73
55 63 73
59 67 77
63 71 82
65 74 85
62 71 82
57 65 75
54 61 71
48 55 63
43 49 57
39 44 51
39 45 52
38 43 49
43 49 57
42 48 55
44 50 59
45 51 59
43 50 58
40 46 53
35 40 46
28 32 37
23 27 31
29 32 37
41 47 54
52 59 69
58 66 77
61 70 81
61 69 80
62 71 82
61 69 80
67 76 88
69 78 91
70 79 92
73 83 96
74 85 98
72 82 95
74 84 97
76 87 100
78 89 103
75 85 98
72 82 95
70 79 91
67 76 88
62 70 81
58 66 77
60 68 79
63 71 83
62 71 82
66 75 86
63 71 82
63 72 83
61 69 80
57 65 75
50 57 67
44 50 58
35 41 47
27 30 35
22 25 29
24 27 32
19 21 25
19 22 25
20 22 26
21 24 28
21 24 28
22 25 29
23 26 30
17 19 22
12 14 16
15 17 20
13 15 17
11 13 15
17 19 22
20 23 26
24 27 31
29 33 38
37 42 49
44 50 58
47 53 62
51 57 67
55 63 73
58 65 76
64 73 84
69 78 90
70 80 93
72 82 95
76 86 99
79 90 104
79 89 104
82 93 108
78 89 103
76 87 101
74 83 96
64 73 85
56 64 74
49 55 63
44 50 58
40 46 53
33 37 43
25 28 33
17 20 23
22 25 29
32 36 42
40 45 52
51 57 66
53 61 70
55 62 72
58 65 76
59 67 78
62 71 82
62 71 82
65 74 85
66 76 88
72 81 94
73 84 97
79 90 103
80 90 105
83 95 110
85 97 113
86 98 113
87 99 115
87 100 116
94 106 122
92 104 121
91 103 118
90 103 120
92 105 122
90 103 119
89 101 117
90 102 118
90 102 119
92 104 120
89 101 117
86 98 113
77 88 102
70 80 92
64 73 84
60 68 78
54 61 71
50 57 66
46 53 61
49 55 64
51 57 66
55 62 72
62 70 81
64 73 85
65 74 85
59 67 78
56 64 74
51 58 67
50 57 66
48 55 63
46 52 60
46 53 61
40 46 53
36 41 48
34 39 45
33 37 43
35 39 45
36 41 48
38 44 51
44 50 58
46 53 62
52 59 69
53 60 70
54 61 70
56 64 74
54 62 72
55 63 73
59 67 78
59 67 77
56 64 74
49 56 65
47 53 61
42 48 55
36 41 48
31 35 41
20 23 26
24 28 32
25 29 33
23 26 30
26 29 34
32 36 42
30 34 40
31 35 41
38 43 50
42 48 56
43 49 57
45 52 60
46 52 60
48 55 63
53 61 70
56 63 73
55 62 72
55 63 73
57 65 75
59 67 78
53 61 71
47 53 62
35 40 46
19 21 25
19 22 25
28 31 36
32 36 42
37 42 49
38 43 50
41 46 53
39 45 52
37 43 50
31 36 41
29 33 38
26 30 34
35 41 47
46 52 61
51 57 66
58 67 77
65 74 86
69 78 90
73 82 95
76 86 100
78 89 103
81 92 106
84 96 111
84 96 111
83 95 110
82 94 109
79 90 104
78 89 103
81 91 105
79 90 105
79 90 104
79 89 103
74 84 97
76 86 100
74 84 97
75 85 99
73 82 95
70 80 92
68 76 88
66 75 87
64 73 85
63 72 83
60 68 78
58 66 77
59 66 77
62 70 81
66 76 88
73 83 96
77 88 103
80 90 104
84 96 111
84 95 110
85 96 111
89 101 116
92 105 121
94 107 124
99 113 131
98 111 128
99 113 131
97 111 128
99 112 130
101 115 133
97 110 127
99 113 131
100 113 130
98 112 129
94 106 123
94 107 124
91 103 118
85 97 112
78 89 102
68 78 90
60 68 78
47 54 62
33 39 45
24 27 31
27 31 36
36 41 48
44 50 58
54 61 70
61 69 80
64 73 85
68 77 89
71 81 94
71 81 94
76 86 100
79 89 103
81 92 106
85 96 111
87 99 115
90 102 118
89 101 117
89 101 116
89 101 117
89 101 116
86 98 113
87 98 113
88 100 115
87 99 114
87 99 114
86 98 113
88 101 117
86 98 114
90 102 118
85 97 112
83 94 108
80 91 105
76 86 99
71 81 93
66 75 87
65 74 86
66 75 87
68 77 89
72 82 94
77 87 101
78 89 104
81 92 106
83 95 109
86 97 111
87 99 115
88 99 115
88 100 115
88 100 116
88 100 116
88 100 116
87 99 115
88 99 115
86 97 111
89 102 118
95 108 125
98 112 130
104 118 137
109 124 143
111 126 146
111 126 146
114 129 149
116 132 152
116 132 153
117 133 153
117 133 154
112 128 149
113 128 148
108 122 141
105 119 138
105 118 137
100 113 131
98 111 129
97 111 129
96 108 125
93 106 123
92 105 121
91 104 120
88 99 114
80 91 105
74 83 96
69 78 91
62 71 82
55 62 72
49 56 65
45 51 59
41 46 54
37 42 49
32 37 42
25 29 34
21 24 28
24 28 32
35 40 46
43 48 56
46 52 61
48 55 64
48 55 64
48 54 63
45 51 59
47 54 62
51 57 66
48 55 63
49 56 65
45 51 59
38 44 51
28 32 37
22 25 29
30 34 39
33 37 43
34 38 44
35 40 46
33 37 43
31 35 41
24 27 32
25 29 33
30 34 39
32 36 42
28 31 36
26 30 35
27 31 35
30 34 39
33 38 44
35 40 46
38 43 49
41 47 54
39 45 51
38 43 49
36 41 47
39 44 52
47 53 61
44 50 58
36 41 47
32 37 43
28 32 37
25 28 33
22 25 29
27 31 36
39 44 51
43 48 56
48 55 64
51 58 67
44 50 58
41 47 54
41 47 54
40 45 53
37 41 48
38 44 50
48 54 62
52 59 68
60 68 79
64 73 85
71 80 92
73 83 96
77 87 101
79 90 105
74 84 97
72 82 95
73 83 96
72 82 95
72 81 94
72 82 95
78 88 102
80 91 105
82 93 108
84 95 111
84 95 110
85 97 112
82 93 108
80 90 105
78 89 103
79 90 105
79 91 105
77 88 101
79 89 103
77 87 101
78 89 102
78 88 102
74 84 97
72 81 94
69 79 91
67 76 89
64 72 83
58 66 76
56 64 75
55 62 72
58 65 75
58 67 77
61 70 80
56 64 74
50 57 66
50 56 65
44 50 58
42 48 56
32 36 42
22 25 29
20 23 26
19 21 25
19 22 25
22 25 29
19 22 26
23 26 30
29 33 38
37 42 49
45 51 59
50 57 65
53 61 71
56 64 74
61 70 81
65 74 85
69 79 91
74 84 97
76 87 101
78 89 103
83 94 108
89 101 116
86 97 113
84 96 111
81 92 106
76 87 100
69 79 92
64 72 83
53 61 70
43 49 57
36 41 48
27 31 35
16 18 21
19 22 26
26 30 34
26 29 34
24 27 31
24 27 31
26 30 35
22 25 29
27 30 35
32 36 42
32 37 42
32 36 42
40 45 52
44 50 58
51 58 67
56 64 74
60 67 78
62 71 82
69 78 90
72 82 95
71 82 95
73 83 97
76 86 100
77 88 102
75 85 99
78 89 103
78 89 103
78 88 101
76 86 100
70 79 92
71 80 93
75 85 98
76 87 101
76 87 100
74 84 97
76 87 100
75 86 99
73 83 95
71 81 94
69 78 90
65 74 86
64 73 84
67 76 88
70 79 91
73 83 95
76 86 99
75 86 99
78 88 101
78 89 103
77 87 101
75 85 98
72 82 95
66 75 87
66 75 87
63 72 83
60 68 79
57 65 75
54 61 71
50 56 65
47 54 62
48 54 62
44 50 57
41 46 54
38 43 50
30 34 40
24 27 31
20 22 26
23 27 31
29 33 39
36 42 48
44 50 58
49 56 64
50 57 66
49 55 64
47 54 62
46 52 60
43 49 57
46 53 61
44 51 59
45 51 58
41 47 55
38 43 50
37 42 48
36 41 48
33 37 43
42 47 55
46 52 60
48 54 63
51 58 67
52 59 68
53 60 69
52 59 69
51 58 67
51 58 67
48 55 63
49 55 64
56 63 73
50 57 66
45 51 60
39 44 51
28 31 36
18 21 24
21 23 27
20 22 26
19 22 25
21 24 27
22 25 29
31 35 41
40 45 53
46 52 61
46 52 60
48 54 63
48 55 64
50 57 66
51 57 66
50 57 66
51 58 67
55 63 73
62 70 81
67 76 88
67 76 88
68 77 90
66 76 88
63 71 83
61 70 81
61 70 81
66 75 86
70 79 92
73 83 95
77 88 101
79 90 104
83 94 109
87 99 115
86 98 113
87 99 115
86 97 113
82 93 107
76 87 100
71 80 93
65 74 86
62 71 82
61 69 79
55 62 72
55 63 73
54 62 72
60 68 78
64 73 85
72 82 95
78 88 102
84 96 111
89 100 116
90 103 119
89 102 118
89 101 117
92 104 121
97 110 127
101 114 132
103 117 135
104 118 137
108 122 141
109 123 142
110 125 145
109 124 144
108 123 143
110 125 144
107 122 141
104 118 137
102 115 133
98 111 129
95 108 124
90 102 117
83 95 110
74 84 97
65 74 86
62 70 81
57 64 74
51 57 66
38 43 50
29 33 38
32 36 42
43 49 57
50 57 66
60 68 78
67 75 87
71 81 94
76 86 100
81 91 105
83 94 109
83 94 109
83 94 109
82 93 108
82 93 108
84 96 111
82 93 108
84 95 110
82 93 108
81 92 107
82 93 108
84 95 110
90 102 117
89 101 117
91 103 119
91 103 119
89 101 117
88 100 116
84 96 111
78 89 103
75 85 99
75 85 98
72 81 94
75 85 98
76 86 100
75 85 98
73 83 96
72 82 95
75 86 99
77 88 102
82 93 107
84 95 109
87 99 115
88 101 117
87 99 115
89 101 117
90 102 117
92 105 121
93 106 123
96 109 126
101 114 131
100 113 131
105 120 139
106 120 139
112 128 148
113 129 150
115 130 151
115 131 151
115 131 151
112 128 148
114 130 151
116 131 152
119 134 155
119 134 155
111 126 146
105 120 139
106 120 138
102 116 134
97 111 128
96 108 125
94 107 123
95 108 125
95 108 125
94 106 123
92 104 120
89 101 117
85 96 111
84 96 111
87 98 113
84 95 110
84 96 110
83 94 109
81 93 107
77 88 101
70 80 93
67 77 89
62 70 81
51 58 67
50 57 65
38 43 51
32 36 42
29 33 39
27 30 35
20 22 26
33 37 43
35 40 46
32 37 43
30 34 40
35 40 46
35 40 47
37 42 48
35 40 46
29 33 38
26 30 35
20 22 26
20 23 26
24 27 32
32 36 42
32 36 42
34 39 45
38 43 50
40 46 53
40 45 52
41 46 53
37 42 48
37 42 48
37 42 48
37 42 48
35 39 45
35 40 47
35 39 46
34 39 45
29 33 38
21 24 27
19 21 25
19 22 26
30 34 39
39 44 51
39 45 52
41 47 54
41 47 54
44 50 57
43 50 58
40 46 53
49 56 65
56 64 74
63 71 82
67 76 88
69 79 91
69 79 92
73 83 96
73 83 96
73 84 97
75 85 98
74 84 97
72 82 94
72 82 95
72 83 96
73 83 97
75 85 99
77 88 102
81 92 106
78 88 103
81 93 108
80 91 106
80 91 105
79 90 104
84 95 110
85 96 111
86 98 113
89 101 117
87 100 116
83 95 110
85 97 112
87 98 114
87 99 114
86 98 114
87 99 115
84 96 111
86 98 113
87 99 115
87 99 114
83 95 110
82 93 108
82 94 109
83 94 109
82 94 109
81 93 107
79 90 105
81 92 105
83 94 109
78 89 103
76 86 100
75 85 99
76 86 99
76 87 100
76 86 100
74 84 97
70 80 93
62 71 82
58 66 76
53 61 70
44 51 59
39 44 51
34 39 45
25 29 33
18 21 24
19 22 25
20 23 27
24 27 31
30 34 39
34 38 45
38 44 51
43 49 57
48 54 62
56 63 73
62 71 82
66 74 86
70 80 92
74 84 96
76 86 99
81 92 107
89 101 117
91 104 120
91 103 120
91 103 120
89 101 117
84 95 110
76 87 101
68 78 90
57 65 76
51 57 67
47 53 61
46 53 61
47 53 61
46 52 60
43 49 57
42 48 56
45 51 59
45 51 59
52 59 68
54 61 71
59 67 77
55 63 73
52 59 69
45 51 59
39 44 51
38 43 50
37 43 50
36 41 48
34 39 45
35 40 46
36 41 47
34 38 45
35 40 46
37 41 48
42 47 55
50 57 66
53 60 70
56 64 74
53 60 70
53 60 70
52 59 68
50 57 66
53 61 70
55 62 72
57 65 75
61 69 80
68 77 89
67 77 89
74 83 96
78 88 102
79 90 104
78 89 103
80 90 104
83 94 109
81 92 106
82 93 108
85 97 112
84 96 111
83 94 109
81 92 107
81 92 106
76 87 100
73 83 96
71 81 93
65 75 87
63 72 83
61 69 80
61 69 80
59 67 78
56 63 73
55 62 72
52 60 69
51 59 68
52 59 68
48 55 63
42 48 55
37 42 48
33 37 43
23 27 31
18 20 24
20 23 26
26 29 34
31 35 41
31 36 41
36 41 48
40 45 52
38 43 50
39 45 52
44 50 57
45 51 59
50 56 65
52 59 68
52 59 69
51 58 67
51 58 67
44 50 58
36 41 48
28 32 37
27 31 35
28 31 36
27 30 35
27 31 36
29 33 38
24 27 32
22 26 30
23 26 30
29 33 38
45 51 60
38 43 50
28 32 37
21 24 28
17 19 22
21 24 28
29 33 38
33 37 43
33 38 44
34 39 45
38 44 51
42 47 55
40 46 53
33 37 43
29 33 38
25 28 33
26 30 35
33 37 43
33 38 44
34 39 45
37 42 49
42 48 56
43 49 57
39 44 52
36 41 48
41 46 53
46 52 60
51 58 67
53 60 70
54 62 72
57 65 75
61 69 80
63 72 84
66 74 86
67 77 89
69 78 89
67 77 89
65 74 85
60 68 79
61 69 80
58 66 77
61 69 79
61 70 80
63 72 83
64 73 84
62 71 82
62 70 81
65 74 85
70 79 92
72 82 95
76 86 99
76 86 99
75 86 99
75 86 99
78 88 101
76 87 101
80 91 105
84 95 109
87 99 114
91 104 120
100 114 131
106 120 139
108 123 142
111 127 147
114 130 151
114 130 151
113 128 149
114 128 148
114 129 149
113 127 147
113 129 149
110 125 145
106 120 138
104 118 137
101 115 133
97 110 128
94 107 124
93 105 121
88 101 117
82 94 109
81 92 107
76 86 100
73 83 96
65 74 85
57 65 75
45 51 59
35 40 46
34 39 45
39 44 52
45 51 58
50 57 66
59 67 78
65 74 86
71 81 94
79 89 102
76 87 100
74 84 97
75 85 98
77 87 101
82 93 108
84 95 110
85 97 112
85 96 111
79 90 104
80 91 106
79 89 103
79 89 103
77 88 102
80 90 104
79 89 103
79 90 104
81 92 106
80 91 106
81 92 107
82 93 108
81 92 106
80 91 106
81 92 106
83 94 108
79 91 105
81 92 106
82 93 107
83 94 109
82 93 108
84 96 111
90 102 117
93 106 123
97 110 127
100 114 132
103 116 134
106 119 137
107 122 141
112 127 146
117 133 154
118 134 155
117 133 153
118 134 155
115 130 150
114 130 151
114 129 149
115 131 151
117 133 154
120 135 155
116 132 153
111 126 147
107 122 141
105 119 137
100 113 131
96 109 126
92 104 120
88 100 115
86 97 112
85 97 112
84 96 111
84 95 110
85 96 111
83 94 108
81 91 105
79 90 104
79 89 103
81 92 107
82 92 106
84 95 110
82 93 108
84 95 110
84 95 109
82 93 107
79 90 104
76 86 100
72 82 95
68 77 89
61 70 81
51 58 66
38 43 50
27 31 36
18 20 23
23 26 30
33 38 44
42 48 56
48 55 64
52 59 69
53 60 70
50 56 65
48 55 63
41 47 54
32 36 42
22 26 30
13 15 17
21 24 27
27 30 35
30 35 40
29 33 39
28 32 37
29 33 39
25 29 34
23 26 31
27 31 36
32 37 42
41 46 53
45 52 60
49 55 64
46 53 61
41 47 55
29 33 39
21 24 28
17 20 23
18 20 23
22 25 29
28 32 37
35 39 46
40 46 53
45 51 58
49 56 65
56 63 73
63 71 82
68 77 89
71 80 93
71 80 93
74 84 97
75 86 100
81 91 105
80 91 105
82 93 108
81 91 105
82 93 108
82 93 108
84 95 110
82 94 109
84 96 111
84 96 112
83 94 108
82 94 110
82 93 107
81 92 107
83 94 108
85 97 112
87 100 115
92 104 121
93 105 122
95 108 124
95 108 125
93 106 123
92 105 121
92 104 121
90 103 119
90 101 117
90 101 117
90 101 117
90 102 118
91 104 120
93 105 122
90 102 118
92 104 120
90 103 119
91 103 119
89 101 117
92 105 121
91 103 119
91 104 120
89 101 116
87 99 114
88 100 116
87 99 115
88 99 115
85 97 112
80 91 106
81 92 107
81 92 106
76 87 101
75 85 98
72 82 95
66 76 88
63 71 82
56 64 74
54 61 70
47 53 61
43 49 57
43 49 57
41 46 54
36 41 47
29 33 38
27 31 36
31 35 40
29 34 39
32 36 42
40 45 52
46 53 61
55 62 72
63 71 82
70 80 93
75 86 100
82 93 107
85 96 111
91 103 120
92 104 121
93 106 123
90 103 119
85 97 113
80 91 105
72 82 95
68 78 90
68 78 90
63 72 83
63 71 82
61 70 81
59 67 78
60 69 80
62 71 82
63 72 83
68 77 89
70 80 93
70 79 92
69 78 90
66 74 86
60 69 80
59 67 77
61 68 79
61 69 80
62 70 81
62 70 82
59 67 78
58 66 76
58 67 77
60 68 78
59 67 77
54 61 70
44 51 59
34 38 44
21 24 28
24 27 31
33 37 43
38 43 50
42 48 56
44 50 58
46 52 59
48 55 63
47 54 62
47 54 62
52 58 67
56 64 74
61 69 80
69 78 90
72 82 94
74 85 98
77 88 101
79 90 104
80 90 104
80 91 104
81 92 106
82 93 107
79 90 104
82 93 108
80 91 106
80 91 105
80 90 104
79 89 103
77 87 101
73 83 97
74 83 96
74 83 96
73 83 97
73 83 96
72 81 94
71 81 94
68 78 90
66 74 86
65 74 86
62 71 82
54 62 72
47 54 62
38 44 51
25 28 33
18 21 24
19 21 25
14 16 19
11 12 14
17 19 22
24 27 32
32 37 43
36 41 48
38 44 51
39 45 52
39 44 51
38 43 50
39 44 51
38 43 50
37 42 48
37 42 49
36 41 47
32 36 42
28 32 37
27 31 36
24 28 32
22 24 28
22 25 29
14 16 19
8 9 11
12 13 16
23 26 30
26 30 34
54 62 71
53 61 70
50 57 66
46 53 61
46 53 61
42 48 56
40 45 52
37 42 49
39 45 52
38 43 50
37 42 49
38 43 50
36 41 48
33 38 44
34 38 44
37 42 48
40 45 52
43 49 56
49 56 65
56 64 74
56 64 74
57 64 74
52 60 69
51 58 67
46 52 60
45 52 60
46 52 61
48 55 64
50 57 66
53 60 69
51 58 68
48 55 63
42 48 55
35 40 47
32 36 41
32 37 43
34 39 45
31 36 41
28 32 37
29 33 39
29 33 38
30 34 39
32 36 41
36 41 47
45 52 60
53 60 69
57 65 75
59 67 77
61 69 80
62 71 82
61 70 81
63 71 83
68 77 89
76 86 99
79 89 103
81 91 106
85 96 112
91 104 120
94 106 123
97 110 128
100 114 133
106 120 139
106 120 139
112 126 146
111 126 146
112 127 147
114 128 147
110 125 144
111 126 146
113 128 148
115 131 152
115 130 151
116 131 152
115 130 151
118 134 155
115 131 152
110 126 146
110 125 144
108 123 142
106 120 139
103 117 135
98 112 129
92 105 122
86 98 114
81 92 107
76 86 99
71 81 93
66 74 86
59 67 78
55 63 73
48 55 63
41 47 55
37 42 49
34 39 45
39 45 51
54 61 70
62 71 82
68 77 90
72 82 95
76 87 101
78 88 102
78 88 102
74 85 98
77 87 100
76 87 101
78 88 102
75 86 100
80 90 105
78 88 102
74 84 97
74 85 99
76 86 100
77 87 101
77 88 102
79 90 104
81 92 107
80 91 105
80 91 105
78 88 102
78 89 103
79 89 103
82 93 107
84 96 112
90 103 119
92 105 121
94 106 123
96 109 126
100 113 130
101 115 134
103 118 136
105 119 138
108 123 143
110 125 145
112 127 148
113 128 148
112 127 146
109 123 141
107 122 141
107 122 141
108 123 143
107 122 141
108 122 141
108 124 143
107 121 140
105 119 138
105 120 139
100 114 133
99 113 130
95 108 125
92 104 120
89 101 117
87 99 114
84 94 108
83 94 109
81 92 107
78 89 103
76 86 99
72 82 95
70 80 92
69 79 92
67 76 88
72 82 95
76 87 100
76 86 100
78 88 101
75 85 98
71 81 93
64 73 84
61 69 80
59 67 77
55 63 72
52 59 68
45 51 59
38 43 49
27 31 36
17 20 23
14 16 19
26 29 34
38 43 49
43 48 56
45 52 60
46 53 61
49 55 63
51 58 67
47 54 62
42 47 55
35 40 46
22 25 29
13 15 18
27 31 36
36 41 47
39 44 51
38 43 50
36 41 48
37 42 49
34 39 45
34 38 44
32 37 42
36 41 47
40 45 53
38 44 51
32 36 42
33 38 44
31 35 40
31 35 41
31 35 41
34 38 44
34 39 45
35 40 46
41 47 54
49 56 65
58 65 75
63 71 82
67 76 87
69 78 90
69 78 91
70 79 92
68 78 90
69 78 89
68 77 89
72 81 94
73 83 96
74 84 96
74 84 97
75 86 100
78 89 102
82 93 108
84 96 111
84 96 112
86 97 113
82 94 108
85 96 110
84 95 110
89 101 117
89 102 118
91 103 118
92 104 121
94 107 123
94 107 123
93 106 122
93 105 121
88 100 116
85 97 112
84 95 109
82 92 106
79 90 104
78 89 103
80 91 106
83 95 110
82 93 107
83 94 109
83 94 109
84 95 110
85 96 112
83 94 109
87 99 114
88 100 115
88 100 116
86 98 114
85 97 112
84 95 110
79 89 103
76 86 99
70 80 92
67 76 88
64 73 84
63 72 83
64 73 85
68 76 88
66 75 87
67 76 88
70 79 92
68 77 90
66 75 86
66 75 87
64 74 86
62 71 82
59 67 77
54 61 71
53 61 71
47 54 62
44 50 58
37 42 49
29 33 38
20 22 26
16 19 22
34 38 44
45 51 59
57 64 74
63 72 84
69 79 91
75 86 99
78 89 102
79 90 104
78 89 103
74 84 97
72 81 93
65 74 86
63 72 83
60 68 79
57 65 75
59 68 78
61 69 80
60 68 79
63 71 83
67 77 88
70 80 93
75 85 99
78 89 103
81 92 106
81 91 105
74 84 97
71 81 93
69 78 90
68 77 89
70 79 91
70 80 93
69 79 91
69 79 91
67 76 88
63 72 83
62 70 81
60 68 78
59 67 78
53 60 69
48 54 62
32 37 43
24 27 31
24 27 31
24 27 31
30 35 40
38 44 51
46 53 61
54 61 71
55 62 71
52 60 69
51 58 68
51 57 66
51 58 68
55 63 74
57 65 76
62 71 82
65 73 85
65 74 86
66 75 87
69 78 89
72 81 94
79 90 104
85 97 112
87 99 114
88 100 116
86 98 113
86 97 112
83 95 110
82 94 108
80 91 106
80 90 104
76 87 100
72 81 94
72 81 94
74 83 96
75 86 100
80 91 106
81 92 106
78 89 102
76 86 100
74 84 97
67 76 87
57 65 75
54 61 71
48 54 62
44 50 58
43 49 57
41 47 54
35 39 45
28 31 36
23 26 30
20 23 27
29 33 38
31 36 41
39 44 52
44 50 57
46 52 60
43 49 57
42 48 55
40 45 52
36 42 48
33 38 44
28 32 37
18 20 24
14 16 18
19 21 25
25 29 33
27 31 36
26 29 34
25 28 33
20 23 27
15 17 20
16 18 21
18 20 23
37 42 48
43 49 56
52 59 69
59 67 77
63 72 83
64 73 84
62 71 82
61 69 80
59 67 78
57 65 75
56 64 74
53 60 70
47 53 62
48 55 63
49 56 65
51 59 68
52 59 68
52 58 67
50 58 67
47 53 62
46 53 61
49 55 64
52 59 68
53 60 69
58 66 77
60 68 79
58 66 76
53 60 70
49 56 65
45 51 60
43 49 56
38 43 50
30 33 38
17 20 23
25 28 32
32 36 42
34 39 45
35 40 46
33 38 44
30 34 39
23 26 30
22 25 29
16 19 21
17 19 22
23 26 30
26 30 34
27 30 35
23 26 31
22 24 28
36 41 48
50 57 66
62 70 81
70 80 92
79 89 103
84 95 110
91 103 120
97 110 127
103 117 136
106 121 139
108 123 143
108 123 142
111 126 145
111 126 146
110 125 144
111 126 146
110 125 145
110 125 145
112 127 147
112 127 147
115 131 152
119 135 156
121 137 158
123 140 161
121 138 160
120 137 158
120 137 158
117 133 154
117 133 153
114 130 150
112 127 147
107 122 142
104 118 135
103 117 135
100 114 132
100 114 132
100 114 132
94 107 123
95 108 125
91 103 119
88 100 115
81 92 106
73 83 95
60 69 79
46 52 60
35 40 46
35 40 46
36 41 47
37 42 49
33 37 44
33 38 44
39 45 52
45 52 60
54 61 70
62 71 83
68 77 89
69 78 90
70 80 93
72 82 95
71 81 94
73 82 95
74 84 98
74 84 97
77 88 102
76 86 99
76 85 98
74 85 98
80 91 105
81 92 107
82 93 107
87 99 114
90 102 118
92 105 122
96 109 127
101 115 133
102 116 134
107 121 140
108 123 142
107 122 141
110 125 144
108 122 141
109 123 142
107 121 141
109 124 144
107 121 141
107 122 141
103 118 137
104 118 136
103 117 135
101 115 133
103 116 134
101 114 132
100 113 131
97 110 126
96 109 125
96 109 127
92 105 122
94 106 123
92 104 120
88 99 115
91 103 119
89 102 118
87 99 115
85 97 112
83 94 109
79 90 105
77 87 101
71 81 94
66 76 88
61 69 80
59 66 77
56 64 74
55 62 72
54 62 72
54 62 72
50 57 66
49 56 64
42 47 55
38 43 50
29 33 38
24 27 32
24 27 31
27 31 36
31 35 40
33 38 44
39 44 51
38 44 51
39 44 51
42 47 55
45 51 58
46 53 61
50 56 65
51 58 67
50 56 65
48 55 63
45 51 59
36 41 47
24 27 31
19 22 26
19 22 25
18 20 23
11 12 14
15 17 20
20 23 27
24 28 32
27 31 36
32 37 42
35 40 46
32 37 43
35 40 47
36 40 47
34 39 45
29 33 38
20 22 26
14 15 18
18 20 24
17 20 23
17 19 23
20 23 27
24 28 32
30 34 39
41 47 54
45 51 59
50 56 65
50 57 65
52 59 69
53 61 70
54 61 71
58 65 75
56 64 74
56 64 74
60 68 78
59 67 77
61 69 80
65 74 85
70 80 93
76 86 100
82 93 108
85 96 111
83 95 110
85 96 111
86 98 114
88 100 115
89 101 117
89 101 117
90 102 118
86 98 113
83 94 109
80 91 106
82 93 108
81 92 106
80 91 105
77 87 100
74 83 96
68 77 89
67 76 89
68 77 89
69 78 90
69 79 92
72 82 94
73 83 96
73 83 96
70 79 92
70 79 92
66 75 87
62 71 82
62 71 82
64 73 84
65 73 84
66 76 88
65 74 87
63 72 83
55 63 73
49 56 65
44 49 56
38 44 50
33 38 44
33 38 44
32 37 42
37 42 49
35 40 47
41 47 54
40 45 52
39 45 52
41 46 53
46 52 60
45 51 59
49 55 63
55 63 73
60 68 79
64 73 84
66 75 87
65 74 85
64 73 84
59 67 77
56 63 73
45 51 59
33 38 44
28 31 36
41 46 54
53 60 70
61 69 80
70 79 91
72 82 95
72 82 94
72 81 94
67 76 88
68 77 89
68 77 89
67 76 88
67 76 88
69 78 90
69 78 91
73 83 96
77 88 102
76 87 100
76 87 101
76 86 100
78 88 102
77 88 102
76 86 99
71 81 94
67 76 88
67 76 87
69 78 91
72 81 94
74 83 96
75 85 98
76 86 99
76 87 100
75 85 99
74 84 98
72 81 93
70 79 91
60 68 79
47 54 62
33 38 44
17 20 23
30 34 40
39 44 51
40 45 52
36 41 47
33 37 43
34 38 44
35 40 46
39 44 52
37 41 48
37 42 49
42 48 55
47 53 62
54 62 72
62 70 81
69 79 91
69 79 91
72 81 94
72 82 94
73 83 96
75 85 99
75 86 99
76 87 100
77 87 101
79 90 104
82 93 108
85 97 112
88 100 116
86 98 113
87 98 113
86 97 112
82 93 108
78 89 103
73 83 97
74 84 97
74 84 97
74 84 97
73 83 96
76 86 99
75 85 98
71 81 93
68 77 89
64 72 84
61 69 80
55 63 74
53 60 70
53 60 69
53 60 70
50 57 66
49 56 65
50 57 65
40 46 53
31 35 40
25 28 32
17 19 22
29 33 38
43 49 57
49 56 65
52 59 68
51 57 66
48 54 63
51 58 67
50 57 66
46 53 61
41 47 54
35 40 46
27 31 36
22 25 29
21 24 28
23 26 31
24 27 31
30 34 40
40 45 52
41 46 54
44 50 58
50 57 66
54 61 70
57 65 75
60 68 79
61 70 81
64 72 83
65 74 86
69 78 90
71 80 92
70 79 92
70 79 91
69 79 91
70 80 93
68 77 90
62 71 82
56 64 74
49 55 64
46 52 60
47 54 62
46 52 60
45 51 59
45 51 59
41 47 54
41 47 55
37 42 49
39 44 51
34 39 45
30 34 40
28 32 37
26 30 34
17 20 23
12 14 16
20 23 26
25 29 33
23 26 31
21 24 28
22 25 29
19 22 26
12 14 16
14 15 18
14 16 19
21 24 27
22 25 29
19 22 26
21 24 28
27 30 35
31 35 40
38 43 50
42 48 55
50 57 66
59 67 78
67 76 88
77 87 101
84 95 110
91 103 119
97 110 127
100 113 131
107 121 140
109 124 143
113 128 148
116 132 152
118 134 155
117 133 154
116 133 154
117 133 154
120 137 158
122 139 161
125 141 163
124 141 163
125 142 164
122 139 160
121 137 158
113 128 148
115 130 150
109 124 143
110 126 146
109 124 143
107 121 140
108 123 143
107 121 140
106 120 139
106 120 139
107 121 140
102 117 135
100 114 132
96 109 126
96 109 125
90 102 118
85 96 111
78 89 103
71 81 94
66 75 87
66 75 87
67 76 88
63 72 84
62 70 80
60 69 79
59 67 77
55 62 72
58 65 75
52 59 68
42 47 55
38 44 51
35 40 46
33 38 44
32 36 42
42 48 56
52 59 69
57 65 75
57 65 75
61 70 80
62 71 82
68 77 89
70 80 92
73 83 96
76 87 101
80 91 105
84 95 110
89 101 117
94 107 124
99 112 130
101 114 132
106 121 140
110 125 145
109 125 144
110 125 145
112 127 147
109 125 145
108 123 141
105 119 138
106 121 140
108 122 141
107 121 140
107 121 140
104 119 138
101 115 133
107 122 141
106 120 139
107 121 140
105 120 139
105 119 137
101 114 132
99 113 131
95 108 125
92 105 121
89 101 116
87 99 114
87 99 115
88 100 115
83 95 109
82 94 108
79 90 104
77 87 101
70 80 92
66 75 87
56 64 74
50 57 65
42 47 55
36 41 48
30 35 40
33 37 43
33 38 44
36 41 47
29 33 38
26 30 35
29 33 38
35 40 47
44 50 58
50 57 66
52 59 68
54 62 72
56 63 73
57 65 75
59 67 77
56 64 74
54 62 72
55 62 72
60 68 79
62 71 82
62 70 81
57 64 74
49 56 65
42 47 55
35 39 45
25 28 33
16 18 21
12 13 15
18 20 24
19 22 25
22 25 30
27 31 36
34 38 45
36 41 48
30 34 40
19 22 25
15 17 20
19 22 25
23 26 31
24 27 31
29 33 38
32 36 42
30 34 39
28 32 37
24 28 32
21 24 27
12 14 16
17 20 23
20 22 26
19 22 25
17 19 22
16 19 22
24 28 32
31 35 40
31 35 41
31 35 40
32 36 41
29 33 38
29 33 38
39 44 51
46 52 61
52 59 69
60 68 79
64 73 84
66 76 88
65 75 87
63 72 83
63 72 83
65 74 85
71 81 94
73 82 95
73 83 96
75 85 98
76 86 100
73 84 97
76 87 100
77 88 101
75 85 98
74 84 97
70 79 91
63 71 83
58 66 77
52 59 68
45 51 59
44 50 58
44 50 58
39 44 51
36 41 47
37 42 48
42 48 55
37 42 49
40 45 52
36 41 47
38 43 50
38 44 50
36 41 47
33 38 44
37 42 48
41 46 54
36 41 48
30 34 39
26 29 34
31 35 41
35 40 46
40 45 53
44 50 58
48 55 64
53 60 69
54 61 71
53 60 69
49 55 64
48 54 63
41 47 54
37 42 48
34 39 44
30 34 39
30 34 39
34 39 45
39 44 51
47 53 62
54 61 71
55 63 73
57 64 74
57 66 76
56 63 73
51 59 68
43 49 57
38 43 50
23 27 31
32 36 41
46 53 61
54 62 72
59 68 79
65 74 86
73 83 97
79 90 103
82 93 108
83 95 110
86 98 113
90 103 119
92 104 120
90 103 120
93 106 123
96 109 127
93 106 122
92 104 121
87 98 114
82 93 108
79 89 104
76 87 101
74 84 98
73 83 95
72 82 95
73 84 97
78 88 102
81 92 107
85 96 111
86 98 113
83 95 110
87 99 115
86 98 113
82 93 108
73 83 96
65 74 85
53 60 70
44 50 58
32 36 42
30 34 39
32 36 42
33 37 43
32 36 42
32 37 42
30 34 39
23 26 31
20 23 27
16 19 22
11 13 15
24 27 32
33 38 44
40 46 53
48 55 63
50 57 65
52 59 68
57 65 75
61 70 81
64 73 85
65 74 85
63 72 83
62 70 81
62 71 82
65 74 86
69 78 90
73 83 97
77 87 101
79 91 105
80 91 106
83 94 109
81 92 106
81 91 106
78 88 102
81 91 105
82 93 107
80 91 105
78 89 103
79 90 104
81 91 106
80 91 106
80 90 104
76 87 101
75 85 99
73 83 96
71 81 93
66 75 87
63 71 82
58 66 77
56 64 74
51 58 68
45 51 58
42 48 56
35 39 46
20 23 26
20 22 26
28 32 37
40 46 53
48 55 63
54 61 70
54 62 72
56 63 73
54 61 71
55 62 72
53 61 70
53 59 68
48 54 63
48 54 63
50 57 66
48 55 64
49 56 65
48 55 63
52 58 67
53 60 70
40 46 53
47 54 62
51 58 67
52 59 68
55 62 71
60 68 79
65 74 85
70 79 91
73 84 97
74 84 97
74 84 98
73 83 96
76 86 99
76 86 100
75 85 98
72 82 95
69 78 90
66 76 88
66 75 86
65 74 85
60 68 79
55 62 72
44 50 59
39 44 51
36 41 48
32 37 43
28 32 38
21 24 28
20 22 26
29 33 38
32 36 42
32 36 41
27 31 36
18 21 24
19 22 25
26 29 34
31 35 41
33 37 43
31 35 40
29 33 39
27 31 36
25 29 33
23 26 30
23 27 31
29 33 38
30 34 39
30 34 40
34 39 45
38 43 50
44 50 58
54 61 70
63 71 82
71 80 93
82 92 106
88 100 116
96 109 126
99 113 131
104 117 135
107 122 142
111 126 146
115 130 151
121 137 158
120 137 158
123 140 161
124 141 163
128 145 167
127 144 166
124 141 163
123 139 160
118 134 154
114 130 151
113 129 149
111 126 145
107 121 140
105 119 137
101 115 134
99 112 130
101 115 133
104 118 137
103 117 135
106 121 140
104 119 138
103 117 135
105 120 138
99 112 129
92 105 121
88 100 115
85 96 111
79 89 103
74 84 97
74 84 97
72 81 94
76 86 100
79 90 104
84 95 110
83 94 108
80 91 105
83 94 108
80 91 106
82 94 108
81 92 106
75 86 99
74 84 97
67 76 88
61 70 81
55 62 72
46 53 61
38 43 50
35 40 46
29 34 39
20 23 27
21 24 28
35 39 46
46 52 60
55 63 73
64 73 84
70 79 92
79 90 103
86 98 113
93 106 123
95 109 126
100 113 131
103 117 135
101 115 133
101 115 133
104 119 137
107 122 141
107 121 139
109 125 144
106 121 140
105 120 139
105 119 137
105 119 137
100 113 130
101 115 133
102 116 134
103 117 135
102 116 134
103 118 136
104 118 137
103 116 134
100 114 132
99 113 131
98 112 130
98 112 129
94 106 123
91 104 120
88 100 115
80 91 106
76 85 98
66 76 88
60 68 79
52 59 69
48 54 63
37 42 48
30 34 39
25 28 33
30 34 40
38 43 50
38 44 51
38 44 51
37 41 48
34 39 45
36 42 48
42 48 55
48 54 63
52 60 69
57 65 75
60 68 79
64 73 84
67 76 88
68 78 90
70 79 92
72 82 94
72 82 95
71 80 93
67 76 88
64 73 84
61 69 80
57 65 75
52 58 67
48 54 62
41 47 54
34 39 45
35 40 47
36 41 48
34 38 44
30 34 39
29 33 38
29 33 38
35 40 46
34 39 45
33 38 44
32 37 42
34 39 45
33 38 44
33 38 44
34 38 44
30 34 39
33 37 43
39 45 52
45 51 59
46 52 61
43 49 56
34 38 45
26 29 34
21 24 28
22 25 29
23 26 30
20 23 27
16 19 21
26 30 35
36 41 47
41 47 54
43 49 57
42 47 55
39 45 52
37 42 48
30 34 40
22 24 28
15 17 20
32 36 42
43 49 57
48 54 62
47 54 63
50 57 66
54 61 71
56 63 73
59 67 78
61 69 79
61 69 80
61 69 80
64 73 84
63 72 83
67 76 88
68 77 89
67 76 88
61 69 80
53 61 70
46 53 61
37 42 48
33 37 43
28 32 37
21 23 27
21 24 28
24 27 31
36 41 47
49 56 65
59 67 77
61 69 80
60 68 79
62 70 81
63 72 83
65 74 86
70 79 91
69 78 91
71 80 93
71 80 93
66 75 87
62 71 82
61 70 80
58 65 76
57 65 76
59 67 77
62 70 81
63 72 83
66 75 87
69 78 90
68 77 88
65 74 85
61 69 80
59 67 77
57 65 75
54 62 72
55 62 72
53 60 70
54 62 72
51 58 67
47 53 62
37 42 48
33 38 44
34 39 45
33 38 44
32 36 42
28 31 36
29 33 38
33 38 44
44 51 59
51 57 67
54 61 71
53 60 70
58 66 76
65 74 85
72 82 95
82 93 107
85 96 111
88 100 115
90 102 118
93 105 121
95 108 124
98 111 128
100 114 132
103 116 134
102 116 134
104 118 137
101 114 132
96 109 126
91 104 121
89 101 117
88 101 117
86 97 112
86 98 113
86 98 113
86 98 113
86 98 114
89 101 116
89 102 118
89 101 117
87 99 115
85 96 111
77 87 100
70 80 92
64 73 84
59 68 79
53 61 70
49 56 65
47 54 62
44 50 58
42 47 55
33 38 44
29 33 38
29 32 38
29 33 38
27 30 35
22 25 29
14 16 19
12 14 16
16 18 21
17 20 23
20 23 26
19 21 25
21 23 27
22 25 29
25 29 33
26 29 34
35 40 46
37 42 49
35 40 47
32 36 42
33 37 43
41 47 54
50 57 66
56 64 75
61 69 80
65 74 85
68 77 89
71 81 94
75 86 99
78 88 102
79 90 104
74 84 96
69 79 91
66 75 87
63 71 82
65 74 86
67 77 89
72 82 95
77 87 101
80 91 106
82 93 108
81 92 106
76 87 101
75 85 99
67 77 89
59 67 77
49 56 65
35 40 47
30 34 39
23 26 30
16 18 21
25 28 33
28 32 37
31 35 40
34 39 45
40 45 52
48 54 62
52 59 67
56 64 73
60 68 79
63 72 83
66 76 88
65 74 86
65 74 85
65 74 86
64 72 84
64 73 85
66 75 86
70 80 92
73 83 96
77 88 102
26 29 34
33 38 44
40 45 52
46 52 61
50 57 66
51 58 68
52 59 68
56 63 73
56 63 73
58 66 77
62 71 82
64 72 84
68 77 89
67 77 89
67 76 87
66 74 86
63 72 84
60 68 79
61 69 79
59 67 78
55 63 72
55 63 72
57 64 74
54 62 71
52 59 68
45 51 60
39 44 50
34 39 45
30 34 40
26 29 34
22 25 29
16 18 21
16 18 21
23 26 30
30 34 39
38 43 50
41 47 54
45 51 59
47 54 62
46 52 60
39 44 51
27 30 35
19 22 26
18 20 23
22 25 29
34 39 46
42 47 55
47 54 62
53 60 69
61 69 79
71 81 93
76 87 100
83 94 108
86 97 112
92 105 121
99 112 130
99 113 131
104 118 137
110 124 143
110 125 145
111 126 147
113 129 149
115 129 149
116 132 153
113 129 150
116 131 151
113 129 149
113 128 148
111 126 146
107 123 143
105 119 138
106 120 139
104 118 136
105 119 137
103 117 135
102 116 134
104 118 137
102 117 135
105 119 137
103 117 134
102 116 133
95 108 125
88 100 116
86 98 113
82 93 108
79 89 103
77 87 101
75 86 99
75 85 99
77 87 100
78 88 102
78 89 103
82 93 108
82 93 108
82 94 108
83 95 110
83 95 109
83 94 109
84 95 110
84 96 111
85 96 111
81 92 106
77 88 102
73 83 97
69 79 92
67 76 88
66 75 87
62 70 82
55 63 73
49 55 64
37 42 48
23 26 31
19 22 26
36 41 47
50 57 65
60 68 79
70 80 93
79 90 104
85 96 112
89 101 116
88 100 116
93 106 122
97 110 126
102 116 134
105 119 138
108 123 142
107 122 141
105 119 138
104 118 136
103 117 135
102 115 133
100 114 132
100 113 130
98 111 129
94 107 124
92 105 121
89 101 118
89 102 118
86 98 113
86 97 112
82 92 106
79 89 104
75 86 99
71 81 94
68 78 90
68 78 89
66 76 88
63 72 83
62 70 81
55 63 73
49 56 65
44 50 58
38 43 49
26 30 35
24 27 31
35 41 47
48 55 64
53 61 70
59 67 78
65 74 86
68 77 89
71 80 92
69 78 90
70 79 92
72 82 94
72 81 94
73 83 96
73 82 95
77 88 101
80 90 104
81 92 106
82 93 108
79 90 105
77 88 101
78 88 102
77 88 101
76 86 100
72 82 95
68 77 89
65 74 85
61 70 81
60 68 78
59 67 77
56 64 74
56 64 74
59 67 77
59 67 78
62 71 82
65 74 85
66 75 87
67 77 89
64 73 85
61 70 81
59 67 78
52 59 69
52 59 69
53 60 70
56 64 74
61 69 79
61 70 80
63 71 83
61 70 80
59 67 78
58 65 76
55 63 73
49 56 65
46 53 61
45 51 59
42 48 55
36 41 47
32 36 42
30 34 39
36 41 47
37 42 49
38 43 51
37 42 48
32 37 43
24 28 32
14 16 18
20 22 26
29 33 38
34 39 45
37 43 49
37 42 48
34 38 44
31 35 41
30 34 40
35 39 46
42 48 55
49 55 64
56 64 74
61 69 80
66 75 86
66 75 87
66 75 86
62 70 82
58 66 77
52 59 69
48 54 63
40 46 53
35 40 46
29 33 38
22 25 29
18 21 24
34 39 46
44 50 58
50 57 66
54 61 70
57 64 74
61 70 81
65 74 85
67 76 88
70 80 92
72 82 94
79 89 102
80 90 104
80 91 106
82 92 107
79 90 104
80 91 105
78 89 103
79 90 104
79 90 105
81 91 106
79 90 104
80 90 104
79 90 104
77 87 101
73 82 95
72 81 94
71 80 92
71 80 92
68 78 90
69 78 90
69 78 90
69 78 90
67 76 88
67 76 88
65 74 86
63 72 83
63 71 83
61 69 80
60 68 79
57 65 75
55 63 73
60 68 79
65 74 86
70 79 92
73 83 97
75 86 99
80 92 106
83 95 110
86 98 113
90 102 118
92 104 120
92 104 121
96 109 126
97 110 127
99 113 130
105 119 138
105 119 138
107 121 140
107 121 140
104 118 137
100 114 131
95 108 124
93 106 122
92 104 121
92 104 121
92 105 122
93 106 122
94 107 124
95 109 126
96 109 126
98 111 129
97 111 128
100 113 131
97 110 128
92 104 120
84 95 110
79 90 105
75 85 98
70 80 92
65 74 86
61 70 81
58 66 76
58 66 76
59 67 77
58 66 77
59 67 78
59 67 77
56 63 73
52 59 69
48 55 63
43 48 56
34 39 44
24 27 31
20 23 27
29 33 38
34 39 45
41 47 54
50 57 65
54 61 71
52 59 68
51 58 67
48 54 62
44 50 58
39 45 52
31 35 41
23 26 30
25 29 33
38 44 51
47 54 62
54 61 71
53 60 70
54 62 72
54 61 71
56 63 73
57 65 76
56 64 74
53 61 70
49 56 65
46 52 60
37 43 49
32 36 41
31 35 41
37 42 48
46 53 61
51 58 67
53 60 69
55 63 73
55 63 73
52 59 68
49 55 63
36 41 48
30 34 39
28 32 37
36 41 48
47 53 61
51 58 67
48 55 63
47 53 61
46 52 61
46 52 60
41 46 54
37 42 48
36 41 48
42 48 56
54 62 72
62 70 81
69 78 90
74 84 97
78 89 104
83 94 108
82 94 109
85 97 112
87 99 114
90 102 117
90 103 120
91 104 120
37 41 48
37 43 49
37 42 49
39 44 51
37 43 49
39 44 52
41 47 54
47 53 62
49 56 65
54 62 72
57 65 75
58 65 75
55 63 73
52 59 69
49 56 64
49 55 63
47 53 61
43 49 57
37 42 49
37 42 49
36 41 48
38 43 50
41 46 53
42 48 56
41 46 54
44 50 58
44 51 58
45 51 59
43 49 57
43 49 56
43 49 57
42 47 54
45 52 60
43 49 57
34 39 46
24 28 32
26 29 34
27 31 36
30 34 40
31 35 41
28 31 36
20 23 26
12 13 16
25 28 32
34 38 44
40 46 53
47 53 62
53 60 70
59 66 77
68 77 89
75 85 98
79 90 104
80 91 105
82 92 107
87 99 114
87 99 114
87 99 114
91 104 119
87 99 115
90 102 118
93 105 121
98 111 128
97 111 128
98 112 130
98 111 129
97 110 127
96 110 128
94 107 123
96 109 126
98 111 129
100 113 131
101 115 133
102 116 133
101 115 133
103 117 135
99 113 130
98 111 129
93 106 123
89 101 117
85 96 112
72 83 96
73 83 95
70 79 92
65 74 85
63 72 83
63 71 82
62 71 82
65 75 86
67 76 88
69 78 91
66 75 87
65 74 85
66 76 87
64 73 84
65 74 85
64 73 84
63 72 83
66 75 87
68 77 89
70 79 92
71 80 93
74 84 97
76 86 100
74 84 96
73 83 95
72 81 94
68 77 89
62 71 82
58 66 76
52 59 68
43 49 57
34 39 45
23 26 30
28 32 37
41 46 54
52 59 68
62 71 82
68 77 89
71 82 95
74 84 97
77 88 102
80 91 105
84 95 109
85 96 111
88 99 114
87 99 115
89 101 117
94 106 123
92 105 121
92 105 121
97 110 127
93 106 122
91 102 118
82 93 107
77 88 102
73 82 95
66 75 87
64 72 83
56 64 73
53 60 70
48 55 64
44 51 59
45 51 59
43 50 57
41 46 54
41 46 53
36 41 47
30 34 39
22 25 29
29 33 38
35 40 46
45 51 60
47 54 62
48 55 64
52 59 68
59 67 77
64 73 84
71 81 93
75 85 98
78 89 103
81 92 106
83 94 109
83 94 109
84 95 110
87 99 114
86 98 114
87 99 114
86 97 112
86 98 114
88 100 115
87 99 114
85 97 112
84 96 111
86 98 113
87 99 114
89 101 116
89 102 119
89 101 117
88 100 116
85 97 112
83 94 109
80 91 105
77 88 102
79 90 104
79 89 103
82 93 108
85 97 112
86 98 114
86 98 114
83 94 109
83 94 109
80 91 105
79 89 104
78 89 103
78 89 104
79 90 105
80 91 105
80 91 105
78 89 103
78 88 101
74 84 97
72 82 95
71 81 94
69 78 90
68 78 90
65 74 86
61 69 80
53 60 70
51 58 67
49 56 64
46 52 60
43 49 57
41 47 54
41 46 54
38 43 50
33 38 44
28 31 36
25 29 33
27 31 36
33 38 44
38 43 49
39 45 52
36 41 47
36 41 47
33 37 43
34 38 44
26 30 35
25 28 33
26 30 34
23 26 31
26 29 33
24 28 32
29 33 38
37 42 48
36 41 47
34 39 46
38 43 49
37 42 49
37 42 49
33 38 44
27 31 36
23 26 30
26 29 34
30 34 39
33 38 44
42 48 55
45 51 59
53 60 69
59 67 78
68 77 90
77 88 101
79 90 104
81 93 108
82 94 109
83 94 109
84 95 110
81 92 107
82 93 108
79 90 104
76 86 100
73 83 96
71 80 93
72 82 95
77 88 101
77 87 101
79 90 104
82 92 107
82 94 108
81 92 106
82 93 107
80 91 105
78 89 102
78 89 103
77 88 102
78 89 103
81 92 106
84 95 110
82 92 106
84 95 110
84 95 111
79 90 104
75 85 99
69 78 91
69 78 90
72 82 95
78 89 103
81 91 106
85 96 111
87 99 115
89 101 117
92 105 121
94 107 124
96 109 125
98 112 129
98 112 130
101 115 132
102 116 134
106 121 140
109 124 144
111 126 146
111 125 144
107 122 141
102 116 135
99 113 130
94 107 124
96 108 124
95 108 124
95 107 124
94 107 124
92 104 120
90 102 118
90 102 118
91 104 120
93 105 122
97 110 128
97 110 127
98 111 128
93 106 123
90 102 118
86 97 113
83 95 109
81 93 107
78 88 101
75 84 97
69 78 91
65 75 87
64 73 84
63 71 83
66 74 86
66 75 86
66 75 87
63 72 83
58 66 77
52 59 69
46 53 61
43 48 56
42 48 56
43 49 56
43 48 56
44 50 58
49 55 64
53 61 70
59 67 78
64 73 84
70 79 92
71 80 93
71 81 93
68 78 90
64 72 83
52 59 68
36 41 47
24 28 32
29 33 38
35 40 46
34 38 44
38 43 50
40 45 53
42 47 54
42 47 55
38 44 51
31 36 42
33 38 44
29 33 39
32 36 42
35 39 45
34 38 44
32 36 42
31 36 41
30 34 39
35 40 47
37 42 49
38 44 51
44 50 58
49 56 65
51 58 68
56 63 74
59 68 78
64 73 84
67 76 87
66 75 87
66 75 87
66 74 86
60 69 80
58 66 76
54 62 72
53 60 69
51 57 66
53 60 69
59 67 77
66 75 87
76 86 100
81 93 108
86 97 112
87 99 114
88 100 115
87 99 115
89 101 117
89 101 117
92 104 121
92 105 121
29 33 39
39 44 51
46 52 61
50 57 66
56 64 74
63 72 83
63 72 83
63 71 82
61 70 81
63 71 82
57 65 75
55 62 72
47 54 62
41 46 54
34 39 45
32 36 42
30 35 40
25 28 33
22 25 29
26 30 34
29 33 38
32 36 42
35 39 45
37 42 48
40 45 52
41 46 53
42 47 55
46 53 61
43 49 56
43 49 57
42 48 55
41 47 54
43 49 57
38 43 51
31 36 41
20 23 26
11 12 15
14 16 19
20 22 26
24 28 32
27 31 36
27 31 36
22 26 30
21 23 27
26 30 34
34 39 45
41 47 54
48 55 63
57 65 75
60 69 80
60 68 79
60 68 79
63 71 82
65 74 85
67 76 88
74 84 98
74 84 98
75 85 97
74 85 98
77 87 101
78 88 102
79 90 104
80 91 106
82 93 108
83 94 108
84 96 111
84 96 111
89 101 117
91 103 120
96 109 127
97 110 127
99 112 130
100 113 131
97 111 129
98 111 128
90 102 118
83 95 110
75 85 98
69 78 90
67 75 87
63 72 83
64 73 85
61 69 80
59 67 78
57 66 76
58 65 76
57 65 75
58 65 75
53 60 69
46 52 61
45 51 59
41 47 54
38 43 50
38 44 51
35 40 46
32 36 42
26 30 35
26 29 34
34 39 45
43 49 56
51 58 67
59 67 77
65 73 85
67 77 89
66 75 87
61 70 80
59 67 77
56 64 74
52 59 69
50 56 65
47 54 62
41 46 53
31 36 41
19 22 25
19 22 26
26 30 34
33 38 44
38 43 50
40 45 52
47 53 61
50 57 66
48 54 62
51 58 67
51 58 67
55 62 72
56 63 73
61 69 80
63 72 83
66 75 86
66 75 87
57 65 75
57 65 75
56 64 74
53 60 70
54 62 72
52 59 69
44 51 59
37 42 49
35 39 45
29 33 38
25 29 34
18 20 24
28 32 37
38 43 50
47 54 62
52 60 69
57 65 75
57 65 75
60 68 79
62 70 82
64 72 83
66 75 86
69 78 90
69 79 91
75 85 98
76 87 100
78 89 102
79 90 104
81 92 107
83 95 110
84 96 110
83 95 110
83 94 109
81 92 107
81 91 105
83 94 109
83 94 109
84 96 111
86 97 113
86 98 113
89 102 118
93 106 122
96 109 126
98 112 129
100 113 131
102 116 133
103 117 136
99 113 131
98 112 129
97 110 127
99 112 129
99 113 131
100 114 131
99 112 130
98 111 129
97 111 129
94 106 123
91 104 121
91 103 119
90 103 119
89 101 117
87 99 115
90 102 118
94 107 123
95 107 124
92 105 121
95 108 124
91 104 119
92 104 120
88 100 116
87 99 114
85 96 111
81 92 106
79 90 103
74 84 97
76 86 99
72 82 95
74 83 96
72 82 95
70 79 91
68 78 90
64 73 85
59 67 78
54 61 71
52 59 68
54 61 71
57 64 74
59 67 77
56 64 73
55 63 73
52 59 69
51 58 68
53 60 69
55 63 73
56 64 74
60 69 80
61 70 81
59 67 78
56 63 73
51 58 68
43 49 57
37 43 49
31 35 41
25 29 33
18 21 24
12 13 15
12 14 16
19 22 26
25 29 34
33 37 43
38 43 50
44 50 58
47 54 62
49 55 64
50 57 66
47 54 62
50 57 66
56 64 74
63 72 83
71 81 95
80 91 106
86 97 112
88 100 115
89 101 117
94 106 122
94 106 123
91 103 119
90 102 118
85 97 112
85 96 111
84 96 111
84 95 110
81 92 106
77 87 101
80 91 105
79 90 104
81 92 107
82 93 108
84 95 109
86 98 114
89 101 116
91 104 120
94 106 123
93 106 123
91 104 120
92 105 122
98 111 128
97 110 127
98 111 129
100 113 131
95 108 125
95 107 123
90 102 118
90 103 119
90 103 119
91 103 120
91 103 120
93 105 121
93 106 123
98 110 127
99 113 131
103 117 135
104 118 137
108 122 142
107 121 139
107 122 142
108 123 142
107 122 141
111 126 146
113 128 149
111 126 145
107 121 141
105 120 139
107 121 139
105 119 138
105 119 138
100 113 131
98 111 128
96 110 128
98 112 130
96 109 125
98 111 129
100 114 131
98 112 129
97 110 126
93 106 123
91 103 119
88 100 115
85 97 112
87 99 114
86 98 113
86 97 112
85 96 111
84 95 110
78 89 102
76 86 99
75 85 98
74 84 97
70 79 91
64 73 84
58 66 77
52 59 68
49 56 65
48 55 63
47 53 62
49 55 64
49 56 65
49 56 65
48 54 63
48 55 63
52 59 69
55 62 72
58 65 75
60 68 79
62 71 83
66 75 87
65 74 85
63 71 82
57 65 75
50 57 66
43 49 57
40 45 53
34 39 45
24 27 31
21 24 28
23 26 30
25 29 34
29 33 38
33 37 43
36 41 47
42 48 56
49 56 65
50 57 66
50 57 66
47 54 63
45 51 59
47 53 62
52 59 69
57 65 76
64 73 84
66 75 87
68 78 91
69 79 91
70 80 92
68 77 90
66 75 86
65 74 86
67 76 88
67 75 87
64 73 84
65 73 85
65 74 86
67 76 88
66 75 86
68 77 89
67 76 87
66 76 88
71 81 94
76 87 100
80 91 105
84 95 110
90 102 118
94 107 123
96 109 126
94 106 122
96 109 127
95 108 124
93 107 124
96 109 126
94 107 124
39 44 51
44 50 58
52 59 68
60 68 79
63 71 82
65 74 85
65 74 85
61 70 81
61 69 80
61 69 80
58 65 75
55 62 71
50 57 66
44 50 58
43 49 57
42 48 55
44 50 58
46 53 61
44 50 58
43 49 57
40 45 53
39 44 51
39 44 51
38 43 50
43 48 56
43 49 57
43 49 57
42 47 55
40 45 52
35 40 46
29 33 38
28 32 37
24 27 32
19 22 25
21 24 27
19 21 25
16 18 21
22 25 29
22 25 29
23 26 31
25 28 33
26 30 35
30 34 40
33 38 44
34 39 45
37 42 48
39 44 50
42 47 54
44 51 59
47 54 62
52 58 67
54 61 71
57 65 74
61 69 80
65 74 86
71 80 93
76 86 100
80 91 105
78 88 102
75 86 100
75 85 98
71 81 93
72 82 95
75 85 98
77 88 102
79 90 105
80 91 106
86 98 113
86 97 112
88 100 116
88 99 114
84 95 110
80 91 106
76 86 101
70 80 92
65 74 86
66 74 86
63 71 82
60 68 78
56 63 74
57 64 74
54 62 72
52 60 69
49 55 64
46 52 60
41 47 54
42 48 55
35 40 46
30 34 40
34 39 45
38 43 50
37 42 49
35 40 46
34 38 45
35 40 46
27 31 36
21 24 28
28 32 37
37 42 48
44 50 58
50 57 66
53 60 70
52 59 68
53 60 70
55 63 73
50 57 65
48 55 63
45 51 59
43 49 57
42 47 55
42 48 56
47 54 62
49 56 65
53 60 70
50 57 66
50 56 65
45 51 59
40 45 53
37 42 49
34 39 45
35 40 46
35 39 45
28 32 37
24 28 32
26 29 34
35 40 46
35 40 46
37 42 48
37 43 50
33 38 44
29 33 39
29 32 37
26 29 34
23 26 30
25 29 33
20 23 26
19 21 25
20 23 27
14 16 19
21 24 28
30 34 39
37 42 48
42 47 54
46 52 60
52 60 69
59 67 77
65 73 85
69 78 90
71 81 93
72 83 96
75 85 98
74 85 98
76 86 100
77 87 101
80 91 105
81 92 107
84 95 110
82 93 107
83 94 109
85 97 112
86 98 113
88 99 115
89 101 117
88 100 115
88 100 115
90 102 117
94 107 123
97 111 128
99 113 131
98 112 129
102 116 133
106 120 139
108 123 142
109 124 143
106 121 140
104 119 138
107 121 141
107 122 141
107 120 138
105 119 138
102 116 135
104 119 138
102 115 133
98 111 129
95 108 126
93 106 123
91 103 120
88 100 116
86 97 113
88 100 116
89 101 117
91 104 120
92 104 121
93 106 122
94 106 122
96 109 127
96 109 126
98 111 128
93 106 123
94 107 124
93 106 123
90 102 118
88 100 116
84 96 111
83 95 110
82 93 108
82 93 107
82 93 108
83 95 109
83 94 109
81 92 106
80 91 105
79 89 103
75 86 99
74 84 98
73 82 95
70 80 93
67 76 88
64 73 85
62 71 82
62 70 81
58 67 77
56 64 75
60 68 79
59 66 77
60 68 78
60 67 77
57 65 76
60 67 78
59 67 78
57 64 75
50 57 66
45 51 59
38 43 49
28 31 36
18 20 23
18 21 24
16 18 21
15 18 20
24 27 32
29 33 38
36 41 47
42 48 55
48 54 63
50 56 65
50 57 66
55 63 72
62 71 82
68 77 89
73 83 95
78 89 103
81 91 106
83 95 109
85 96 111
86 97 113
89 101 117
90 103 119
90 102 118
89 101 117
89 101 116
92 105 121
95 108 125
97 110 128
98 111 129
97 111 129
97 110 128
97 110 127
98 111 129
95 107 124
94 106 123
92 104 120
91 104 120
90 102 118
92 105 122
94 106 123
95 109 126
97 110 128
98 111 129
103 117 135
102 116 135
105 119 137
105 120 140
107 121 139
105 120 139
106 120 138
106 120 139
105 119 138
105 119 138
107 122 141
109 124 144
110 125 145
112 127 147
112 128 149
111 126 146
111 127 147
112 128 149
114 130 150
116 132 152
114 129 148
118 134 154
116 133 153
115 130 150
113 128 149
112 127 147
109 124 144
106 120 139
110 125 144
110 124 144
109 125 144
110 125 145
106 121 140
107 122 142
106 121 140
107 122 141
104 118 137
103 116 133
96 109 126
94 106 123
89 102 118
91 103 119
92 105 121
95 108 124
95 108 125
96 109 126
96 109 126
94 107 123
90 103 119
85 97 112
78 89 103
68 77 89
60 69 79
48 54 63
39 44 51
32 36 41
29 33 38
28 32 37
32 37 43
36 41 47
38 44 50
41 47 54
45 51 59
49 56 64
52 59 68
54 61 70
51 58 67
47 53 62
40 45 53
33 37 43
26 30 35
22 25 29
18 20 23
16 18 21
18 21 24
22 25 29
26 30 35
29 32 38
35 39 45
41 46 53
48 55 64
53 60 70
60 68 79
63 71 82
59 67 78
57 65 75
58 66 76
58 66 76
60 69 80
67 76 88
69 78 90
71 80 93
72 82 95
75 85 99
76 86 100
78 89 103
79 90 104
77 88 102
77 87 101
73 83 97
74 84 97
74 84 97
71 81 94
69 78 90
66 75 87
69 78 90
69 78 91
73 83 95
77 87 102
81 92 106
84 96 111
90 102 118
94 106 123
97 110 128
99 113 131
102 116 135
101 115 133
103 116 134
101 115 133
101 115 133
103 117 135
103 117 135
63 71 82
61 70 80
58 66 76
55 63 72
53 61 70
53 61 71
53 60 70
49 56 65
50 56 65
47 54 62
50 56 65
54 61 71
59 67 77
63 71 82
67 76 89
66 75 87
64 73 84
59 67 78
55 63 74
55 63 74
56 63 73
56 63 73
51 59 68
46 53 61
38 44 50
29 33 38
23 27 31
30 35 40
33 38 44
40 45 52
40 45 52
39 45 52
40 46 53
40 46 53
41 47 55
45 51 59
44 49 57
40 46 54
40 45 52
29 32 37
18 20 24
32 36 42
41 47 55
45 51 59
46 53 62
47 54 63
49 55 64
51 58 67
50 56 65
51 58 67
50 57 66
51 58 67
55 62 72
58 66 76
59 67 78
59 67 78
58 66 76
59 67 77
59 67 77
59 67 77
60 68 79
62 70 80
64 72 83
65 73 85
65 74 85
65 74 86
65 73 85
61 70 81
60 68 78
55 62 72
51 58 67
47 53 62
46 52 60
44 50 57
43 48 56
45 51 59
48 54 63
46 52 61
48 55 64
46 52 60
38 43 50
33 37 43
24 27 32
33 37 43
41 46 54
47 53 62
52 59 68
55 62 72
56 63 73
55 62 72
53 61 70
50 57 66
43 49 57
36 41 47
24 27 32
12 14 16
30 34 39
40 46 53
46 53 61
51 58 67
51 58 67
49 56 65
52 59 69
52 60 69
47 53 61
45 51 59
43 49 56
39 45 52
39 45 52
41 47 54
45 51 59
50 57 67
57 65 75
61 69 80
63 71 82
63 71 82
58 65 76
55 62 71
52 59 68
50 57 66
49 56 64
45 52 60
39 44 51
34 38 44
36 40 47
39 44 51
42 47 55
43 49 56
42 47 54
38 43 50
33 37 43
20 23 27
19 21 24
22 25 29
27 31 36
27 30 35
28 32 37
30 35 40
29 33 38
26 30 35
23 26 30
26 30 34
35 40 46
46 52 61
54 62 71
61 69 80
66 75 86
69 78 90
70 80 92
73 83 97
78 89 102
81 92 106
82 93 108
83 94 109
86 98 113
87 99 115
87 100 116
90 103 119
89 101 117
87 99 115
89 101 117
90 102 119
92 105 122
91 104 121
96 109 126
97 110 128
102 115 133
103 117 135
106 120 138
106 121 139
105 119 138
106 121 139
105 120 139
105 119 138
101 115 134
98 112 130
97 110 127
96 110 127
98 111 128
99 112 130
96 109 127
95 108 125
89 101 117
87 99 114
84 96 111
83 94 109
82 93 108
79 90 105
79 90 104
75 86 99
74 83 96
75 85 99
78 89 103
82 93 108
85 97 113
89 101 117
91 103 119
92 105 121
94 107 123
94 107 123
91 104 120
87 99 114
87 99 115
84 95 110
82 93 108
81 92 106
79 89 103
81 92 106
84 95 110
84 95 110
86 98 114
88 100 115
86 97 113
84 95 110
81 91 106
73 84 98
72 81 94
69 79 91
68 78 89
69 79 91
69 78 90
67 76 88
65 74 86
64 72 84
64 73 84
62 71 82
62 70 81
61 69 80
59 67 78
56 63 73
50 57 66
42 48 55
35 40 46
29 33 38
30 34 39
32 36 42
31 35 41
27 31 36
29 33 38
29 33 39
31 35 41
30 34 39
32 36 41
38 43 49
43 49 57
47 53 62
47 54 62
52 59 68
61 70 81
69 78 90
75 85 98
79 90 104
82 93 108
85 96 111
87 98 113
89 101 116
90 102 118
91 104 120
94 106 123
94 107 124
100 113 130
101 114 132
103 117 135
102 115 132
104 119 138
104 118 137
104 119 137
102 116 134
100 114 132
98 111 129
96 109 127
98 111 129
97 111 129
98 112 130
98 112 129
97 110 127
96 109 126
97 110 128
98 112 129
104 118 136
103 118 137
108 122 141
106 121 140
112 126 146
109 124 144
114 129 149
112 127 146
114 130 150
115 131 151
115 131 152
119 135 156
120 136 157
119 136 158
120 136 157
119 135 157
121 138 160
119 136 158
118 135 156
120 137 158
122 138 159
124 140 162
123 140 162
121 137 158
123 139 160
120 136 157
122 138 160
116 132 154
118 134 155
118 135 157
120 136 157
116 133 154
118 134 154
117 132 152
120 136 157
118 135 156
119 136 157
117 133 154
113 129 150
108 122 142
110 125 145
104 118 137
102 116 134
98 111 129
96 109 126
96 109 126
94 106 122
91 103 119
86 98 114
80 90 104
73 83 96
65 74 86
58 67 77
52 59 68
44 50 58
35 39 45
25 29 33
19 22 25
22 25 29
30 34 40
40 45 52
48 54 63
52 59 68
54 61 70
53 60 69
47 54 62
37 43 50
34 39 45
29 33 38
25 29 33
24 27 32
25 28 33
27 30 35
31 36 41
40 45 52
44 50 58
48 54 63
47 54 62
49 55 64
51 58 67
55 62 71
54 62 72
53 60 70
51 58 67
50 57 66
51 58 67
57 65 76
65 74 86
69 79 91
74 84 98
77 88 102
80 92 106
82 93 108
84 95 110
86 98 113
88 100 116
86 97 112
81 91 105
77 87 101
74 84 97
72 81 94
69 79 91
71 81 94
74 84 98
77 87 101
80 90 104
81 91 105
82 93 107
83 94 109
85 97 112
87 99 115
91 103 119
91 103 119
94 107 124
99 113 131
103 116 134
103 118 136
107 122 142
106 120 139
107 121 139
106 120 139
69 78 91
62 71 82
57 65 75
54 61 70
50 57 66
45 51 59
41 46 54
36 41 47
34 38 45
37 43 49
41 47 55
46 53 61
53 60 70
57 64 74
62 70 81
62 71 82
55 62 72
47 54 63
41 47 54
35 40 46
35 40 47
29 33 38
29 33 37
32 37 43
29 33 38
34 38 44
41 47 54
47 54 62
53 61 71
58 65 75
58 66 76
59 67 77
59 67 78
56 63 73
52 59 68
47 53 61
43 49 57
42 47 55
34 39 45
25 28 32
15 17 19
21 23 27
30 34 39
33 37 43
37 43 49
43 49 56
47 53 62
52 59 68
51 59 68
54 61 71
52 59 69
53 61 70
53 60 70
48 54 63
42 48 55
33 38 43
24 28 32
27 31 36
31 35 40
34 38 44
36 41 48
42 47 55
46 52 61
52 58 67
54 61 70
52 59 68
44 50 58
37 42 49
29 33 38
18 21 24
17 19 22
24 27 32
27 30 35
17 19 23
18 21 24
25 28 33
27 30 35
25 29 33
25 29 34
28 32 37
32 36 42
34 39 45
41 46 53
44 50 58
49 56 64
55 62 72
60 68 79
65 74 85
67 76 88
65 74 86
62 70 81
57 65 74
49 56 65
42 48 56
31 35 40
20 23 27
21 24 28
28 32 37
37 43 50
44 50 58
51 58 68
58 66 76
63 72 83
65 74 86
65 73 85
62 71 82
60 68 79
62 70 81
64 72 83
66 76 88
69 78 91
71 81 93
67 76 88
66 75 86
61 69 79
54 61 71
46 52 60
42 47 55
40 46 53
41 47 54
47 53 62
51 58 67
57 65 76
62 70 82
66 75 86
65 74 86
63 71 82
58 66 76
55 63 73
50 58 67
45 51 59
39 45 52
29 32 37
21 23 27
21 24 28
23 26 30
23 26 30
26 30 35
25 28 32
24 28 33
27 30 35
25 29 33
28 32 37
35 40 46
45 51 59
53 60 70
59 67 78
65 74 86
73 83 96
77 87 100
82 93 107
84 96 111
86 97 113
89 101 116
87 98 114
89 101 117
90 102 118
90 101 116
91 103 118
91 103 119
93 106 123
94 106 123
96 109 126
98 111 128
100 114 132
100 114 131
102 116 134
105 119 138
105 119 138
105 119 138
105 119 138
102 116 134
101 115 133
96 109 126
92 105 121
89 101 117
86 98 114
86 97 112
84 95 110
82 93 108
81 92 106
79 90 104
78 88 102
75 86 100
77 88 101
77 87 101
78 88 102
75 86 99
73 83 95
69 79 91
66 76 88
68 77 90
71 80 93
72 82 95
73 83 96
75 85 99
78 88 101
80 91 105
85 96 111
85 96 111
86 98 114
87 99 114
88 100 116
88 100 116
87 98 114
86 97 112
84 95 110
85 96 111
87 99 115
88 100 115
88 100 116
85 97 112
80 91 105
80 90 104
76 87 100
75 84 97
75 85 98
75 86 99
75 85 98
72 82 95
73 82 95
73 82 95
70 80 92
68 78 90
69 79 91
69 79 92
65 74 85
60 68 78
50 57 66
38 44 50
29 33 39
20 22 26
22 25 29
27 31 36
31 36 41
31 35 41
33 38 44
35 40 46
36 41 47
38 43 50
39 45 52
26 30 34
20 23 26
32 37 43
39 44 51
48 55 63
52 59 68
57 64 75
61 70 81
65 74 85
69 79 91
72 82 94
74 84 98
79 89 102
81 92 107
82 93 108
85 96 111
85 96 111
89 101 116
91 104 120
94 107 123
96 109 126
98 111 129
102 116 134
105 119 138
109 123 143
110 125 144
107 121 141
106 120 138
102 115 133
100 114 132
98 112 130
102 115 133
103 117 135
104 119 138
107 122 141
108 124 143
108 122 141
105 120 138
105 120 139
108 122 141
105 120 138
106 120 139
106 120 139
106 121 140
107 121 140
108 123 142
108 122 142
110 125 145
112 128 149
119 135 156
121 137 158
124 141 162
120 137 159
123 139 161
122 137 158
124 141 163
125 143 165
125 142 165
126 144 166
127 145 167
129 146 170
129 147 170
133 151 175
135 153 176
136 154 178
134 152 176
131 149 173
129 147 170
129 146 168
125 143 165
125 142 164
125 143 166
128 145 168
127 144 166
128 145 168
123 140 163
123 140 161
121 137 159
118 134 154
110 125 145
106 121 140
105 119 137
98 111 128
95 108 125
90 103 119
87 99 115
82 94 109
80 90 104
75 85 99
69 78 91
63 71 82
59 68 79
55 63 72
53 60 70
50 57 65
48 55 64
48 55 64
47 54 63
49 56 65
52 59 68
50 57 67
51 57 66
45 51 59
43 49 57
42 47 55
44 50 58
47 53 61
49 56 65
50 56 65
53 60 70
54 62 71
55 63 72
57 65 75
60 68 78
63 71 82
63 71 82
61 69 80
56 63 73
50 56 65
46 52 60
45 51 59
45 51 59
43 49 57
49 55 64
56 64 74
64 72 84
69 78 90
75 85 98
81 91 106
86 97 113
91 104 120
93 106 123
94 107 124
93 106 123
89 101 117
84 95 110
78 89 103
78 88 102
75 85 99
75 85 98
77 87 101
79 90 104
82 93 107
83 94 109
83 95 109
84 95 110
86 98 113
88 100 116
90 102 117
94 107 123
97 110 127
98 111 128
100 114 133
103 117 136
106 121 141
108 123 141
109 123 142
105 119 138
103 117 136
64 72 84
62 71 82
62 70 80
58 66 76
52 59 68
47 54 62
44 50 58
43 49 56
44 50 58
52 58 67
50 56 65
48 54 63
43 49 57
39 44 51
30 35 41
25 28 33
26 30 34
26 30 34
26 29 34
33 37 43
41 46 53
47 53 62
49 56 65
50 58 67
52 59 68
51 58 67
53 60 70
57 64 74
53 61 71
53 60 69
49 56 65
50 56 65
47 54 62
46 53 61
45 51 59
41 47 55
41 46 54
40 46 53
39 44 51
31 35 40
27 30 35
24 27 31
25 29 33
25 28 33
31 35 40
39 44 51
47 54 62
49 55 64
47 54 63
48 55 64
48 54 63
48 54 62
48 54 63
43 49 57
37 42 49
29 33 38
20 23 27
22 25 28
25 28 33
31 35 40
33 37 43
30 34 39
30 34 39
28 32 36
21 24 28
15 17 20
17 19 22
17 20 23
17 20 23
24 27 31
28 32 37
30 34 39
33 38 44
34 39 45
34 39 45
31 36 42
32 36 42
34 38 44
40 45 52
46 52 60
47 53 62
50 57 66
56 64 74
60 67 78
61 69 80
63 72 83
65 74 86
68 77 89
69 79 91
69 79 91
67 76 88
62 71 82
58 66 76
50 57 65
40 45 52
28 32 37
16 18 21
15 17 20
25 29 33
39 44 51
51 57 66
58 65 76
62 71 82
65 74 85
69 79 91
72 81 93
74 84 97
77 88 102
80 90 104
78 89 102
76 86 99
69 78 90
62 71 82
55 63 73
56 63 73
55 62 72
55 62 72
53 60 70
49 56 65
48 55 63
50 57 66
52 60 69
54 61 70
56 64 74
56 64 75
55 62 72
56 63 73
50 57 66
47 53 61
47 54 62
45 51 59
40 45 53
35 39 45
28 32 37
25 28 33
27 30 35
34 39 45
38 44 51
42 48 56
44 50 58
48 54 63
47 54 62
49 56 64
52 59 68
56 64 74
65 74 86
70 79 91
73 83 95
78 88 102
79 90 104
84 95 109
85 97 113
87 99 114
91 103 119
89 101 117
94 107 124
94 107 124
94 107 124
98 111 128
98 111 128
99 112 129
101 114 132
103 117 135
104 119 137
104 118 137
105 119 138
102 116 134
104 118 137
106 121 140
104 118 137
103 117 136
100 114 131
94 107 124
89 101 117
84 96 111
81 92 107
80 91 105
79 89 103
76 86 99
75 85 98
75 85 98
75 85 99
73 83 96
73 83 96
72 81 94
66 75 87
64 73 84
62 70 81
63 71 82
65 74 85
65 74 85
64 73 85
68 77 89
70 79 92
74 84 97
74 84 97
75 86 100
78 89 103
82 92 107
82 93 108
83 95 110
84 96 111
84 96 111
86 97 112
86 98 113
89 101 117
89 101 116
90 101 117
85 97 112
82 93 108
79 89 103
76 87 100
72 82 96
72 81 94
69 79 91
69 78 91
70 80 93
71 81 94
68 78 90
71 80 93
72 82 96
74 84 98
74 84 97
68 78 90
63 72 84
57 65 75
47 53 62
34 39 45
19 22 26
25 28 32
34 39 45
37 42 49
43 49 57
49 56 64
54 62 71
57 64 75
56 64 74
57 65 75
56 64 74
53 60 70
49 56 64
44 50 57
37 42 48
32 37 42
32 36 41
31 35 41
32 37 43
35 39 46
40 46 53
48 54 63
55 62 72
63 72 84
64 72 84
64 73 85
66 74 86
65 74 86
69 78 90
71 80 93
75 86 99
78 88 102
81 92 106
87 99 114
92 104 121
95 108 125
97 110 127
99 112 129
102 116 134
103 117 136
104 118 136
101 115 133
99 112 130
95 109 127
97 110 128
102 116 133
100 114 132
100 113 131
102 116 134
101 115 132
104 118 136
102 116 134
102 116 133
104 118 136
105 119 138
102 116 135
102 116 134
100 114 132
102 117 136
107 122 142
111 126 146
112 128 148
113 129 149
114 129 149
117 133 154
116 133 154
119 135 156
120 137 158
126 143 165
128 145 168
132 149 172
129 147 171
130 148 172
131 149 173
132 150 174
134 152 176
134 152 176
132 150 173
134 153 176
133 152 176
132 149 172
129 146 169
129 147 169
127 145 168
126 144 166
127 144 167
127 144 167
125 142 165
124 141 163
122 138 160
121 137 159
120 136 157
118 134 154
111 126 145
107 121 140
104 118 136
99 112 129
96 109 126
90 102 118
88 100 115
84 95 110
81 92 107
79 90 103
76 87 101
74 84 97
70 79 92
64 73 85
61 69 80
56 64 74
55 62 72
53 61 71
53 60 69
47 54 62
41 46 54
30 34 39
24 27 31
28 32 37
35 40 46
37 43 49
40 45 52
42 47 55
42 48 55
45 52 60
46 52 60
49 56 65
53 60 70
59 67 77
63 71 82
64 73 84
62 70 81
55 63 73
49 55 64
46 52 61
46 52 60
47 53 62
51 58 67
53 60 70
56 64 74
64 73 84
71 81 94
76 87 101
80 91 105
81 92 107
81 92 107
81 92 107
83 94 109
81 92 107
77 87 100
74 84 98
74 84 98
75 85 98
77 87 100
77 87 100
77 88 102
80 91 105
81 92 107
87 98 113
90 102 118
89 101 117
91 103 120
92 105 121
96 110 127
98 111 128
96 109 127
97 110 127
102 115 132
104 117 135
105 119 138
106 120 138
105 119 137
106 120 139
105 120 138
51 58 67
53 60 70
55 62 72
59 66 76
59 67 77
61 69 79
61 69 80
62 70 81
57 65 75
49 56 64
35 40 47
20 23 27
20 23 27
21 24 28
21 24 28
27 31 35
35 40 46
44 50 58
51 58 67
55 63 72
58 66 76
58 66 76
58 66 76
61 69 80
65 74 85
66 75 87
68 77 89
69 78 90
64 74 86
63 71 83
60 68 79
63 71 82
64 73 84
60 68 78
57 64 75
55 62 71
55 63 73
56 64 75
58 66 76
54 61 70
50 56 65
44 50 57
36 41 48
28 32 36
29 33 39
27 31 35
26 29 34
28 32 37
28 31 36
32 37 42
34 39 45
39 44 51
38 43 49
32 36 42
28 32 37
17 19 23
13 14 17
15 17 20
18 21 24
25 29 34
27 30 35
24 27 32
18 20 24
16 18 21
14 16 19
10 12 14
16 18 21
20 23 26
25 29 33
33 38 44
37 43 50
41 47 54
43 49 56
41 46 54
35 40 46
29 33 38
25 29 33
22 25 29
23 26 30
33 37 43
44 50 58
55 62 72
60 69 79
67 76 88
69 78 90
70 79 92
67 76 88
68 77 89
67 75 87
65 74 85
62 71 82
57 65 76
53 60 70
47 54 62
43 49 56
33 38 44
23 26 30
13 15 18
21 24 28
31 35 40
36 41 47
43 49 56
45 51 59
51 58 67
55 62 72
61 69 79
64 73 84
62 70 81
56 64 74
57 65 76
52 60 69
55 63 73
60 68 79
63 71 82
62 70 81
62 70 81
61 69 80
58 66 76
58 66 76
56 64 74
57 65 76
54 61 71
48 55 64
39 45 52
33 38 44
30 35 40
29 33 39
29 33 38
24 27 31
26 30 34
26 30 35
28 31 36
28 32 37
36 41 47
48 55 63
55 62 72
59 67 78
58 66 76
55 63 73
56 63 73
55 63 72
57 64 74
61 69 80
66 75 87
67 76 88
71 81 93
77 87 100
78 88 102
83 94 108
83 94 109
81 92 107
82 93 107
82 93 108
84 95 110
84 96 111
86 98 113
88 100 116
91 104 120
95 108 125
96 109 126
101 115 133
102 116 135
103 117 136
103 117 135
101 114 133
101 115 133
100 113 131
97 110 128
96 109 125
96 109 126
93 106 122
90 102 118
86 98 113
84 95 110
79 90 104
77 87 100
76 86 99
73 83 96
71 81 93
70 80 93
69 79 91
69 78 91
68 77 89
65 74 86
63 71 83
60 68 78
59 67 78
60 68 79
63 71 82
67 76 88
70 79 91
70 80 93
71 80 92
71 81 94
76 86 99
77 87 101
80 91 105
80 91 106
82 93 107
83 94 109
82 93 108
83 94 109
82 94 108
84 96 110
82 93 108
82 94 109
80 91 105
75 86 99
72 82 94
70 79 92
67 76 88
63 72 84
61 70 81
63 72 84
65 74 85
67 76 88
67 76 88
66 76 88
70 79 91
69 78 89
70 80 92
71 81 93
69 78 90
65 74 86
58 66 76
50 57 66
42 47 54
32 36 42
22 24 28
20 22 26
36 41 48
46 52 60
50 57 66
56 64 74
60 68 79
59 67 78
58 66 76
55 63 73
52 59 69
51 58 67
52 59 68
51 58 68
51 57 66
50 57 66
49 56 64
50 57 65
50 57 67
51 57 66
45 51 59
37 42 49
33 37 43
32 36 42
35 40 46
38 43 50
41 47 54
47 54 62
49 56 65
55 62 72
57 65 75
59 66 77
63 72 83
66 75 87
69 79 91
74 84 98
80 91 105
80 92 107
84 96 111
86 97 113
88 100 115
87 99 114
87 99 115
88 100 116
91 103 119
91 104 120
92 104 121
93 106 123
91 104 120
89 101 118
88 99 114
84 96 111
85 96 111
82 92 106
80 91 105
81 93 107
86 97 112
87 99 114
89 100 116
96 108 125
99 112 129
100 114 132
101 114 132
102 116 134
104 118 136
107 122 140
110 124 143
109 124 144
114 129 150
113 129 149
115 130 151
116 132 153
118 134 155
118 133 154
119 135 156
122 139 160
124 141 163
125 142 164
124 141 162
122 138 160
123 140 162
120 137 158
121 137 159
120 137 159
117 133 153
113 129 149
115 130 149
114 129 150
116 131 152
117 133 154
115 131 151
113 129 149
108 123 142
108 123 142
104 118 136
104 118 136
100 113 130
97 111 128
96 108 125
92 105 121
88 99 115
80 90 105
73 83 96
70 79 92
67 76 88
66 76 88
66 75 88
65 74 85
62 70 81
58 67 77
57 65 75
55 62 72
53 60 70
46 53 61
36 41 47
27 30 35
26 30 35
28 31 36
26 29 34
22 25 28
23 26 30
26 29 34
28 32 37
35 40 47
40 45 53
47 53 62
50 57 66
50 57 66
47 53 61
40 45 52
38 43 49
36 41 48
38 44 51
44 50 58
51 58 68
55 63 73
61 69 79
65 73 85
67 77 89
71 81 94
74 84 97
76 87 101
78 88 102
76 87 100
73 83 96
67 76 88
63 72 84
63 71 82
61 70 80
60 68 78
62 70 81
63 72 83
68 77 88
72 81 94
74 84 97
79 89 104
82 93 108
82 93 108
87 99 115
82 94 109
86 97 112
86 99 115
85 97 112
88 100 115
90 102 117
91 103 119
91 104 121
92 104 120
94 107 124
94 107 124
96 109 125
92 104 120
51 59 68
55 63 72
58 66 76
62 70 80
61 69 80
56 64 74
50 57 65
43 48 56
35 39 45
32 37 43
32 36 42
30 34 40
25 28 33
15 17 19
23 27 31
36 41 47
42 47 55
48 54 62
56 64 74
63 71 83
69 79 91
79 90 104
82 93 108
84 96 111
87 99 114
87 99 114
88 100 116
85 96 112
83 95 109
82 92 106
81 92 107
79 90 104
74 85 98
74 84 97
70 79 91
64 73 85
64 73 85
65 74 86
63 72 84
61 69 80
60 68 78
57 65 76
53 61 71
51 58 67
48 54 63
44 50 58
40 46 53
34 39 45
23 26 30
23 26 30
32 36 42
38 43 50
40 46 53
40 46 53
38 44 50
29 33 38
15 17 20
23 26 31
30 34 40
26 30 35
17 19 23
14 16 18
26 29 34
27 30 35
27 30 35
27 31 36
23 26 31
19 22 26
17 19 22
16 18 21
18 20 23
23 27 31
23 26 30
25 29 34
36 40 47
43 48 56
50 57 65
58 66 76
59 67 78
61 69 80
68 77 88
70 80 92
73 83 96
71 81 93
70 80 93
70 80 92
70 80 92
69 79 92
65 75 87
64 72 84
57 64 74
49 56 65
47 54 62
48 54 63
45 51 59
42 47 55
43 49 57
42 48 55
42 47 55
41 47 54
33 38 44
28 31 36
30 34 39
32 36 42
36 40 47
38 43 49
36 40 47
33 37 43
29 33 38
26 30 34
23 27 31
28 31 36
33 38 44
38 44 51
45 52 60
48 55 64
54 62 72
58 66 76
59 67 78
59 67 78
55 63 72
46 52 61
39 44 51
25 28 33
14 16 18
21 24 28
30 34 39
36 41 48
40 45 52
46 52 60
43 49 56
37 42 49
29 33 38
17 19 22
22 25 29
34 39 45
41 47 55
47 53 62
43 49 57
34 39 45
34 39 45
38 43 49
41 47 54
50 57 65
53 61 70
56 64 74
60 68 79
62 70 81
64 73 84
69 78 90
71 80 93
72 81 94
73 82 95
72 82 94
77 87 101
79 90 103
83 94 108
82 93 108
86 99 114
91 103 119
93 105 121
92 104 120
91 103 119
89 101 117
88 100 116
88 100 115
88 100 115
84 96 111
85 97 112
85 96 111
84 95 110
83 95 109
81 92 107
81 92 106
79 90 105
75 85 99
73 83 96
71 81 94
70 80 92
71 80 93
70 79 91
67 76 88
63 72 83
62 70 82
62 71 82
63 72 83
63 71 82
63 72 83
64 73 84
68 77 89
72 82 95
77 88 101
79 90 105
83 95 109
84 96 111
87 98 114
84 95 110
83 94 109
78 89 103
78 88 102
76 87 101
79 90 103
80 91 105
80 91 105
78 88 102
74 84 98
72 82 95
70 79 92
68 77 89
68 78 90
69 78 90
69 78 90
63 71 83
59 67 78
56 63 73
57 65 75
59 67 78
60 68 78
59 67 78
61 69 80
60 68 79
63 72 83
64 73 85
63 72 83
59 67 78
52 59 68
45 51 59
38 43 49
30 34 39
19 22 25
20 23 27
31 35 41
39 44 51
45 50 58
48 54 63
50 56 65
48 54 63
44 50 58
39 44 51
39 44 51
38 43 50
35 40 46
38 43 50
43 49 57
44 50 58
46 52 60
45 51 59
40 46 53
38 43 49
40 45 52
42 48 55
43 49 57
42 48 56
41 47 55
40 46 53
40 45 53
38 43 49
35 40 46
35 39 45
36 41 48
40 45 53
47 53 61
52 59 68
57 65 76
65 74 85
67 76 87
67 77 89
70 80 92
75 85 99
77 88 102
78 89 104
79 90 104
78 89 102
82 93 107
83 95 110
85 96 111
83 95 109
82 93 108
83 95 110
81 92 107
79 89 103
76 87 101
75 86 99
76 86 99
75 86 100
77 88 101
77 88 101
79 90 104
79 89 103
80 91 105
82 93 107
85 97 112
86 97 112
89 101 117
92 104 120
96 108 125
94 106 123
92 105 122
95 108 125
97 111 129
101 116 134
103 117 136
103 117 136
104 119 138
104 118 136
106 120 138
107 120 138
105 120 139
105 120 140
109 124 142
107 121 140
108 123 142
109 124 143
108 123 141
107 121 140
107 121 140
107 121 140
107 121 140
104 118 137
102 116 134
97 110 127
94 107 125
90 102 118
94 106 122
92 105 121
91 104 119
90 102 118
84 96 111
81 92 106
77 87 101
72 82 96
70 79 91
64 73 84
60 68 78
57 64 74
56 63 73
57 64 74
55 63 73
54 61 71
56 64 74
58 66 77
58 66 77
53 60 70
46 52 60
34 39 44
22 25 29
14 16 18
11 12 14
11 13 15
12 13 15
15 17 20
24 28 32
28 32 37
29 32 38
27 31 36
31 35 41
35 40 47
37 42 49
37 42 49
29 33 38
23 26 31
24 28 32
26 29 34
31 35 40
36 42 48
43 49 57
52 60 69
62 70 81
62 71 82
67 77 88
67 76 88
63 71 83
57 65 76
54 62 71
51 58 67
47 53 61
45 51 59
43 49 56
42 48 55
44 50 58
48 55 63
56 64 74
63 72 83
67 76 88
66 75 87
67 76 87
69 78 91
68 78 90
73 83 96
74 84 97
77 87 101
80 90 104
79 90 104
78 89 104
78 88 103
77 87 101
76 86 99
80 90 104
80 91 106
81 93 107
69 78 90
67 76 88
61 69 80
57 65 75
51 58 67
42 47 55
35 40 47
30 34 39
28 32 37
25 29 33
20 23 26
20 23 26
24 27 32
26 29 34
32 37 43
38 43 50
46 52 60
56 63 73
65 74 85
77 88 101
85 96 112
92 104 121
96 108 125
99 112 129
101 115 132
101 116 134
99 113 130
98 111 129
93 106 123
93 105 121
89 101 116
86 98 113
84 95 110
83 94 109
82 93 108
81 91 106
78 89 102
75 85 99
71 81 93
76 86 99
73 83 97
71 81 94
68 77 89
61 69 80
50 57 66
39 44 51
29 33 38
22 26 30
24 27 31
31 35 40
38 43 50
36 40 47
33 37 43
29 33 38
19 21 25
12 13 15
24 27 31
29 33 38
32 36 42
37 41 48
36 41 47
37 42 49
40 46 53
37 43 49
36 40 47
31 36 41
28 32 37
31 35 40
26 30 35
19 22 25
18 20 23
27 31 36
30 34 40
37 42 48
47 54 62
58 65 75
65 74 86
71 80 92
72 82 95
76 86 99
80 90 105
82 93 107
81 92 106
81 92 106
78 88 102
76 86 100
75 85 98
74 83 96
71 80 93
67 76 88
67 76 88
66 76 88
70 79 91
69 79 92
70 80 93
69 78 90
68 77 90
65 74 86
64 73 85
67 76 87
62 71 82
60 69 80
57 65 75
62 71 82
64 72 84
61 69 80
57 65 75
52 60 69
50 57 66
49 56 64
47 54 62
41 47 55
38 43 50
33 38 44
30 35 41
30 34 39
29 33 38
33 38 43
36 41 48
42 48 56
41 46 53
38 44 51
44 51 59
41 47 54
41 46 54
42 48 55
47 53 61
50 57 65
52 58 67
51 58 67
47 53 61
41 47 54
34 38 44
34 39 45
33 38 44
40 46 53
41 47 55
44 50 58
41 47 54
41 47 54
41 46 54
37 42 49
32 37 42
27 30 35
25 28 33
33 37 43
39 44 50
45 51 59
49 56 65
55 62 72
60 68 78
64 72 84
68 77 89
68 77 90
72 82 95
73 84 97
75 86 99
77 88 102
78 89 103
78 89 102
79 90 103
80 90 105
78 88 102
73 84 97
69 79 91
66 75 86
66 75 87
66 75 86
65 73 85
67 76 88
70 79 91
71 81 93
73 83 96
72 82 95
71 81 94
70 80 92
66 75 87
64 73 85
61 70 81
60 68 78
58 66 76
57 65 76
59 67 78
59 67 78
63 71 82
68 77 89
70 79 91
71 80 92
72 82 95
75 85 99
80 91 106
83 95 109
86 97 112
85 97 112
86 97 112
82 93 108
79 90 104
76 87 100
74 84 97
70 80 93
70 79 92
69 78 90
67 76 88
63 72 83
65 74 85
64 73 84
63 71 83
61 69 80
60 68 79
60 69 80
57 65 75
54 61 70
53 60 70
49 56 65
48 55 64
46 53 61
49 55 64
50 57 66
53 60 69
55 63 72
59 67 77
60 68 79
62 71 82
61 70 80
58 66 77
56 64 74
54 62 71
50 56 65
44 50 58
37 41 48
17 20 23
28 32 36
42 48 55
46 53 61
46 53 61
41 46 53
37 42 48
33 38 44
30 34 39
21 24 27
15 17 20
15 17 19
18 20 23
19 21 25
22 25 29
23 27 31
23 26 30
27 31 36
30 34 39
28 32 38
24 27 32
26 30 35
31 36 41
36 41 48
37 43 49
44 50 57
46 53 61
51 57 66
50 57 66
49 56 65
48 55 63
38 44 50
29 33 39
29 33 39
27 31 36
33 38 44
45 51 59
56 63 73
64 73 84
68 77 89
73 83 96
77 87 101
80 91 105
81 92 107
84 95 110
82 94 109
83 95 110
84 95 109
82 93 108
79 91 105
75 85 99
73 82 95
73 82 95
69 79 91
69 78 90
68 77 89
68 77 89
68 77 89
69 78 91
71 81 93
74 84 97
75 86 100
76 86 100
74 85 98
73 83 95
74 84 97
75 85 98
77 87 100
79 89 103
84 95 110
92 104 121
95 108 125
97 110 127
97 110 126
94 107 124
93 106 124
94 107 124
90 102 119
91 104 121
95 108 125
96 109 126
96 109 126
99 112 130
100 113 131
101 114 132
102 116 134
101 114 132
96 110 127
95 108 125
91 103 119
85 97 112
81 92 106
77 87 101
76 86 99
74 84 97
73 82 95
70 80 92
69 78 91
70 80 93
72 82 95
72 82 95
72 81 94
70 79 92
64 73 84
58 66 76
53 60 70
49 56 64
49 56 65
50 57 66
51 58 67
50 57 66
46 52 60
40 46 53
31 35 41
17 20 23
20 23 26
31 35 41
38 43 50
46 53 61
49 55 63
44 50 57
45 50 58
41 47 54
50 57 66
54 61 70
59 67 77
64 73 85
66 75 88
64 73 84
64 73 85
64 73 85
66 75 87
61 69 80
56 64 74
59 67 77
46 52 61
42 47 55
35 40 47
37 42 48
37 41 48
37 41 48
35 39 45
32 36 42
32 37 43
32 37 43
32 36 42
30 33 39
28 32 37
25 29 33
24 28 32
25 28 33
25 28 33
27 31 35
31 35 40
34 38 44
36 41 48
36 41 47
33 38 43
37 43 49
45 51 60
52 59 68
59 67 78
67 76 88
71 81 93
75 85 97
74 84 98
71 81 94
73 83 96
76 86 100
81 92 106
57 65 76
55 62 72
56 64 74
59 67 77
57 65 75
52 59 69
46 52 60
37 43 49
24 28 32
14 16 18
25 29 33
38 44 51
48 55 63
54 61 71
61 70 81
67 77 89
77 86 99
82 94 109
88 101 117
94 107 124
95 108 125
98 111 129
98 112 130
101 115 133
100 114 132
102 115 133
98 111 129
99 112 130
98 112 129
99 112 130
98 112 129
96 110 127
98 111 127
98 112 129
94 108 125
97 111 128
97 110 127
97 110 127
91 103 119
90 102 117
85 96 110
76 86 100
71 81 94
65 74 86
58 66 76
52 59 68
50 57 66
48 54 62
43 49 56
39 44 51
36 41 48
36 41 47
34 38 44
28 32 37
17 20 23
23 26 30
34 39 45
39 45 52
41 46 53
44 50 58
45 51 59
45 51 59
42 48 55
37 42 49
33 38 44
31 36 41
28 32 37
26 30 35
15 17 20
19 22 26
31 35 41
39 44 51
42 48 56
53 60 70
57 65 75
63 72 83
69 78 89
70 80 93
71 80 93
73 82 95
77 87 101
81 92 106
81 92 107
82 93 108
83 94 109
83 94 109
81 92 107
81 92 106
81 92 106
79 90 105
77 87 101
78 88 101
79 89 103
78 89 103
76 86 100
75 85 99
73 83 96
73 83 96
69 78 91
65 74 85
62 70 81
63 71 82
65 74 86
66 75 87
71 80 92
69 79 91
70 80 93
68 78 90
66 75 87
63 71 82
61 69 79
59 68 79
59 67 78
64 73 84
63 73 84
68 77 89
68 78 91
70 79 91
71 81 94
77 87 100
76 86 100
79 89 104
76 87 101
76 86 100
74 85 98
73 83 96
71 80 93
67 76 88
64 73 84
61 69 80
58 66 76
58 66 76
63 71 82
65 73 85
69 78 90
67 77 89
65 74 85
59 67 78
55 63 73
53 60 69
52 59 69
51 58 68
49 56 64
45 51 59
34 38 44
18 20 23
18 20 23
21 24 28
31 35 41
43 49 57
50 57 66
54 61 71
57 64 74
58 66 76
59 67 77
60 69 80
62 70 81
59 68 78
57 65 75
57 65 74
57 65 75
60 68 78
59 68 78
58 66 76
52 59 69
52 58 67
50 57 66
52 59 68
56 63 73
58 66 76
57 65 76
57 64 74
53 61 70
52 59 69
47 53 62
44 50 58
39 44 51
41 47 54
44 51 59
46 52 61
49 55 64
53 60 70
53 60 70
56 63 73
61 69 80
61 70 81
64 73 84
68 77 89
70 80 92
71 80 93
74 85 98
77 88 102
79 90 104
76 87 101
74 84 97
72 82 95
68 77 89
64 73 85
61 69 80
57 65 75
56 64 74
56 63 73
55 62 72
54 61 71
53 61 70
49 56 64
50 56 65
50 57 66
46 53 61
40 46 53
34 38 44
34 39 45
38 44 50
41 47 55
43 49 56
44 50 58
48 54 63
52 59 68
58 66 76
60 68 79
61 70 80
63 72 83
65 74 85
65 74 86
64 73 85
62 70 81
60 67 78
54 62 71
50 57 66
40 45 52
20 23 27
26 29 34
34 38 44
41 47 54
42 47 54
41 46 54
41 46 53
38 43 50
37 42 49
34 39 45
28 32 37
20 23 27
14 16 19
16 19 21
22 25 29
21 24 28
19 22 26
18 21 24
17 20 23
15 17 20
13 15 17
18 21 24
26 29 34
31 35 40
39 45 51
47 53 61
49 56 64
50 57 66
50 57 66
48 55 64
40 46 53
37 42 48
38 43 49
34 39 45
28 31 36
17 19 22
31 35 41
40 45 52
48 55 63
53 61 70
56 64 74
59 68 78
64 73 84
71 81 94
74 84 97
77 88 101
78 89 103
78 89 103
75 86 99
76 86 100
72 82 95
69 78 90
66 76 88
63 71 82
55 63 73
52 59 68
51 58 67
53 60 69
53 60 70
57 65 76
60 68 79
61 70 81
63 72 84
66 75 87
66 74 86
63 72 83
60 68 79
61 69 80
63 72 84
67 77 89
70 79 92
72 82 95
74 83 96
75 85 98
77 88 102
79 89 103
77 87 101
78 88 102
77 87 101
74 84 97
69 78 90
72 82 95
71 81 93
72 82 95
77 87 100
81 91 105
82 93 107
83 94 108
79 90 104
78 88 102
75 86 99
76 86 99
74 85 98
71 81 94
69 78 91
67 76 87
64 73 84
66 75 86
68 77 90
70 79 91
71 81 93
69 79 91
66 75 87
61 69 80
58 66 77
52 59 68
46 52 60
42 48 55
40 46 53
33 38 44
35 39 45
29 33 38
23 26 30
24 27 32
30 34 39
36 41 48
47 54 63
58 66 76
64 72 84
65 74 86
66 76 88
68 78 91
73 83 97
77 88 102
81 92 106
84 95 110
83 94 109
84 95 109
83 95 109
83 95 110
83 95 110
85 96 112
83 94 108
82 93 108
79 90 104
75 85 98
74 84 97
73 83 96
73 83 95
72 82 95
72 82 94
66 75 87
65 74 85
63 71 83
59 68 78
57 65 75
58 65 75
54 62 72
58 66 76
60 69 80
63 72 83
63 71 82
63 71 82
58 66 76
51 58 67
47 53 61
40 46 53
35 40 46
31 36 42
28 33 38
32 36 42
32 36 42
33 38 44
38 43 50
46 52 60
50 57 67
55 63 72
61 69 80
67 77 89
74 84 97
59 67 78
58 66 77
58 66 76
56 63 73
51 58 68
46 52 60
42 48 56
33 37 43
20 22 26
26 30 34
42 48 56
51 58 67
60 69 79
68 77 89
75 85 99
82 93 107
88 100 115
93 105 122
96 108 125
98 111 129
97 110 128
97 111 128
99 112 129
98 111 129
97 110 128
96 109 127
97 110 127
99 112 130
104 118 137
106 121 140
109 124 144
110 124 143
112 126 146
108 123 142
111 126 145
108 123 143
106 120 139
100 114 133
98 112 130
92 104 121
89 101 116
84 95 110
77 87 101
71 81 93
66 76 87
65 74 86
66 75 86
66 74 86
64 73 85
65 74 85
61 70 80
55 63 73
50 56 65
38 43 50
23 26 30
31 35 41
42 49 56
44 50 57
47 54 62
49 56 65
48 54 63
46 53 61
45 51 59
41 46 53
32 37 43
26 30 34
27 31 35
33 38 43
43 49 56
50 57 66
59 67 77
60 69 80
65 74 86
70 80 92
75 85 99
77 88 103
82 93 107
82 93 108
82 93 107
83 94 109
83 94 109
79 90 104
76 87 101
75 85 98
74 85 98
76 87 100
76 86 100
77 88 102
77 88 101
78 89 103
80 91 105
83 94 108
82 93 107
83 95 110
82 93 108
80 90 105
75 85 98
71 80 93
70 80 93
68 77 89
68 76 88
68 77 89
67 76 88
68 77 89
66 75 87
67 76 87
62 71 81
64 72 84
67 76 88
70 79 92
70 80 93
73 83 96
74 85 98
78 88 102
83 94 109
88 99 114
90 101 117
93 105 122
93 106 122
95 108 125
96 110 127
98 110 127
97 110 127
94 107 124
96 108 125
93 105 121
90 102 118
87 98 114
85 97 113
86 98 113
89 102 118
90 103 119
91 104 120
89 101 116
80 90 104
77 87 100
71 81 94
66 76 87
63 72 84
61 69 79
56 64 74
54 61 71
48 55 64
45 52 60
43 49 57
39 45 52
32 36 41
23 26 30
19 22 25
19 22 25
25 28 33
36 41 47
39 45 52
45 50 58
50 57 66
53 61 70
56 64 74
57 64 74
55 63 73
56 64 74
56 63 74
57 64 74
58 65 75
55 63 72
54 61 70
51 58 67
53 60 69
54 61 70
55 63 72
55 63 73
57 64 74
55 62 72
51 58 67
41 46 54
31 35 41
21 24 28
13 14 17
14 16 19
20 23 27
22 24 28
28 31 36
27 31 37
35 39 46
37 43 50
45 50 58
49 55 64
55 62 72
54 62 71
56 63 73
55 63 72
55 63 73
56 63 73
56 63 73
56 63 73
55 62 72
54 62 71
51 58 68
48 55 64
47 54 62
45 52 60
46 52 60
44 50 58
42 48 56
40 46 53
38 43 50
36 41 47
33 38 44
34 39 46
37 42 48
36 41 48
34 39 45
33 37 43
35 40 46
41 47 54
49 55 64
52 60 69
54 62 71
56 63 73
60 68 78
61 70 80
59 68 79
60 68 79
54 61 70
53 60 69
53 60 70
49 56 65
46 53 61
39 45 52
32 37 42
26 29 34
21 24 28
20 23 26
22 25 29
35 40 46
39 44 51
42 48 55
47 53 61
48 54 63
43 49 56
39 44 51
33 37 43
27 31 36
25 28 32
27 31 36
31 35 41
33 38 44
31 35 41
27 31 36
26 30 34
24 27 32
20 23 26
17 20 23
22 25 29
23 26 30
19 21 25
18 21 24
29 33 38
35 40 46
32 36 42
30 34 40
26 29 34
26 29 34
20 23 26
25 28 33
29 33 38
31 35 40
32 36 42
37 42 48
43 49 57
46 52 61
49 55 64
50 57 66
53 60 70
57 65 75
58 66 77
61 69 80
61 69 80
63 71 83
65 73 85
66 75 87
65 75 86
60 69 80
58 66 77
53 61 70
48 55 64
47 53 62
45 52 60
43 49 57
42 48 55
43 49 57
43 49 57
45 51 59
46 53 61
46 52 60
46 52 61
43 49 57
43 49 57
46 52 61
49 56 65
52 59 68
56 63 73
57 65 75
58 66 75
54 61 71
50 56 65
47 53 62
45 52 60
40 45 52
35 39 45
32 36 41
33 37 43
37 42 49
38 44 50
40 46 53
43 49 57
49 56 65
55 63 72
60 68 78
64 72 83
65 75 86
67 76 88
66 76 88
69 78 90
70 79 91
69 79 91
70 79 92
71 81 93
70 80 92
71 80 93
71 81 93
72 82 94
70 79 92
67 75 87
61 70 81
58 66 77
54 62 72
49 56 64
41 47 54
30 35 40
18 20 23
32 36 42
38 44 50
40 45 52
39 45 52
42 48 55
45 51 58
52 59 68
60 68 79
66 75 87
69 79 91
76 86 100
81 91 105
80 91 105
82 94 108
85 97 112
85 97 112
88 100 115
89 102 118
92 104 121
94 106 123
94 106 122
93 105 122
90 103 119
87 98 113
82 94 109
82 93 107
84 95 110
83 93 107
80 91 105
81 92 106
83 94 109
86 97 111
84 96 111
83 94 109
81 92 107
80 91 105
77 87 101
77 88 102
81 92 107
83 95 110
84 95 110
82 92 106
79 89 103
77 87 101
75 84 97
69 78 90
66 74 86
63 72 84
60 68 78
58 66 76
56 63 73
52 60 69
50 57 66
47 54 63
46 53 61
44 50 58
35 40 46
31 36 41
39 45 52
51 58 66
63 72 84
65 73 84
57 65 76
53 60 70
47 53 61
34 38 44
19 22 25
23 27 31
35 40 46
48 54 63
55 63 72
63 72 83
71 81 93
78 89 103
83 94 109
87 100 116
93 105 121
92 105 120
93 106 122
94 107 124
97 110 127
98 111 127
98 111 128
98 111 128
100 114 133
103 117 135
104 119 138
106 121 140
111 125 145
111 126 146
110 125 145
108 123 143
112 126 145
110 125 144
110 125 144
106 121 140
103 117 134
101 114 132
95 108 125
93 106 122
89 102 118
90 103 119
90 101 117
87 99 114
89 101 117
88 100 115
85 96 112
81 92 106
77 88 101
73 83 96
66 75 87
59 67 77
51 58 67
40 46 53
31 35 40
24 28 32
27 31 36
29 33 38
24 27 32
28 32 37
28 32 37
35 40 47
37 42 48
39 44 51
43 49 56
50 57 66
59 67 77
67 76 88
75 85 98
80 91 105
83 95 110
86 98 113
87 99 114
91 104 120
90 102 117
90 103 119
91 104 121
93 106 123
93 106 123
91 104 121
89 102 118
86 97 113
83 94 108
75 86 99
78 88 102
77 87 100
75 86 99
76 86 99
74 84 98
74 85 98
74 84 98
72 82 95
73 83 95
70 79 92
70 80 92
71 81 94
75 85 97
77 87 101
79 89 103
81 92 106
81 92 106
82 93 107
80 91 106
78 88 103
77 88 101
75 86 99
77 87 101
76 86 100
75 86 100
80 91 106
83 94 108
81 92 107
84 96 110
87 99 115
92 104 120
94 107 124
98 111 128
100 114 132
101 114 132
97 110 126
99 113 131
97 110 128
97 111 128
95 108 125
95 108 125
98 111 128
97 109 126
100 113 131
101 114 132
103 117 136
103 117 135
103 116 134
98 112 129
92 104 121
92 104 121
88 99 115
80 92 106
78 89 103
70 80 92
64 72 84
53 60 70
47 53 62
43 49 57
41 47 54
37 42 49
34 38 45
27 31 36
28 31 36
23 27 31
21 24 28
20 23 26
17 19 22
31 35 40
41 47 54
47 53 62
51 58 68
58 67 77
63 71 82
65 74 86
64 73 84
61 70 80
59 67 77
57 65 75
55 62 72
52 59 68
51 59 68
53 61 70
53 60 70
57 64 74
55 62 71
52 60 69
48 54 63
40 46 53
32 37 42
25 29 33
24 27 32
27 31 36
35 39 45
39 44 51
45 51 59
48 54 63
49 55 64
46 52 61
41 46 54
37 42 48
37 42 49
38 43 50
40 45 53
42 48 55
39 45 52
36 41 48
33 37 43
33 38 44
31 36 41
28 32 37
26 30 34
33 38 44
37 42 48
37 41 48
32 37 42
29 33 38
28 32 37
29 33 39
32 37 43
31 36 41
24 27 31
17 19 22
21 23 27
24 27 32
29 33 39
27 31 35
29 33 38
36 42 48
41 47 54
46 52 60
49 56 65
52 59 68
51 58 67
49 55 64
48 54 63
46 52 60
37 42 49
26 30 35
21 24 27
22 26 30
26 29 34
24 27 31
23 26 30
24 27 32
28 31 36
35 40 46
41 46 54
45 51 59
49 56 65
51 58 67
52 59 68
51 58 67
50 57 65
48 54 63
47 53 62
43 49 57
42 48 55
44 50 58
46 52 60
43 49 57
40 45 52
38 43 50
36 41 47
30 34 39
22 25 29
18 20 24
17 19 22
12 14 16
18 20 23
24 27 32
24 28 32
23 27 31
24 27 31
23 26 30
21 24 28
21 24 28
29 33 38
38 43 49
43 49 57
47 53 61
47 53 61
50 56 65
50 57 66
52 59 68
54 62 72
54 61 71
52 59 69
51 58 67
52 59 68
54 61 71
56 63 73
56 64 74
58 65 76
57 65 75
54 61 71
51 57 66
46 53 61
43 48 56
39 44 51
40 46 53
45 51 59
47 53 61
46 52 60
45 51 59
43 49 57
44 50 58
40 45 52
40 46 53
40 45 53
45 51 59
48 55 63
46 53 61
41 47 54
39 45 52
40 45 52
41 46 53
41 46 54
42 47 55
39 45 52
37 42 48
35 39 46
31 35 41
29 33 38
21 24 28
16 19 22
12 14 16
14 16 18
20 23 26
20 23 26
21 24 28
23 26 30
31 36 41
44 50 58
53 60 70
59 67 78
66 75 87
69 79 91
71 81 93
70 80 93
70 79 92
68 77 88
68 76 88
65 74 86
66 75 87
68 77 89
66 75 87
67 76 89
66 75 87
65 73 85
62 71 82
60 69 80
58 65 76
53 60 70
43 49 57
35 39 45
26 30 35
23 26 30
22 25 29
23 27 31
29 33 38
41 47 55
50 57 65
51 58 67
52 59 68
55 63 72
62 70 81
66 74 86
67 76 88
71 80 92
72 81 94
74 84 98
77 88 102
84 96 111
93 105 122
97 110 127
101 115 133
99 113 131
96 110 128
95 108 125
95 108 125
94 106 123
93 105 121
88 100 116
87 98 114
87 98 112
80 91 105
80 90 105
80 91 105
80 91 105
79 90 104
76 87 100
77 87 101
79 89 103
84 95 110
85 96 111
87 99 115
89 100 116
86 98 114
84 96 111
81 92 106
76 86 100
75 86 99
75 86 100
72 82 95
69 79 91
67 77 89
63 71 83
58 66 77
56 64 74
57 65 75
57 65 75
54 61 70
48 55 64
37 42 49
30 34 39
53 60 70
49 55 64
36 41 47
26 30 34
28 32 37
39 45 52
47 54 63
57 65 75
62 70 81
65 74 86
73 83 96
77 88 102
83 94 108
84 96 111
86 98 113
90 102 118
91 104 120
89 102 119
96 109 126
97 110 127
101 115 133
102 116 135
105 119 138
105 120 138
105 120 138
109 124 144
110 125 145
111 126 145
111 126 145
109 123 142
109 123 142
108 122 142
108 122 141
104 118 137
103 117 135
103 117 136
102 116 135
101 114 132
101 115 133
103 116 134
102 116 135
105 120 139
106 119 137
104 118 137
103 117 135
101 114 131
96 109 126
90 103 119
84 96 111
80 91 105
76 87 100
72 82 95
69 78 91
65 74 86
65 74 85
61 69 79
63 71 82
60 68 79
55 63 73
56 64 73
60 69 80
65 74 86
71 81 93
74 84 98
74 85 99
78 89 103
80 91 106
83 94 109
86 98 113
91 103 119
92 105 122
93 105 121
94 107 124
97 111 128
99 112 129
99 112 130
96 109 126
94 107 124
96 109 125
93 106 124
89 102 118
88 100 116
88 100 115
83 95 110
81 93 107
82 93 107
78 88 102
77 87 101
72 83 96
69 79 91
67 77 89
66 75 87
68 77 89
66 75 86
64 72 84
64 73 85
69 78 91
73 84 97
75 86 99
76 87 100
77 87 101
80 90 104
80 91 105
78 89 103
84 95 109
85 96 110
85 97 112
86 97 112
85 96 111
88 100 116
89 102 118
91 103 120
94 106 122
95 108 125
94 107 124
97 110 127
96 109 126
95 108 125
94 107 123
97 110 127
97 110 128
100 114 131
98 111 129
99 112 129
100 113 131
103 117 134
103 117 136
105 120 138
102 116 133
99 112 130
100 114 131
101 115 133
99 113 131
101 114 132
100 113 131
98 110 127
90 103 119
87 98 114
80 91 106
76 86 100
70 79 92
64 73 85
57 64 74
51 58 67
46 52 60
38 43 50
33 38 44
27 31 36
18 21 24
15 17 20
18 21 24
27 30 35
38 43 49
46 53 61
54 62 71
62 70 81
65 73 85
63 72 83
63 71 82
59 67 78
58 66 76
57 65 75
57 65 75
56 64 74
56 64 74
56 64 74
56 64 74
53 60 69
48 55 63
42 47 55
34 38 44
25 29 33
16 18 21
18 20 24
29 33 38
40 45 52
49 56 64
55 62 72
59 68 79
62 70 81
64 73 85
65 74 86
65 74 85
64 73 84
63 72 83
64 73 85
63 72 83
65 75 86
66 75 87
65 74 85
63 71 82
59 67 77
55 63 72
50 57 66
42 48 56
32 36 41
24 28 32
14 16 19
17 19 22
20 23 27
17 20 23
17 19 22
16 18 21
14 16 19
15 17 20
16 19 21
11 13 15
12 14 16
12 14 17
17 19 22
26 29 34
29 33 38
28 32 37
31 35 41
36 41 48
42 48 55
40 46 53
39 44 51
35 40 46
27 31 36
21 24 28
16 18 21
29 33 38
40 45 52
47 53 62
48 54 63
45 51 59
43 49 56
46 52 61
53 60 70
58 66 77
64 72 84
69 78 91
75 85 98
79 89 103
78 89 103
74 84 97
74 83 96
68 77 89
65 74 85
60 69 80
57 64 74
53 61 70
50 56 65
49 56 64
47 54 62
44 50 57
40 45 53
34 39 45
31 35 41
23 27 31
25 29 33
31 35 41
38 43 50
40 45 53
41 47 54
35 40 46
30 34 39
25 29 34
30 34 40
37 43 49
46 52 61
51 58 67
54 61 70
58 66 76
57 65 76
58 66 77
59 67 77
56 64 75
55 63 72
54 61 71
50 57 65
46 52 60
45 52 60
47 54 63
49 56 65
48 54 63
45 52 60
42 48 55
33 38 44
29 33 38
24 27 31
22 25 29
25 28 33
25 28 33
28 32 37
30 35 40
27 30 35
27 30 35
24 28 33
26 29 34
25 28 33
21 24 28
27 30 35
32 37 43
33 38 44
34 38 44
34 38 44
37 42 49
38 44 51
35 40 46
37 42 48
37 42 49
35 40 46
32 36 42
30 34 40
25 28 33
15 17 20
15 17 20
20 23 27
26 30 34
33 37 43
39 45 52
40 46 53
35 39 46
21 24 28
21 24 28
36 41 48
45 51 59
56 63 73
63 71 82
65 74 86
69 79 91
71 81 94
74 83 96
74 84 97
72 82 95
69 79 91
73 83 96
75 85 98
76 87 100
76 87 100
78 88 102
76 87 101
75 85 98
72 82 94
72 81 93
69 78 90
60 68 79
52 59 69
47 53 62
44 50 58
40 45 53
33 38 44
26 29 34
26 30 35
32 36 42
34 39 45
40 46 53
42 48 55
44 50 58
47 54 62
54 62 71
63 72 83
69 79 92
76 86 99
78 88 102
83 94 109
87 98 113
91 103 119
92 105 122
94 107 124
95 108 125
95 108 124
98 111 129
100 113 130
98 110 127
97 111 128
94 106 123
88 99 114
84 95 110
80 91 106
78 89 103
78 89 102
80 91 105
80 91 106
80 90 104
78 88 102
76 86 100
75 85 97
73 84 97
74 84 98
73 83 96
75 85 98
77 88 102
81 92 107
82 93 108
82 93 107
80 90 104
76 86 100
74 83 97
71 80 92
71 81 94
74 84 97
73 82 95
70 79 91
64 72 84
59 67 78
58 65 76
53 60 70
31 36 41
25 28 32
32 36 42
47 53 61
55 63 72
63 72 83
69 79 92
75 86 99
79 89 103
81 91 106
80 91 106
85 96 111
88 100 116
90 102 118
94 107 124
96 109 126
100 113 131
106 120 139
107 122 141
110 124 143
109 123 142
109 124 142
107 122 141
107 121 139
108 123 143
109 124 145
109 124 143
109 123 142
105 119 138
104 118 137
103 116 134
101 114 132
101 114 131
100 113 131
101 115 133
104 118 137
106 120 138
109 124 143
111 126 146
110 126 145
110 125 145
107 122 141
105 119 138
105 119 138
103 117 135
101 114 132
97 110 127
94 107 124
92 105 121
91 103 119
88 100 115
86 97 113
87 99 115
88 99 114
85 96 111
87 99 114
88 100 116
91 103 119
87 98 113
85 97 112
87 99 115
90 102 118
92 105 121
92 105 121
93 106 122
94 106 123
95 108 124
95 108 125
96 109 126
96 108 125
96 109 126
96 109 126
97 110 126
96 109 126
97 110 127
98 111 128
95 109 126
97 110 127
99 112 129
99 113 131
100 114 132
99 112 130
97 110 127
93 106 122
93 106 122
90 102 117
83 94 110
79 91 105
74 84 97
72 81 94
69 79 91
67 76 88
65 74 86
65 74 85
62 71 82
61 70 81
63 72 83
64 73 85
67 76 88
67 77 89
66 75 87
68 77 89
72 81 94
74 84 96
82 93 107
83 95 110
86 97 111
86 98 112
88 100 115
88 100 116
93 105 121
96 109 127
99 113 130
100 114 131
101 115 133
99 113 131
98 111 128
95 108 125
92 104 120
92 105 121
91 103 119
91 104 120
92 106 123
96 109 126
97 110 126
95 108 125
99 113 131
102 115 133
97 110 127
101 114 133
102 116 134
103 116 135
101 114 132
100 114 132
101 114 132
96 110 127
93 106 123
89 101 117
81 92 106
77 87 101
70 80 92
65 74 86
60 69 80
56 63 73
52 59 68
43 49 56
31 35 40
18 20 23
21 24 27
32 37 43
39 45 52
46 53 61
49 55 64
52 59 68
56 64 74
55 62 73
50 57 66
50 57 66
50 57 66
49 55 64
50 56 65
54 61 71
58 66 77
58 65 75
56 64 74
52 59 69
47 54 62
42 48 55
34 38 44
23 26 30
17 20 23
27 31 36
34 38 44
40 46 53
45 51 59
51 58 67
56 63 73
60 68 79
63 72 83
65 74 86
66 75 87
68 78 90
70 80 92
72 82 95
72 82 95
72 82 95
70 80 93
71 81 94
71 81 94
71 81 93
69 78 91
64 73 85
57 65 75
51 58 67
45 52 60
40 46 53
36 41 47
34 38 44
29 33 38
28 32 37
29 34 39
27 31 35
23 26 30
20 24 27
19 21 25
20 23 27
12 13 16
18 21 25
27 31 36
30 35 40
32 37 42
34 38 44
34 38 44
34 38 44
32 37 43
35 40 46
38 44 50
35 39 46
26 30 34
16 18 21
23 26 30
36 41 47
45 51 59
50 57 66
56 63 73
57 65 75
58 65 76
57 64 74
60 69 79
67 75 87
68 77 90
70 79 92
74 84 97
78 89 102
81 92 106
81 92 106
81 92 107
85 96 111
84 95 111
79 90 104
75 85 98
70 79 91
64 73 84
57 65 75
49 55 64
38 44 51
26 30 34
14 16 19
19 21 25
27 31 35
37 42 49
45 52 60
52 59 68
57 65 75
60 68 78
55 63 73
53 60 69
52 58 67
53 60 70
53 60 70
55 62 73
58 66 76
60 68 79
61 69 80
59 67 77
58 66 76
57 64 75
58 66 77
57 65 75
54 61 71
50 57 66
45 51 60
39 44 51
29 33 39
26 29 34
30 34 39
34 39 45
41 47 54
49 56 65
56 63 73
60 68 78
59 67 77
59 67 77
56 64 74
57 65 75
59 67 77
56 64 74
51 59 68
48 54 63
43 49 57
40 46 53
36 41 48
31 36 42
28 32 37
31 35 40
32 36 42
35 40 46
37 43 49
38 43 50
31 35 40
24 28 32
25 29 34
26 30 34
31 36 41
33 38 44
32 37 42
33 37 43
33 37 43
30 34 39
28 32 37
27 31 36
24 27 31
30 34 40
35 39 46
36 41 47
30 34 39
21 23 27
20 22 26
24 28 32
38 43 49
47 54 62
55 63 73
63 72 83
71 80 92
73 83 96
73 83 96
74 84 97
78 89 103
79 90 104
80 91 105
79 90 104
80 90 104
81 91 105
80 90 104
75 85 98
72 82 94
69 79 91
65 74 86
62 70 81
56 63 74
52 59 68
45 52 60
40 46 53
37 43 49
37 42 48
36 41 48
29 33 39
21 23 27
22 25 29
24 27 31
26 29 34
38 43 49
50 57 66
60 67 78
62 70 81
68 78 90
71 81 95
75 85 99
76 86 100
74 84 97
75 86 99
80 91 105
84 95 109
86 97 112
86 98 113
90 103 119
90 103 119
89 102 118
87 99 114
85 96 111
81 92 106
81 92 106
81 92 105
82 93 107
82 93 107
78 89 103
76 86 100
71 81 94
72 81 94
72 82 95
71 81 94
72 81 93
72 82 95
71 81 94
71 81 94
73 83 96
74 84 97
74 84 97
72 82 94
68 77 89
65 73 85
63 72 83
68 78 90
72 81 94
74 85 98
74 84 98
72 82 95
65 74 86
61 70 81
53 60 70
25 28 33
43 49 56
54 62 71
61 69 80
70 79 91
76 86 100
82 93 108
86 97 112
89 101 116
90 102 119
91 104 120
91 103 120
95 107 124
96 110 127
101 115 133
102 116 134
103 118 136
111 126 145
113 128 148
114 129 150
113 128 148
114 129 148
111 126 146
109 124 143
105 119 137
102 116 135
102 116 134
99 113 131
97 110 128
95 108 126
95 109 126
97 110 127
98 111 129
103 117 136
107 121 140
108 122 142
106 120 139
106 121 140
106 120 139
105 119 138
101 115 133
99 112 130
98 111 129
96 109 126
93 106 122
93 105 122
89 101 117
88 100 116
91 103 119
95 108 125
99 112 130
99 112 130
98 112 129
98 112 129
101 115 133
103 117 136
102 116 134
101 115 133
106 120 138
103 117 136
101 115 134
104 118 136
102 116 135
103 117 135
103 117 136
105 120 139
105 120 139
106 120 140
107 121 141
109 123 143
107 122 142
107 121 140
108 122 140
105 119 138
109 124 144
107 121 140
105 120 139
107 121 140
107 122 141
108 123 142
108 123 143
106 120 139
102 116 135
100 114 131
97 110 128
94 106 122
92 104 120
91 103 119
87 99 115
87 98 114
83 94 108
80 90 104
74 85 99
71 81 95
68 78 90
66 75 86
67 76 88
66 75 87
66 75 87
68 77 90
67 76 88
68 78 90
71 80 93
74 84 97
73 83 95
74 84 97
76 86 100
78 88 102
81 92 106
84 96 111
86 98 113
89 102 118
94 106 123
93 106 122
94 107 124
94 107 124
94 107 123
94 106 122
90 102 118
89 100 115
86 97 111
85 97 113
84 96 111
87 99 115
91 103 119
94 107 124
99 113 131
102 115 132
103 117 135
103 117 135
99 113 131
96 109 126
97 111 129
96 109 127
93 105 121
90 102 118
85 96 111
82 93 108
77 88 102
74 84 97
67 76 89
63 72 83
60 68 78
54 62 72
48 55 63
45 51 59
39 44 51
26 30 34
17 19 22
26 29 34
33 38 44
36 41 47
41 46 54
36 41 48
33 38 44
29 33 38
31 35 41
28 32 37
27 31 36
28 32 38
33 38 43
36 41 47
38 43 50
38 43 50
36 41 48
37 42 49
32 36 42
26 30 34
21 24 27
22 25 29
34 39 45
43 49 57
51 58 67
57 65 75
61 69 80
62 70 81
62 70 81
62 70 81
60 69 80
62 71 82
65 74 86
68 77 89
71 80 93
72 82 95
72 81 94
70 80 92
69 78 89
69 79 91
68 78 90
67 76 87
62 71 82
59 67 78
56 64 73
50 57 65
45 51 60
40 46 53
35 40 47
37 42 49
40 46 53
43 49 57
43 50 57
40 46 54
41 47 54
41 46 53
37 43 49
32 37 43
25 28 32
16 19 22
20 23 26
26 30 35
30 34 39
30 34 39
28 32 37
23 27 31
20 23 27
14 15 18
16 18 21
19 21 25
23 26 30
29 33 38
38 43 50
44 50 58
50 57 66
53 60 69
57 65 75
57 65 76
59 67 78
60 68 78
62 71 82
67 75 87
69 79 91
71 80 93
70 80 92
70 79 92
69 79 91
72 81 93
72 82 94
70 79 91
70 79 91
71 81 94
69 79 91
69 79 91
65 74 86
63 71 82
57 65 75
50 57 67
44 50 57
34 39 45
20 23 27
26 29 34
38 44 50
50 57 65
56 64 74
61 69 80
65 74 85
69 78 90
72 81 94
74 84 97
73 83 96
69 79 91
69 78 90
66 75 87
63 72 83
61 69 80
62 70 81
61 70 81
61 70 81
59 67 78
55 62 72
47 53 62
35 40 46
27 30 35
24 28 32
36 41 47
50 57 66
59 67 77
69 78 91
73 82 95
75 85 98
77 87 101
78 89 103
79 90 104
81 92 107
78 89 103
76 87 100
75 85 98
71 81 94
68 77 89
65 74 85
62 70 81
60 68 78
56 64 74
56 63 73
55 63 73
56 63 73
59 67 77
60 68 78
59 67 78
57 65 75
51 58 68
45 50 58
27 31 36
15 17 19
18 21 25
30 34 39
37 43 49
44 50 58
45 51 59
44 50 58
40 45 52
32 36 42
15 17 20
14 16 18
21 24 28
22 26 30
21 24 28
21 24 28
25 28 33
28 32 37
36 41 48
42 47 55
47 53 61
52 59 68
59 67 77
62 71 82
66 76 88
71 81 93
73 83 97
75 85 98
76 87 100
80 90 104
78 89 103
72 82 95
70 79 92
69 79 91
70 79 91
65 74 85
62 70 81
61 69 80
57 64 74
49 56 65
39 44 51
36 41 47
36 41 48
36 40 47
35 40 46
38 43 50
39 45 52
40 45 52
39 44 51
36 41 47
30 35 40
19 21 25
32 36 42
41 47 54
49 55 64
51 58 67
54 62 71
56 64 74
59 68 79
63 72 84
66 75 87
68 77 90
68 77 89
72 82 94
74 84 97
74 84 97
74 84 96
77 88 102
81 91 105
82 93 107
82 93 108
82 94 108
81 91 105
76 87 100
74 84 98
71 80 93
68 77 90
71 81 94
71 81 94
71 80 93
70 79 92
69 78 90
69 78 90
67 76 87
66 74 86
66 75 86
66 75 87
65 74 86
64 72 84
64 73 84
63 72 83
56 64 75
55 63 74
58 66 76
60 68 79
59 68 78
59 67 78
57 65 76
56 63 73
51 58 68
58 66 76
60 68 79
66 74 86
71 81 94
80 91 105
83 95 110
89 101 117
92 104 121
93 106 123
97 110 127
98 111 128
101 115 133
101 116 134
103 117 136
107 121 139
109 123 142
114 129 148
113 128 149
114 130 150
113 128 148
110 124 143
108 122 141
107 122 142
105 119 138
105 119 138
106 119 137
103 117 135
102 116 135
104 118 136
105 119 138
106 120 139
109 123 142
106 120 139
105 119 137
101 115 134
100 113 131
98 111 128
94 108 125
93 105 122
90 102 118
90 102 118
90 102 117
90 102 118
90 103 119
91 104 120
93 106 123
94 107 124
96 109 126
101 115 133
100 113 131
100 114 131
101 115 133
103 116 134
104 118 137
105 120 139
105 118 136
102 116 134
106 120 138
107 121 139
108 123 143
114 130 150
116 132 153
119 135 156
120 136 158
121 138 159
120 137 159
121 138 160
122 138 160
120 136 158
118 135 156
117 133 154
118 134 154
115 131 152
116 131 151
114 129 149
110 125 145
107 121 140
110 125 144
111 126 146
109 123 143
106 121 139
103 118 136
101 116 134
100 114 131
99 113 130
98 111 129
96 109 126
95 108 125
91 103 120
89 101 116
82 93 108
79 89 103
72 82 96
73 82 94
73 82 95
73 83 96
73 83 95
74 84 97
75 85 99
76 86 100
79 90 104
80 90 104
78 88 102
76 87 101
76 86 99
73 83 96
74 84 96
76 86 99
78 88 102
79 90 104
80 91 105
82 92 106
81 92 106
83 94 108
82 94 109
83 94 109
82 93 107
84 96 111
86 98 113
89 101 117
93 105 122
94 107 123
93 106 123
93 106 123
98 111 129
98 111 129
98 111 129
97 110 127
95 108 125
95 108 125
94 107 124
91 104 120
89 101 117
84 96 111
80 91 105
74 84 96
72 81 93
71 80 93
68 77 89
66 75 87
65 73 84
64 73 84
63 71 82
61 69 80
59 67 78
52 59 69
44 50 58
40 46 53
40 45 53
41 47 54
44 50 58
44 50 58
46 52 61
46 52 61
51 58 67
53 60 69
50 56 65
49 56 65
46 52 60
43 48 56
41 47 54
38 43 50
35 40 47
36 41 48
38 43 50
41 47 54
46 52 60
52 60 69
57 65 75
58 66 76
64 73 85
69 78 90
73 83 95
75 85 99
76 87 100
75 85 98
72 82 95
72 82 95
73 83 96
73 83 96
73 82 95
70 80 92
68 77 89
69 79 91
72 82 95
76 86 99
76 87 100
76 87 101
74 84 97
71 80 93
67 76 87
64 73 85
61 69 81
59 68 79
60 68 79
55 63 73
52 60 69
53 60 69
53 60 69
55 62 72
56 64 74
52 59 68
46 52 60
41 47 54
40 46 53
36 41 47
26 29 34
16 18 21
17 19 23
21 24 28
25 28 33
25 28 33
28 32 37
26 30 35
25 29 33
25 29 33
28 31 36
29 33 38
35 40 46
35 40 46
35 39 45
36 41 47
39 44 51
46 52 60
48 55 63
52 59 68
52 59 69
51 58 67
51 58 67
50 57 66
51 58 67
53 60 69
53 60 69
55 63 73
57 65 75
57 65 75
60 68 78
63 71 82
64 72 84
60 69 79
59 67 77
59 66 76
52 59 69
48 54 63
44 50 58
39 44 50
30 34 39
20 23 27
11 12 14
16 18 21
24 28 32
38 44 51
48 54 62
59 67 77
65 74 86
67 76 88
69 79 92
72 81 94
72 81 94
72 82 96
70 79 92
69 78 91
68 77 90
67 76 88
64 73 84
62 70 82
57 65 75
48 54 63
30 34 39
20 22 26
29 32 37
43 49 57
55 63 73
65 73 85
71 80 92
77 88 102
80 91 105
82 93 107
85 97 112
87 99 114
88 100 116
87 99 115
85 97 112
85 96 112
84 95 110
82 94 109
82 93 108
81 92 107
84 95 110
84 96 111
84 95 110
79 90 104
81 92 106
80 91 105
77 88 102
76 87 100
76 86 99
71 80 93
64 73 84
55 62 72
47 53 62
40 45 52
35 40 47
31 36 41
26 30 35
26 29 34
29 33 38
24 28 32
21 24 28
19 22 25
14 16 18
15 17 19
30 33 39
36 41 47
41 46 53
43 49 57
45 51 58
47 54 62
53 60 69
57 65 75
57 65 75
61 69 80
65 74 86
67 77 89
73 83 96
76 86 99
76 87 100
73 83 96
72 82 94
70 79 92
65 73 84
59 67 77
56 63 73
51 58 67
50 57 66
51 58 67
51 58 67
47 53 61
39 44 51
31 35 41
28 31 37
32 36 42
35 40 47
39 44 51
45 51 59
51 57 66
52 59 68
48 55 64
45 51 59
42 47 54
36 41 48
29 32 38
21 24 28
22 25 29
26 30 34
36 41 48
39 44 51
40 46 53
43 49 57
44 50 58
44 50 58
49 56 64
54 61 71
58 66 76
59 68 78
64 73 84
69 79 91
71 81 94
75 86 99
81 91 105
83 95 111
84 96 111
82 92 107
76 87 101
75 84 97
72 82 95
73 82 95
72 82 94
74 84 98
75 85 98
73 83 96
71 81 94
67 76 87
65 74 86
63 71 83
66 75 87
68 77 88
71 80 93
73 83 96
72 81 94
67 76 88
64 72 83
63 72 83
65 74 85
63 72 83
60 68 78
60 68 79
60 68 79
56 64 74
59 67 77
65 74 85
76 86 100
85 97 112
88 101 116
92 105 121
92 105 121
96 109 126
97 110 127
97 111 128
103 116 134
105 119 137
106 121 140
111 126 146
112 126 145
109 125 144
113 128 147
112 127 146
109 125 144
110 125 144
110 125 145
109 124 143
109 124 143
107 122 142
109 123 142
110 125 145
111 126 146
112 127 146
112 127 147
112 128 147
110 125 145
109 124 143
105 120 139
102 116 134
100 113 131
96 109 126
92 105 122
91 102 118
88 100 116
88 100 115
87 98 113
88 101 117
91 103 119
94 107 123
96 109 126
97 111 129
98 112 130
101 115 133
102 116 135
103 117 135
105 119 137
104 118 137
105 119 137
105 119 137
104 118 137
106 120 139
105 119 138
109 123 141
109 124 143
110 125 145
117 133 153
120 136 157
122 138 159
123 141 163
126 143 165
128 146 170
129 147 170
131 148 171
131 148 170
129 146 169
127 144 166
123 139 161
122 138 159
119 136 157
114 129 149
112 128 148
112 127 147
109 124 143
112 127 146
111 126 145
109 124 143
107 122 140
106 120 138
103 117 136
101 115 133
100 113 130
95 108 125
91 103 120
88 99 115
83 94 108
79 89 104
76 86 99
76 86 100
74 85 98
77 88 101
81 92 106
79 89 103
80 91 105
81 91 105
79 90 104
79 90 104
82 93 107
82 93 108
82 93 108
82 93 108
80 90 104
77 87 100
79 90 104
77 87 101
76 87 100
75 85 99
73 84 97
72 82 94
74 84 97
74 85 98
75 86 99
78 88 102
79 89 103
82 93 108
84 95 110
90 102 117
92 105 122
96 109 126
95 109 126
98 112 130
99 112 130
96 110 128
98 112 129
97 110 127
92 104 121
90 103 119
89 101 117
88 99 115
85 96 110
81 92 106
77 87 101
76 87 100
76 86 99
77 88 102
78 89 103
78 88 102
76 86 100
73 84 97
73 84 97
72 83 96
71 81 94
69 78 91
70 79 91
67 76 88
67 76 88
67 76 88
66 75 87
64 73 84
62 71 82
64 72 83
66 75 87
70 80 93
74 84 97
76 86 99
75 85 97
73 83 95
74 84 97
73 83 96
71 80 93
68 77 90
66 74 86
65 74 86
67 76 88
69 78 90
72 82 95
77 87 101
79 90 105
82 93 107
86 97 113
88 100 115
90 103 119
89 101 117
85 97 112
83 94 109
79 90 105
77 87 101
77 88 101
80 91 106
80 92 106
81 93 107
82 93 107
82 93 108
81 92 106
80 91 106
78 89 103
76 86 99
72 82 95
69 78 91
68 77 89
64 72 83
64 72 83
60 68 78
57 65 76
56 63 73
53 60 70
49 56 65
48 54 62
43 49 56
39 45 52
37 42 48
33 38 44
31 35 41
32 37 42
26 30 35
20 23 27
23 26 30
30 34 39
40 45 52
45 51 58
46 52 61
45 51 59
44 50 58
43 50 58
43 49 56
40 45 52
33 38 44
30 34 39
31 35 40
30 34 39
31 36 41
36 41 48
41 47 55
44 49 57
44 50 57
47 53 61
47 53 62
43 49 56
41 46 54
38 43 49
36 42 48
38 43 50
43 48 56
44 51 58
44 50 58
46 52 60
44 51 59
44 50 58
45 51 59
43 49 56
37 43 49
30 34 39
21 24 27
25 28 32
31 35 40
33 37 42
35 40 46
40 46 53
46 51 59
52 60 69
57 64 75
59 67 78
64 73 84
65 74 86
67 76 87
68 77 89
69 79 92
72 81 93
69 79 91
67 76 87
62 71 82
58 66 76
53 61 70
47 53 62
34 39 45
19 22 25
15 17 20
35 39 45
47 53 61
58 66 77
65 74 85
74 84 97
78 89 103
81 92 106
84 95 109
83 95 110
84 96 111
83 94 109
85 97 113
86 98 113
86 97 112
86 97 112
89 101 117
92 104 120
92 104 120
95 108 125
94 107 124
94 106 122
96 109 126
98 112 130
96 109 126
96 109 126
94 107 124
88 100 116
82 93 108
76 86 99
69 79 92
67 75 87
60 68 79
53 60 70
52 58 67
51 58 68
49 56 64
47 54 63
48 55 63
49 56 65
43 49 57
37 42 49
30 34 39
20 22 26
31 35 41
44 50 58
52 59 68
55 62 72
60 68 79
67 76 87
67 76 87
69 78 90
72 81 94
72 82 95
72 81 94
70 80 92
71 81 94
72 81 94
69 78 91
63 72 84
59 67 78
52 59 68
45 52 60
41 46 53
33 37 43
22 25 29
22 25 30
25 29 33
22 25 29
17 19 22
15 17 19
15 18 20
15 17 20
19 22 26
27 31 35
30 34 39
30 34 39
29 33 38
32 36 42
34 38 44
31 35 40
28 32 37
29 33 38
27 31 36
17 20 23
19 21 25
22 26 30
20 23 27
20 22 26
20 22 26
25 28 33
33 37 43
42 47 54
50 57 65
53 60 69
59 67 77
63 72 83
67 76 88
70 79 92
74 85 98
78 89 103
83 94 108
83 95 110
84 95 110
85 96 111
83 94 109
78 89 103
75 85 99
71 81 94
69 79 91
68 77 89
69 78 90
69 78 90
71 80 93
69 78 90
69 79 91
72 82 94
72 82 96
71 81 93
70 79 92
68 77 89
68 77 89
67 76 88
69 79 92
68 78 90
66 75 87
67 76 88
65 74 85
61 69 80
55 63 72
57 65 75
65 74 86
73 84 97
78 89 103
87 98 114
93 106 122
97 110 126
100 114 132
103 117 136
106 120 138
108 122 141
109 124 143
108 123 142
107 121 140
107 122 141
109 123 142
109 123 142
107 122 141
108 123 143
108 123 142
107 121 140
108 122 141
105 120 140
110 124 142
110 125 145
110 126 145
113 128 148
111 127 147
113 128 147
112 126 145
110 125 143
107 121 140
102 115 133
100 114 131
96 110 127
97 110 128
96 109 126
95 109 126
97 110 127
97 110 126
95 107 124
94 107 124
93 106 122
95 108 125
97 111 128
100 113 131
103 117 134
103 117 134
105 119 138
106 120 139
105 119 138
107 121 140
108 122 141
109 124 144
111 126 145
113 128 148
116 131 152
119 134 155
124 140 162
123 140 162
124 141 163
127 145 167
127 145 168
128 146 169
127 144 167
129 146 169
128 146 168
128 146 169
129 146 169
127 144 167
124 141 163
121 137 158
117 132 153
115 131 152
117 132 153
115 131 151
117 132 153
118 134 154
116 132 153
116 131 151
113 128 149
113 127 146
107 122 141
102 115 133
93 106 123
87 99 114
79 89 103
74 84 97
73 83 95
71 81 93
71 80 93
68 77 90
69 78 90
66 75 86
66 75 87
70 80 92
74 83 97
75 85 98
76 86 99
74 84 98
75 86 100
76 87 100
75 85 98
74 84 97
75 85 98
74 83 96
72 82 95
72 82 95
72 82 95
71 81 94
69 78 90
66 75 87
67 77 89
70 80 92
69 79 92
70 80 92
72 82 95
72 81 94
73 83 96
77 88 102
80 91 105
84 95 110
83 94 109
83 94 109
83 94 109
89 100 116
89 101 117
90 102 117
88 100 116
89 101 117
88 100 116
85 97 112
84 95 110
83 94 109
79 90 105
75 85 98
76 86 99
77 88 102
78 89 102
76 86 100
75 85 98
73 82 95
71 80 93
69 79 91
69 78 91
70 80 93
69 79 92
71 80 93
71 81 94
72 82 94
72 81 94
69 79 91
69 79 91
69 79 91
71 81 94
76 86 99
79 89 103
83 94 109
85 96 111
87 99 114
87 99 114
86 98 114
88 100 115
89 101 116
89 101 117
89 102 118
85 96 112
87 99 114
89 102 118
90 102 118
90 103 119
90 102 118
90 103 119
92 105 121
94 107 123
93 106 122
94 106 123
93 106 123
91 103 119
90 103 119
91 104 121
96 109 126
94 107 123
94 107 124
94 107 124
90 102 119
87 99 114
86 98 113
85 96 111
85 96 111
82 94 109
81 92 106
76 86 100
71 81 94
69 79 92
68 77 89
65 74 85
60 68 79
55 62 72
52 59 68
49 56 65
48 54 63
45 51 59
44 50 57
42 48 55
43 49 57
44 50 58
47 53 62
45 51 59
43 49 56
42 48 55
44 50 58
46 52 60
50 57 66
53 60 69
52 59 69
52 59 68
47 54 62
45 51 59
44 50 58
43 49 57
41 47 54
41 47 55
38 43 50
32 37 42
31 35 41
26 30 35
24 27 31
19 22 25
18 21 24
16 18 21
18 20 24
27 31 36
34 38 45
39 44 51
42 48 56
44 50 58
42 48 56
37 42 49
30 34 40
18 21 24
16 18 20
20 23 26
22 25 29
22 25 29
28 32 37
33 38 44
37 43 50
42 48 55
47 54 62
50 56 65
53 60 69
54 61 71
57 65 75
58 66 76
58 66 77
60 68 79
60 68 79
62 70 82
65 74 85
64 72 84
64 72 83
61 70 81
59 67 78
56 63 73
50 57 67
44 50 58
38 43 49
25 29 33
15 17 20
29 32 37
42 47 55
52 59 68
59 67 78
67 76 88
74 84 97
80 91 106
82 93 108
83 94 108
80 91 105
81 92 105
82 93 108
82 93 108
79 90 105
81 92 107
85 96 111
88 100 115
94 106 123
97 111 129
102 116 135
101 115 133
103 117 135
101 115 132
102 116 134
103 117 136
100 114 132
97 110 127
94 107 123
89 101 116
85 97 112
80 91 104
75 84 97
70 79 91
65 74 86
66 75 87
67 77 89
68 78 90
68 77 89
66 75 87
63 71 82
58 65 75
52 60 70
46 53 61
33 38 43
22 25 29
38 43 50
45 51 59
50 57 66
53 60 69
55 63 73
61 70 80
65 74 85
67 76 88
66 75 86
66 75 86
68 77 89
66 75 87
61 69 81
58 66 76
55 62 72
52 59 69
46 52 60
40 45 52
34 39 45
29 33 39
15 18 20
18 21 24
26 29 34
31 35 41
31 35 41
27 31 36
24 27 31
23 26 30
23 26 30
20 23 27
21 24 28
25 29 33
24 28 32
21 24 28
17 20 23
17 19 23
26 30 35
32 37 42
31 36 41
24 28 32
25 28 33
30 35 40
31 36 41
30 34 39
24 27 32
23 27 32
28 32 37
27 30 35
29 33 39
28 31 36
30 34 39
35 40 46
39 44 51
56 63 72
67 76 88
75 86 100
80 91 105
79 90 104
77 88 103
77 87 100
73 83 96
71 81 93
70 79 91
69 79 91
67 76 88
67 77 89
69 78 90
68 77 89
65 74 86
66 74 85
67 76 88
67 76 88
65 74 86
60 68 79
55 63 73
55 62 72
57 65 76
60 68 79
58 66 76
61 69 80
63 71 82
62 70 81
60 68 78
54 61 71
47 54 62
33 37 43
46 52 60
54 61 70
63 71 82
72 81 94
79 90 104
84 96 110
91 103 120
94 107 123
99 112 129
98 112 130
102 115 133
105 119 137
105 119 137
109 124 143
107 122 141
105 120 139
106 120 138
105 119 137
106 120 140
107 122 141
109 124 143
111 126 145
111 125 144
106 120 139
104 119 138
105 119 138
105 119 137
100 114 132
101 115 132
101 114 131
100 113 131
103 116 133
102 116 134
101 115 133
102 116 134
103 117 136
102 116 134
104 118 137
103 116 134
101 115 133
100 114 131
99 113 130
99 113 131
101 115 133
101 114 132
103 117 135
103 117 135
104 118 136
105 119 138
109 123 142
107 122 142
113 128 149
114 130 151
118 134 155
120 136 157
123 140 162
128 145 167
130 147 170
131 148 171
130 147 170
128 146 169
128 145 169
127 145 167
126 143 165
123 139 161
120 136 158
118 134 154
114 130 150
112 127 147
111 126 146
112 127 147
114 129 149
115 131 151
114 130 150
114 129 149
110 125 145
107 121 140
106 120 139
102 117 136
102 116 135
99 113 130
95 108 125
92 105 121
87 99 114
82 94 109
79 90 105
74 84 97
71 81 94
70 79 91
69 79 91
65 74 86
61 70 81
62 70 81
62 71 82
64 73 85
64 73 85
65 74 85
64 72 83
59 67 77
58 66 76
58 65 75
58 66 77
58 65 76
59 67 77
61 70 81
62 70 81
62 71 82
58 66 76
58 65 76
61 70 81
63 71 82
63 71 82
64 73 85
67 76 87
69 78 91
71 81 94
71 81 93
74 85 98
77 88 102
77 88 101
79 89 103
78 89 102
78 88 102
74 85 98
74 83 96
72 82 95
72 82 95
70 80 93
69 78 90
67 77 89
70 79 92
70 80 92
69 79 91
69 78 90
70 79 92
70 80 93
71 80 93
70 80 93
68 77 90
69 78 90
64 73 85
62 70 82
56 64 75
53 60 69
53 60 69
56 63 73
59 66 76
62 70 81
63 71 83
67 75 87
69 78 91
74 84 97
78 88 102
81 92 106
84 95 110
86 98 113
88 100 116
90 102 119
93 106 123
94 107 123
93 106 123
96 109 126
99 112 129
99 112 130
99 113 131
99 112 130
98 112 129
101 114 132
101 115 132
104 118 136
102 116 134
102 115 132
101 114 131
101 115 133
99 113 131
102 115 132
102 116 134
104 117 136
106 121 140
108 123 142
105 120 139
106 120 139
105 120 139
103 118 137
102 116 134
99 112 129
97 110 127
96 109 125
91 104 121
89 102 118
86 98 113
82 93 108
79 89 103
78 88 102
75 85 99
71 81 94
68 77 88
68 77 89
63 71 82
60 69 80
58 66 77
57 64 74
54 61 71
50 56 65
48 55 63
48 55 63
51 58 67
50 57 65
48 54 63
45 51 59
43 49 57
45 51 59
46 52 60
47 54 62
47 53 62
47 53 61
47 53 61
44 50 58
43 49 56
39 45 52
35 40 46
31 35 40
30 34 39
27 30 35
25 29 33
27 31 35
21 24 27
16 19 22
12 13 15
14 16 19
23 27 31
31 36 41
35 40 46
33 38 44
35 40 46
37 43 49
38 43 50
37 42 49
32 36 41
29 33 39
23 26 30
26 30 34
25 29 34
21 24 28
20 23 26
23 27 31
31 36 41
42 48 56
48 55 63
50 57 66
52 59 68
54 61 70
54 62 72
55 63 73
51 58 68
53 60 69
56 64 75
59 68 78
60 68 79
63 72 83
62 71 81
60 69 79
56 64 74
47 54 62
40 45 52
35 40 46
30 34 39
22 25 29
22 25 29
29 33 38
40 46 53
49 56 65
57 65 75
62 70 81
67 76 88
70 80 92
69 78 91
70 79 91
75 85 98
80 90 105
81 92 107
85 96 110
87 99 114
90 102 118
93 106 123
95 108 125
96 110 127
96 110 127
98 111 129
99 113 130
98 111 128
99 113 130
99 113 131
98 111 129
96 109 126
96 109 126
95 107 124
91 104 120
87 100 116
87 99 114
86 97 111
85 97 113
87 98 113
88 100 116
87 99 114
87 99 114
83 94 109
80 90 104
75 85 99
71 80 93
64 73 84
55 62 72
45 51 59
41 47 54
31 35 41
24 27 32
27 31 36
32 36 42
32 36 42
34 38 44
36 41 48
39 44 51
37 42 49
44 50 57
45 52 60
46 52 60
42 47 55
40 45 52
37 42 49
35 40 46
30 35 40
30 34 39
24 27 32
18 21 24
20 23 27
26 29 34
22 25 29
15 18 20
18 20 23
14 16 19
16 18 22
24 27 31
30 35 40
36 41 47
41 46 53
43 49 57
41 47 54
41 46 54
41 46 54
37 42 49
28 32 37
21 24 28
18 20 23
16 18 21
28 31 36
34 39 45
36 41 48
40 46 53
44 51 59
44 50 58
39 44 51
35 39 46
33 37 43
33 37 43
33 38 44
28 32 37
16 19 22
22 25 28
37 42 49
47 53 61
54 62 72
62 70 81
62 71 82
65 74 86
66 75 87
66 75 87
66 75 86
68 77 89
65 74 86
63 72 83
62 70 80
59 67 77
55 62 72
53 60 69
53 60 69
56 63 73
55 62 71
50 56 65
46 53 61
45 51 59
40 45 53
34 39 45
31 35 41
29 33 38
31 35 41
28 32 37
28 31 36
32 37 42
33 37 43
26 30 34
19 22 25
31 35 41
44 50 58
52 59 68
61 69 80
66 75 87
67 76 88
71 80 93
75 85 99
81 92 107
88 100 116
93 106 123
97 110 127
99 113 131
100 113 131
103 117 136
105 119 138
106 121 139
106 121 140
106 120 139
107 122 141
105 118 136
101 115 133
99 113 131
100 113 131
101 114 132
100 113 131
102 116 134
101 115 134
100 113 131
101 115 132
99 112 130
98 112 129
99 112 130
100 113 131
98 112 130
100 113 131
99 113 131
101 115 133
100 113 131
99 112 130
100 113 130
99 112 129
101 114 132
101 114 132
102 116 133
105 119 138
105 119 138
109 124 143
111 126 145
113 128 149
115 130 151
118 133 154
119 135 155
124 140 162
121 138 159
127 143 164
124 141 164
124 142 164
123 140 162
126 143 164
123 141 163
120 137 159
117 133 154
112 128 148
110 125 144
108 122 141
109 123 142
107 122 140
107 122 141
107 121 140
105 119 138
101 115 133
99 112 129
95 108 125
93 106 123
92 104 120
91 104 120
88 101 117
85 96 111
83 93 108
77 88 102
76 86 99
75 85 98
76 87 100
73 84 97
72 82 96
72 82 94
68 77 89
67 77 89
66 75 87
66 75 87
64 73 84
59 67 77
53 60 69
43 49 56
35 39 45
28 33 38
27 30 35
27 30 35
32 36 42
36 41 47
38 44 51
38 43 50
36 42 48
37 42 49
41 46 53
49 55 64
53 60 69
58 66 76
63 71 82
68 78 90
71 81 94
73 83 96
75 85 98
76 86 99
75 85 99
76 86 100
75 85 99
76 86 100
79 89 103
77 88 102
75 86 99
76 86 99
75 86 100
69 78 91
62 70 81
56 64 74
50 56 65
50 57 65
48 55 63
50 57 66
52 59 68
50 57 66
50 58 67
50 56 65
52 59 69
54 62 72
51 58 67
50 57 66
49 55 64
48 55 63
50 57 66
51 57 66
51 58 68
54 61 71
58 65 76
60 69 80
63 71 83
68 77 89
74 84 96
77 87 101
79 90 104
83 94 109
84 95 110
85 97 112
87 99 114
89 101 117
92 105 121
96 109 126
98 111 128
98 112 129
100 113 131
101 115 132
101 114 132
103 116 134
104 118 137
106 120 138
107 121 140
108 123 142
108 123 141
107 122 141
107 121 140
111 126 145
113 127 146
113 129 149
117 132 152
119 134 155
116 132 153
120 136 157
117 133 154
116 131 152
114 129 149
109 124 143
108 122 141
105 119 137
102 116 134
98 110 127
94 106 123
91 103 119
88 100 116
86 98 113
86 98 113
83 95 110
80 90 104
79 89 103
78 88 102
75 85 98
74 83 96
69 78 90
67 77 89
65 73 85
61 70 81
58 65 75
52 59 69
46 53 61
41 47 54
38 43 50
37 42 49
33 38 44
34 38 44
33 38 44
29 33 39
28 32 37
31 35 41
32 36 42
33 38 44
35 40 46
33 37 43
30 34 39
22 25 29
17 19 22
24 28 32
24 28 32
25 29 33
23 26 30
14 16 18
20 23 26
24 27 31
25 29 33
24 28 32
22 25 29
26 29 34
31 35 40
34 39 45
32 37 43
20 23 27
17 19 23
21 24 28
18 21 24
24 28 32
26 29 34
31 35 40
28 31 36
21 24 27
28 32 37
36 41 47
42 48 55
47 54 62
51 58 67
52 60 69
54 61 71
54 61 71
55 62 72
61 69 80
62 70 81
60 68 78
58 66 77
58 66 76
56 63 73
53 60 70
45 51 59
37 43 50
30 34 40
17 19 22
22 25 29
31 35 41
39 45 52
45 51 59
50 57 66
54 61 71
58 66 76
60 68 79
62 71 82
66 76 88
70 80 92
73 83 96
74 85 98
78 89 103
81 92 107
84 95 110
86 98 113
90 102 117
89 101 117
91 103 119
93 105 121
95 108 125
97 110 126
98 111 128
98 112 130
98 111 129
95 108 124
93 106 123
91 104 121
93 105 121
91 103 120
91 103 119
90 103 119
91 103 119
92 105 121
95 107 124
98 111 128
98 112 131
99 112 129
96 109 126
95 108 125
95 107 124
94 106 123
88 100 116
84 96 111
77 88 101
72 82 95
68 78 90
65 74 86
63 71 82
59 67 77
59 67 78
57 65 75
56 64 74
52 59 68
48 55 63
45 51 59
45 50 58
42 47 55
39 45 51
38 43 50
37 42 49
32 37 42
31 35 40
25 29 33
23 26 30
23 27 31
24 27 32
24 27 31
29 33 38
32 36 42
34 39 45
35 40 46
32 37 43
30 34 39
30 34 39
34 39 45
41 47 54
46 52 60
46 53 61
50 57 65
50 57 65
48 54 63
47 54 62
43 49 57
40 45 52
32 36 42
24 27 31
13 15 18
25 29 33
26 30 35
27 31 36
30 34 39
33 37 43
24 27 32
20 22 26
20 23 27
21 24 28
21 24 28
18 21 24
13 15 18
9 10 12
12 14 16
20 22 26
20 22 26
21 24 28
21 23 27
22 25 29
29 33 38
32 37 43
40 46 53
47 53 62
46 52 60
45 51 59
45 51 59
46 52 61
41 47 54
46 53 61
52 59 68
55 62 72
53 60 70
47 53 62
41 47 54
36 41 47
30 34 39
23 26 30
24 27 32
26 30 35
27 31 36
32 37 42
34 39 45
32 36 42
28 31 36
28 32 37
38 43 50
24 27 31
25 28 32
27 31 36
27 31 36
31 35 41
36 41 47
43 49 57
49 56 65
55 63 72
63 71 82
68 78 90
74 84 97
81 92 107
86 98 113
92 105 121
93 106 123
99 113 130
101 115 133
100 113 131
100 114 132
100 113 132
100 114 133
100 113 131
100 114 132
102 116 135
102 116 134
100 113 131
99 113 131
99 113 130
98 111 128
97 110 128
96 110 127
98 111 129
99 112 130
100 113 130
100 113 131
103 117 136
103 117 135
100 114 133
99 113 131
97 111 128
97 111 129
97 110 128
101 114 132
104 118 136
105 121 140
107 122 141
108 123 143
108 123 143
110 125 145
112 127 146
113 128 149
114 130 150
116 132 153
117 132 153
117 133 153
114 130 150
114 130 150
116 131 151
111 125 145
108 123 143
107 122 141
105 119 137
103 117 135
102 115 133
101 114 132
99 112 129
103 117 135
105 118 136
102 115 134
97 110 128
93 105 121
86 98 114
81 93 108
79 89 104
73 83 96
70 79 92
64 73 85
59 67 78
55 62 72
49 55 63
54 62 71
58 66 76
61 70 81
65 74 85
66 75 86
64 73 84
64 72 84
62 71 83
63 72 83
64 73 84
64 72 83
60 68 79
54 61 71
47 54 63
41 46 53
26 29 34
15 17 20
21 24 28
25 28 33
19 22 25
25 29 34
34 39 45
38 43 50
40 46 53
43 49 56
50 57 66
54 61 70
54 62 71
57 65 75
60 69 80
63 72 83
67 76 88
73 83 96
75 85 98
76 87 100
76 87 101
78 89 102
77 87 100
73 83 95
70 80 92
70 80 92
70 79 91
67 77 89
64 73 85
61 69 80
60 68 79
55 63 72
50 56 66
49 56 65
49 56 64
45 51 59
40 45 52
32 36 41
27 31 36
27 31 35
26 29 34
21 24 27
15 17 20
11 12 14
20 23 27
25 29 33
34 39 45
44 51 59
49 56 65
51 58 67
55 63 73
60 68 79
64 73 85
68 77 88
71 81 94
74 84 98
75 86 99
76 87 100
78 89 103
79 89 103
80 91 105
83 95 109
85 97 112
88 100 115
88 100 115
91 104 120
92 105 122
97 110 127
102 116 134
104 118 136
107 121 139
107 122 142
107 121 141
110 124 143
109 124 144
112 127 146
113 129 148
117 132 152
117 133 154
117 133 155
118 134 156
119 135 156
121 137 158
119 136 157
120 137 158
119 136 157
118 134 156
115 131 152
112 127 147
107 122 140
105 119 137
100 114 132
97 110 127
95 108 125
89 101 118
86 97 112
81 93 107
78 89 103
74 84 97
69 78 90
65 74 86
65 73 85
65 74 86
65 74 86
62 71 82
58 66 76
53 60 70
45 51 59
36 41 48
29 33 39
28 32 37
28 32 37
32 36 42
38 43 50
44 50 58
45 51 59
41 46 54
36 41 47
27 31 36
16 18 21
23 26 30
31 36 41
37 43 50
46 53 61
52 59 68
49 56 65
47 54 62
46 52 60
45 51 59
40 46 53
36 41 47
30 34 40
23 26 31
20 23 27
20 22 26
20 23 26
15 17 20
20 22 26
24 28 32
29 33 38
28 32 38
31 36 41
37 42 49
42 47 54
46 52 60
49 56 65
52 59 69
58 66 76
58 65 75
58 66 76
54 62 72
56 63 73
53 60 69
51 58 67
55 63 73
59 67 77
62 70 81
67 76 88
69 79 91
70 79 92
69 78 91
64 73 85
61 69 80
57 65 75
50 57 66
42 48 56
35 40 46
21 24 28
21 23 27
32 36 41
42 48 55
50 57 65
58 66 76
60 68 79
61 69 80
62 71 82
64 73 84
63 72 83
65 74 86
69 78 89
74 84 97
78 89 103
84 95 110
88 100 116
91 103 120
94 106 122
94 107 124
94 107 123
96 108 124
95 107 124
93 106 122
93 106 122
93 106 123
93 106 122
89 101 117
87 99 114
86 98 114
85 97 112
83 94 109
84 95 110
85 96 112
84 96 112
91 104 120
95 108 124
98 111 128
100 114 132
100 114 132
98 111 128
95 109 126
96 108 124
95 107 124
92 104 120
88 100 116
86 98 114
85 96 111
81 92 106
80 91 106
79 90 104
76 86 100
76 86 100
75 86 99
75 85 99
75 85 98
77 87 100
79 90 104
77 87 101
79 89 103
76 86 100
75 86 100
74 84 97
69 78 90
64 73 85
61 69 80
58 65 75
57 65 76
53 61 70
53 60 70
47 54 62
47 53 61
48 54 63
47 53 61
43 49 57
40 45 52
41 47 54
46 52 60
52 60 69
55 62 72
56 64 74
57 65 75
57 65 75
55 62 72
51 58 67
52 59 68
51 58 67
46 52 60
36 41 47
27 31 35
23 26 30
21 24 28
18 21 24
18 21 24
17 19 22
26 30 34
33 37 43
37 42 48
39 44 50
40 46 53
42 48 56
39 44 51
35 39 46
36 41 48
33 38 44
35 40 46
36 40 47
31 35 41
27 31 36
28 31 36
27 31 36
24 28 32
17 19 22
15 17 20
15 17 20
13 14 17
22 25 29
22 25 29
18 21 24
19 22 25
30 34 39
34 38 44
32 37 42
27 30 35
27 31 35
32 37 43
39 44 51
45 51 59
48 55 63
49 56 64
52 59 68
53 60 70
50 57 66
46 53 61
45 51 60
44 50 59
57 64 74
57 65 76
56 63 73
52 59 68
49 56 65
46 52 60
41 47 54
34 39 45
20 23 27
28 32 37
46 52 61
59 67 77
65 74 85
70 79 90
74 84 97
77 88 102
79 89 103
79 89 102
76 86 100
79 89 102
82 93 108
85 96 111
90 102 117
94 107 124
98 111 129
97 110 127
97 110 127
96 110 127
97 110 127
94 107 124
94 107 124
96 109 126
95 108 125
95 108 125
97 111 128
94 107 124
94 107 124
93 106 122
96 109 127
97 110 127
97 110 127
100 113 131
102 115 133
103 117 136
105 120 139
107 122 142
111 126 145
112 127 146
112 128 148
114 129 149
114 129 148
112 127 147
112 127 147
111 126 145
110 125 145
108 123 142
109 124 143
109 123 142
108 122 141
102 116 134
101 115 133
99 112 129
99 113 130
99 112 130
100 114 131
98 111 128
95 108 125
92 104 121
89 101 117
87 99 115
84 95 110
82 93 108
79 89 103
75 86 99
72 81 94
66 75 87
63 72 83
56 64 74
51 58 67
46 52 60
42 48 55
42 47 55
41 47 55
41 46 53
39 44 51
37 42 49
36 41 48
39 44 51
44 49 57
46 52 60
50 57 66
50 56 65
46 52 60
38 43 50
29 33 38
26 29 34
21 23 27
15 17 20
15 17 20
23 26 30
32 36 42
41 46 53
44 50 58
42 48 55
42 48 56
45 52 60
50 57 66
56 63 73
58 66 76
59 67 77
58 66 76
57 65 75
58 66 77
60 68 78
62 71 82
65 74 85
66 75 87
64 73 85
64 73 84
64 73 84
64 73 85
64 73 85
62 71 82
60 69 79
60 69 80
58 66 77
55 63 72
53 60 69
50 57 66
47 54 62
43 49 56
37 42 49
32 37 42
26 30 34
18 21 24
24 27 32
26 30 34
26 30 34
30 34 39
33 38 44
40 45 52
39 45 52
34 39 45
30 34 40
25 28 33
19 21 25
19 22 25
26 29 34
33 38 44
41 47 54
48 55 63
51 58 67
53 61 70
58 66 76
62 70 81
63 72 83
67 76 88
70 80 92
71 81 93
74 84 98
77 87 101
80 91 105
83 94 109
89 101 117
93 105 122
99 112 130
102 115 133
104 119 137
104 118 136
106 120 139
107 122 141
110 125 144
111 126 146
114 130 150
115 131 152
117 133 154
116 132 153
116 132 152
114 130 150
119 135 156
120 136 157
120 136 157
121 138 160
117 133 154
115 130 151
111 127 147
109 124 144
106 120 138
99 113 131
99 112 129
95 108 126
92 104 120
88 101 117
83 94 109
77 87 101
68 77 88
61 69 79
54 61 71
49 55 63
47 53 61
43 49 56
36 41 47
31 35 40
26 30 34
24 27 32
17 20 23
15 18 20
27 31 35
34 39 45
39 44 51
38 43 50
35 40 46
31 35 41
28 32 37
29 33 38
25 28 33
23 26 30
26 29 34
37 42 48
47 54 62
53 61 70
57 64 74
57 66 76
55 63 73
54 62 72
53 60 69
52 59 69
52 59 69
52 59 67
47 53 62
43 49 56
39 44 51
37 42 49
37 42 49
44 50 58
49 56 65
53 60 69
55 62 72
59 68 78
62 70 81
66 75 87
73 83 95
76 85 98
76 87 100
77 88 102
82 93 107
80 91 105
82 92 106
78 89 104
77 88 102
82 93 107
84 96 111
86 98 113
82 93 107
82 93 108
80 91 105
73 83 96
68 77 89
66 75 86
63 71 82
61 69 80
55 63 73
45 51 60
38 43 50
27 31 35
18 20 24
30 34 40
37 42 49
45 51 59
51 59 68
58 66 76
62 71 82
67 76 88
69 78 90
69 78 90
70 79 91
72 82 95
76 86 99
78 89 102
81 92 107
85 96 111
88 99 115
91 103 119
94 108 125
94 107 125
96 110 127
95 108 126
94 107 124
91 103 119
83 94 109
84 95 110
82 93 107
80 91 105
77 88 102
78 88 102
77 87 101
80 91 105
82 93 108
86 98 113
91 103 119
93 105 122
93 106 122
92 104 120
93 105 121
91 103 119
90 102 118
88 100 116
83 95 110
81 92 107
81 92 106
79 90 104
75 85 98
73 83 96
73 83 96
78 88 102
82 92 106
85 96 111
87 98 114
88 100 116
89 101 117
91 103 118
91 103 119
91 103 119
91 103 119
90 102 118
89 101 117
86 98 114
81 92 107
78 88 102
78 89 103
81 92 106
80 91 106
77 88 101
75 85 99
73 82 95
69 79 91
67 76 88
64 73 85
60 68 78
59 67 78
56 64 74
55 62 72
60 68 79
63 72 83
64 72 84
63 72 83
61 69 80
59 67 77
61 70 81
60 67 77
55 63 73
51 58 68
48 54 63
47 54 62
43 49 57
37 42 49
34 39 45
40 46 53
46 52 60
46 52 60
47 54 62
52 59 69
53 60 70
55 63 72
58 66 76
60 68 79
61 69 80
64 73 85
63 72 83
64 72 83
60 68 79
55 62 72
51 58 67
46 52 60
46 52 60
42 48 56
41 47 54
31 35 40
23 26 30
14 16 18
21 24 28
31 35 40
31 36 41
34 38 44
28 33 38
27 31 36
33 38 44
40 45 52
44 50 57
46 52 61
52 59 68
57 65 75
58 66 77
57 65 76
60 69 79
62 70 81
61 69 80
58 66 76
55 63 73
56 64 74
63 71 82
61 70 81
56 64 74
53 60 69
50 56 65
45 51 59
37 43 49
21 24 27
26 30 35
36 41 48
43 49 56
46 52 60
46 52 60
48 55 64
48 55 64
51 58 67
53 61 71
54 61 71
57 64 74
61 70 80
62 70 81
66 75 87
70 79 91
71 80 93
74 84 97
76 87 101
80 90 104
86 98 113
89 101 117
92 105 121
91 104 120
91 104 120
92 104 120
88 100 116
87 98 114
87 99 115
88 101 117
91 103 119
91 103 120
93 106 123
98 111 128
102 115 133
102 116 133
104 117 136
106 121 139
108 122 142
111 126 146
112 128 149
112 128 149
113 129 149
110 125 145
110 125 145
107 121 140
104 118 137
103 117 135
101 115 133
103 117 135
100 114 133
100 114 132
97 111 128
96 109 126
95 108 125
95 108 125
94 106 123
91 104 120
86 98 113
81 92 107
77 87 101
72 82 95
66 75 88
63 72 83
61 69 80
55 63 73
52 59 68
48 55 63
48 54 63
45 52 60
44 50 58
43 49 57
45 51 59
45 52 60
46 52 60
43 50 58
39 44 51
29 33 39
22 25 29
16 19 22
20 22 26
21 24 28
26 30 35
29 33 39
34 38 44
33 38 44
36 41 47
32 36 42
23 26 30
14 16 19
27 31 36
35 40 47
38 43 50
37 42 49
34 39 45
36 41 47
39 45 51
42 47 55
44 50 58
48 55 63
50 57 66
49 56 64
47 54 62
48 55 63
52 59 68
54 61 71
57 65 75
56 64 74
54 61 70
50 57 65
48 54 63
48 55 64
52 59 68
52 59 69
52 59 68
53 60 70
55 63 73
57 65 75
59 67 77
59 68 78
60 68 79
56 64 74
54 61 71
50 57 66
44 51 59
30 34 40
21 24 27
24 27 32
32 36 42
38 43 50
40 45 53
42 47 54
39 44 51
37 43 49
39 45 52
33 38 43
25 29 33
24 27 32
24 27 31
25 29 33
26 29 34
23 26 31
24 28 32
21 24 28
25 28 32
27 30 35
31 35 41
37 43 50
43 49 57
50 57 66
57 65 75
59 67 78
64 73 84
70 80 93
77 87 101
81 91 106
86 97 113
90 102 118
90 103 119
93 105 121
90 103 119
92 105 121
92 105 122
95 108 126
96 109 127
100 114 132
102 116 134
108 122 140
110 125 144
115 130 150
113 129 149
114 129 149
115 131 151
117 133 154
115 131 153
113 129 148
113 129 149
112 128 148
111 126 145
107 122 141
103 117 136
98 111 129
96 108 125
90 102 118
86 98 113
82 94 109
76 86 100
69 78 91
64 72 84
59 67 78
54 61 71
48 55 63
42 47 55
29 33 38
16 18 21
23 26 30
28 31 36
27 31 36
24 28 32
14 16 19
19 21 24
24 27 32
28 32 37
30 34 39
31 36 41
28 32 37
29 33 38
30 34 39
34 38 44
39 45 52
45 50 58
49 56 64
48 55 64
50 56 65
50 57 66
50 57 66
51 58 67
50 56 65
52 58 67
54 62 71
53 61 70
54 61 70
57 64 74
58 66 76
58 66 76
62 70 81
68 77 89
73 83 95
73 83 96
73 83 96
77 87 101
80 91 105
83 94 109
88 100 115
93 105 121
92 104 121
94 107 124
93 105 122
93 106 122
92 105 121
92 104 121
91 103 119
93 106 123
94 107 123
96 109 126
96 109 126
94 108 125
93 106 122
89 101 117
86 97 113
84 95 110
81 92 107
75 85 99
66 75 87
56 64 74
46 52 60
32 36 42
16 18 21
17 20 23
27 31 36
32 37 43
34 38 44
39 44 51
48 55 63
56 64 74
59 68 79
66 75 86
70 80 92
72 81 94
73 82 95
75 85 98
76 87 101
80 91 105
82 93 107
84 95 110
87 100 116
90 102 118
93 105 122
96 109 126
94 107 124
91 104 121
90 102 117
88 100 116
87 99 115
86 99 114
87 99 114
85 96 112
85 96 112
84 95 110
86 98 113
89 101 117
92 105 120
92 104 121
91 104 120
89 101 118
84 96 111
84 95 110
82 93 107
79 89 102
75 85 98
72 81 94
73 83 96
73 83 96
72 82 94
73 82 95
73 83 95
76 86 99
79 89 103
80 91 106
83 95 110
86 98 113
88 100 116
88 100 115
87 98 114
89 101 117
90 103 119
90 102 118
88 100 116
87 99 114
87 99 115
87 99 115
91 103 118
93 105 121
94 106 123
91 103 120
90 102 118
89 102 118
87 99 115
85 96 111
81 93 107
80 91 105
82 92 106
82 93 107
81 93 107
79 90 104
79 90 104
78 89 103
78 89 102
79 90 104
78 89 104
78 89 103
79 90 105
75 86 99
75 85 98
74 84 97
72 82 95
68 77 89
60 69 80
57 65 75
61 69 80
61 70 81
61 69 80
62 70 81
65 74 86
74 84 98
76 86 100
75 85 98
74 84 97
71 81 93
70 80 93
71 80 93
72 81 94
70 80 93
72 82 95
75 85 99
76 86 100
75 86 99
73 83 95
71 81 94
67 76 88
60 68 78
55 63 72
46 52 60
34 39 45
26 30 35
29 33 38
27 30 35
26 29 34
31 36 41
39 44 51
42 48 56
43 49 57
45 52 60
51 58 67
54 61 71
55 62 71
57 65 74
57 65 75
56 64 74
57 65 75
58 66 76
57 65 75
58 66 76
55 63 73
51 58 67
46 52 60
43 48 56
33 37 43
21 24 28
20 23 26
23 26 30
27 31 36
27 31 36
25 29 33
27 31 35
28 32 38
27 31 35
27 30 35
29 32 37
23 26 31
26 29 34
27 31 36
29 32 38
28 32 37
34 39 45
41 47 54
45 52 60
50 57 66
55 62 73
63 72 83
66 75 86
65 74 86
65 73 85
66 75 86
71 80 93
73 83 96
78 88 102
85 97 112
89 101 117
90 102 119
91 104 120
91 104 120
95 107 123
98 112 129
100 113 131
101 115 132
104 118 137
104 118 136
104 118 136
109 123 141
105 120 138
107 121 141
107 122 141
107 121 140
104 118 137
103 117 135
100 113 131
98 111 129
95 108 125
96 108 125
92 104 121
91 103 119
87 98 113
86 97 111
83 95 111
82 93 107
81 91 106
78 88 102
72 82 95
63 72 84
56 63 73
52 59 69
47 53 61
39 44 51
35 40 46
32 36 42
34 38 44
39 44 50
39 44 51
38 43 50
38 43 50
36 40 47
31 35 41
30 35 40
30 34 40
27 31 36
21 24 28
16 18 21
16 18 21
22 25 29
30 34 39
38 43 50
44 50 57
49 55 64
49 56 65
48 55 63
43 49 57
35 40 46
27 30 35
22 25 29
27 30 35
29 33 38
26 30 34
22 25 29
17 20 23
18 20 24
27 30 35
32 36 42
34 39 45
35 40 47
34 39 45
36 40 47
37 42 48
37 42 49
40 46 53
43 50 58
45 52 60
46 53 61
45 51 59
44 50 57
44 50 58
47 53 62
50 56 65
52 59 69
52 59 67
50 56 65
48 55 63
46 53 61
51 57 66
50 57 66
49 55 64
44 50 57
34 39 45
28 32 36
24 27 31
18 21 24
20 23 26
27 30 35
31 35 41
32 36 42
32 36 42
33 38 44
34 39 45
33 37 43
32 37 42
31 35 40
29 33 39
30 34 39
27 30 35
27 31 36
35 40 46
36 41 48
35 40 47
37 42 49
35 40 46
37 43 49
39 44 51
32 36 42
28 32 37
30 34 40
36 41 48
44 49 57
50 57 65
57 65 75
66 75 87
72 82 95
77 87 101
80 90 105
83 94 108
80 91 105
80 91 105
84 95 109
87 98 113
85 97 113
89 101 116
92 104 120
99 112 129
100 114 133
105 119 138
107 121 140
107 122 141
111 126 146
108 123 142
107 122 141
106 120 139
107 122 141
105 119 138
102 116 134
97 110 128
95 108 125
95 107 123
89 102 118
88 100 116
84 96 111
82 93 108
79 90 104
77 87 101
72 82 96
68 78 90
65 74 85
60 68 78
52 59 69
46 52 60
37 42 48
31 35 41
30 35 40
35 40 46
40 46 53
39 44 51
29 33 38
21 24 27
24 27 32
34 39 45
41 47 54
43 50 58
44 50 59
46 52 61
50 56 65
53 61 70
54 62 72
57 65 76
56 63 73
49 56 65
43 49 56
42 47 55
42 48 55
42 47 55
44 49 57
44 50 58
45 51 59
42 48 55
45 51 60
50 57 66
57 65 75
66 75 86
76 86 100
83 94 109
87 99 114
89 101 117
89 101 117
89 102 118
88 100 116
90 102 117
94 106 123
98 111 128
102 116 133
102 116 134
103 117 135
102 116 134
99 112 130
100 114 132
103 118 136
103 117 135
106 120 139
104 119 138
103 117 136
102 116 134
102 116 133
98 111 129
93 106 123
93 105 121
87 99 115
82 93 108
73 83 96
66 75 87
57 65 76
46 53 61
40 46 53
36 41 48
32 36 42
27 30 35
28 32 37
46 52 60
56 65 75
64 72 83
66 75 87
68 77 89
69 78 91
70 80 93
72 81 94
75 85 99
80 91 105
82 93 108
86 98 112
89 101 116
88 100 116
91 103 120
90 103 119
90 102 117
87 99 115
88 100 115
90 102 117
88 99 114
87 99 114
88 99 115
87 99 114
90 103 119
91 103 119
90 103 119
93 106 123
95 107 124
94 107 123
92 105 122
90 102 118
88 100 116
84 95 110
79 90 104
75 85 98
71 81 93
69 78 90
68 78 90
66 76 87
68 77 89
70 79 92
73 82 95
75 86 99
79 90 104
81 92 106
82 94 109
85 96 111
86 97 112
87 98 113
88 100 116
88 100 116
91 103 119
87 98 114
89 102 118
90 102 118
90 103 119
90 102 118
92 104 120
93 105 121
94 108 125
97 110 127
102 116 134
102 116 135
102 117 136
102 116 134
101 114 132
100 113 131
100 114 133
99 113 131
100 113 131
99 112 130
99 112 130
95 107 124
92 104 120
89 101 117
91 103 118
91 103 119
91 103 120
91 104 120
90 102 117
88 100 116
91 103 120
90 102 117
88 100 116
87 99 115
86 98 113
83 94 109
83 95 109
79 90 105
80 91 105
80 92 106
85 96 111
85 97 112
87 99 115
88 100 116
87 99 115
85 97 112
82 93 107
78 88 102
77 87 101
76 87 100
77 87 101
79 90 104
82 93 107
81 92 106
80 91 106
79 90 104
76 86 100
71 81 94
67 76 88
62 71 82
56 63 72
48 54 62
41 47 54
33 37 43
20 22 26
18 20 24
24 27 31
32 36 42
40 45 53
40 45 53
34 38 44
33 37 43
39 44 51
42 47 55
44 50 58
45 52 60
51 58 68
53 60 70
52 59 68
44 50 58
35 40 46
24 27 32
19 22 25
19 22 25
20 22 26
19 22 25
17 19 22
23 26 30
31 36 41
37 42 49
44 50 57
42 48 55
42 47 54
46 52 60
47 54 62
47 54 63
49 56 64
50 56 65
46 52 60
35 40 46
21 24 28
20 23 27
32 36 42
36 41 48
42 48 56
45 51 60
47 54 62
49 56 64
51 58 68
58 66 76
63 71 82
67 76 88
72 82 95
75 86 100
80 90 105
85 96 111
90 102 118
94 107 124
99 113 130
104 117 135
104 117 135
104 118 137
104 118 137
102 116 134
100 113 130
99 112 130
101 114 132
101 115 133
100 113 131
100 114 131
101 114 132
97 110 127
95 108 125
94 106 122
90 102 118
87 99 115
83 94 108
82 93 107
77 88 102
75 86 99
70 79 91
63 71 83
53 60 69
42 48 56
38 42 49
32 36 42
28 32 37
28 32 37
32 37 42
34 38 44
37 43 49
39 44 51
40 45 53
37 42 49
34 38 44
32 36 42
29 32 37
29 33 38
28 32 37
26 29 34
30 34 39
37 42 48
39 44 51
41 47 54
45 51 59
50 57 65
52 59 69
53 61 71
54 61 71
49 56 65
41 47 54
33 37 43
29 32 38
29 33 39
33 38 44
39 44 51
45 51 59
47 53 62
46 52 60
46 52 60
43 49 56
44 50 58
44 50 58
46 52 60
39 44 51
30 35 40
25 29 34
25 28 33
30 34 39
35 39 45
35 40 46
35 40 47
38 42 49
36 41 48
32 37 43
26 29 34
22 25 29
28 32 37
30 34 39
30 35 40
30 34 40
31 35 40
26 30 35
24 28 32
26 29 34
29 33 38
28 31 36
24 27 31
20 23 27
26 29 34
33 38 44
39 44 51
45 51 59
48 54 62
50 57 66
51 58 67
45 52 60
43 49 57
42 47 54
40 46 52
37 42 49
36 41 47
32 37 43
31 35 41
29 33 39
27 31 36
32 36 42
36 41 47
40 45 53
46 52 59
47 53 62
46 53 61
47 54 62
43 49 56
34 38 44
27 31 35
18 20 23
28 32 37
34 39 45
40 45 52
46 53 61
52 59 68
58 66 76
58 66 76
63 72 83
69 79 91
76 87 101
82 94 109
86 98 113
89 101 117
96 109 126
99 112 129
97 111 130
101 114 131
104 118 136
103 117 135
104 117 136
102 116 135
103 117 136
104 118 137
104 118 136
100 113 131
96 109 126
95 107 124
91 102 118
86 99 114
86 97 113
85 97 112
85 97 112
83 94 108
80 91 106
81 92 107
80 91 105
78 89 102
74 84 97
68 77 89
62 71 82
60 68 79
54 62 72
55 63 72
56 64 74
58 65 75
55 63 73
56 63 73
54 61 71
47 54 62
36 41 47
25 28 33
21 24 28
27 31 35
37 42 49
46 52 60
53 60 69
59 67 77
63 72 83
66 75 87
65 74 85
60 69 80
57 66 76
53 61 70
50 57 66
47 54 62
47 54 62
46 53 61
45 52 60
43 49 57
42 47 55
46 52 60
52 59 68
59 67 78
64 73 84
71 81 93
76 86 100
83 94 108
85 97 112
89 101 117
90 102 117
88 99 115
89 101 116
90 103 120
94 107 124
98 112 130
100 114 132
104 118 136
106 120 138
105 120 138
108 123 142
110 125 144
111 126 145
109 124 144
111 126 145
109 123 143
109 124 143
106 121 140
101 115 133
102 116 134
97 112 130
94 107 124
91 103 119
85 96 111
80 90 104
72 82 94
65 74 86
61 69 80
61 69 80
55 63 73
47 53 61
37 43 49
28 31 36
30 34 39
36 41 48
42 48 56
53 61 70
62 70 81
66 76 88
73 83 97
77 87 100
79 90 105
83 94 109
84 96 111
85 96 111
83 94 109
80 91 106
83 94 109
84 95 109
84 95 110
85 96 112
85 97 112
84 96 111
83 94 108
84 96 110
84 96 111
88 99 115
89 100 116
92 105 122
91 104 120
94 108 125
92 104 121
91 104 120
91 103 120
88 100 115
84 95 110
78 89 103
76 87 101
76 86 100
76 87 101
75 85 98
77 88 102
77 87 101
75 85 99
74 84 97
73 83 95
74 84 97
77 88 101
81 91 106
83 94 108
86 98 112
88 100 116
91 104 120
92 104 119
89 101 116
88 100 116
91 103 119
92 104 120
94 106 123
95 109 127
99 112 129
103 116 134
106 120 139
108 123 142
109 124 144
113 128 149
111 126 146
111 126 145
109 124 144
111 125 145
110 125 144
109 124 144
110 125 144
110 125 145
109 124 143
107 121 140
103 117 135
100 113 131
98 111 128
98 111 129
97 110 127
93 106 123
91 103 120
92 104 120
92 104 120
92 104 121
93 105 121
91 104 120
91 103 119
88 100 116
87 99 115
87 99 115
90 102 118
92 105 122
96 110 127
96 109 126
94 107 123
91 104 120
88 100 115
87 99 114
82 93 108
81 93 107
82 94 109
82 93 107
83 94 108
82 93 108
82 93 108
82 93 108
80 92 106
81 92 107
83 94 108
78 88 102
76 86 99
72 81 94
65 74 86
56 63 73
47 54 63
37 41 48
24 28 32
17 20 23
18 20 23
21 23 27
21 24 28
22 25 29
25 28 33
28 31 36
26 30 34
25 28 32
23 27 31
26 30 35
31 36 42
33 37 42
32 37 43
24 28 32
19 22 25
18 20 23
16 18 21
11 13 15
21 24 27
29 33 38
33 38 44
39 44 51
43 48 56
47 53 61
49 56 65
49 56 65
48 55 64
49 56 64
51 58 66
53 60 69
52 59 68
51 58 66
45 51 59
37 42 49
29 33 38
21 24 27
20 22 26
19 22 25
16 18 21
17 20 23
30 34 40
38 44 51
48 55 64
55 62 71
60 69 79
66 75 86
70 80 92
75 86 100
79 90 104
86 98 113
92 104 120
96 109 125
98 112 129
97 111 128
97 111 129
99 112 129
100 114 132
103 117 135
107 121 140
106 121 140
109 123 142
104 118 137
101 115 133
98 112 130
94 107 124
91 104 120
88 100 116
84 96 111
85 96 111
82 93 108
78 88 103
73 83 97
69 78 90
59 67 77
52 60 69
41 46 54
30 33 39
19 22 25
33 37 43
41 46 54
48 55 63
50 57 66
53 60 69
59 67 77
61 69 80
63 72 83
63 72 83
62 71 83
61 69 80
60 68 79
57 65 74
56 64 74
61 69 80
62 70 82
65 74 85
67 75 87
71 81 93
74 84 97
72 82 95
72 82 95
71 80 93
64 73 85
60 68 79
56 63 73
51 58 67
47 54 62
48 55 64
50 57 66
53 60 69
57 64 75
57 64 74
57 65 75
58 67 77
62 70 80
65 74 85
68 78 90
73 82 95
71 81 93
68 77 89
60 69 79
58 66 76
50 57 66
43 49 57
37 42 48
29 33 38
23 26 31
23 26 30
26 29 34
28 32 37
32 37 43
39 44 51
44 50 58
48 55 64
54 61 71
57 65 75
60 67 78
55 62 72
53 59 68
49 56 65
52 59 68
49 55 64
47 54 62
47 54 62
54 61 71
56 64 74
61 69 80
63 71 83
65 74 85
65 74 85
65 74 86
61 69 80
60 68 78
56 64 74
52 59 68
49 56 64
48 54 63
46 53 61
41 47 54
40 46 53
40 45 52
40 45 53
43 49 56
43 49 57
43 49 56
42 48 55
38 43 50
36 41 48
32 36 42
21 24 28
14 16 19
19 22 25
28 31 36
30 34 40
33 38 43
39 44 51
44 50 57
51 58 67
58 66 76
60 68 79
65 74 86
71 80 92
76 86 100
84 95 109
87 99 115
92 105 122
96 109 126
99 113 130
100 114 132
102 116 135
103 117 134
102 115 133
100 114 131
99 113 130
96 109 127
97 109 126
95 108 125
92 104 121
90 102 118
89 100 115
89 101 117
89 101 117
90 102 118
90 102 119
88 100 117
88 100 116
86 97 112
84 96 111
83 95 109
81 92 106
80 91 104
76 87 100
75 85 98
76 86 100
76 87 101
74 84 97
70 80 92
64 72 84
58 66 77
57 64 74
53 60 70
49 56 65
44 50 58
38 43 49
29 32 38
15 17 20
16 18 21
28 31 36
35 40 46
37 42 49
37 42 48
37 43 49
40 45 53
41 47 54
41 47 54
44 50 58
48 54 63
50 57 66
49 56 65
48 54 63
46 53 61
45 52 60
50 56 65
55 63 73
65 74 85
72 81 94
77 87 100
78 89 103
79 90 104
78 89 103
80 91 104
79 90 104
79 90 103
79 90 104
81 92 107
86 98 113
91 103 119
97 110 127
101 115 133
107 121 139
111 125 145
112 128 147
114 130 151
116 132 152
114 129 149
112 127 148
114 129 148
113 129 149
114 129 149
110 125 145
109 124 143
108 123 142
105 120 139
101 115 134
97 111 128
98 111 128
94 106 123
89 101 117
87 99 113
81 93 108
78 89 103
72 82 95
69 78 90
65 74 86
61 70 81
54 61 70
45 52 60
37 43 49
34 38 45
38 43 50
44 50 58
56 63 73
62 71 82
64 73 85
72 81 94
71 81 94
74 84 97
77 87 101
81 91 106
82 93 107
82 93 107
80 90 105
80 90 103
79 90 104
81 91 105
83 94 109
86 98 113
88 99 115
90 101 117
85 97 112
85 96 111
83 95 110
84 95 110
83 94 109
81 92 106
77 88 102
79 90 104
79 90 104
80 92 107
80 91 105
82 93 107
82 93 108
83 94 109
85 96 110
84 95 111
83 94 109
82 93 108
81 92 106
81 92 106
82 94 108
83 93 108
81 92 107
84 95 110
84 95 110
85 96 111
86 98 113
89 102 118
93 105 122
96 110 127
100 113 131
102 116 134
103 116 134
105 120 139
110 125 144
113 128 148
115 131 151
116 131 151
116 132 152
116 131 151
112 128 148
115 131 151
117 132 152
116 132 153
116 133 154
118 134 156
117 133 154
114 129 150
113 128 148
109 125 144
109 124 143
107 121 141
102 116 135
100 114 131
98 111 129
95 107 124
91 104 120
89 101 117
88 100 116
90 102 117
86 98 114
84 96 112
85 96 111
85 96 111
88 100 115
91 104 120
93 105 121
95 107 124
94 107 123
93 106 123
93 105 121
88 101 117
88 100 116
86 98 114
87 99 114
85 96 111
83 94 109
81 92 106
79 90 104
77 88 103
77 87 100
77 87 101
78 88 102
78 88 101
77 88 101
75 85 99
69 78 91
62 71 82
54 62 72
48 55 64
44 50 58
37 42 49
36 41 47
39 44 51
42 47 55
42 48 56
46 53 61
47 53 61
47 53 61
48 55 63
48 55 64
46 52 60
39 44 51
33 37 43
29 33 38
39 45 52
36 40 47
29 33 38
18 20 23
14 16 19
22 25 29
26 30 34
33 37 43
36 41 47
36 41 47
35 39 45
34 39 45
38 43 50
41 47 55
41 47 54
40 46 53
41 46 54
41 46 53
41 46 54
40 45 52
36 40 47
32 37 43
29 33 38
23 26 30
16 18 21
15 17 20
26 29 34
34 39 45
44 50 57
53 60 70
59 67 77
63 72 83
71 80 93
75 86 99
81 92 107
85 96 112
90 102 119
94 106 123
95 108 125
94 107 124
93 106 123
94 107 123
95 108 125
98 111 129
99 112 130
100 114 132
100 113 131
98 112 129
99 112 130
97 110 127
96 110 127
94 107 124
91 104 120
86 98 113
82 94 108
77 88 102
68 77 89
58 66 76
48 54 63
38 43 50
28 31 36
23 26 30
33 37 43
37 42 48
44 50 57
49 56 64
55 62 72
59 67 78
65 74 85
70 79 91
75 84 97
76 86 99
78 88 103
79 89 103
82 93 107
81 91 106
82 93 107
83 94 109
85 96 110
82 93 107
80 92 106
82 93 108
84 95 110
83 95 111
83 94 109
80 91 105
76 86 100
73 83 96
73 83 96
73 84 97
76 86 99
77 88 101
75 85 98
72 82 95
70 79 92
65 74 85
63 71 83
63 72 83
63 72 84
64 72 84
66 74 86
68 77 88
69 78 90
71 80 93
72 82 95
74 84 98
73 83 96
74 84 97
70 79 92
63 72 83
59 67 78
57 65 75
53 61 70
52 59 68
50 57 66
54 62 71
60 68 78
63 72 83
71 81 93
72 82 96
72 82 95
71 80 93
70 79 91
69 78 90
66 75 87
68 77 89
68 77 89
69 79 91
70 80 92
73 83 96
75 85 97
74 84 97
74 83 96
72 82 95
70 79 92
67 76 88
66 76 88
66 74 86
64 72 83
61 69 79
58 66 77
53 60 70
50 57 66
46 53 61
46 52 61
45 51 59
44 50 58
42 48 55
42 48 55
41 47 55
38 43 49
35 40 46
32 36 42
21 24 29
17 19 23
21 24 28
24 27 31
27 30 35
29 33 39
28 32 37
28 32 37
37 42 49
47 53 61
49 55 64
52 59 69
56 63 73
58 66 77
64 72 84
70 80 92
75 85 98
80 91 105
83 94 109
86 97 112
87 99 114
91 103 118
93 106 122
96 109 126
95 108 125
96 109 126
97 110 127
97 110 127
95 107 124
92 104 121
91 104 121
92 103 119
89 101 116
87 99 114
87 99 115
87 99 115
87 99 115
87 99 114
85 97 112
83 94 109
82 93 108
81 91 106
78 89 102
74 84 97
73 83 96
73 82 95
70 81 94
72 83 96
72 82 95
71 80 93
69 78 91
66 76 87
63 71 83
56 64 75
51 59 68
47 54 62
41 46 53
36 41 47
31 35 41
32 36 42
32 37 43
31 36 41
32 37 42
26 29 34
26 30 35
30 34 39
34 38 44
27 31 35
25 29 34
27 31 36
28 31 36
35 40 47
39 45 52
45 52 60
51 58 68
58 65 75
64 72 84
68 77 90
70 79 92
69 78 91
65 75 86
64 73 85
63 72 83
66 75 87
72 82 95
76 86 100
82 93 107
82 94 109
87 99 114
89 101 117
92 104 120
93 106 123
99 112 129
103 118 137
107 122 141
110 125 144
109 125 145
112 127 147
112 127 147
111 126 145
112 128 148
111 126 145
108 123 143
113 128 148
114 128 148
110 125 144
109 124 143
110 125 144
107 122 142
105 120 139
105 119 137
99 113 130
101 114 132
98 111 129
92 105 122
92 105 122
90 103 119
87 99 114
85 95 110
77 87 101
72 82 95
63 72 84
57 65 75
46 53 61
38 43 50
35 40 46
33 37 43
31 35 40
33 37 43
41 47 55
51 58 67
63 71 83
70 80 92
73 82 95
74 84 97
73 82 95
76 86 100
81 91 106
84 95 110
85 97 112
84 96 111
81 93 108
81 92 106
77 87 102
76 86 99
75 85 98
75 85 99
76 86 99
79 89 102
79 90 105
80 90 104
77 88 101
77 88 102
79 90 104
79 90 105
80 91 105
80 91 106
80 91 106
82 94 109
83 94 108
81 92 107
83 94 108
82 93 108
82 93 108
82 94 109
83 95 110
85 97 113
87 99 115
89 101 117
91 103 120
94 107 123
98 111 128
99 112 130
103 117 134
107 121 139
109 124 142
110 125 145
114 129 149
115 130 150
117 133 154
117 133 153
117 134 155
119 134 155
117 133 153
119 135 156
122 137 158
117 134 155
116 131 152
116 131 152
116 131 151
114 129 149
115 130 151
113 128 149
111 126 146
112 127 147
109 124 143
103 118 136
100 113 131
94 107 124
91 103 120
91 103 119
89 100 116
88 99 115
89 100 115
88 100 116
87 98 114
85 96 110
81 92 106
79 90 104
79 90 104
78 89 103
80 91 105
81 92 107
84 96 111
85 97 113
88 100 115
87 99 114
87 98 113
85 97 112
83 94 109
79 90 104
79 90 104
82 93 108
83 94 109
85 97 111
83 93 108
83 94 109
79 89 103
72 83 96
68 78 90
65 74 86
59 67 78
53 61 70
47 54 62
47 53 62
50 57 66
50 57 66
48 55 63
49 56 64
52 59 69
51 58 67
51 58 67
52 59 69
52 59 68
51 58 67
50 57 66
47 53 61
42 48 56
37 42 48
32 37 42
29 33 38
19 21 25
12 13 16
17 20 23
20 23 26
22 25 29
20 23 27
19 22 25
25 29 33
27 31 36
29 33 38
31 35 40
25 28 33
23 26 30
24 28 32
29 33 39
34 39 46
34 39 45
29 33 39
28 32 37
26 29 34
28 32 37
36 40 47
40 45 52
46 52 60
52 58 67
57 64 74
62 70 81
67 76 87
72 81 94
76 86 99
80 90 103
84 95 110
85 97 112
87 98 114
88 100 116
89 102 118
91 103 119
90 103 119
90 102 117
88 100 116
89 100 115
88 100 115
86 97 111
86 97 113
87 99 115
87 99 114
87 99 114
86 98 114
78 89 103
75 85 98
70 79 92
64 72 84
55 63 73
48 55 63
39 44 51
23 26 30
19 22 26
33 38 44
40 45 52
44 50 57
53 60 69
61 70 81
68 78 90
74 84 97
81 92 106
83 94 108
82 94 108
85 96 112
83 95 110
86 98 113
88 99 115
90 102 118
91 104 120
93 105 122
91 104 121
88 101 117
89 101 117
88 100 116
86 97 113
86 98 113
85 97 113
85 97 112
85 96 111
83 94 109
85 96 111
84 96 110
82 93 108
81 92 106
80 91 105
78 89 103
75 85 98
72 82 94
72 82 94
74 84 97
74 84 97
73 83 96
75 85 98
78 89 103
80 91 105
82 92 107
84 95 110
83 94 109
82 94 109
81 92 107
81 92 107
80 91 105
79 90 105
79 89 103
75 85 99
75 85 99
78 88 102
79 90 104
81 92 106
83 95 110
80 92 106
80 90 105
78 88 102
79 90 103
79 89 103
79 89 104
81 92 107
83 95 110
83 95 110
86 98 114
86 98 113
85 96 111
82 94 109
81 92 107
80 91 105
79 89 102
76 86 99
76 86 99
74 84 97
72 82 95
71 80 93
68 77 89
66 75 87
64 72 83
58 66 76
57 65 75
56 64 74
56 64 74
53 60 70
52 59 68
50 57 66
47 53 62
40 46 53
36 42 48
32 36 42
25 28 33
21 24 28
25 28 33
27 30 35
20 23 27
17 19 22
24 28 32
30 34 39
34 39 45
39 45 52
47 53 61
53 61 70
57 65 75
59 67 77
65 74 85
71 81 94
75 86 99
78 88 102
79 90 104
79 89 103
78 89 102
79 90 104
79 90 104
80 92 107
82 94 108
82 93 108
81 92 107
83 95 110
84 96 111
82 94 109
85 96 111
84 96 110
83 95 109
83 94 109
84 95 110
84 95 110
81 93 107
81 92 106
79 89 104
77 87 101
72 82 95
68 77 89
63 72 83
58 66 77
57 65 75
57 65 76
59 68 78
62 70 82
63 72 83
64 73 85
63 71 82
58 66 77
56 64 74
55 62 72
52 60 69
49 56 64
49 55 64
49 56 64
53 60 69
57 65 76
57 64 74
57 64 74
57 65 75
56 63 73
54 61 71
53 61 70
55 63 73
53 60 70
52 59 68
46 53 61
43 48 56
37 41 48
29 33 38
25 28 33
32 36 41
43 48 56
49 55 64
51 58 67
53 60 70
50 57 66
53 61 70
57 65 75
62 70 81
68 77 89
74 84 97
78 88 102
78 89 104
81 93 108
88 99 114
90 102 118
96 108 125
98 112 129
103 117 135
107 121 140
107 122 141
110 124 143
112 127 147
114 129 149
113 128 148
112 127 147
111 126 146
112 127 147
114 129 149
115 130 150
114 129 150
115 131 152
119 134 154
116 133 154
117 132 153
119 135 155
120 135 156
117 133 153
113 129 150
114 130 150
111 126 146
111 126 145
106 120 139
103 117 136
97 110 127
95 108 125
90 102 117
79 90 104
75 85 99
75 84 97
69 79 92
68 77 89
63 71 83
58 66 76
52 59 69
45 51 58
38 43 50
34 39 45
35 40 46
34 38 44
45 51 59
57 64 74
62 71 82
70 79 91
74 84 97
77 88 102
78 88 102
79 89 103
78 89 103
77 87 100
74 84 97
75 85 99
76 87 101
78 89 103
79 89 103
80 91 106
80 91 106
77 88 102
76 86 99
77 87 101
77 87 101
78 89 103
78 89 103
80 91 104
81 92 107
82 94 109
83 95 109
82 92 106
81 93 108
81 92 106
81 92 107
82 93 107
84 95 110
87 99 114
92 104 119
94 107 124
95 108 126
96 109 127
99 112 129
101 115 134
104 118 136
105 119 138
107 123 143
110 124 143
111 126 146
110 126 146
114 129 149
114 129 149
115 130 150
113 129 149
112 128 148
113 128 148
110 125 144
109 123 142
109 123 142
110 125 145
112 127 147
111 126 145
111 126 146
111 126 145
110 125 145
107 122 141
101 115 134
97 111 128
96 109 127
95 108 125
92 104 121
93 106 123
93 105 122
91 104 121
88 100 116
82 94 108
81 92 106
79 90 104
81 91 105
78 88 102
76 86 99
75 85 99
74 84 97
75 85 98
75 85 98
75 85 99
75 85 98
76 86 100
72 81 94
69 78 90
69 78 91
73 83 96
78 89 103
83 94 108
84 96 111
86 97 112
84 96 111
83 93 108
79 90 103
77 88 101
73 82 95
66 75 87
58 66 76
57 65 75
58 66 76
56 64 74
54 62 71
53 60 70
57 64 74
55 62 72
53 60 69
51 58 67
50 57 66
53 60 70
51 58 67
44 50 58
38 43 50
28 32 37
25 28 33
27 30 35
33 37 43
36 40 47
35 40 47
34 39 45
34 39 45
38 43 50
43 49 57
45 51 59
47 53 62
47 54 62
46 52 60
45 51 60
41 47 55
35 39 45
29 33 39
25 28 33
26 29 34
30 34 40
30 34 40
40 45 53
48 55 63
51 58 67
54 61 71
60 68 79
62 70 81
60 69 80
65 74 85
69 78 90
71 81 94
73 83 95
73 83 96
74 84 98
77 88 102
79 89 103
77 87 101
79 90 104
78 89 103
78 88 102
76 86 99
74 84 97
74 84 98
72 82 94
72 81 94
70 79 92
70 79 91
70 80 92
68 77 89
64 72 84
56 64 74
51 58 67
48 55 64
46 52 60
41 47 54
41 47 54
37 42 49
28 32 37
25 28 33
37 42 49
48 54 63
54 62 72
61 70 80
67 76 88
74 84 97
80 91 104
87 99 114
91 103 120
91 103 119
93 106 122
93 107 124
95 108 125
95 107 124
93 105 122
91 103 118
89 101 117
88 100 115
88 101 116
87 99 114
89 101 116
87 99 115
87 99 114
88 100 116
88 100 115
89 101 116
88 100 116
86 98 114
84 96 111
82 93 107
81 91 105
78 88 102
80 91 105
81 92 106
79 90 104
79 90 104
78 88 102
79 89 103
82 93 107
86 98 113
88 100 115
88 100 116
89 101 117
93 105 122
94 107 123
90 103 119
91 103 119
92 105 121
90 102 118
93 105 120
91 103 120
93 106 122
93 105 122
92 104 121
92 104 121
90 102 117
88 99 115
87 98 113
83 95 110
84 95 110
84 95 111
83 94 109
83 95 110
84 96 111
85 97 112
88 100 115
87 99 115
88 100 116
88 101 117
90 102 118
90 103 119
87 99 115
88 99 114
84 96 111
83 94 108
79 90 104
75 86 99
74 83 96
73 82 95
72 82 94
73 82 95
72 81 94
74 84 97
71 81 93
72 81 94
68 77 89
64 72 84
59 67 77
55 63 73
52 59 69
51 59 68
51 58 67
49 56 65
47 53 62
44 51 59
43 49 57
40 45 52
27 31 36
17 19 23
22 25 30
33 37 43
43 49 56
51 57 66
54 62 72
58 66 77
63 71 83
66 75 86
70 79 92
73 83 96
74 85 98
77 87 101
83 94 109
83 95 110
81 93 107
84 95 111
85 96 111
79 90 104
75 85 98
71 81 93
69 78 90
70 79 92
67 76 88
69 79 91
70 80 92
70 79 92
71 81 93
70 80 92
72 82 94
73 83 95
76 87 101
74 84 98
73 82 95
66 75 87
62 71 83
62 71 81
62 71 82
62 70 81
62 70 82
62 70 82
62 70 81
60 68 79
56 64 74
52 59 68
47 54 62
42 47 55
42 47 55
46 52 60
48 55 63
49 56 65
50 57 66
52 59 68
52 59 68
54 62 71
57 65 75
61 68 79
63 72 83
65 73 85
65 74 85
66 75 86
65 74 86
62 71 82
60 68 79
55 63 73
52 59 69
45 51 59
37 42 49
27 31 36
21 24 28
20 22 26
23 26 30
25 28 33
27 31 36
25 28 33
27 31 36
40 45 52
54 61 71
64 73 84
70 80 92
77 87 100
82 93 108
87 98 113
90 102 118
95 108 126
99 113 131
102 116 134
104 118 137
108 122 141
106 121 141
107 122 141
111 125 144
109 124 144
110 124 144
110 125 144
109 123 143
110 125 145
109 124 143
108 123 143
114 129 149
116 132 152
119 136 157
121 138 159
125 142 164
127 144 166
125 142 165
124 141 163
124 140 162
121 137 158
118 134 155
115 131 152
113 128 148
110 125 144
106 121 140
103 117 135
100 114 131
97 109 126
95 108 125
92 104 121
93 106 122
91 103 119
88 100 116
87 99 114
82 93 108
77 88 102
73 82 95
66 76 88
58 66 76
44 50 58
27 31 36
27 30 35
35 40 46
44 50 58
49 55 64
51 57 66
48 55 64
51 57 66
52 59 69
59 67 77
64 73 84
68 78 90
77 88 102
79 90 104
77 88 101
76 86 99
75 85 98
72 82 95
70 80 93
72 83 96
74 84 97
75 85 98
77 88 102
81 92 107
82 93 108
81 93 107
80 91 106
82 93 108
85 96 111
84 96 111
85 96 111
86 98 113
91 103 119
93 106 122
97 110 128
99 113 130
101 114 132
104 117 135
106 121 140
107 121 139
105 120 139
109 123 143
109 123 143
111 125 145
111 125 145
110 125 145
110 124 143
111 126 145
109 124 144
107 122 141
105 120 139
105 119 138
105 118 136
103 117 136
103 117 136
103 116 135
101 114 131
98 112 130
101 115 133
99 113 131
97 111 129
98 112 130
99 113 130
96 110 127
96 109 127
98 111 128
94 107 124
95 108 125
93 105 122
89 101 116
85 97 112
80 91 105
79 89 103
76 87 101
75 84 97
72 82 96
73 82 95
72 81 94
70 80 92
68 77 88
68 77 88
69 79 91
69 78 90
68 76 88
62 71 82
62 70 81
63 72 83
60 68 78
60 68 79
64 72 83
66 75 87
71 81 94
71 81 93
70 80 92
71 81 95
71 81 94
70 80 92
69 79 92
67 76 88
63 72 83
60 68 79
59 67 77
59 66 76
56 64 74
54 61 71
52 59 68
50 57 66
51 57 66
53 60 69
51 58 68
51 58 67
48 54 63
43 49 57
20 23 26
17 19 22
28 32 37
37 42 48
41 47 54
45 52 60
46 52 60
44 50 58
47 53 61
48 54 63
47 53 61
43 49 57
40 45 52
32 37 42
31 35 40
27 31 36
24 28 32
27 31 36
32 36 42
37 42 48
40 46 53
46 52 60
51 58 67
55 63 72
58 66 76
61 69 79
62 71 82
65 74 85
66 74 86
63 72 83
61 70 81
60 68 79
60 68 79
61 70 81
63 72 84
66 75 86
65 74 86
65 73 84
64 72 83
59 67 78
56 64 74
57 65 75
58 66 76
60 68 79
62 70 81
64 72 83
62 70 81
59 67 78
55 63 72
51 58 68
49 55 64
46 52 60
44 50 58
42 47 55
39 44 51
34 39 45
24 27 31
18 20 24
33 37 43
40 45 52
45 51 59
51 57 66
58 66 76
64 74 86
71 81 94
76 87 101
80 92 106
85 97 112
89 102 118
91 104 120
95 107 123
95 108 124
96 109 126
94 107 124
93 105 122
91 103 120
89 102 118
89 101 117
90 102 117
88 101 116
90 102 119
90 102 118
91 103 118
89 101 117
88 100 116
90 102 119
91 103 119
89 102 118
87 99 115
86 98 113
85 97 112
85 96 110
86 98 114
88 100 116
89 101 117
92 104 120
94 107 124
94 107 124
97 110 127
100 113 130
98 112 130
100 112 129
99 113 130
99 112 130
100 114 131
101 114 132
101 114 132
97 110 127
95 108 125
96 109 126
96 109 126
97 110 127
96 109 126
93 105 122
88 100 116
88 100 115
84 96 112
84 95 110
82 94 108
81 92 107
82 93 108
83 94 109
84 95 110
85 96 111
86 98 113
88 100 115
89 102 117
91 103 119
91 104 121
92 104 121
90 102 117
88 101 116
87 99 114
87 99 114
84 95 111
82 93 108
80 91 105
78 89 103
78 88 102
78 88 102
78 88 102
77 87 101
77 88 101
78 89 103
78 88 101
75 85 99
71 81 94
73 82 95
70 79 91
68 78 90
64 74 86
62 70 81
59 66 76
56 63 73
48 55 63
40 45 53
32 37 42
25 28 33
14 16 19
13 14 17
30 34 39
41 46 53
52 59 68
59 67 77
64 72 84
68 78 90
71 81 94
74 84 98
78 88 101
77 88 102
76 87 101
77 87 101
79 89 103
78 89 103
81 92 106
77 88 102
74 85 98
75 85 98
71 81 93
66 75 87
65 73 85
66 75 86
63 72 83
62 71 83
61 69 80
59 66 77
57 64 74
55 62 72
54 61 71
53 60 69
49 56 64
47 54 62
50 57 66
54 62 71
58 65 75
60 68 79
65 73 84
66 75 86
66 75 87
64 73 85
61 70 80
59 67 77
56 64 74
56 64 74
54 61 71
53 60 70
51 58 67
51 58 68
54 61 71
55 62 72
53 60 69
52 59 68
56 63 73
60 68 78
62 70 81
64 72 84
65 74 86
67 75 87
64 73 84
61 69 80
60 68 78
56 63 73
50 57 66
43 49 56
36 41 48
35 40 47
33 38 44
36 41 48
37 43 49
37 42 49
35 39 45
30 34 40
21 24 28
22 25 29
35 40 46
46 52 61
52 60 69
62 70 81
67 76 88
74 85 98
85 96 111
90 102 118
98 111 129
102 116 134
105 119 138
109 123 142
109 124 144
112 127 146
110 125 145
114 129 148
113 128 147
111 127 147
112 128 149
111 126 145
112 128 148
115 130 150
116 132 153
119 135 156
120 137 159
124 140 161
122 139 161
124 140 162
123 140 163
122 139 160
121 137 159
120 136 157
120 136 157
119 134 155
119 134 154
113 128 148
112 127 147
109 124 143
107 122 142
104 118 137
104 119 138
107 121 140
108 122 140
106 120 138
101 115 133
100 114 131
97 111 128
93 106 122
92 105 121
84 95 110
78 88 102
69 79 91
61 69 80
52 59 68
47 54 63
43 49 57
41 47 54
36 41 47
31 35 41
32 36 42
31 35 41
28 32 37
28 32 37
30 34 39
39 44 51
47 54 62
50 56 65
49 55 64
58 66 76
63 71 83
66 75 87
68 77 90
71 81 93
74 83 96
76 86 98
74 84 97
73 84 97
73 83 96
69 79 91
69 78 90
71 80 93
74 84 97
79 90 104
82 93 108
85 97 112
89 101 118
94 107 124
96 109 127
100 114 131
101 115 133
105 119 138
107 122 141
108 123 143
112 127 147
112 127 146
112 127 146
112 127 146
110 124 143
110 125 144
108 124 143
109 123 142
109 124 143
105 120 139
106 121 140
106 120 138
105 120 138
102 116 135
99 113 130
99 112 129
96 109 127
97 110 127
96 109 126
94 106 123
93 105 122
92 105 122
95 108 124
94 107 124
98 112 129
99 112 130
99 112 129
96 109 126
92 104 120
88 100 117
87 98 114
84 96 110
84 96 111
83 95 110
82 94 108
80 90 105
78 88 102
73 83 96
67 76 88
64 73 84
63 71 82
61 69 81
59 67 78
61 69 80
62 70 81
62 71 82
60 68 79
56 64 74
54 62 71
56 64 74
58 66 77
59 68 78
59 67 78
61 69 79
64 72 84
66 75 86
67 76 88
68 78 90
70 80 93
72 82 95
71 81 94
70 80 92
68 78 90
66 75 88
61 70 81
60 68 79
58 66 76
56 63 73
52 59 69
48 55 63
48 54 63
48 55 63
46 52 60
16 19 21
21 24 28
28 32 37
32 36 42
30 35 40
24 27 31
23 26 30
28 32 37
30 34 40
27 31 35
23 26 31
23 27 31
23 26 30
26 30 34
24 27 31
21 24 28
17 19 22
22 25 29
22 25 29
27 30 35
36 41 47
42 48 56
47 53 61
52 59 69
58 66 77
63 72 83
63 71 83
59 67 78
58 66 76
55 62 72
49 56 64
45 51 59
45 51 60
49 56 64
50 57 66
54 61 71
54 61 71
53 61 71
53 60 70
52 60 69
54 61 70
56 63 73
59 68 78
62 71 82
63 72 84
61 69 80
57 65 75
52 59 68
46 53 61
46 52 60
43 49 57
42 48 55
36 42 48
37 42 48
35 40 46
35 40 47
36 41 47
32 37 43
26 30 34
23 25 29
37 42 48
49 56 64
57 65 75
63 71 82
67 76 88
72 82 95
75 86 99
78 89 104
81 92 106
87 98 112
86 98 114
88 100 115
87 99 114
87 99 115
89 101 117
88 100 116
90 102 118
87 99 115
91 103 119
89 101 117
92 103 119
90 102 118
90 102 118
88 100 116
88 100 116
90 101 117
89 101 117
91 103 120
91 103 119
90 102 118
89 101 117
90 103 119
96 108 124
97 110 127
97 110 128
101 114 131
101 115 132
101 114 132
103 116 133
103 116 134
101 115 133
98 112 130
98 111 128
94 107 124
95 108 125
95 108 125
94 107 124
95 108 125
94 107 124
95 108 125
90 102 118
89 101 117
85 96 112
83 94 109
82 92 107
78 89 103
78 89 103
74 84 97
74 84 97
73 82 95
71 81 94
72 81 94
75 85 97
78 89 102
79 90 104
83 95 109
86 97 112
85 97 113
88 100 116
86 98 114
87 99 114
86 98 113
84 96 111
83 94 108
79 90 104
77 88 102
77 87 99
73 83 96
70 79 92
72 82 95
73 83 96
75 85 99
76 87 100
76 86 100
78 88 102
77 88 101
77 88 102
77 88 102
73 83 97
68 77 89
63 72 84
61 69 80
55 63 73
52 59 68
48 55 63
43 49 57
33 37 43
17 20 23
15 18 21
19 22 25
27 31 36
35 39 45
41 47 54
49 56 64
56 64 74
63 72 83
67 77 89
70 79 92
71 80 93
74 84 97
75 86 99
75 85 99
74 83 96
72 81 94
72 82 95
72 83 96
68 78 90
66 76 88
65 74 85
63 72 83
61 69 80
60 68 79
56 64 74
54 61 70
51 58 67
46 53 61
41 46 54
38 44 51
34 39 45
35 39 45
38 43 50
36 41 48
31 35 40
35 39 46
38 43 51
47 54 62
50 57 66
51 58 67
50 57 66
51 58 67
51 58 67
51 58 67
52 59 68
54 61 71
56 64 74
57 64 74
56 63 73
55 63 73
55 62 72
55 63 73
56 64 74
58 66 76
60 68 79
60 68 79
59 68 78
57 65 76
58 66 77
54 61 71
49 55 64
48 55 63
51 58 67
50 57 66
47 53 61
43 49 57
41 47 54
40 45 52
42 48 55
44 51 59
44 50 58
36 41 48
23 26 30
14 16 19
23 27 31
28 31 36
33 37 43
36 41 47
41 47 54
48 55 64
57 65 76
65 74 86
73 83 97
82 93 108
87 99 114
91 103 120
98 111 128
102 116 134
103 117 135
106 120 139
110 124 143
114 130 151
116 131 152
116 133 154
119 135 156
118 134 156
120 136 157
122 138 159
125 142 164
125 142 164
125 142 164
125 142 164
123 140 162
124 141 163
123 140 161
120 136 157
118 135 156
118 134 154
115 131 151
115 130 149
112 128 148
111 126 146
111 126 146
108 123 142
105 120 139
109 124 144
110 125 144
107 122 141
107 122 141
104 118 136
102 116 135
100 113 131
97 110 127
92 105 121
89 101 117
86 97 112
79 90 104
73 83 97
71 80 93
67 77 89
65 74 86
65 74 86
64 73 85
64 73 84
63 72 83
62 70 81
60 69 80
60 68 78
56 63 73
53 60 70
50 57 66
48 54 62
42 47 54
35 40 46
31 35 41
30 34 40
33 38 44
38 43 50
50 57 65
55 63 72
54 61 71
57 64 74
57 65 76
58 66 76
62 71 82
68 77 89
72 82 94
74 84 97
78 89 103
82 93 107
85 96 111
88 100 116
91 104 120
95 108 124
99 113 130
103 117 135
105 119 137
107 122 141
110 125 144
114 129 148
110 125 145
114 129 150
114 129 149
114 128 148
110 124 144
110 125 144
106 121 140
109 124 143
111 125 144
109 124 144
109 123 142
107 122 141
103 117 136
102 116 135
103 116 135
100 114 133
99 113 130
96 109 126
93 106 123
95 108 125
95 107 124
94 107 123
95 109 126
99 113 131
100 114 131
100 113 131
96 109 126
95 107 124
90 102 117
85 97 113
85 96 111
80 92 106
80 91 106
79 90 104
79 90 103
74 84 98
72 82 95
68 77 89
64 73 84
63 71 83
65 74 86
66 75 87
69 78 90
70 80 92
69 79 91
65 75 86
65 73 84
64 73 85
67 75 87
65 74 85
61 70 80
61 69 80
64 73 84
65 74 86
62 70 81
62 71 81
64 72 84
67 76 88
71 81 93
73 83 96
73 83 96
71 81 94
71 81 94
70 80 92
71 81 93
69 78 91
66 75 86
61 69 80
58 65 75
53 61 70
51 58 67
45 51 60
18 20 23
23 26 30
25 29 33
27 31 36
29 33 39
35 40 46
41 46 53
44 50 58
46 52 60
49 56 64
53 60 70
55 62 72
55 63 73
53 60 70
53 60 69
50 57 65
47 54 62
45 51 59
39 44 50
30 34 39
25 29 33
21 23 27
25 29 33
32 37 43
36 41 48
41 46 54
41 47 55
37 42 49
34 39 44
34 39 45
31 36 41
29 33 38
28 32 37
26 30 34
26 30 35
24 27 32
24 27 31
36 40 47
39 44 51
43 50 58
50 57 65
54 61 71
57 65 75
57 64 75
57 65 75
58 66 76
61 69 80
61 69 79
59 67 77
55 62 72
53 60 70
53 60 69
51 58 67
50 56 65
48 54 63
44 50 58
40 45 52
30 34 40
24 27 31
15 17 20
17 19 22
27 31 35
37 42 48
39 44 51
44 50 58
52 59 68
60 68 79
65 74 86
70 79 91
73 82 95
73 83 97
78 88 102
82 93 108
83 95 111
87 98 113
88 100 115
88 100 115
87 99 115
86 98 113
86 98 114
89 102 118
90 102 118
89 101 117
88 100 116
88 99 115
89 101 117
92 104 120
92 105 121
94 107 123
93 106 122
95 108 126
96 109 127
100 114 132
101 115 134
103 117 135
102 116 134
103 117 135
101 114 132
102 116 134
99 113 131
97 110 127
91 104 120
87 100 115
85 97 112
86 98 113
87 99 114
88 100 116
86 98 113
82 93 108
79 90 104
78 89 103
78 89 102
77 87 100
75 86 99
76 86 99
77 88 102
76 86 99
73 83 96
69 79 91
65 74 86
61 69 80
63 71 82
66 75 86
68 77 89
69 78 91
73 82 95
76 86 100
80 90 104
81 92 106
82 93 108
83 95 111
85 96 111
84 95 110
80 91 106
79 90 104
76 87 101
74 84 97
71 80 93
69 78 90
67 77 89
70 79 92
72 82 95
75 85 98
79 89 103
80 91 105
79 89 103
76 86 100
71 81 94
69 77 89
65 74 85
61 69 80
59 67 77
59 66 76
58 66 76
53 60 70
46 52 60
38 43 50
31 35 41
23 26 30
16 18 21
18 21 25
23 26 30
31 35 40
41 46 54
47 53 62
47 54 63
50 57 66
50 57 66
54 62 71
56 64 74
59 67 77
61 70 81
63 71 83
65 74 85
66 75 86
66 76 89
68 77 90
67 76 88
65 74 86
63 72 83
61 70 81
59 67 78
56 64 74
54 61 70
47 54 62
38 43 50
27 31 36
24 27 31
25 28 32
20 23 26
12 14 16
12 14 16
18 21 24
18 20 23
15 17 20
13 15 18
21 24 28
30 34 40
28 32 37
28 32 37
30 34 40
35 40 47
40 46 53
50 57 66
54 62 71
53 60 69
52 59 68
52 59 69
53 60 69
52 59 69
57 64 74
61 69 80
64 73 84
67 76 88
66 75 86
62 71 81
57 64 74
50 57 66
45 51 59
41 47 54
38 43 50
35 40 46
33 38 44
31 36 41
32 36 42
32 36 42
30 34 40
32 36 42
31 36 41
25 28 33
14 16 19
9 10 12
11 12 14
16 18 21
24 28 32
29 32 37
36 40 47
45 52 60
55 62 72
63 71 82
70 79 92
80 91 104
85 97 112
92 105 122
95 108 125
99 112 130
101 115 134
107 122 141
110 125 144
115 131 152
115 131 152
117 133 155
122 138 158
123 139 161
126 142 164
125 142 164
126 143 165
127 144 167
126 143 165
124 140 162
121 137 158
120 136 157
115 131 152
116 132 153
114 130 151
110 125 145
108 123 143
107 122 142
106 121 139
102 116 134
104 118 136
106 120 138
106 120 139
106 120 139
105 121 140
107 121 140
106 120 140
106 120 139
104 119 138
99 113 131
94 107 124
92 104 120
89 101 117
83 94 108
77 87 100
75 85 99
74 84 97
72 81 94
71 81 94
73 82 95
77 87 101
81 92 106
79 90 105
78 89 103
78 89 103
77 88 102
78 88 102
75 86 99
78 88 102
72 82 94
70 79 92
64 73 85
60 68 78
54 62 71
48 55 64
39 45 52
35 40 46
26 30 35
26 29 34
28 32 38
24 27 32
29 33 38
38 43 49
49 56 65
62 70 81
67 75 87
68 78 90
74 84 97
77 87 101
82 94 109
89 100 116
91 103 119
93 106 123
100 113 130
101 115 133
103 117 135
104 118 136
106 120 139
106 120 139
108 123 143
111 126 146
110 125 145
112 127 146
110 125 145
111 126 146
110 125 144
110 124 144
109 123 143
107 121 140
105 119 138
106 120 139
108 122 141
108 123 141
107 122 140
105 119 138
106 120 138
103 117 135
100 114 132
97 110 128
97 111 129
99 113 131
100 114 132
100 114 132
99 113 130
98 111 128
98 111 128
96 109 125
90 102 118
87 100 115
85 97 112
82 93 109
78 89 104
77 87 101
75 85 98
73 83 96
73 83 96
72 82 95
72 82 94
72 81 94
70 80 93
69 78 90
67 76 88
67 76 88
65 74 86
66 75 86
70 79 91
69 78 90
67 76 88
69 78 90
71 80 93
68 78 90
63 72 84
61 69 80
61 69 80
62 70 81
63 72 84
68 77 90
71 81 93
70 79 92
69 79 91
70 80 92
72 82 94
72 82 95
69 79 92
65 74 86
62 70 80
59 67 77
53 60 69
45 52 60
43 49 57
38 43 50
41 46 54
47 53 62
55 62 72
59 67 77
62 71 83
64 73 84
66 75 87
68 77 90
68 77 89
65 73 84
62 70 81
61 69 80
60 68 79
60 68 79
59 67 78
57 65 75
51 58 67
49 56 65
48 54 62
47 53 61
46 52 60
43 49 56
40 45 52
37 43 49
36 41 48
35 39 45
31 36 41
37 42 48
40 46 53
44 50 58
48 55 63
49 56 64
45 51 60
48 54 63
44 50 58
34 39 45
22 25 30
19 22 25
26 30 35
31 35 40
30 34 40
35 40 46
42 47 55
48 54 63
54 61 71
58 65 75
63 72 82
64 73 85
68 78 90
70 79 91
73 83 95
71 81 94
69 78 90
64 73 84
58 66 77
55 63 73
54 61 70
49 55 64
43 49 57
36 41 47
30 34 39
24 28 32
16 18 21
17 20 23
27 31 36
37 42 49
44 51 59
52 60 69
59 67 78
67 76 87
73 82 95
76 86 100
78 89 103
83 94 108
85 96 110
84 95 110
84 95 110
83 94 110
84 95 110
84 95 110
84 96 111
87 99 114
87 99 115
90 102 118
89 101 117
90 103 119
93 105 121
94 108 125
95 108 126
98 110 127
98 112 129
101 114 132
102 116 134
101 115 134
102 116 134
102 115 133
99 113 130
99 112 129
95 109 126
91 104 121
88 100 115
84 96 111
79 90 104
79 89 103
78 89 103
76 87 100
74 83 96
70 80 93
71 80 92
69 79 91
69 78 90
70 80 92
72 81 94
72 81 94
72 82 95
70 80 92
68 77 88
63 72 84
61 69 80
61 69 80
60 69 79
61 70 81
62 70 81
63 72 83
63 72 84
64 73 84
66 75 86
70 80 93
74 84 97
75 86 99
76 87 100
78 88 102
77 87 101
75 86 100
77 88 101
75 86 100
73 84 97
73 83 97
74 84 98
76 86 99
76 87 100
77 88 101
76 86 100
71 81 93
66 75 87
67 75 87
63 72 83
61 69 80
61 69 80
61 69 80
61 69 80
56 64 74
53 59 68
50 57 65
44 49 57
40 45 53
34 39 45
32 36 42
27 31 36
15 17 20
22 25 29
35 40 46
41 46 54
45 51 59
47 53 62
50 57 66
48 55 64
49 56 64
53 61 70
59 68 78
61 70 82
63 72 83
63 72 84
67 76 88
69 78 90
70 80 92
71 81 94
72 82 95
70 80 92
68 78 91
67 76 88
64 73 84
56 64 74
49 56 64
44 50 58
42 48 55
38 44 50
32 37 42
29 33 39
25 28 33
22 25 29
16 18 21
15 16 19
11 13 15
14 15 18
13 15 17
12 14 16
14 15 18
18 20 23
16 18 21
13 15 17
19 22 25
26 30 34
30 35 40
33 37 43
36 41 47
40 46 53
44 49 57
48 54 63
54 61 70
56 64 74
58 66 77
58 66 77
58 66 76
57 64 74
55 63 72
52 59 69
48 54 63
41 47 54
32 36 42
17 19 22
17 20 23
24 27 31
25 29 33
22 25 29
20 23 27
13 15 17
18 20 23
26 29 34
24 28 32
16 18 21
11 13 15
19 22 25
29 33 38
37 42 49
40 46 53
44 51 59
53 60 69
60 68 79
68 77 89
74 84 97
79 89 103
84 96 111
92 105 122
98 111 129
102 116 133
102 117 135
108 122 141
112 127 147
114 129 149
119 135 156
120 136 158
122 139 161
124 140 161
124 141 163
125 142 165
127 144 166
124 141 163
123 140 161
117 133 155
117 132 153
111 127 147
110 126 146
109 124 143
108 122 142
106 120 139
103 116 134
102 116 134
102 116 134
103 117 135
103 117 136
104 119 137
105 120 139
104 118 136
104 118 137
103 117 136
103 117 135
101 114 132
98 111 129
92 105 121
86 98 113
84 95 110
79 90 104
79 90 103
76 86 100
75 85 98
75 86 99
77 87 101
80 91 106
86 97 112
87 98 113
87 98 114
86 97 112
85 96 111
86 98 114
88 100 115
89 100 116
90 102 118
88 101 117
84 96 111
81 92 106
74 84 97
68 77 89
61 69 79
57 65 75
55 63 72
50 57 66
50 56 65
46 52 60
38 43 50
26 30 35
18 21 24
31 36 41
41 46 54
49 55 64
54 61 70
61 70 81
71 81 94
80 90 105
85 97 112
91 103 120
96 109 125
100 113 131
101 115 133
103 117 134
103 117 135
101 115 133
102 117 135
107 121 140
107 121 140
110 124 143
109 125 145
110 125 144
109 123 143
109 123 142
104 118 136
106 121 140
105 120 139
104 118 136
102 116 134
102 117 136
103 117 135
100 114 132
101 115 132
98 111 128
94 107 124
95 108 124
96 109 126
100 113 131
100 114 132
103 117 135
102 116 133
99 113 130
95 107 124
92 105 121
87 99 115
86 98 113
83 95 110
80 91 106
79 90 104
77 87 101
76 87 101
74 83 96
72 82 95
69 78 90
69 79 91
68 77 89
66 75 87
65 73 85
60 69 79
56 64 74
55 63 73
58 66 76
61 69 79
59 67 77
63 71 82
65 74 85
65 73 85
61 70 81
59 67 77
53 61 71
50 56 65
51 58 67
55 63 73
57 64 74
62 70 81
65 74 86
66 75 87
67 76 87
67 76 88
66 75 87
65 73 85
63 72 83
61 69 79
56 64 74
50 57 66
43 49 57
39 45 52
40 45 52
59 67 78
63 71 82
68 77 89
73 83 96
73 83 96
74 85 98
76 86 99
78 88 101
75 86 99
74 84 97
72 82 95
68 77 89
66 76 88
66 75 87
66 75 87
70 79 92
70 79 92
71 81 93
70 80 92
69 78 91
68 77 89
63 72 84
59 67 78
57 64 74
54 61 70
55 62 72
57 64 74
60 68 79
63 72 83
65 74 86
66 75 87
69 78 91
68 77 89
69 78 90
66 75 87
63 71 82
55 63 73
49 56 64
43 49 56
35 40 47
29 32 37
18 21 24
19 22 25
27 31 36
33 37 43
40 45 52
49 56 65
58 66 77
64 73 84
68 77 89
73 82 95
75 86 99
79 90 104
81 91 105
80 91 105
80 91 105
76 86 100
70 80 92
65 74 85
62 71 82
54 61 71
49 56 65
45 51 59
40 46 53
31 35 40
14 16 19
28 32 38
43 49 57
51 59 68
60 68 79
65 74 85
68 77 90
73 83 96
77 88 102
81 92 106
82 93 108
84 94 109
85 97 111
85 96 110
85 96 111
86 98 113
91 103 118
89 101 117
90 102 118
92 105 122
94 107 123
98 111 128
99 113 131
99 113 131
102 116 133
101 115 133
102 115 133
102 116 134
104 118 136
101 115 135
103 117 135
99 113 131
95 108 124
94 106 123
88 101 117
85 96 112
81 92 106
77 88 101
75 85 98
73 83 96
73 83 96
72 82 95
71 80 93
69 78 90
67 76 88
67 76 88
66 75 87
68 77 89
64 73 85
61 70 81
61 70 81
60 69 79
58 66 76
57 65 75
57 64 74
55 63 73
57 65 75
59 67 77
61 69 80
62 71 82
64 73 84
67 76 88
68 77 89
71 81 93
74 83 96
72 83 96
73 83 97
74 84 97
72 82 95
73 83 95
76 85 99
77 88 102
78 89 103
77 88 101
77 88 101
75 85 99
73 83 96
70 79 92
64 73 85
63 71 82
60 68 79
56 64 75
52 60 69
51 58 67
50 57 65
49 56 65
46 52 61
43 49 56
39 44 51
36 41 47
34 39 45
31 35 40
24 27 31
22 25 29
27 30 35
23 26 30
28 33 38
36 41 48
45 51 59
51 58 67
51 58 66
53 60 69
55 63 72
59 67 78
64 72 83
65 73 85
68 77 89
68 77 89
68 78 90
67 77 89
67 76 88
70 79 91
70 79 92
71 81 94
69 78 91
66 75 87
61 70 81
57 65 75
57 65 75
59 66 77
58 66 76
56 64 73
56 64 74
55 62 71
50 57 65
40 45 53
31 35 41
20 23 26
12 13 16
11 13 15
17 19 22
16 18 21
11 13 15
20 22 26
23 26 30
28 32 37
32 37 42
35 40 46
33 38 43
29 32 38
23 26 30
17 19 22
22 25 29
25 29 33
28 32 37
34 39 45
35 40 46
36 41 47
39 44 51
40 45 52
41 46 54
43 49 57
43 49 57
42 47 54
30 34 40
15 18 21
14 16 19
16 18 21
18 20 24
25 29 33
27 30 35
22 25 29
14 17 19
17 20 23
19 22 26
19 22 25
16 19 22
13 15 17
25 28 33
34 39 45
38 43 50
43 49 57
52 60 69
62 71 82
70 79 91
75 85 99
79 90 104
85 97 112
87 99 114
92 104 120
95 107 124
98 111 128
99 113 130
103 117 135
108 122 142
111 126 145
112 127 146
110 125 145
111 126 146
112 127 147
114 129 149
113 128 148
114 129 149
110 125 145
112 128 148
111 126 146
111 125 144
109 123 143
107 121 140
107 122 141
107 121 139
106 120 139
103 117 135
104 118 136
103 117 135
103 117 135
103 117 136
102 116 134
101 115 133
99 113 131
101 114 131
96 110 127
92 105 121
88 100 115
84 95 110
81 91 105
76 87 101
78 89 103
79 89 102
76 86 99
76 86 100
76 86 100
79 90 105
81 92 107
83 94 108
83 94 109
83 95 109
85 97 112
84 96 111
85 96 111
85 97 112
84 96 110
87 98 113
86 97 112
86 98 113
86 97 112
82 94 109
76 87 101
73 83 96
72 81 94
70 80 92
68 78 90
67 76 88
65 74 85
62 71 82
55 63 73
48 54 63
38 44 50
26 30 34
22 25 29
27 31 36
41 46 54
53 60 69
62 70 81
70 79 91
77 88 101
83 95 110
88 100 115
88 100 116
88 100 116
92 105 121
96 109 126
99 112 129
102 116 134
107 122 142
110 126 146
109 124 144
109 124 143
108 122 141
106 121 140
103 117 136
103 117 135
102 116 134
102 116 135
100 114 133
101 114 132
101 115 133
100 113 130
96 109 126
90 103 119
88 100 116
86 97 112
85 96 111
85 97 112
85 97 113
91 104 120
91 103 119
92 104 119
91 103 119
90 102 119
88 100 115
85 97 112
82 93 107
81 92 106
79 90 103
76 87 100
71 81 94
68 77 89
66 75 86
62 70 82
56 63 73
54 62 72
57 65 75
58 65 75
51 58 67
45 52 60
43 49 57
41 46 54
36 41 47
27 31 36
24 28 32
29 33 38
31 35 41
34 39 46
29 33 38
28 31 36
33 37 43
33 38 44
36 42 49
44 50 58
48 54 63
49 56 64
49 56 65
51 58 67
49 56 65
48 55 64
48 55 63
46 53 61
47 53 61
46 52 60
42 48 55
37 42 49
34 39 46
34 38 44
37 42 49
73 83 95
75 85 99
81 92 106
82 94 108
84 96 111
86 98 114
87 99 114
87 99 114
88 100 115
90 102 118
91 103 119
91 103 119
91 103 120
92 104 121
94 107 123
94 107 123
93 106 123
93 106 123
90 102 118
87 99 115
84 95 110
77 88 102
74 84 96
73 82 95
72 82 95
77 88 101
79 89 102
79 90 104
80 91 106
80 90 104
78 89 103
80 91 105
80 91 105
78 89 103
76 86 100
74 85 98
69 79 91
64 72 84
56 64 74
52 59 68
48 54 63
40 45 52
29 33 38
20 23 27
34 38 45
45 52 60
54 61 71
60 68 79
67 76 88
73 82 95
75 85 98
77 87 101
80 91 106
82 93 108
82 93 107
80 90 104
78 88 102
77 87 100
74 84 97
70 80 93
66 75 86
61 69 80
53 60 69
44 49 57
29 33 38
20 23 27
37 42 49
50 57 65
57 65 75
63 71 82
67 76 88
71 81 93
73 82 95
70 80 92
71 80 93
73 83 96
73 83 96
76 87 101
80 91 105
83 94 109
83 94 109
85 96 111
88 100 115
93 105 121
96 109 126
96 109 125
96 109 126
99 112 130
100 114 132
99 113 131
99 112 129
98 112 129
98 111 129
98 111 128
97 110 128
97 109 126
92 105 122
93 105 121
88 100 115
82 93 108
79 91 105
77 88 101
74 84 97
73 83 95
72 81 94
70 80 92
70 79 91
68 77 89
68 77 89
67 76 88
67 76 88
62 71 82
61 69 80
58 65 75
52 59 69
50 56 65
50 56 65
51 58 67
53 60 70
55 63 72
57 64 74
56 64 74
57 65 75
61 69 80
64 73 84
66 75 86
68 77 90
69 79 91
71 80 93
73 82 95
75 85 98
74 84 97
71 81 93
70 80 93
73 82 95
74 85 98
74 84 98
75 85 98
73 82 95
68 77 89
64 72 84
60 68 79
56 63 73
52 59 68
49 55 64
46 52 61
45 51 58
41 46 54
40 46 53
38 44 51
38 43 49
36 41 48
39 44 51
41 47 54
41 46 53
32 36 42
17 19 22
19 21 25
31 35 41
40 45 52
48 55 63
55 62 72
57 65 75
60 68 79
63 71 82
65 74 86
65 74 86
64 73 84
65 73 84
65 74 85
65 74 86
65 74 85
64 72 83
62 70 81
61 70 81
61 69 80
64 73 84
68 78 90
67 76 88
65 74 85
63 71 83
63 72 83
64 73 84
63 71 82
62 70 81
62 70 81
60 68 79
57 65 76
50 57 66
46 52 61
39 45 52
32 37 42
25 29 34
18 20 24
17 19 22
21 24 28
27 31 36
28 32 37
29 33 39
30 34 39
32 36 42
36 42 48
37 43 50
38 43 50
39 44 52
38 43 50
34 39 45
30 35 40
30 35 40
32 36 42
31 35 40
30 34 39
26 29 34
21 24 28
20 22 26
17 20 23
15 17 20
16 19 22
20 23 26
20 23 27
12 14 16
17 20 23
23 27 31
31 35 41
36 41 48
41 47 55
40 45 52
40 45 52
36 40 47
35 40 46
29 32 37
15 18 20
14 16 19
19 22 26
25 29 33
32 37 43
41 46 54
49 56 65
57 65 75
66 74 86
72 81 94
76 87 101
80 91 105
80 91 106
84 96 111
88 100 115
90 102 118
92 104 120
92 104 121
95 108 125
96 109 126
96 108 125
99 112 130
101 115 133
100 114 132
99 113 132
101 115 133
102 115 133
102 116 134
102 116 134
99 113 131
99 112 130
100 114 132
102 116 134
99 112 130
101 114 132
102 116 134
103 117 135
103 117 136
101 115 134
102 115 133
102 116 134
100 113 131
98 112 129
93 106 123
91 103 119
86 97 111
80 91 105
75 85 99
70 80 93
69 78 90
64 73 85
65 74 86
65 74 85
66 75 86
67 76 88
72 81 94
74 84 97
75 85 97
73 83 97
72 82 95
76 86 99
76 86 100
74 84 97
73 83 96
75 85 97
76 86 100
77 87 101
77 88 102
76 86 100
76 86 99
77 87 100
76 87 100
77 87 100
76 86 100
75 85 98
73 83 96
72 81 94
69 78 90
65 74 86
61 69 80
56 63 73
50 57 66
39 44 52
27 31 36
21 23 27
26 30 34
41 46 54
49 56 64
58 67 77
67 76 87
71 81 94
78 88 102
80 92 107
81 92 106
83 94 109
85 97 112
89 101 117
91 103 119
94 107 124
97 110 128
97 111 129
98 111 129
102 115 132
102 116 133
103 116 134
101 115 132
101 115 133
100 114 132
96 110 127
95 108 125
92 104 120
87 99 114
82 92 107
79 90 104
77 88 101
78 89 103
79 90 104
75 85 99
73 83 96
71 80 93
69 78 91
67 77 89
68 77 89
68 78 90
69 79 91
70 80 92
73 83 96
72 83 96
70 79 91
66 75 87
65 73 85
60 68 79
54 61 71
48 55 64
50 57 66
51 58 67
47 54 62
40 46 53
34 39 45
28 31 36
24 28 32
27 31 35
36 41 48
41 46 53
38 43 50
38 43 50
41 47 54
44 50 58
44 50 58
40 45 52
32 36 42
29 33 38
26 29 34
28 31 37
27 31 36
27 30 35
26 30 35
25 28 33
24 28 32
22 24 28
20 23 26
21 24 27
20 23 26
23 26 30
27 31 36
24 27 31
20 23 27
18 21 24
16 18 21
86 97 112
87 100 116
93 105 122
94 106 121
94 107 123
95 109 126
99 113 131
103 117 136
106 120 139
108 123 142
109 123 143
108 123 142
108 123 141
107 122 140
106 121 140
107 122 141
109 124 143
104 119 138
102 116 135
101 114 133
97 110 127
94 107 124
93 106 122
92 104 120
89 101 117
89 101 117
88 100 115
85 97 112
85 97 112
82 93 107
84 96 110
82 93 108
82 94 108
81 92 106
78 89 103
75 85 99
71 81 94
68 78 90
64 72 84
58 65 75
50 57 66
43 49 56
36 40 47
22 25 29
14 16 19
29 33 39
45 51 59
54 62 71
64 73 84
72 82 94
74 84 97
76 86 99
76 86 99
73 83 95
73 83 96
73 83 95
69 79 91
68 77 89
67 76 88
64 72 84
57 64 74
47 54 63
39 44 51
21 24 27
25 28 33
35 40 46
44 50 58
52 59 68
57 65 75
63 72 83
66 75 87
67 76 88
67 76 88
68 77 88
68 77 90
70 80 92
72 82 94
73 83 95
74 84 98
77 86 99
81 92 105
83 94 108
88 100 116
90 101 117
92 105 121
95 109 126
97 110 127
97 109 126
93 106 122
95 108 125
95 107 124
91 103 119
91 103 119
89 102 117
89 101 117
87 99 114
85 97 112
83 95 110
81 92 106
78 89 103
78 88 102
75 85 99
75 85 98
72 83 96
71 81 93
69 79 91
70 80 92
69 78 90
65 74 86
63 72 83
62 70 82
59 67 78
54 62 72
51 59 68
52 59 69
53 60 70
53 61 71
56 63 73
59 67 77
61 69 79
63 71 82
64 73 84
66 75 87
68 77 90
71 81 94
73 83 96
75 85 99
75 85 98
75 85 98
74 84 97
72 82 96
71 81 94
72 81 94
73 83 96
75 85 98
74 83 96
69 78 90
65 74 85
60 68 79
56 63 73
53 61 70
51 57 66
44 50 58
39 44 51
35 39 46
31 35 41
30 34 39
30 34 39
30 35 40
32 36 42
32 37 43
36 41 47
36 41 48
34 39 45
34 38 44
34 39 45
30 34 39
26 30 34
23 27 31
29 34 39
35 40 46
43 49 57
50 57 66
57 65 75
62 70 81
64 73 84
65 74 85
66 74 86
65 74 86
65 73 84
64 73 84
61 70 81
58 67 77
57 65 75
58 66 76
59 67 78
62 71 82
66 75 87
65 74 86
65 74 86
63 72 83
64 72 84
61 70 81
61 69 80
59 67 78
56 63 73
51 59 68
42 48 56
37 42 48
32 37 42
27 31 36
22 25 29
19 21 24
19 22 26
27 31 36
35 40 47
37 42 49
36 41 47
37 42 49
37 42 49
36 41 47
38 43 50
42 48 55
45 52 60
46 52 60
43 49 57
40 45 52
35 40 47
34 39 45
32 37 42
28 31 36
24 27 31
19 22 25
11 12 14
14 16 19
17 20 23
19 21 25
15 17 20
15 17 19
13 15 17
8 9 11
14 16 18
22 25 30
33 37 43
38 43 50
41 46 54
44 50 58
45 52 60
46 52 61
44 50 58
41 46 53
36 40 47
30 34 40
19 22 25
23 27 31
33 37 43
39 45 52
43 49 57
52 59 68
58 66 76
62 71 82
65 73 85
66 75 86
67 76 87
69 78 91
71 81 94
74 84 97
77 87 101
78 90 104
82 93 107
81 92 107
81 91 106
80 92 107
84 96 110
87 99 114
88 100 115
91 103 119
92 105 121
90 102 118
91 103 118
89 102 118
90 103 119
89 102 117
90 103 119
93 106 123
98 111 129
99 112 130
99 113 131
99 112 129
101 114 131
99 113 130
101 114 131
96 109 126
91 104 120
86 98 113
80 91 105
74 84 97
68 78 90
67 76 88
66 75 87
65 74 85
62 70 81
56 64 74
56 63 73
58 66 76
60 68 79
61 70 81
61 69 80
61 69 80
63 72 83
64 73 85
61 69 80
59 67 78
58 66 77
57 65 76
57 65 76
56 63 73
56 64 74
55 63 73
55 63 73
61 69 80
63 71 82
67 76 88
69 79 91
72 82 94
74 84 97
74 85 98
74 84 97
71 80 93
66 75 87
62 71 81
59 67 78
58 66 76
53 60 70
46 52 60
39 44 51
31 36 41
23 26 31
26 29 34
37 43 50
44 50 58
53 60 70
58 66 77
61 69 79
63 72 84
69 78 90
71 81 93
72 83 96
74 85 98
76 86 99
76 86 99
77 87 101
76 87 100
79 90 104
82 93 107
84 95 110
85 97 113
91 103 120
89 101 117
87 98 114
82 94 109
83 94 109
76 87 100
74 84 97
71 81 94
70 80 92
68 77 89
63 71 83
60 68 79
59 67 78
56 64 74
54 62 72
51 58 67
53 60 69
51 59 68
52 59 68
50 57 66
49 56 65
50 57 65
47 54 62
43 49 57
38 44 51
29 33 38
22 25 29
27 30 35
30 34 40
28 32 37
30 34 39
28 32 37
30 34 39
38 44 50
53 60 69
60 68 79
64 72 84
63 71 82
60 69 80
61 69 79
57 65 75
53 60 70
52 59 68
48 55 63
47 53 61
45 51 59
45 51 59
45 52 59
44 50 58
42 48 56
41 47 54
39 44 51
43 49 57
44 50 58
45 51 59
44 50 58
45 52 60
48 55 63
50 57 66
50 57 66
47 53 61
42 48 55
34 39 45
94 108 125
97 110 127
100 113 131
103 116 134
105 119 138
109 124 144
112 127 147
115 130 151
115 131 152
115 131 151
115 131 152
116 131 151
114 130 151
114 129 150
114 131 152
117 132 152
114 130 151
114 129 150
112 128 148
109 125 144
107 122 142
106 120 139
104 118 137
102 116 135
99 112 129
95 108 125
93 106 123
92 105 121
92 105 121
93 106 122
91 103 119
87 99 114
82 93 108
77 88 102
74 83 96
68 77 90
65 73 85
58 67 77
55 63 73
50 57 66
47 53 61
46 52 60
43 49 56
36 41 47
27 31 36
17 20 23
35 40 47
47 53 61
53 60 69
58 65 75
61 69 80
63 71 82
63 72 83
63 71 82
63 72 83
60 68 79
57 65 75
53 60 70
51 58 67
48 55 63
43 49 57
35 40 47
25 29 33
11 13 15
22 25 29
31 36 41
38 44 50
41 47 54
47 53 61
51 58 67
55 63 73
59 67 77
58 66 77
59 67 78
57 64 74
59 67 78
63 71 82
67 76 87
69 79 92
73 82 95
75 85 98
78 89 102
83 94 108
84 95 110
85 96 111
85 96 111
84 95 110
82 94 109
83 94 109
81 92 107
79 90 105
80 91 105
82 93 108
83 94 109
81 92 107
79 90 104
80 91 105
82 93 107
81 92 107
81 92 106
79 90 104
76 86 100
74 84 97
71 81 93
71 81 93
71 81 94
71 80 93
68 77 89
65 74 86
63 72 83
62 71 82
59 67 78
58 66 76
56 64 73
56 63 73
54 62 72
55 62 72
56 64 74
63 72 83
67 76 88
70 80 93
74 84 97
77 88 102
78 89 103
80 90 104
79 89 103
75 85 99
71 81 94
68 78 90
66 75 87
66 74 86
66 75 86
68 77 90
67 76 87
64 72 84
60 68 79
57 65 75
56 64 73
54 61 71
51 58 67
51 58 67
53 60 70
48 55 64
42 48 55
36 41 47
27 31 36
19 22 25
13 14 16
16 19 22
18 21 24
19 22 25
22 25 29
19 22 25
15 17 20
8 10 11
14 16 18
19 22 26
22 25 29
17 20 23
13 15 18
17 20 23
24 28 32
35 40 46
44 50 58
50 57 66
57 65 75
60 68 79
60 69 80
60 68 79
54 62 72
54 61 70
52 59 69
54 61 71
55 63 73
61 69 80
67 76 87
70 79 92
71 81 94
73 83 96
72 82 95
70 80 92
67 76 88
61 70 81
55 62 71
48 54 63
36 41 48
25 28 33
21 24 28
23 26 30
21 23 27
20 22 26
20 23 27
20 23 26
20 23 27
19 22 25
21 24 28
23 26 30
23 26 30
30 34 39
31 36 42
34 38 44
35 40 46
37 42 49
38 43 50
36 40 46
30 35 40
31 35 40
28 32 37
24 28 32
22 25 29
21 23 27
16 19 21
10 12 14
18 20 24
25 28 33
20 23 27
13 15 17
12 14 17
15 17 20
17 20 23
22 25 29
16 19 22
14 16 19
17 19 23
27 31 36
34 38 44
32 37 43
28 32 37
33 37 43
38 43 50
40 46 53
40 45 52
38 43 50
33 38 43
26 29 34
23 27 31
26 29 34
34 38 45
39 45 52
44 50 58
50 57 66
54 62 71
56 63 73
57 65 76
61 69 79
63 72 83
66 75 87
70 80 92
72 83 96
75 85 98
76 86 99
77 86 100
77 87 101
78 88 102
79 90 105
78 89 104
78 89 103
80 91 105
82 93 107
81 93 107
83 95 109
85 96 111
85 96 112
89 101 116
93 105 121
94 107 123
97 109 126
96 109 126
96 109 126
96 109 127
97 110 127
94 107 125
89 101 117
83 95 110
78 89 102
72 82 95
70 79 91
65 74 86
64 73 85
66 75 86
61 70 81
59 66 77
58 66 77
58 66 77
57 65 75
54 62 72
54 61 71
56 63 73
53 60 70
49 55 64
44 50 58
39 44 52
39 45 52
40 45 52
39 45 52
34 38 44
29 33 38
26 29 34
26 30 34
28 32 37
33 37 43
36 41 47
42 48 55
50 57 66
55 62 72
60 68 78
65 74 86
64 72 84
62 71 82
59 67 78
54 61 71
54 61 71
51 59 68
48 54 62
43 49 57
43 48 56
39 44 51
30 35 40
19 22 25
18 21 24
20 23 26
29 33 38
35 40 46
42 48 55
44 50 58
44 50 58
50 56 65
54 62 71
55 62 71
53 60 69
55 62 72
56 64 74
59 67 77
61 70 81
61 69 80
64 73 85
68 77 89
68 77 90
67 76 88
64 73 85
59 67 78
56 64 74
57 64 74
54 62 72
54 61 71
56 63 74
55 63 73
49 56 64
38 43 50
30 34 39
24 28 32
21 23 27
21 24 27
22 25 29
28 31 36
30 34 40
30 34 39
31 35 40
32 36 42
30 34 39
23 26 30
22 25 29
29 33 38
33 37 43
38 43 50
41 47 54
48 55 63
54 61 71
58 65 75
61 69 80
62 71 82
68 77 89
73 83 95
76 86 100
77 87 101
77 87 101
75 85 98
71 80 93
66 75 87
64 72 84
62 71 81
60 68 79
56 64 74
55 63 73
53 60 70
50 57 66
49 55 64
52 59 67
54 61 71
59 67 78
64 73 84
66 75 86
67 76 88
69 78 90
68 77 89
64 72 84
59 66 77
51 58 67
43 49 56
36 41 48
100 114 132
104 118 137
106 120 140
109 123 142
110 125 145
111 126 145
113 128 148
116 131 151
117 132 152
117 132 152
117 132 152
113 130 151
113 128 148
115 131 152
116 132 153
119 135 155
117 133 154
115 132 153
113 129 149
114 130 150
111 127 147
109 124 143
109 123 142
106 120 139
102 116 134
101 115 134
100 113 131
97 110 127
96 110 127
94 107 123
88 99 115
82 94 109
78 88 102
76 86 99
71 81 94
68 77 89
64 73 84
63 72 83
61 69 80
55 63 73
46 52 60
40 46 53
37 42 48
33 38 44
25 28 33
17 19 22
28 32 37
35 40 46
41 47 54
48 55 63
51 59 68
53 60 70
52 59 68
50 56 65
46 52 60
41 46 54
40 45 53
36 41 48
30 34 39
24 27 32
21 23 27
20 22 26
17 20 23
23 26 30
30 34 39
30 35 40
31 35 41
35 40 46
37 42 49
45 50 58
48 55 63
51 58 67
52 59 68
55 63 73
57 65 75
61 69 80
66 74 86
66 75 87
66 75 87
70 79 92
70 80 92
71 81 94
76 87 100
78 89 103
78 88 102
75 86 99
71 81 93
69 78 90
66 75 86
65 74 85
65 74 85
67 76 88
67 76 88
67 76 88
69 78 91
72 82 96
74 84 97
73 84 97
74 84 97
74 84 98
75 85 98
72 81 94
70 79 92
68 77 89
67 76 87
64 72 83
61 70 81
61 70 81
62 71 82
62 71 83
63 71 82
62 70 81
65 74 86
65 74 85
64 73 85
66 75 86
68 78 90
71 80 93
74 84 97
77 88 101
80 90 104
81 91 105
80 91 106
81 92 107
77 87 101
73 83 96
69 78 90
66 75 86
61 69 80
59 67 77
56 64 73
56 63 73
52 59 69
50 56 65
49 55 64
48 54 63
46 52 61
42 48 56
42 48 55
41 47 54
42 48 55
40 46 53
35 40 47
33 37 43
24 27 31
18 21 24
21 24 28
22 26 30
19 22 26
17 20 23
25 28 32
23 26 30
16 19 21
10 12 14
13 15 17
18 20 24
18 20 24
16 19 22
14 16 18
21 24 28
24 27 32
18 20 23
18 21 24
20 23 26
27 31 35
32 37 43
34 39 45
28 32 37
30 34 40
27 31 36
35 40 46
44 50 58
54 62 71
61 69 80
64 73 84
65 74 86
64 73 85
62 70 81
59 67 77
57 64 74
58 66 76
58 65 75
53 61 70
49 55 64
41 47 54
31 36 41
19 22 25
18 20 23
23 27 31
28 32 37
27 31 35
24 27 32
26 30 34
29 33 38
28 32 38
28 31 36
23 26 30
15 17 20
12 14 16
18 21 24
24 28 32
23 26 31
16 19 22
20 23 26
20 22 26
24 27 31
25 28 32
22 25 29
20 22 26
23 26 30
23 26 30
21 24 28
25 28 33
25 28 33
23 26 31
24 28 32
23 26 30
20 23 27
15 17 20
13 15 17
14 15 18
15 17 20
27 31 36
34 38 45
36 41 47
35 40 47
33 38 44
26 30 35
23 26 30
22 25 29
21 24 28
24 27 31
17 19 22
15 17 20
24 27 31
23 26 30
24 28 32
26 30 35
30 34 40
34 38 44
37 42 49
43 49 57
48 54 63
51 58 67
53 60 70
59 67 77
62 70 81
66 75 86
70 79 92
73 83 96
75 86 99
81 92 106
82 93 107
80 91 105
79 89 104
77 88 101
76 86 100
76 86 99
74 85 99
77 87 100
77 88 102
82 93 107
85 96 111
86 98 113
88 100 115
87 99 114
90 101 117
90 103 120
91 103 119
88 100 115
85 96 111
80 90 104
76 86 100
71 80 93
67 77 89
67 76 87
64 73 84
62 70 81
59 68 79
56 64 73
55 62 72
56 64 74
56 64 74
54 61 70
51 58 67
48 55 64
50 57 66
50 57 65
45 51 59
35 39 45
23 26 30
19 21 25
25 29 33
31 36 41
31 35 41
29 33 38
30 34 39
30 34 39
29 33 38
23 26 30
14 16 19
26 30 34
37 42 48
43 49 57
48 55 64
53 60 69
53 60 70
52 59 68
53 61 70
54 62 71
53 60 69
48 55 63
46 53 61
45 51 58
42 48 55
40 45 53
38 43 50
36 41 47
39 45 52
41 47 54
39 44 50
35 40 46
37 42 48
35 39 45
31 35 40
26 29 34
23 27 31
27 30 35
26 30 35
25 28 33
24 28 32
29 34 39
36 41 47
42 48 56
49 56 64
53 61 70
54 61 71
53 61 71
53 60 70
49 56 65
42 48 55
38 43 50
39 44 51
37 42 49
37 42 48
38 44 50
36 41 48
31 35 40
28 32 37
26 30 35
21 24 28
22 25 29
27 31 35
30 34 40
30 34 39
33 37 43
33 37 43
35 40 46
36 41 47
35 39 45
36 41 48
39 44 51
45 52 60
52 59 68
57 64 74
60 68 79
66 75 87
71 80 93
72 81 94
73 83 96
76 86 100
77 88 102
78 89 103
78 89 103
79 89 103
77 87 101
75 85 99
73 82 95
70 79 92
71 80 93
70 80 92
70 80 92
67 77 89
65 74 85
59 68 78
56 64 74
55 63 73
59 67 77
64 73 84
67 76 88
71 80 92
72 82 94
72 81 94
68 77 89
62 70 81
56 64 73
50 57 66
42 48 56
33 38 44
22 25 29
106 121 139
108 122 142
107 122 141
110 126 145
111 127 147
111 127 147
116 132 152
118 133 154
117 133 154
118 134 155
118 134 155
119 135 156
118 134 155
118 134 155
118 134 155
117 133 154
116 131 152
115 130 150
111 126 146
109 124 144
107 121 140
106 120 139
104 118 137
101 115 133
100 113 131
99 111 128
96 109 126
96 108 125
94 108 125
90 103 119
85 96 111
81 91 106
77 87 101
73 83 95
70 79 91
66 76 88
65 73 85
60 69 80
56 64 74
55 63 73
51 58 66
44 50 58
39 44 51
33 37 43
21 24 28
14 16 18
28 32 37
39 44 51
45 51 59
46 53 61
47 53 61
44 51 59
43 49 56
40 46 53
37 42 49
35 39 46
28 32 37
20 23 26
14 15 18
18 21 24
21 23 27
20 23 27
21 24 27
17 20 23
16 19 22
22 25 29
25 28 33
27 31 36
30 34 39
36 41 47
42 47 55
47 53 61
51 58 67
53 60 69
54 62 72
57 65 75
58 66 77
61 69 80
62 70 81
62 70 81
60 69 80
62 70 80
64 73 84
65 74 85
64 73 84
63 71 83
60 68 79
57 65 75
54 62 71
54 62 71
55 62 73
58 66 76
60 68 78
61 70 81
65 73 84
65 74 85
65 74 86
66 75 87
69 78 90
68 77 90
66 74 86
64 72 84
62 70 80
58 66 76
58 65 75
57 65 75
58 66 76
58 66 76
57 65 75
57 65 75
58 67 77
61 69 80
63 71 82
66 75 87
67 76 88
70 79 92
73 83 97
76 86 100
77 88 101
81 93 107
83 94 109
79 90 104
77 87 100
74 84 98
69 78 91
63 71 82
57 65 75
54 61 70
51 58 67
48 54 63
45 51 59
42 48 56
38 44 50
36 41 47
36 42 48
35 40 46
32 36 42
28 31 36
23 27 31
17 19 22
22 25 29
25 29 33
27 31 36
24 28 32
26 30 34
29 33 38
32 36 42
37 42 48
37 42 48
30 34 39
19 22 25
11 12 14
15 17 20
17 20 23
25 29 33
32 36 42
34 39 45
36 41 48
37 43 49
37 42 49
33 37 43
29 32 38
23 26 30
21 24 27
22 25 30
25 29 34
28 32 37
31 35 40
28 32 37
18 21 24
19 22 25
30 34 39
36 41 48
44 50 58
45 51 59
42 48 56
37 42 49
33 38 44
37 42 49
38 43 49
36 41 48
31 36 41
26 29 34
20 23 27
21 24 28
23 26 30
22 25 29
21 23 27
22 25 29
25 28 32
22 25 28
20 23 27
26 29 34
29 33 39
32 36 42
29 33 39
29 33 38
30 34 40
30 34 39
33 38 44
38 43 50
45 51 59
47 54 62
46 53 61
43 49 56
43 49 56
42 48 55
42 48 55
41 46 53
43 49 57
42 48 56
37 43 49
29 33 39
19 22 25
14 16 18
18 20 24
19 22 25
28 31 36
28 32 37
31 35 41
34 38 44
36 41 47
39 45 52
40 45 52
43 48 56
44 50 58
48 54 63
48 54 63
44 50 58
43 48 56
36 42 48
31 36 41
24 27 32
20 23 26
31 35 40
35 40 47
36 41 48
40 45 53
43 49 57
43 49 57
46 53 61
48 55 63
46 52 60
46 52 61
47 54 62
49 56 64
50 57 66
54 61 70
60 68 79
68 77 88
71 80 93
72 82 96
74 84 97
75 86 99
74 84 96
72 82 95
70 79 91
68 78 90
68 77 89
71 80 93
73 83 96
74 84 97
75 85 98
74 83 96
72 82 95
73 83 95
73 83 96
75 85 98
73 83 96
71 80 93
64 73 84
60 68 79
57 65 75
56 63 74
54 61 71
54 61 71
55 62 72
52 58 68
51 58 68
52 59 68
53 60 69
52 58 67
44 50 58
40 45 52
34 39 45
33 37 43
31 35 41
29 33 39
31 35 41
29 33 38
34 39 45
40 46 53
45 51 59
45 51 59
41 47 54
38 43 50
37 42 49
38 43 50
34 39 45
20 23 26
14 16 19
26 29 34
32 36 42
37 42 48
42 47 55
45 51 59
45 51 59
44 50 58
47 53 61
46 53 61
43 48 56
39 45 52
37 42 49
33 38 44
28 32 37
22 25 29
26 29 34
33 38 44
39 45 51
46 52 60
50 57 65
56 64 74
57 65 75
56 64 74
54 61 70
48 55 63
45 51 59
42 47 55
41 47 54
37 42 48
36 41 48
31 36 41
23 26 30
16 18 21
27 31 35
34 38 44
33 38 44
28 32 37
25 28 33
21 24 28
22 25 29
22 26 30
24 27 31
22 25 29
17 20 23
16 19 21
18 21 24
22 25 29
28 32 37
29 32 37
23 26 30
14 16 18
16 18 21
22 25 29
32 36 42
35 40 46
42 47 55
44 50 58
47 53 62
48 54 63
50 57 66
55 63 72
58 66 77
65 74 85
69 78 91
72 82 95
74 84 97
74 84 97
75 85 99
77 88 101
80 91 106
81 92 107
83 95 109
83 94 109
81 92 106
81 91 105
78 89 102
76 86 99
74 84 97
72 82 95
72 82 95
72 82 95
73 82 95
71 81 94
72 81 93
68 78 91
68 77 89
71 81 94
78 88 101
80 90 104
78 89 103
78 88 102
76 86 100
68 78 90
60 68 79
53 60 69
50 57 66
42 48 55
30 34 39
15 17 20
107 121 140
110 124 144
113 128 148
114 130 150
116 132 153
121 137 159
122 138 159
125 142 163
124 141 162
126 142 164
124 141 163
124 141 164
121 137 159
120 136 157
115 132 153
114 129 149
112 127 146
108 123 142
103 117 136
101 114 132
100 114 131
98 111 129
97 110 127
98 111 128
97 110 127
98 110 127
96 109 126
94 107 124
91 103 119
89 101 116
86 98 113
84 95 111
83 94 108
79 90 103
73 84 97
73 82 95
69 78 90
66 75 87
67 76 88
64 73 84
61 69 80
57 64 74
51 58 67
41 47 54
24 28 32
20 22 26
36 41 48
40 45 52
38 44 51
36 40 47
34 39 45
32 37 43
29 33 38
26 29 34
22 25 29
17 19 22
11 12 14
11 12 14
10 11 13
19 22 25
26 30 35
31 35 41
33 37 43
30 34 40
22 25 29
19 21 25
17 19 22
15 17 20
27 31 35
34 39 45
40 45 52
42 48 55
44 50 57
47 53 62
46 53 61
48 54 63
49 56 65
50 57 66
51 57 66
47 54 63
45 51 60
46 53 61
51 57 66
52 59 68
52 59 68
49 55 64
46 52 60
44 50 57
44 50 58
48 54 63
51 58 67
56 63 73
58 66 76
59 67 78
59 67 77
57 65 75
58 65 75
54 61 71
50 57 66
46 53 62
43 49 57
37 42 49
39 44 51
43 48 56
46 52 61
50 57 66
50 57 65
50 58 67
52 59 69
56 64 74
61 69 79
62 69 80
62 70 81
64 73 84
67 76 88
66 75 88
68 76 88
71 80 92
71 80 92
72 82 95
69 79 91
69 79 91
68 77 89
62 71 83
58 66 77
53 60 69
47 54 62
43 49 56
40 45 52
37 43 49
36 42 48
37 42 49
34 39 45
29 33 38
22 25 30
19 21 24
18 20 23
18 21 24
11 13 15
22 25 29
31 36 41
35 40 46
34 38 45
28 32 37
25 29 33
22 25 29
20 23 27
23 26 30
25 28 32
28 32 37
32 36 42
32 37 43
37 42 49
41 46 53
40 46 53
41 47 54
43 49 57
45 51 59
45 51 59
40 45 53
34 38 44
33 37 43
35 39 46
35 40 46
38 43 49
35 40 47
32 37 42
23 26 31
17 19 22
23 26 30
24 27 32
23 26 29
17 20 23
21 24 28
27 30 35
28 32 37
27 30 35
30 34 40
30 34 40
28 32 37
28 32 37
35 40 46
39 44 51
41 46 54
41 46 54
35 40 46
26 30 34
21 24 28
21 24 28
20 23 27
22 24 28
24 27 31
22 25 29
13 15 18
7 8 10
14 16 19
20 23 26
29 33 38
39 44 51
50 57 65
57 64 74
61 69 80
60 69 80
59 67 77
55 63 72
51 57 66
46 52 61
46 53 61
46 52 60
42 48 55
36 41 47
31 35 41
24 27 31
19 21 25
14 16 18
29 33 39
38 43 49
45 51 59
50 57 66
52 59 68
54 61 70
54 61 71
55 62 72
55 63 73
54 61 71
54 62 72
55 63 73
55 62 72
51 59 68
51 59 68
51 58 66
46 52 61
34 38 45
23 27 31
23 26 30
31 35 41
37 42 48
41 47 54
43 49 56
42 48 55
43 49 57
46 53 61
50 57 66
53 60 70
54 62 72
54 61 71
57 64 74
59 67 78
61 69 80
59 67 78
58 66 76
56 64 74
55 63 73
57 65 75
54 62 72
52 59 69
54 61 71
58 66 76
62 71 81
62 70 81
62 71 82
61 69 80
63 72 83
62 70 82
64 72 83
60 68 79
58 65 75
56 64 74
54 61 70
45 51 60
40 46 53
37 42 49
37 42 48
34 39 45
36 40 47
35 40 47
39 44 51
41 47 54
45 51 58
44 50 58
40 45 52
35 40 46
32 37 43
26 30 34
18 20 24
26 29 34
37 42 48
44 50 58
48 55 63
52 58 67
54 61 71
56 63 73
54 62 72
53 60 69
52 58 67
52 59 68
49 56 65
42 48 55
33 37 43
25 29 33
18 21 24
16 18 21
30 34 40
39 44 51
43 48 56
46 52 60
48 55 63
49 55 64
48 55 63
48 55 63
48 54 62
42 48 55
40 45 52
37 42 49
38 43 50
38 43 50
37 42 48
36 40 47
39 44 51
46 52 60
50 57 66
55 63 73
60 68 78
63 71 82
62 70 81
58 66 77
53 61 71
49 55 64
47 53 62
46 52 60
44 50 58
39 44 51
35 39 45
30 35 40
26 30 35
24 27 32
26 30 34
30 34 39
35 39 45
36 41 48
37 42 48
37 42 48
34 39 45
30 34 39
16 19 22
18 20 23
25 28 33
27 31 36
28 32 38
26 30 34
25 28 33
25 28 32
26 29 34
29 33 38
28 32 37
22 25 29
22 24 28
22 25 28
31 35 40
41 46 54
50 57 66
59 67 78
66 75 87
72 82 95
76 87 100
81 92 106
81 92 107
84 95 110
84 95 110
84 95 110
82 93 108
85 97 112
85 97 112
83 95 110
82 93 108
80 90 104
79 90 103
75 86 99
74 84 98
77 87 101
78 89 102
79 89 103
76 87 100
75 86 100
75 86 99
77 87 101
80 90 104
82 92 106
84 96 111
87 99 114
85 97 112
84 95 110
82 93 108
73 83 97
68 77 89
65 73 84
58 66 77
51 58 68
42 48 55
33 37 43
112 127 147
114 130 151
116 131 152
118 134 155
122 139 160
126 143 166
127 144 166
129 147 170
127 144 167
130 147 170
127 145 167
123 140 161
122 138 160
118 135 156
117 133 154
113 128 149
110 124 144
109 124 143
105 119 138
104 118 137
99 113 132
97 110 127
94 107 124
93 105 121
92 105 121
90 102 118
91 103 119
90 103 119
92 104 119
90 102 118
89 102 118
88 100 116
87 100 116
84 96 111
82 93 108
78 89 103
77 87 100
76 85 98
73 83 95
71 80 93
70 80 92
63 71 82
52 59 69
41 46 54
31 36 41
22 26 30
23 26 30
22 25 30
20 23 27
18 21 24
16 18 20
21 24 28
27 30 35
29 34 39
28 31 36
23 26 31
14 16 18
11 12 15
13 15 18
21 24 27
27 31 36
33 37 43
39 45 52
42 47 55
37 42 49
35 40 46
29 33 38
22 25 29
20 23 27
18 21 24
23 26 31
29 34 39
33 38 44
36 41 47
42 48 55
47 53 61
49 56 65
51 58 67
49 56 65
49 56 65
51 57 66
51 57 66
53 60 70
54 62 72
56 63 73
56 64 74
55 62 72
54 61 70
55 63 72
58 65 76
57 65 75
59 67 78
60 67 78
60 68 79
60 68 79
59 67 77
56 63 73
50 56 65
43 49 57
38 44 51
35 40 46
30 34 39
24 27 31
23 26 30
23 26 30
24 27 32
25 28 33
33 37 44
42 48 56
45 52 60
50 57 66
54 61 71
58 66 76
58 66 76
58 66 77
59 67 78
57 65 75
55 63 73
54 62 71
53 61 70
53 60 69
52 59 68
48 55 63
44 50 58
40 45 52
35 40 46
34 38 44
31 35 41
32 36 41
29 33 39
26 29 34
21 24 28
15 17 19
16 18 21
18 20 23
18 21 24
19 22 25
17 19 23
18 20 23
18 21 24
22 25 29
24 28 32
26 30 34
20 23 27
18 21 24
25 28 33
34 38 44
37 42 49
39 44 51
43 49 57
47 54 62
50 57 66
51 58 67
49 56 65
47 53 62
45 52 60
45 51 59
46 52 60
43 49 57
44 50 58
43 49 57
43 49 57
44 50 59
45 51 59
42 47 55
34 38 44
25 28 33
13 15 18
24 27 31
29 32 38
29 32 37
22 25 29
18 20 23
30 34 39
38 43 50
43 48 56
48 55 63
52 59 68
53 61 71
59 67 78
62 71 83
65 73 85
64 74 86
63 72 83
59 67 78
51 58 67
44 50 58
38 43 50
36 41 47
32 37 43
31 35 40
28 32 37
25 29 33
18 20 24
8 9 11
13 15 18
21 24 28
28 31 36
34 39 45
39 44 52
47 53 61
53 60 70
56 64 74
59 67 77
56 64 74
49 56 65
42 48 55
34 39 45
29 33 38
25 28 32
19 21 25
18 21 24
29 33 39
33 37 43
35 40 46
39 44 52
44 50 58
46 53 61
50 57 66
53 61 70
59 68 78
63 72 83
65 74 85
65 73 85
65 74 86
60 69 79
59 66 77
53 61 70
51 58 67
48 54 63
47 53 62
44 50 57
37 42 48
30 34 39
19 22 25
15 17 20
23 26 30
24 28 32
27 31 35
34 39 45
40 45 53
45 51 59
50 57 65
51 58 67
53 61 70
55 63 73
57 64 74
56 64 74
56 63 73
54 61 71
51 58 67
46 52 61
40 46 53
30 34 39
27 30 35
29 33 39
33 37 43
36 41 47
38 43 50
39 44 52
43 49 57
50 57 65
53 60 70
54 62 72
58 65 76
54 61 71
48 55 63
41 47 54
34 38 44
23 26 30
18 20 24
19 21 25
18 21 24
18 20 24
15 17 20
14 16 19
26 30 35
31 36 42
33 37 43
27 31 35
24 27 31
18 20 23
21 24 28
24 28 32
27 31 35
34 39 45
38 43 49
42 48 56
50 57 65
54 61 71
58 66 76
62 70 81
63 71 82
64 72 83
64 72 84
62 70 81
55 63 73
49 56 65
44 50 58
41 47 54
32 36 42
21 23 27
24 27 31
29 33 38
34 39 45
41 47 54
44 50 58
49 55 63
51 58 67
56 63 73
57 65 75
57 65 76
56 63 73
54 62 71
52 59 68
50 57 66
50 57 66
54 61 70
57 65 75
60 68 79
64 73 85
66 76 88
68 78 90
68 77 88
64 72 84
58 66 77
52 59 69
45 51 59
39 44 51
39 44 51
40 45 52
42 47 55
44 51 59
46 52 60
46 52 60
47 54 62
51 58 67
57 65 75
58 66 76
56 64 74
51 59 69
49 55 64
45 52 60
42 48 56
37 41 48
28 31 36
21 24 28
18 20 24
22 25 29
26 30 34
28 32 37
28 32 37
28 32 37
29 33 38
28 32 37
27 30 35
22 25 29
17 19 22
18 20 23
33 38 44
47 53 61
56 63 73
64 72 83
70 80 92
74 84 97
75 85 98
79 90 104
82 94 109
86 98 113
90 102 118
92 104 121
92 105 121
90 103 119
89 101 116
86 98 114
83 94 108
79 90 103
75 85 99
73 83 96
75 85 98
75 86 99
75 85 98
76 86 100
77 88 101
80 91 105
85 95 110
86 98 112
86 98 113
88 100 115
90 102 118
89 101 116
83 95 109
79 90 104
74 84 98
67 76 88
63 72 83
60 68 79
58 66 76
52 60 69
45 52 60
119 135 156
120 136 157
122 139 161
122 139 162
126 143 164
127 144 165
128 145 168
127 144 167
130 147 169
126 144 167
127 145 168
124 141 163
119 135 157
118 134 155
116 132 152
116 132 152
115 130 151
113 129 149
111 126 146
109 124 143
108 122 141
105 119 137
102 116 134
99 113 131
99 112 129
95 108 125
92 105 121
89 101 117
87 99 115
86 98 114
87 99 114
87 98 113
85 96 110
82 93 108
81 91 105
80 90 104
78 89 103
76 86 100
75 85 98
75 85 98
71 80 93
67 76 87
63 72 84
59 68 78
55 62 71
48 55 64
44 50 58
39 44 51
29 33 38
19 22 25
14 16 19
16 18 21
21 24 27
24 28 32
23 26 30
26 29 34
17 20 23
12 14 16
16 18 21
23 26 30
32 37 42
36 41 48
39 44 51
40 45 52
38 43 50
37 43 49
38 43 49
35 39 46
30 34 40
26 30 34
19 22 25
12 13 15
19 22 25
28 32 37
37 43 49
43 49 57
50 57 66
57 65 75
60 69 80
63 71 83
63 72 83
63 71 83
64 73 85
63 72 83
61 69 80
59 66 77
58 66 75
57 64 74
57 65 75
60 68 79
62 70 81
63 71 82
63 72 83
64 73 85
64 72 84
57 65 76
52 59 68
46 53 61
42 47 55
34 38 44
25 28 33
20 22 26
15 17 19
22 25 29
26 29 34
31 35 40
30 34 40
24 27 31
17 19 22
20 23 27
27 31 36
34 39 45
34 39 45
32 36 42
32 37 43
34 39 45
31 36 41
30 34 39
30 34 39
33 37 43
33 38 44
31 35 40
32 36 41
30 34 39
29 33 38
29 33 38
30 34 40
23 26 30
21 24 28
19 22 25
16 18 21
12 14 16
12 13 16
13 15 18
24 28 32
30 33 39
31 35 40
27 31 36
20 22 26
17 19 22
17 19 23
15 17 20
15 17 20
25 29 34
33 37 43
38 43 50
40 46 53
45 52 60
48 54 63
48 55 64
48 55 64
48 54 63
46 52 60
42 47 55
36 40 47
28 32 37
29 33 39
31 35 40
33 37 43
38 43 49
39 44 51
34 39 45
28 32 37
25 29 33
22 25 30
18 20 23
19 21 25
18 20 23
16 19 22
18 20 24
17 20 23
17 19 22
24 28 32
32 36 42
35 40 47
40 45 53
45 52 60
52 59 69
57 64 74
61 70 81
67 76 88
67 77 89
67 77 89
64 73 84
61 70 81
58 66 77
59 67 77
56 64 74
54 62 71
52 59 68
47 53 61
42 47 55
35 40 46
29 33 38
24 28 32
24 27 31
30 34 39
39 44 51
44 50 58
47 54 62
50 57 65
51 58 67
47 53 62
44 50 58
35 39 46
24 27 32
19 22 25
19 22 25
20 23 27
26 30 34
33 37 43
39 44 51
45 51 59
48 55 64
49 56 65
50 57 66
51 58 67
52 58 67
54 61 70
56 64 74
59 67 77
61 69 80
61 69 80
59 67 77
56 64 74
57 64 74
55 62 72
54 62 71
51 58 67
47 53 62
44 50 58
42 48 55
35 40 46
25 28 33
15 17 20
10 12 13
16 19 22
25 28 33
32 37 42
38 43 49
39 45 52
43 48 56
47 53 62
51 58 67
53 60 70
51 58 67
51 57 66
50 56 65
50 56 65
51 58 68
49 56 65
44 50 57
41 46 53
34 39 44
26 29 33
24 27 32
25 28 32
26 29 34
29 33 38
31 35 40
36 41 47
40 45 52
42 48 55
43 49 57
40 45 52
34 39 45
27 31 36
27 31 36
24 27 31
20 23 27
13 15 17
17 19 22
26 30 35
30 34 39
26 30 34
23 26 30
24 27 32
21 24 28
22 25 29
21 24 28
24 27 32
30 34 39
36 41 47
40 46 53
43 49 57
45 52 60
49 55 64
51 58 67
55 63 72
59 67 78
60 68 79
62 71 82
67 75 87
67 77 89
67 76 89
66 75 87
64 73 85
63 72 83
61 69 80
56 63 73
47 54 62
42 48 56
38 43 49
33 38 44
23 26 30
16 19 22
18 21 24
27 31 36
40 46 53
50 57 66
58 66 76
61 69 80
64 72 84
63 72 84
64 73 85
62 71 82
65 73 84
65 74 86
69 79 91
73 83 96
73 84 97
73 83 96
69 79 91
65 73 84
58 67 77
53 60 70
48 55 63
46 52 60
44 50 58
43 49 57
42 47 55
42 47 55
39 44 51
40 45 52
46 52 60
51 57 66
57 65 75
62 71 82
64 73 84
62 70 82
60 68 78
56 63 73
52 59 68
49 55 64
45 51 59
42 48 55
40 46 53
36 41 48
27 31 36
17 19 22
16 18 21
19 22 25
23 25 29
18 21 24
20 23 26
24 28 32
30 34 39
34 39 45
39 44 51
44 50 58
51 58 67
58 66 77
65 73 85
68 78 90
71 81 93
75 85 99
79 90 104
82 93 108
87 99 113
91 103 119
92 105 121
93 105 121
92 105 121
91 104 120
89 102 118
86 97 113
83 94 108
80 92 106
80 91 106
78 88 102
77 87 100
77 87 101
78 88 102
80 91 105
82 94 108
85 96 111
85 98 113
88 100 116
87 99 115
87 99 115
84 96 111
83 94 109
80 91 105
76 86 100
71 81 93
66 74 86
60 68 78
58 65 75
54 62 72
54 61 71
121 137 159
122 138 160
122 139 161
125 142 164
125 142 164
125 141 163
127 143 165
126 143 166
126 143 165
123 139 161
122 139 161
121 138 160
120 137 158
122 138 160
120 136 156
118 135 156
118 134 155
116 132 152
115 130 151
114 129 149
114 129 149
112 126 146
108 123 143
106 121 140
103 117 136
102 115 134
99 111 128
93 105 122
90 102 117
88 100 115
84 95 110
82 94 109
82 93 107
78 89 104
76 87 101
76 87 100
75 86 99
75 85 99
74 84 97
72 82 94
70 80 92
67 76 88
67 76 87
63 72 83
59 68 78
58 66 77
55 63 72
49 57 66
46 52 60
44 50 58
43 49 57
42 48 56
41 47 55
42 48 55
39 44 50
34 39 45
25 29 34
18 20 23
16 18 21
25 29 34
28 32 37
25 28 33
23 26 31
22 25 29
20 22 26
20 23 27
24 27 31
26 29 34
29 34 39
32 36 42
25 28 33
15 17 19
31 35 41
41 46 54
47 54 63
54 62 72
60 68 79
64 73 85
68 77 89
68 78 90
66 75 87
64 72 84
63 72 83
62 70 81
59 68 78
59 67 78
60 68 79
61 69 80
62 70 81
61 69 80
63 72 83
61 68 79
58 65 75
54 62 71
51 58 67
42 48 56
37 42 48
27 31 36
21 24 27
22 25 29
29 33 38
32 36 42
38 43 49
44 50 57
44 50 58
46 52 60
44 49 57
44 50 57
41 47 54
40 45 53
44 49 57
46 53 61
50 57 66
55 62 71
56 64 74
54 62 72
51 58 67
47 53 62
43 49 57
42 48 56
42 48 55
39 44 51
31 35 40
24 27 32
26 29 34
25 28 33
20 23 26
20 23 26
28 32 37
31 35 41
29 33 38
27 31 36
29 33 38
34 39 45
36 41 47
33 37 43
31 35 41
29 33 38
25 28 32
21 24 28
15 17 20
17 19 22
24 27 31
29 33 39
35 40 46
45 51 59
46 53 61
49 56 64
49 55 64
50 57 66
50 57 66
49 55 64
43 49 56
33 38 44
25 28 33
15 18 20
12 14 16
16 18 21
24 28 32
29 33 38
27 30 35
19 22 26
13 15 17
26 29 34
32 37 43
32 36 42
23 26 30
11 13 15
15 17 20
21 24 27
27 31 36
34 39 45
35 40 46
40 46 53
45 52 59
51 58 66
55 63 72
56 64 74
59 67 78
60 68 79
60 68 79
55 63 73
53 60 70
52 59 69
53 60 70
52 60 69
53 61 70
55 62 72
57 65 74
55 63 73
53 60 69
50 57 66
47 53 61
42 48 56
41 47 54
42 48 56
48 54 62
52 59 69
54 61 70
49 56 64
43 49 57
37 42 49
25 28 33
16 18 21
20 23 26
25 28 33
29 33 38
32 36 42
33 37 43
37 42 49
41 46 54
46 53 61
49 56 65
52 59 67
52 59 68
53 60 70
54 61 71
56 63 73
58 66 76
61 69 80
62 71 82
58 65 76
52 58 67
49 55 64
50 56 65
50 56 65
48 54 63
48 54 62
47 53 61
44 50 58
43 48 56
42 48 55
41 47 55
40 46 53
39 45 52
39 45 52
32 37 43
27 30 35
23 26 30
23 26 30
20 22 26
31 35 40
41 47 54
46 53 61
49 55 64
48 54 63
48 54 62
47 54 62
46 52 60
44 50 58
45 51 59
42 48 56
35 40 46
29 33 38
18 21 24
11 12 15
14 16 19
15 17 20
15 17 20
17 19 22
21 24 28
21 24 28
14 16 19
19 21 25
20 23 26
17 19 22
14 16 18
15 17 20
11 12 14
9 11 13
17 19 22
25 28 33
25 29 34
23 27 31
24 28 32
31 35 41
34 38 44
31 36 41
29 33 38
28 31 36
29 33 38
32 37 42
34 39 45
37 42 49
41 46 53
43 49 57
48 54 63
54 61 71
58 66 76
61 70 81
63 72 84
65 74 85
67 77 89
69 78 90
68 78 90
69 79 91
70 79 91
70 79 91
66 75 87
65 74 85
61 70 80
55 62 72
44 50 57
34 38 45
29 33 38
23 26 30
12 14 16
21 23 27
34 39 45
45 52 60
52 60 69
57 65 75
61 70 81
65 74 85
67 76 88
71 80 93
73 83 96
76 86 99
78 88 102
80 91 106
77 89 103
76 87 100
71 80 93
65 73 84
58 66 76
51 58 67
50 57 65
53 60 69
54 61 71
56 63 73
54 62 72
53 61 70
51 58 67
52 59 68
54 61 71
55 63 73
56 64 73
54 62 71
54 61 70
52 60 69
53 61 70
51 58 68
46 53 61
42 48 56
45 52 60
45 52 60
42 48 56
37 42 49
29 34 39
26 30 35
22 25 29
20 23 27
25 29 33
32 37 42
36 41 47
41 46 53
42 48 55
48 54 62
52 59 68
57 65 75
60 68 79
63 71 82
66 75 86
67 76 89
71 81 94
77 87 101
81 92 106
85 96 111
86 98 114
86 98 113
88 100 116
88 100 116
88 100 115
85 97 112
83 94 109
82 93 108
83 94 108
84 95 110
83 95 109
85 97 112
83 94 109
83 94 109
85 96 111
86 98 114
86 97 112
87 98 113
88 100 116
90 102 118
88 99 115
85 97 112
83 94 109
80 92 106
78 88 101
73 84 97
70 79 91
69 78 90
66 75 87
65 74 85
63 72 83
62 71 82
121 138 160
124 141 163
126 143 165
126 143 166
123 140 163
126 142 163
120 136 158
121 137 159
121 138 159
122 138 160
121 137 158
122 139 161
121 138 160
123 139 161
124 141 162
124 141 163
122 139 161
122 138 160
120 136 157
118 134 155
116 131 151
112 127 147
110 125 145
107 121 140
103 117 134
98 113 131
97 109 126
94 106 122
91 103 120
89 102 118
87 99 114
83 94 109
78 89 103
74 84 97
70 79 92
68 77 90
71 80 93
70 80 92
69 79 91
69 79 92
69 79 91
69 79 91
67 77 89
66 75 87
64 72 83
60 68 79
58 65 75
54 61 70
51 58 67
49 55 64
49 55 64
51 58 67
52 59 68
51 58 67
48 54 63
40 46 53
33 38 43
24 27 31
16 18 21
11 12 14
11 12 14
14 15 18
15 17 20
14 16 19
12 13 16
16 18 21
17 20 23
16 18 21
20 23 26
24 27 32
30 34 40
40 45 52
48 54 63
54 61 71
60 68 79
67 76 88
68 78 90
68 77 89
67 76 88
68 77 89
66 75 87
66 75 87
65 74 85
65 73 85
64 73 85
66 75 87
66 75 86
64 73 85
62 70 82
58 66 77
55 63 73
50 57 67
44 50 58
38 43 50
32 37 43
25 29 33
19 22 25
21 24 27
32 37 42
40 46 53
48 55 63
52 59 69
55 62 72
55 62 72
56 64 74
57 65 75
59 67 77
59 67 78
58 66 77
60 68 79
62 70 81
64 72 83
64 73 84
66 76 88
68 77 89
69 78 90
67 76 88
65 73 85
62 71 82
60 68 79
54 61 71
47 54 62
45 52 60
43 49 57
38 43 50
32 37 43
33 37 43
32 37 43
32 37 42
33 37 43
35 40 46
36 42 49
37 42 49
37 42 48
34 38 44
33 37 43
30 34 40
32 36 42
24 27 32
18 20 23
9 11 12
14 16 19
23 26 30
31 35 41
37 42 49
45 51 59
47 53 61
46 53 61
45 51 60
45 51 59
41 47 55
38 43 50
36 41 47
29 33 38
19 22 25
18 21 24
21 24 28
22 25 29
11 13 15
12 14 16
17 19 22
18 20 24
18 20 24
17 19 22
17 19 22
14 16 19
8 9 11
14 16 18
13 15 18
21 24 28
33 37 43
41 47 55
46 52 60
50 56 65
54 61 71
56 64 74
55 63 73
54 62 71
54 62 71
53 60 69
54 61 70
55 62 71
55 63 73
53 60 70
50 57 65
48 55 63
50 57 66
52 59 69
53 61 70
56 64 74
58 66 76
59 67 77
62 70 81
62 70 81
64 72 84
65 74 86
65 74 86
64 72 83
58 66 77
49 56 65
38 43 50
22 25 29
19 22 25
24 27 31
22 25 29
18 20 24
20 23 27
27 31 36
36 40 47
43 49 56
48 54 63
52 59 69
55 63 73
56 64 74
55 63 73
58 66 77
60 68 79
63 72 83
67 76 88
67 76 88
66 75 86
65 74 86
65 74 85
65 74 85
61 69 79
60 68 79
59 67 78
63 71 82
60 68 78
57 65 75
54 61 71
52 59 68
50 58 67
51 58 68
51 58 67
50 56 65
46 52 60
45 51 59
42 48 56
37 42 49
24 27 31
22 25 29
25 28 33
25 28 33
24 28 32
29 33 38
33 37 43
32 37 42
34 38 45
37 42 49
39 45 52
38 43 50
32 36 42
22 24 28
16 19 22
10 11 13
13 15 17
12 14 16
10 11 13
11 12 14
20 23 27
24 27 31
29 33 38
25 29 34
20 22 26
19 22 25
20 23 26
21 24 28
20 22 26
20 23 27
21 24 28
23 27 31
32 36 42
36 41 47
38 44 51
39 45 52
37 42 49
35 40 47
34 39 45
29 33 38
22 25 29
15 17 20
15 16 19
17 19 22
28 31 37
35 40 46
44 50 57
51 58 67
58 66 77
65 73 85
67 76 88
67 76 88
68 78 90
68 78 90
69 78 91
68 77 89
70 80 92
70 80 93
69 79 91
66 75 87
63 71 82
57 65 75
55 62 71
51 58 67
43 49 57
33 38 44
24 27 31
20 23 26
20 23 26
29 33 38
38 43 50
43 49 57
46 52 60
49 56 65
55 62 72
58 66 76
63 72 83
68 78 90
71 80 93
72 82 94
71 80 93
66 75 87
66 74 86
62 70 81
62 70 81
62 70 81
61 70 80
63 71 82
63 71 82
61 68 79
57 65 75
55 63 73
54 62 72
54 62 71
56 64 74
58 66 76
58 66 77
56 64 74
53 60 70
48 55 64
44 50 58
41 47 54
37 42 49
37 42 48
36 41 47
34 38 44
28 32 37
26 30 34
28 32 37
30 34 39
32 37 43
38 44 50
45 51 59
50 57 67
56 64 74
58 66 77
58 65 76
59 67 78
62 71 82
64 73 84
67 76 89
69 79 91
69 78 91
70 80 93
71 80 93
74 84 97
76 87 100
80 91 106
83 94 108
84 96 111
86 98 114
85 97 112
86 97 113
85 96 111
84 96 111
86 97 112
85 96 111
84 96 111
86 97 112
83 94 109
87 99 115
88 100 116
90 103 118
92 105 121
93 105 122
93 106 123
95 108 126
98 111 128
94 107 124
94 107 124
91 104 120
89 101 117
85 97 113
82 93 107
78 89 102
71 81 94
73 83 96
74 84 97
73 83 96
70 80 92
121 138 160
123 140 162
123 140 162
123 140 161
123 140 161
125 142 164
125 142 165
123 140 161
126 142 164
124 141 163
124 141 162
124 141 164
125 142 164
123 140 162
124 140 162
124 141 163
121 138 160
122 138 159
120 137 159
120 136 157
120 137 158
116 132 152
113 129 149
108 123 142
103 117 135
100 114 131
98 111 128
96 109 126
94 107 123
91 104 120
88 100 116
87 99 114
84 96 111
81 92 106
78 89 102
77 87 101
76 86 100
75 85 98
73 82 95
70 79 92
69 79 91
68 77 89
65 74 86
63 71 83
59 68 78
56 64 74
54 61 71
51 58 68
51 58 67
51 58 67
53 61 70
54 61 70
53 61 70
51 58 67
48 54 63
43 49 57
40 45 52
36 41 47
34 39 45
30 34 39
27 31 35
25 29 33
30 34 39
32 36 42
34 38 44
38 43 50
41 46 54
44 50 58
45 52 60
53 61 70
56 64 74
62 70 81
64 73 85
67 76 88
65 74 85
63 72 83
62 71 82
64 73 85
66 75 87
66 75 86
66 75 86
69 78 90
71 81 94
70 80 92
70 79 92
66 75 87
62 70 81
58 67 77
56 64 74
51 58 67
43 48 56
37 42 49
31 36 41
28 32 37
23 26 30
22 25 29
31 35 41
38 43 50
43 49 57
49 56 64
54 62 72
57 65 75
59 66 77
58 66 77
62 70 81
63 72 83
63 72 84
64 72 84
65 74 85
68 77 89
70 79 92
71 80 93
71 81 94
73 83 96
74 83 96
72 81 94
71 80 93
67 76 88
61 70 82
59 67 77
55 62 72
52 59 68
50 56 65
47 54 62
43 49 57
42 47 55
41 47 55
39 44 52
38 43 49
37 42 49
38 43 50
38 43 50
32 37 43
29 33 39
31 36 41
31 35 41
23 26 30
15 18 20
21 24 28
27 31 36
32 37 42
36 41 48
39 44 51
41 46 53
42 48 55
48 54 63
50 57 66
51 58 67
48 54 63
43 49 57
38 44 50
33 38 44
27 31 35
13 14 17
13 14 17
20 23 26
22 25 29
23 27 31
13 15 17
16 19 22
24 27 31
26 30 35
25 29 33
24 27 31
23 26 30
24 27 32
24 28 32
33 38 43
40 45 53
44 50 58
46 52 60
48 55 64
51 58 67
53 60 70
55 63 73
54 62 71
50 58 67
49 56 65
50 57 66
53 60 69
52 59 68
51 59 68
53 60 70
51 58 67
49 56 65
48 54 63
49 56 65
49 56 65
52 60 69
54 61 70
56 64 74
60 68 78
62 70 81
66 75 87
68 77 89
69 78 91
66 75 87
62 70 80
55 62 71
49 56 65
44 50 57
38 44 50
34 39 45
29 33 38
26 30 35
15 17 20
19 22 25
29 33 38
37 42 48
46 52 60
51 57 66
54 61 71
57 64 74
61 69 80
64 73 85
68 77 90
69 79 91
69 79 91
73 82 95
73 83 97
78 88 102
79 89 103
76 86 99
75 85 98
74 84 97
75 84 97
74 84 98
73 83 95
71 81 93
67 77 89
64 73 85
62 70 81
60 68 78
58 66 77
57 65 75
58 66 76
56 63 73
52 60 69
46 52 61
41 47 55
40 45 52
41 46 53
40 46 53
38 43 50
35 39 45
34 39 45
36 40 47
28 31 36
25 28 32
23 26 30
27 30 35
30 34 39
33 38 44
35 40 46
34 39 45
31 35 40
23 26 31
17 20 23
14 17 19
24 28 32
33 38 43
36 41 47
34 38 44
26 29 34
16 18 21
19 22 25
19 21 25
22 25 29
21 24 28
17 20 23
12 14 16
10 11 13
17 20 23
20 23 27
24 28 32
27 31 36
36 41 47
37 43 49
33 37 43
24 27 32
18 20 24
23 26 30
31 36 41
32 36 42
37 42 49
39 45 52
47 53 62
52 59 69
59 67 77
63 71 82
66 75 86
68 76 88
70 79 92
69 78 90
69 78 91
69 79 91
69 79 92
67 77 89
65 74 85
59 67 77
55 62 72
51 58 67
48 54 63
43 49 56
40 46 53
38 44 50
36 40 47
29 34 39
27 31 36
21 24 28
18 20 23
20 23 26
19 21 25
30 34 40
40 45 52
47 54 62
54 61 71
58 65 76
56 64 74
55 62 72
51 58 67
45 51 59
41 46 53
41 47 54
46 52 60
52 59 68
58 65 76
60 69 80
62 71 82
62 70 81
63 71 82
59 68 79
59 67 77
61 69 79
63 72 83
63 71 82
61 69 79
55 63 73
48 54 62
38 43 49
30 34 39
29 33 38
26 30 34
20 23 27
19 22 26
18 21 24
18 20 24
22 25 29
24 28 32
27 31 35
19 22 26
25 28 33
38 43 50
51 57 66
57 64 74
61 70 80
64 72 84
64 73 84
64 72 84
66 74 86
67 76 88
69 78 91
72 82 95
73 83 97
74 85 98
73 82 95
71 80 93
72 81 94
72 82 95
76 86 100
78 88 101
78 89 103
80 91 106
83 94 108
85 96 110
86 97 113
86 97 112
84 96 112
88 100 116
90 102 118
94 107 124
96 109 127
97 110 127
101 114 132
102 116 134
104 118 136
104 118 137
104 117 135
101 114 132
98 111 128
97 110 127
94 106 123
91 103 119
87 99 114
86 97 112
85 97 112
83 94 108
82 93 108
80 91 105
79 90 104
119 135 156
118 134 155
120 136 157
120 136 157
122 138 160
123 140 162
122 138 159
122 139 161
124 141 163
123 140 161
121 138 160
121 138 160
120 136 156
120 136 157
121 137 158
121 138 161
125 141 163
125 142 163
122 139 161
120 137 158
118 133 154
114 129 148
110 125 145
109 123 143
106 120 139
104 118 137
102 115 133
99 113 131
99 112 129
98 112 129
98 111 128
94 106 123
91 103 118
88 99 115
83 95 110
81 93 107
80 91 105
77 87 100
73 83 97
69 79 92
64 73 84
60 68 79
59 67 78
58 65 75
54 62 71
53 60 70
53 61 70
53 60 70
52 59 69
54 61 71
56 63 73
55 63 73
52 59 68
51 58 67
51 57 66
49 56 64
50 57 65
52 59 68
51 58 67
49 56 65
48 55 63
49 56 65
50 57 66
52 60 69
53 60 70
57 65 76
63 71 82
66 75 87
69 78 90
70 80 92
69 79 91
68 78 90
67 76 88
65 74 86
64 72 84
63 71 83
62 70 81
61 69 80
59 67 78
61 69 80
61 69 80
61 69 80
59 67 78
58 66 77
55 63 72
55 62 72
56 63 73
53 60 70
49 55 64
41 47 54
32 37 42
19 22 26
17 19 22
31 35 40
39 45 52
46 53 61
45 51 59
50 56 65
52 60 69
53 60 70
53 60 70
56 63 73
58 66 76
59 66 77
63 71 82
66 76 87
71 80 92
71 80 93
72 82 95
73 82 95
73 83 96
74 84 97
72 82 96
72 82 95
72 81 94
70 79 91
68 77 89
65 74 85
61 69 80
58 66 76
56 63 74
54 62 71
50 57 66
49 55 64
51 58 68
54 61 71
55 62 73
57 64 74
57 65 75
53 61 70
50 57 66
44 50 58
45 51 59
45 50 58
39 44 51
26 30 34
15 17 20
12 14 16
13 14 17
20 23 26
27 31 36
30 34 40
30 34 39
32 36 42
34 38 44
36 40 47
36 41 48
32 37 42
34 39 45
33 37 43
30 34 39
21 24 28
13 15 17
15 17 20
19 22 26
21 24 28
19 21 24
19 21 25
16 19 21
11 12 14
14 17 19
10 11 13
20 23 27
27 31 36
36 40 46
43 49 57
48 55 63
53 60 70
56 64 74
58 66 77
57 65 75
57 65 75
59 67 77
59 67 78
61 70 80
63 71 82
62 70 81
62 70 81
58 67 77
58 66 77
57 65 75
56 64 74
56 64 73
56 63 73
53 61 70
56 64 74
58 66 76
58 66 77
61 69 80
65 74 85
67 76 88
72 82 95
74 84 97
73 83 95
70 80 93
65 74 86
57 66 77
51 57 66
45 50 58
41 47 55
41 46 54
41 47 54
44 50 58
41 47 54
35 40 46
27 31 36
16 19 22
21 24 28
32 36 42
34 38 44
37 42 49
46 52 61
57 65 75
66 75 86
72 82 95
77 88 101
84 95 110
87 99 115
89 101 116
90 102 118
90 102 118
92 104 120
90 103 119
90 101 117
87 99 114
84 95 110
82 93 108
80 91 105
75 86 99
72 82 95
70 79 91
68 78 90
66 74 86
64 72 84
64 73 84
64 73 84
60 69 79
58 66 76
58 66 76
60 68 78
60 68 79
58 65 75
54 61 71
51 58 67
46 52 60
43 49 57
36 41 48
32 36 42
24 27 32
15 16 19
24 28 32
33 38 44
38 43 50
39 44 51
39 44 51
38 43 49
34 38 44
26 29 33
13 15 18
21 24 28
27 31 35
26 29 34
21 24 28
19 21 25
14 16 18
17 20 23
25 28 32
24 27 32
21 24 28
22 25 29
20 22 26
20 23 27
22 25 29
25 28 33
21 24 27
20 23 26
16 18 21
16 18 21
17 19 22
15 17 19
27 31 35
36 41 48
44 50 58
50 57 66
56 64 75
63 71 83
66 75 87
68 77 89
68 78 90
70 79 92
71 80 93
69 79 91
71 81 93
72 82 94
74 84 96
73 83 96
72 82 94
70 80 93
67 77 89
64 73 84
60 68 79
55 62 72
50 57 66
52 59 68
53 60 70
51 58 67
47 54 62
46 52 60
46 53 61
44 50 58
43 49 56
42 48 56
40 45 52
29 33 38
24 28 32
30 34 39
32 36 42
33 37 43
31 35 40
28 31 36
25 29 33
23 26 30
21 24 28
20 23 27
21 23 27
27 31 36
35 39 45
40 45 53
43 49 57
46 53 61
51 58 67
55 63 73
60 68 79
61 69 80
64 73 84
65 74 86
63 71 82
59 67 77
53 60 69
43 49 57
35 40 47
29 33 39
20 23 27
16 18 21
13 15 17
19 22 25
26 29 34
32 37 43
37 42 48
34 39 45
26 30 34
12 14 16
18 20 24
26 30 34
37 42 49
47 53 61
54 61 70
57 65 75
56 64 74
55 62 72
53 60 69
57 64 75
59 67 78
62 71 82
66 74 86
68 77 89
68 76 88
68 77 89
70 79 92
72 82 95
74 84 97
77 87 101
77 88 101
79 89 103
80 90 104
79 90 104
81 92 106
85 95 110
90 102 117
93 105 121
97 110 127
101 115 133
104 118 136
106 121 140
107 122 141
105 120 139
106 120 139
102 115 133
97 111 128
95 108 126
92 104 120
88 99 115
85 97 112
83 95 110
85 96 111
85 96 111
85 96 112
85 96 110
82 93 107
82 93 107
120 137 158
119 136 158
119 135 156
118 134 154
116 132 152
116 132 153
117 133 153
117 133 154
117 133 155
119 135 155
120 135 156
121 138 160
124 140 161
124 141 163
122 139 161
123 140 162
122 138 159
121 138 159
119 135 156
118 133 154
113 128 149
114 128 148
111 126 145
107 121 140
103 117 136
104 118 137
102 115 133
100 114 131
98 111 129
96 109 127
95 108 125
91 104 121
91 103 119
86 98 113
85 97 113
81 92 107
81 92 107
75 86 99
70 80 93
65 74 86
63 71 82
58 66 76
55 63 73
57 64 75
54 62 72
53 61 70
56 63 73
55 63 73
55 62 72
56 64 74
55 62 72
53 60 69
52 59 68
53 60 69
56 64 74
59 67 77
64 72 83
65 74 85
64 73 84
63 71 82
62 70 80
60 68 79
60 68 79
65 73 84
68 77 89
71 81 94
72 82 95
72 82 94
71 81 94
69 78 91
68 77 89
66 75 86
63 71 82
59 67 78
56 63 74
57 64 74
55 63 72
52 59 69
51 58 67
50 57 66
50 57 65
50 57 65
50 57 66
50 57 66
50 57 66
49 56 65
45 51 59
39 44 50
29 33 38
26 29 34
22 25 29
26 29 34
34 39 45
40 45 53
46 52 60
50 57 66
53 60 69
54 61 71
54 61 71
55 63 72
57 65 75
58 65 76
60 68 79
61 70 81
64 72 84
67 76 88
67 76 88
69 78 90
69 78 89
70 80 92
70 79 92
69 79 92
69 79 91
68 78 90
67 76 88
65 74 85
64 73 84
62 70 81
61 70 81
60 68 79
57 65 75
54 62 71
53 61 70
57 64 74
59 67 78
61 69 80
60 68 79
59 68 78
60 68 78
59 68 78
59 66 77
56 63 74
53 60 69
48 55 63
42 48 56
34 39 45
31 35 41
23 26 30
12 14 16
16 18 21
18 20 23
17 20 23
20 23 26
19 22 25
20 23 26
16 19 22
14 16 19
12 14 16
15 17 19
19 21 25
18 21 24
22 25 29
23 26 30
22 25 28
20 23 27
17 20 23
15 17 20
13 15 18
13 14 17
15 17 20
18 21 24
20 23 27
25 29 34
35 40 46
39 44 51
44 50 58
49 56 64
53 60 69
56 63 73
57 65 75
59 67 78
59 67 78
59 67 78
61 69 80
63 71 82
65 74 85
66 75 87
66 75 87
65 74 86
64 72 84
62 70 80
61 69 79
59 67 78
62 70 81
66 75 86
66 75 87
67 76 89
71 81 93
75 86 99
79 89 103
80 91 105
79 90 104
78 89 103
75 85 98
68 78 91
63 72 83
60 68 78
51 59 68
46 52 61
43 49 57
44 50 57
42 47 55
40 45 52
35 39 45
29 33 38
22 25 29
16 19 21
12 14 16
16 19 22
24 27 32
30 34 40
40 45 52
54 61 70
63 71 83
75 85 98
81 92 105
85 97 112
88 100 115
95 107 123
96 109 125
98 111 128
99 113 130
99 113 131
100 113 130
95 108 125
93 106 122
88 100 116
86 97 113
84 95 110
79 91 105
77 87 101
77 87 100
77 87 100
73 84 97
72 82 94
68 78 90
66 75 87
67 76 87
68 78 90
70 79 92
70 79 91
67 76 88
64 73 84
61 70 81
56 64 74
46 52 60
32 36 42
20 23 27
16 19 22
21 24 27
29 33 38
32 36 42
37 43 49
40 45 52
39 44 50
37 42 48
29 33 39
18 21 25
13 15 18
18 20 23
18 20 24
19 21 24
24 27 31
27 30 35
32 36 42
36 41 47
37 42 48
36 41 48
33 37 43
32 36 42
31 35 41
30 34 39
31 35 41
32 37 43
30 34 39
28 32 38
26 29 34
17 20 23
17 20 23
24 27 31
32 36 42
38 43 50
46 52 60
55 62 72
61 69 80
66 76 88
71 81 94
74 84 97
78 88 102
79 90 104
79 89 103
80 90 104
77 87 102
77 88 101
75 86 99
74 84 97
72 83 96
71 81 94
71 81 94
70 80 92
68 77 89
66 75 87
66 74 86
65 74 85
66 75 87
67 76 88
65 74 86
62 70 81
64 72 83
63 71 83
63 71 82
61 69 80
59 67 77
55 62 72
53 60 69
50 57 66
48 55 63
52 59 69
52 59 68
53 60 69
51 58 68
47 53 61
43 49 56
38 43 50
37 42 49
35 39 46
33 37 42
28 32 37
25 29 33
26 29 34
19 21 25
20 23 27
27 31 36
32 37 42
38 43 49
38 43 50
37 42 49
36 41 47
30 34 40
26 29 34
24 27 31
25 28 33
22 25 28
20 23 27
20 22 26
28 32 37
34 38 44
38 44 51
42 47 54
43 49 56
41 47 54
30 34 39
15 17 20
23 27 31
33 37 43
39 44 51
42 48 56
39 44 51
37 43 49
32 36 42
28 31 36
25 28 33
26 29 34
31 35 41
37 42 49
40 45 52
43 49 57
46 52 60
54 60 70
60 68 78
66 75 87
70 80 92
75 85 98
77 87 101
75 85 99
76 87 100
78 88 102
83 94 108
88 100 116
93 105 121
97 110 127
99 113 130
102 115 134
102 115 133
100 113 130
96 109 127
94 107 123
93 105 122
92 105 121
89 100 115
85 96 111
82 93 108
79 90 104
78 89 103
79 89 103
79 90 104
78 89 103
77 88 102
76 87 100
73 83 96
115 130 151
114 129 149
114 129 149
112 127 147
110 125 144
110 125 145
111 126 145
111 127 147
111 125 145
113 127 147
113 129 149
113 128 148
116 132 153
118 134 154
118 133 154
117 133 153
116 131 151
116 132 153
116 132 152
112 127 147
113 128 147
109 124 144
105 120 139
104 118 136
102 116 134
99 113 131
97 110 128
95 108 125
92 105 122
90 102 118
88 100 115
83 94 109
81 92 106
77 87 101
74 84 97
71 81 94
70 80 92
66 75 87
61 70 80
59 67 77
57 65 76
55 62 72
57 64 74
56 64 74
55 63 73
54 61 71
55 62 72
54 61 71
52 59 68
51 58 67
52 59 68
54 61 70
55 62 72
58 65 75
61 69 80
63 72 84
64 72 83
63 72 83
62 70 81
64 73 84
63 71 83
61 70 81
65 74 85
70 79 92
71 80 92
70 79 92
67 76 88
64 73 84
60 68 79
56 64 74
53 60 69
49 56 64
45 51 59
40 45 52
37 42 48
31 35 41
31 35 41
27 31 36
26 29 34
28 32 38
26 30 35
24 27 31
30 34 39
33 37 43
32 37 43
26 30 35
20 22 26
21 24 28
32 36 41
38 43 50
43 49 57
47 53 62
54 61 71
57 65 75
61 70 81
64 73 84
66 75 86
66 75 86
65 74 86
68 77 89
66 75 87
65 74 86
65 74 85
66 76 88
67 76 88
66 75 86
64 73 85
68 77 89
68 78 89
71 80 93
73 83 96
76 86 99
75 85 98
74 84 97
71 81 94
71 81 94
71 80 92
70 79 91
69 78 90
69 78 90
66 76 88
67 76 87
67 75 87
67 76 87
67 76 88
70 79 91
72 82 94
72 82 95
70 80 92
69 78 90
65 73 85
63 71 82
60 69 80
58 66 77
53 60 69
47 53 62
44 49 57
40 46 53
39 44 51
39 44 50
39 44 51
41 46 54
38 44 50
40 45 52
42 48 55
40 45 53
34 38 44
35 39 45
31 36 41
30 34 39
22 25 29
19 22 26
15 17 20
12 13 15
8 9 10
9 11 13
13 14 17
13 15 17
13 15 17
24 28 32
29 33 38
35 40 47
40 45 52
47 54 62
50 57 66
52 59 68
52 59 68
52 59 68
52 59 69
55 62 73
57 64 74
56 64 74
58 65 75
61 70 81
64 73 85
68 77 88
67 76 89
67 76 87
68 77 89
67 76 88
67 76 88
70 79 91
72 82 95
74 84 97
73 83 96
71 81 94
73 82 94
75 86 99
77 87 101
77 87 101
76 87 100
75 84 97
72 81 94
66 76 88
65 74 86
65 74 86
64 73 85
63 72 83
60 68 78
55 62 72
49 55 64
42 47 54
35 39 46
23 26 30
14 16 19
22 24 28
31 36 41
38 43 50
42 48 55
46 53 61
53 60 70
61 68 79
67 77 89
73 83 96
78 88 102
84 96 111
89 101 117
90 102 119
94 107 124
95 108 126
99 113 130
100 114 131
100 113 131
98 112 129
95 107 124
94 107 124
94 107 124
92 105 122
90 102 117
89 101 117
88 100 116
89 100 115
87 99 114
85 97 112
85 97 112
83 95 110
84 95 110
83 95 110
79 90 105
79 90 104
79 89 104
78 89 102
75 85 98
68 78 90
59 67 78
52 60 69
45 51 59
44 50 57
39 44 51
33 37 43
26 30 35
21 24 28
21 23 27
23 26 30
19 22 26
15 17 19
17 19 23
15 17 19
12 14 16
19 22 25
29 33 38
36 40 47
40 46 53
46 52 60
50 56 65
51 58 67
50 57 65
50 57 66
50 57 66
49 56 64
47 53 62
45 51 59
39 45 52
39 45 52
39 44 51
34 38 44
22 25 28
11 13 15
17 20 23
25 28 32
29 33 38
35 40 46
44 50 58
50 57 66
54 62 72
64 73 84
68 78 90
70 79 91
70 79 92
74 84 98
78 89 103
84 95 109
85 96 111
84 96 111
82 94 108
83 94 108
79 89 103
78 88 101
77 88 101
74 84 98
75 85 99
72 82 95
72 82 95
72 82 94
73 83 95
73 83 96
72 82 95
74 83 96
74 84 96
71 80 93
70 80 93
70 79 91
70 79 92
66 75 87
63 72 83
63 71 82
62 71 82
62 70 81
65 74 86
68 77 89
66 75 87
63 71 82
59 67 78
58 66 77
56 63 73
52 59 68
48 54 63
46 52 61
44 50 58
40 45 52
33 38 44
29 33 39
32 36 42
31 35 41
33 38 44
32 37 43
38 44 50
43 49 57
47 53 62
48 55 64
48 55 63
47 54 63
45 51 60
41 46 53
39 45 52
40 46 53
42 48 56
44 50 58
47 53 61
46 52 60
40 45 53
35 40 46
24 27 32
16 18 21
21 24 27
23 27 31
28 32 37
32 37 42
35 40 46
34 39 45
33 37 43
27 31 36
20 22 26
9 11 13
14 16 19
17 19 22
24 27 31
32 36 42
35 40 46
44 50 58
54 62 71
60 68 79
66 75 87
71 81 93
74 84 98
76 86 100
78 88 102
85 97 112
90 103 119
96 108 124
97 110 128
100 113 130
99 113 130
97 110 128
94 106 122
90 102 118
89 101 116
88 100 115
84 96 111
82 93 108
80 91 105
76 86 99
74 84 97
72 81 94
70 79 92
71 80 93
70 80 93
71 80 93
69 78 90
67 76 88
108 123 143
108 123 142
109 123 143
108 122 140
108 123 142
109 122 141
106 120 139
105 119 138
106 120 138
105 119 138
104 119 138
107 121 140
106 121 140
105 119 137
106 120 138
106 120 139
106 120 139
106 120 138
104 118 137
101 115 133
103 116 134
99 112 130
98 111 128
96 109 125
95 109 126
93 106 123
92 105 121
88 100 116
85 96 111
79 90 104
75 85 99
70 79 92
65 75 87
58 66 76
53 60 69
51 58 67
50 56 65
47 54 63
45 51 59
47 53 62
48 55 64
50 57 66
52 59 69
51 58 67
49 56 65
44 50 58
40 46 53
41 47 54
45 50 58
48 55 63
47 54 63
50 56 65
49 56 64
48 55 63
50 56 65
52 59 68
52 59 68
52 59 67
52 59 68
50 57 67
51 58 67
51 58 68
55 62 72
58 66 76
56 64 74
51 58 67
51 58 67
48 55 63
46 53 61
44 50 58
41 46 53
34 39 45
25 28 33
20 23 26
21 24 28
30 34 40
38 43 50
40 46 53
39 44 51
36 41 47
35 39 45
31 36 42
32 36 42
32 36 42
35 40 46
34 38 44
38 43 50
41 47 54
48 54 62
51 59 68
56 63 72
60 68 79
66 75 87
70 80 93
77 87 100
79 90 105
81 92 107
79 90 103
76 86 100
74 84 97
71 81 94
69 79 91
67 76 88
68 77 88
68 77 88
69 78 90
71 81 94
76 86 99
76 86 100
76 86 100
79 89 103
80 90 105
79 90 104
79 90 104
78 89 102
76 86 99
75 85 98
75 84 97
76 86 99
77 88 101
76 87 100
75 85 98
75 85 98
73 83 96
74 84 97
73 84 97
76 86 100
75 85 98
73 84 97
72 82 94
72 81 94
68 78 90
67 76 88
64 73 84
61 70 80
57 65 75
54 61 70
53 61 70
56 64 74
59 67 78
63 72 83
65 74 85
65 74 85
64 72 84
61 69 79
59 67 77
57 64 74
57 64 74
53 60 70
47 53 61
39 45 51
35 40 46
34 39 45
29 33 38
23 26 30
22 25 29
25 28 32
21 23 27
14 16 19
15 17 20
18 21 24
26 30 34
35 40 47
42 48 56
47 53 62
50 57 66
50 57 65
50 56 65
51 58 67
53 60 69
56 64 74
60 68 79
65 74 85
66 75 86
66 75 87
64 73 84
65 74 86
68 77 89
70 79 92
72 82 95
75 85 99
77 88 102
78 89 103
78 88 102
75 86 99
73 83 96
72 82 95
72 82 94
74 83 96
71 81 94
71 80 92
69 79 91
65 74 86
63 71 82
64 73 84
68 77 88
68 77 89
66 75 87
63 71 82
60 68 79
55 63 73
49 55 64
38 44 51
27 31 35
20 23 26
16 19 22
33 37 43
43 49 56
52 59 68
56 63 73
63 71 82
68 77 90
75 85 99
79 90 104
86 97 113
90 102 118
93 105 122
94 106 122
94 107 124
97 110 128
98 111 129
97 110 128
98 110 127
97 110 126
97 110 127
98 111 128
96 109 126
96 109 127
97 110 127
96 109 126
96 109 126
96 109 127
95 109 126
96 109 126
97 110 127
96 109 126
95 108 124
95 108 124
93 105 121
88 101 116
88 100 115
82 93 108
77 87 100
72 82 94
68 77 89
65 73 85
60 69 80
53 61 70
48 55 63
44 50 58
42 48 55
39 45 52
38 44 51
39 45 52
40 45 52
38 43 49
34 38 44
29 33 38
18 21 24
13 15 18
28 32 37
38 43 50
44 50 58
48 54 63
51 58 67
51 58 67
50 58 67
54 61 71
53 60 69
49 56 65
44 49 57
42 48 56
42 48 55
43 48 56
41 46 54
37 42 49
31 35 41
20 22 26
12 14 16
27 30 35
36 41 48
41 46 54
46 52 60
55 63 72
60 69 80
66 75 86
70 79 91
71 81 93
71 81 94
73 83 95
74 84 97
77 88 102
80 91 105
82 93 106
79 91 106
80 91 104
82 92 106
80 91 105
81 92 106
81 92 106
80 90 105
81 92 106
80 91 105
80 90 104
78 88 102
76 86 100
76 86 100
74 84 97
74 83 96
72 81 94
71 81 94
70 80 92
69 79 91
66 75 87
63 72 84
61 69 79
59 67 78
60 68 79
60 68 79
62 71 82
64 73 85
63 72 83
68 78 90
71 80 92
68 77 90
65 74 86
62 71 82
58 66 76
57 65 75
53 60 70
53 60 69
53 61 70
58 65 75
58 66 77
63 71 83
64 73 84
63 71 82
65 73 85
63 72 83
65 74 85
68 77 89
69 79 92
69 78 90
67 76 89
67 76 88
65 74 85
61 70 81
61 69 80
57 65 75
52 59 69
46 53 61
41 47 54
36 41 48
35 40 46
37 43 49
43 49 56
48 55 64
53 60 70
57 65 75
57 65 75
50 57 66
43 49 56
33 38 44
28 31 36
23 26 30
18 21 25
22 25 29
24 28 32
35 39 45
45 51 59
53 60 70
58 66 77
61 69 80
65 74 86
69 79 91
75 85 98
78 89 102
85 96 111
92 104 120
95 108 125
97 110 128
98 112 130
97 110 128
97 110 127
93 106 123
88 100 116
88 100 116
85 97 112
80 91 106
77 88 102
74 84 96
70 80 92
68 77 89
66 74 86
61 69 80
59 67 77
56 64 74
53 61 70
53 60 69
54 61 71
99 112 130
99 113 130
101 114 131
100 113 130
98 111 129
100 113 131
103 116 134
102 116 134
101 115 133
102 115 134
101 115 133
103 117 135
102 116 134
100 115 133
101 114 131
97 110 127
97 110 127
95 109 126
94 107 124
93 106 123
93 105 121
93 106 122
93 105 121
92 104 120
90 103 119
89 101 116
88 99 114
84 95 110
79 90 104
72 82 95
64 73 84
58 66 76
51 58 67
47 53 61
44 50 58
41 47 54
40 45 52
41 47 55
41 47 54
40 46 53
39 44 50
36 41 47
33 38 43
31 35 40
29 33 38
30 34 40
29 33 38
32 36 42
36 41 48
38 44 50
35 40 46
35 39 45
34 38 44
32 36 42
29 33 38
34 38 44
36 41 47
33 38 44
34 39 45
34 39 45
32 37 42
29 33 38
28 31 37
25 29 34
25 29 33
28 32 37
26 29 34
25 29 33
27 31 36
34 38 44
33 38 44
24 27 31
21 24 27
32 36 41
43 49 57
51 58 67
54 61 71
53 61 70
55 62 72
57 65 75
61 69 80
60 68 79
57 65 75
59 67 78
58 65 75
57 64 74
56 64 74
58 66 76
60 68 78
61 69 80
66 75 87
70 80 92
74 84 97
77 88 101
81 92 107
82 93 108
82 93 108
80 92 106
79 89 103
77 88 102
74 84 98
70 80 92
72 81 94
73 83 96
76 87 100
78 88 102
78 89 103
80 90 105
78 89 102
80 91 105
82 93 107
80 91 106
81 92 106
81 92 107
79 90 105
79 90 104
78 89 103
80 90 103
77 89 103
79 89 103
79 90 104
81 91 105
80 91 105
79 90 104
78 89 103
77 87 101
75 86 99
76 87 100
74 85 98
74 83 96
70 80 92
71 81 93
69 79 91
72 82 95
70 79 92
67 76 88
64 73 84
65 74 85
67 76 87
69 78 90
70 80 92
72 81 94
74 84 97
73 83 96
70 80 92
68 77 89
65 74 86
62 71 82
56 64 74
51 58 67
51 58 67
45 51 59
37 43 50
31 35 40
31 35 40
28 31 37
23 26 30
19 22 25
18 21 24
14 16 19
13 14 17
23 26 30
30 34 40
37 42 48
41 47 55
45 51 59
44 50 57
44 50 58
49 56 64
56 64 74
59 67 77
64 72 84
68 77 88
68 78 89
70 79 92
69 78 90
69 78 90
70 79 91
71 80 92
71 81 93
73 83 96
74 83 96
75 85 99
75 85 99
75 86 100
75 85 99
72 82 94
71 81 94
71 81 93
70 79 91
68 77 89
68 77 89
69 78 90
69 78 91
67 76 88
65 74 86
63 72 83
63 71 82
61 69 80
57 64 74
53 61 70
48 55 64
43 49 56
34 38 45
21 24 28
19 22 25
35 40 46
45 51 59
52 58 68
60 68 79
66 75 87
72 82 94
77 87 101
82 93 108
86 98 113
87 99 115
91 103 119
95 107 124
98 110 126
94 106 123
95 108 124
93 106 122
94 107 124
92 104 121
94 107 123
92 105 121
91 104 120
94 107 124
98 112 129
102 115 134
104 118 136
105 119 137
104 118 137
103 117 135
105 119 137
104 118 137
102 115 133
101 115 133
101 115 132
99 112 130
95 107 124
90 101 117
85 96 110
81 91 106
77 88 102
71 81 93
63 72 83
60 69 79
57 64 74
55 63 72
57 64 74
55 62 72
53 61 70
53 60 69
52 60 69
50 56 65
44 50 58
38 43 50
30 34 39
16 19 22
23 26 30
44 50 57
53 60 70
57 65 75
58 66 76
60 68 79
61 70 81
62 70 81
58 66 76
56 63 72
53 60 69
52 59 69
50 57 66
45 51 59
35 40 46
29 33 38
20 23 26
17 19 22
28 32 37
36 41 48
41 46 54
48 54 62
52 60 69
59 67 78
66 76 88
70 80 93
74 84 97
76 87 100
76 87 101
75 86 100
77 87 101
76 86 99
75 85 99
75 85 98
75 85 99
75 85 99
73 84 97
75 85 98
77 87 100
77 88 101
76 87 100
78 88 102
77 87 101
78 88 102
80 90 104
80 91 106
82 93 107
79 89 102
77 87 101
78 88 102
77 88 103
75 85 98
71 80 93
67 76 88
64 72 82
59 67 78
60 68 78
60 68 79
61 69 80
62 71 82
63 72 83
67 76 87
68 77 89
67 76 87
64 72 83
62 70 81
63 71 82
64 73 84
65 74 85
66 75 86
68 77 89
66 75 87
72 81 94
75 85 98
77 88 102
78 88 102
78 89 103
78 89 104
81 92 106
81 92 107
83 95 110
86 98 113
85 97 112
85 97 112
86 98 113
84 96 111
83 94 109
81 92 106
77 87 100
73 83 95
70 79 91
66 74 86
63 72 83
63 71 82
66 75 87
66 75 87
67 76 88
67 76 87
61 70 82
60 68 78
55 63 72
51 58 67
47 53 61
43 49 56
40 45 53
36 41 47
33 37 43
25 28 33
18 20 24
31 35 41
41 46 53
47 54 62
54 61 71
60 68 79
68 77 89
75 85 98
79 90 104
84 95 110
88 100 116
95 108 124
94 107 124
94 107 124
95 107 123
90 103 120
87 99 114
85 96 111
83 94 109
81 92 106
79 90 105
76 86 100
73 83 95
68 78 90
64 72 84
60 68 79
57 65 75
54 61 70
49 56 65
45 51 59
38 44 51
34 39 45
83 95 110
86 97 112
87 99 114
89 101 116
90 102 118
92 104 121
90 102 118
91 103 119
90 102 118
94 106 122
96 109 126
93 105 122
94 107 123
94 107 124
94 107 123
95 108 125
95 108 125
96 109 126
95 108 124
93 105 121
91 103 119
90 102 117
87 99 115
87 99 115
86 97 112
85 96 111
80 91 106
76 87 101
73 83 97
71 81 93
68 77 89
64 73 85
59 68 79
55 62 72
53 60 70
48 55 63
45 51 59
38 44 51
32 36 42
22 25 30
18 20 24
16 19 22
17 19 22
20 23 26
26 30 35
25 29 33
21 24 28
23 27 31
26 30 35
25 28 33
21 24 28
17 19 22
19 21 25
21 24 28
25 28 33
30 34 39
29 34 39
29 33 38
28 32 37
25 29 33
14 16 18
13 15 18
18 21 24
21 24 28
25 28 33
21 24 28
15 18 20
14 16 18
17 19 22
19 21 25
21 24 28
31 36 42
42 47 55
49 56 64
54 62 71
57 65 75
60 69 79
64 72 83
65 74 86
68 77 90
71 80 93
73 82 95
73 83 97
73 84 97
70 80 94
70 80 92
71 81 94
72 82 95
72 81 94
72 82 95
75 85 99
76 86 99
76 86 99
77 88 103
80 91 105
79 90 104
78 89 104
77 88 102
76 86 100
75 86 99
77 88 101
82 93 107
85 97 111
86 97 111
84 95 110
85 96 111
85 97 112
85 96 111
81 92 107
80 91 105
83 94 109
85 97 112
85 97 112
87 99 115
87 99 115
88 99 115
84 96 110
84 95 110
84 95 110
85 96 112
85 97 112
85 96 111
84 95 110
83 94 109
83 94 109
83 95 110
81 92 107
82 93 108
80 92 106
81 92 107
82 93 108
82 93 108
83 94 108
84 95 110
84 95 110
82 93 107
80 91 106
79 90 104
80 91 104
80 91 105
82 93 108
84 95 109
81 93 108
78 89 103
76 86 100
70 79 91
65 74 85
61 70 81
59 67 77
55 62 72
52 59 68
49 55 64
46 52 59
40 45 52
37 42 48
34 39 45
28 32 37
24 27 32
21 24 28
16 18 21
17 20 23
29 32 37
31 36 41
35 40 46
38 43 50
40 46 53
44 50 57
48 54 63
51 58 67
55 62 72
59 67 77
64 72 83
69 78 90
72 81 93
73 83 96
72 82 94
72 82 94
73 83 96
73 83 96
71 80 93
71 81 93
70 80 93
69 79 91
70 80 92
72 82 95
71 80 92
70 79 91
70 80 92
71 81 94
71 81 93
70 79 91
67 76 88
66 75 88
66 75 87
67 76 88
68 78 89
66 75 87
63 72 83
60 68 79
57 65 75
51 58 67
44 50 58
36 41 47
24 27 32
13 15 18
26 30 35
40 45 53
48 54 62
53 61 70
60 68 79
66 75 87
74 84 97
78 88 102
84 94 109
87 99 114
89 102 118
92 105 121
92 105 122
91 103 119
89 101 117
91 103 119
91 103 119
90 103 119
90 101 117
88 100 116
90 102 117
93 106 122
95 107 124
99 112 130
100 114 132
104 118 136
105 119 137
104 119 137
104 118 137
104 119 137
106 120 138
104 119 137
103 116 134
101 115 132
98 112 129
96 110 127
93 105 122
88 100 116
83 95 110
80 91 105
76 86 100
72 81 94
69 78 90
68 77 89
67 76 89
68 78 91
67 76 88
64 73 85
64 73 84
60 69 79
57 65 75
52 59 69
48 54 63
39 44 51
20 23 27
27 31 36
39 45 52
47 54 62
50 57 66
53 60 69
56 64 74
58 67 77
58 66 77
59 68 78
58 66 77
58 66 76
56 64 74
48 54 63
38 43 50
25 29 34
17 19 22
27 31 36
39 44 51
47 53 61
51 58 67
55 62 72
60 68 79
66 74 86
69 78 91
72 81 94
75 86 99
78 89 103
81 93 108
86 98 113
86 98 113
85 97 112
86 98 113
88 99 115
86 97 113
83 93 107
79 89 103
75 85 99
72 82 96
72 82 95
71 81 93
71 80 93
73 83 96
75 85 99
74 84 97
74 84 98
76 86 99
77 87 100
77 88 101
78 88 102
79 90 103
78 89 103
74 84 97
71 80 93
69 79 91
69 78 90
70 79 91
70 80 92
71 80 93
71 80 93
71 81 93
72 82 94
71 80 93
68 78 90
65 74 85
64 72 84
62 71 82
62 70 81
65 74 86
68 77 89
70 80 93
72 82 95
75 84 97
76 86 99
78 88 102
78 89 102
82 93 108
84 96 111
87 99 115
91 103 118
92 104 121
92 104 120
92 105 122
93 106 123
93 106 123
92 105 120
91 104 121
89 102 118
88 100 116
83 95 110
81 92 107
78 88 102
78 89 103
78 89 102
82 93 107
84 95 110
86 97 112
85 96 111
82 93 108
78 88 102
71 81 94
63 72 83
59 67 77
54 61 70
49 56 65
46 52 60
42 48 55
36 41 47
23 26 30
17 19 22
28 31 36
34 39 45
42 48 56
50 57 66
57 65 76
66 75 86
73 82 95
79 90 104
85 96 111
87 99 115
92 104 119
91 103 119
90 103 120
89 101 117
87 99 115
84 96 111
82 92 106
76 87 100
75 85 98
73 83 96
72 82 95
71 81 93
69 79 91
66 75 87
63 71 82
59 66 77
55 63 72
53 60 69
49 56 65
44 50 58
38 44 51
79 90 104
76 86 100
74 84 98
74 84 96
72 81 94
73 84 97
76 87 101
78 89 103
78 89 103
82 94 109
83 95 110
88 99 115
90 102 118
90 103 119
92 104 121
93 105 122
93 106 123
95 108 125
94 107 124
94 107 123
92 105 122
91 103 120
90 102 118
87 99 114
83 94 109
80 91 105
78 88 102
75 85 99
73 82 95
72 82 95
68 77 89
63 72 83
61 69 80
57 65 75
54 61 70
46 53 61
42 48 55
38 43 50
32 36 42
29 33 38
26 29 34
27 31 35
25 28 33
26 30 35
27 31 35
24 27 31
15 17 19
9 10 12
10 11 13
9 10 12
13 15 17
12 14 16
11 12 14
22 25 28
31 36 41
36 41 48
37 42 48
36 40 47
33 37 43
29 33 38
20 23 27
11 12 14
15 17 19
19 22 26
20 23 27
24 27 31
24 28 32
31 36 41
37 43 49
40 45 53
43 49 57
49 55 64
55 63 73
59 68 78
62 71 82
67 76 89
70 80 92
70 80 92
72 82 95
74 84 98
74 84 97
73 83 96
75 84 97
74 84 97
73 83 96
74 84 97
76 85 98
77 87 100
77 88 101
78 89 103
79 90 104
78 89 103
77 87 101
74 85 98
75 85 99
75 85 98
77 87 101
78 88 102
79 90 105
82 92 107
83 95 109
86 97 112
87 99 114
88 100 115
88 100 116
90 102 118
90 102 117
90 103 119
90 102 117
90 102 119
91 104 120
92 105 121
93 105 122
91 103 118
89 101 117
89 101 117
89 101 116
89 101 116
88 100 116
88 101 117
89 101 117
88 100 116
88 99 114
86 97 112
84 96 111
87 98 113
87 98 113
88 100 115
87 99 114
87 99 114
87 99 114
89 100 116
91 103 119
91 103 119
92 104 121
90 102 119
87 99 115
86 98 114
86 98 113
87 98 113
86 97 113
85 96 112
82 94 108
78 89 103
75 86 99
71 80 93
69 78 90
66 75 86
63 72 83
62 70 81
57 65 74
54 61 70
51 58 68
50 57 66
50 57 66
49 55 64
46 53 61
42 47 55
34 39 45
23 26 30
18 20 23
14 16 19
20 22 26
22 25 29
28 31 36
31 35 40
35 40 46
37 42 49
41 46 54
47 53 61
52 59 69
58 66 76
61 69 80
67 76 87
70 80 93
70 80 92
69 79 91
70 79 91
68 78 90
67 76 89
66 75 87
67 77 89
69 79 91
67 76 88
68 77 89
67 76 88
66 75 86
66 75 87
65 74 86
64 73 84
62 70 81
62 71 82
64 72 83
65 74 85
65 74 85
65 74 86
66 75 86
63 72 83
60 68 78
53 60 70
47 54 62
40 45 52
31 35 41
19 22 25
13 15 17
25 29 33
37 41 48
45 51 59
51 58 67
57 65 75
64 73 85
68 78 90
73 82 95
77 87 100
81 92 107
82 93 107
81 92 107
82 93 108
85 97 112
87 99 115
90 102 117
90 103 119
88 101 117
92 104 121
93 106 123
94 107 123
94 108 125
96 109 126
97 110 127
100 113 130
101 114 133
101 115 133
101 115 133
101 115 134
102 116 134
103 117 136
102 116 134
100 113 130
98 111 128
94 107 125
95 108 125
90 103 120
88 101 117
88 100 115
83 95 110
82 93 108
82 92 106
81 92 106
82 93 108
82 93 107
81 92 107
79 90 104
76 86 99
71 81 93
68 77 88
63 72 83
58 66 76
48 55 64
37 42 49
26 30 35
16 19 22
17 20 23
27 31 36
37 42 49
44 50 58
47 53 61
46 52 60
47 53 61
48 55 64
47 53 61
40 45 52
30 34 39
26 29 34
23 26 30
24 27 32
31 35 40
40 45 52
48 55 63
57 64 74
63 72 83
69 78 90
73 83 96
76 86 100
79 90 104
82 93 107
85 97 112
85 97 113
85 97 112
87 99 115
89 101 116
89 100 116
90 102 118
88 100 117
88 100 116
86 97 112
85 96 112
83 94 109
81 92 106
78 88 102
77 87 100
76 86 99
75 85 98
75 86 99
75 85 98
73 83 97
71 81 94
71 80 93
68 78 90
69 79 91
68 77 89
66 75 87
65 74 86
67 76 88
69 79 91
72 82 95
73 84 97
74 85 98
77 88 101
79 90 104
81 91 106
78 89 103
77 88 102
76 86 100
75 85 99
74 84 98
75 85 98
74 84 97
72 82 94
74 83 96
75 86 99
78 89 102
80 91 106
79 90 104
79 91 105
84 95 110
85 97 111
87 99 114
89 102 118
91 104 120
95 108 125
98 111 128
97 110 127
96 109 126
95 108 124
94 107 124
93 106 122
90 103 119
87 99 115
87 98 113
84 96 110
83 94 108
87 98 113
89 101 117
89 100 116
91 104 120
92 104 120
92 105 121
88 101 116
85 97 113
82 93 108
77 88 101
73 83 95
68 77 88
63 71 82
58 66 76
50 57 65
38 43 50
23 26 30
18 20 23
30 34 40
38 44 50
44 50 58
51 58 67
57 64 74
62 70 81
67 76 87
73 83 96
78 89 104
81 91 105
82 93 108
83 95 109
83 95 110
83 95 110
83 95 110
79 90 104
78 88 101
75 85 98
71 81 93
70 80 93
69 79 91
69 78 90
69 78 90
68 77 89
66 75 86
65 74 85
64 72 83
58 66 77
54 61 71
49 56 64
44 50 58
73 83 97
71 80 93
68 77 89
68 77 89
68 78 90
70 79 91
69 78 91
70 80 93
72 82 96
77 87 101
81 92 107
85 96 111
86 98 113
88 100 115
90 102 118
92 105 121
92 104 121
93 106 122
93 105 121
94 107 124
93 105 122
93 105 122
93 105 120
89 101 117
88 99 115
85 97 113
82 93 108
77 88 101
72 82 95
68 78 90
65 73 84
59 67 78
54 61 70
50 57 66
47 54 63
45 51 59
43 48 56
41 47 54
43 49 56
43 49 56
44 50 58
41 47 54
37 43 50
30 34 40
25 29 33
21 24 28
19 22 25
13 15 17
10 11 13
12 14 16
18 20 24
20 23 27
23 27 31
25 28 33
31 35 41
34 38 44
34 39 45
33 37 43
32 37 43
31 35 41
26 30 34
22 25 28
16 19 22
12 14 17
24 27 31
34 38 45
41 46 53
47 53 61
55 62 72
58 66 77
62 71 82
65 73 85
67 76 87
69 79 91
71 80 92
73 82 95
74 84 97
74 85 98
74 85 98
74 85 99
75 86 99
75 85 98
75 85 99
76 86 99
74 84 98
75 85 98
75 86 100
78 88 102
80 91 105
78 89 103
76 87 101
75 85 99
75 85 98
75 85 99
76 87 100
78 89 103
80 90 104
82 93 107
82 94 109
85 97 112
89 100 116
89 101 117
90 102 118
90 102 118
92 104 120
92 104 120
93 106 123
92 105 121
91 104 120
90 102 118
89 101 117
88 100 115
87 99 115
88 100 116
91 103 119
92 104 120
91 104 120
91 102 118
91 103 119
90 103 119
90 103 119
92 104 120
92 104 120
89 101 117
89 101 118
90 102 118
88 100 116
89 101 117
87 99 115
87 99 114
88 100 116
87 99 115
88 100 116
87 99 115
89 101 117
88 100 116
87 98 113
86 98 113
82 94 109
80 91 106
79 89 103
78 89 103
77 87 101
75 85 99
74 84 98
75 85 98
77 87 100
74 84 98
72 82 95
67 77 89
65 73 84
59 67 78
56 64 74
56 63 73
52 59 68
46 52 60
42 47 54
37 42 49
36 41 48
37 42 49
36 41 48
32 36 42
28 32 37
26 30 35
16 18 21
23 26 31
31 35 40
38 43 50
46 52 61
54 61 70
54 62 71
55 62 72
56 63 72
57 65 75
53 60 70
49 56 65
49 55 64
52 59 68
56 64 74
60 68 79
63 72 83
67 76 88
69 79 91
69 78 90
67 76 87
65 74 85
62 71 82
59 67 77
59 67 78
61 69 80
61 69 80
60 68 79
59 67 77
59 67 77
58 66 77
59 66 76
57 64 74
55 63 72
51 58 67
44 49 57
32 37 42
20 23 26
22 25 28
26 29 34
35 40 46
44 50 58
46 53 61
51 58 67
54 61 70
60 68 78
66 74 86
69 78 91
70 79 92
72 82 94
76 86 100
76 85 98
77 88 101
79 90 104
81 92 106
81 93 108
83 95 110
87 98 114
89 101 117
90 103 119
93 106 122
94 107 123
95 108 125
97 109 126
97 110 127
98 111 129
97 110 127
97 111 128
98 111 129
99 113 130
99 113 130
96 109 126
95 107 124
95 108 126
96 109 125
93 106 123
92 105 121
89 101 117
90 102 118
89 101 116
89 102 118
90 102 119
93 105 121
94 106 122
92 105 121
92 104 120
89 101 117
87 100 116
84 95 110
80 91 105
77 87 100
70 80 93
64 73 84
57 65 76
52 59 68
46 52 60
40 46 52
32 37 42
24 28 32
27 31 36
25 29 33
26 29 34
23 27 31
23 26 31
23 26 31
24 28 32
22 25 29
28 31 36
38 43 50
48 54 62
51 59 68
55 63 73
57 65 76
60 68 79
63 71 82
66 74 86
68 78 90
73 83 96
79 90 105
85 97 112
89 100 116
89 102 118
91 103 120
92 105 121
92 104 121
91 104 121
89 101 118
89 101 117
90 102 118
90 103 119
90 102 118
87 99 114
85 97 112
83 94 110
82 93 107
81 91 106
81 92 106
80 91 106
78 88 102
76 87 100
75 85 98
70 80 92
70 80 92
68 77 89
67 75 87
64 73 84
65 74 86
65 74 86
63 73 85
65 74 85
68 77 89
71 80 92
74 84 97
78 89 103
80 91 106
81 92 106
79 91 105
79 89 103
76 87 100
77 87 100
78 88 102
79 90 105
82 92 106
81 92 106
80 91 105
81 92 106
84 95 110
85 96 111
86 97 111
83 95 111
86 97 112
88 99 114
91 103 119
91 103 119
94 107 123
96 109 125
95 108 125
93 106 123
92 104 120
92 104 120
93 106 123
93 106 123
92 105 121
90 102 118
90 102 118
90 102 118
90 102 118
94 106 123
93 106 123
95 108 124
94 107 123
92 104 120
91 103 119
88 100 116
85 97 113
85 97 113
84 95 110
83 94 109
82 93 107
79 90 104
75 86 99
68 77 89
63 72 83
53 60 69
43 48 56
37 42 48
32 37 42
28 32 36
32 36 41
42 48 55
51 58 67
60 68 79
67 76 88
72 81 94
74 85 98
78 88 102
81 91 105
80 91 105
83 94 109
81 93 107
79 90 104
77 87 101
74 84 97
74 84 96
70 79 91
69 78 91
68 77 89
69 79 91
69 79 91
68 78 90
67 76 88
66 75 87
63 71 82
57 65 75
55 62 73
55 62 72
