P3
400 225
255
0 0 0
0 0 0
0 0 0
0 0 0
0 0 0
0 0 0
0 0 0
0 0 0
0 0 0
0 0 0
0 0 0
0 0 0
0 0 0
0 0 0
0 0 0
0 0 0
0 0 0
0 0 0
0 0 0
0 0 0
0 0 0
0 0 0
0 0 0
0 0 0
0 0 0
0 0 0
0 0 0
0 0 0
0 0 0
0 0 0
0 0 0
0 0 0
0 0 0
0 0 0
0 0 0
0 0 0
0 0 0
0 0 0
0 0 0
0 0 0
0 0 0
0 0 0
0 0 0
0 0 0
0 0 0
0 0 0
0 0 0
0 0 0
0 0 0
0 0 0
0 0 0
0 0 0
0 0 0
0 0 0
0 0 0
0 0 0
0 0 0
0 0 0
0 0 0
0 0 0
0 0 0
0 0 0
0 0 0
0 0 0
0 0 0
0 0 0
0 0 0
0 0 0
0 0 0
0 0 0
0 0 0
0 0 0
0 0 0
0 0 0
0 0 0
0 0 0
0 0 0
0 0 0
0 0 0
0 0 0
0 0 0
0 0 0
0 0 0
0 0 0
0 0 0
0 0 0
0 0 0
0 0 0
0 0 0
0 0 0
0 0 0
0 0 0
0 0 0
0 0 0
0 0 0
0 0 0
0 0 0
0 0 0
0 0 0
0 0 0
0 0 0
0 0 0
0 0 0
0 0 0
0 0 0
0 0 0
0 0 0
0 0 0
0 0 0
0 0 0
0 0 0
0 0 0
0 0 0
0 0 0
0 0 0
0 0 0
0 0 0
0 0 0
0 0 0
0 0 0
0 0 0
0 0 0
0 0 0
0 0 0
0 0 0
0 0 0
0 0 0
0 0 0
0 0 0
0 0 0
0 0 0
0 0 0
0 0 0
0 0 0
0 0 0
0 0 0
0 0 0
0 0 0
0 0 0
0 0 0
0 0 0
0 0 0
0 0 0
0 0 0
0 0 0
0 0 0
0 0 0
0 0 0
0 0 0
0 0 0
0 0 0
0 0 0
255 255 255
255 255 255
255 255 255
255 255 255
255 255 255
255 255 255
255 255 255
255 255 255
255 255 255
255 255 255
255 255 255
255 255 255
255 255 255
255 255 255
255 255 255
255 255 255
255 255 255
255 255 255
255 255 255
255 255 255
255 255 255
255 255 255
255 255 255
255 255 255
255 255 255
255 255 255
255 255 255
255 255 255
255 255 255
255 255 255
255 255 255
255 255 255
255 255 255
255 255 255
255 255 255
255 255 255
255 255 255
255 255 255
255 255 255
255 255 255
255 255 255
255 255 255
255 255 255
255 255 255
255 255 255
255 255 255
255 255 255
255 255 255
255 255 255
255 255 255
255 255 255
255 255 255
255 255 255
255 255 255
255 255 255
255 255 255
255 255 255
255 255 255
255 255 255
255 255 255
255 255 255
255 255 255
255 255 255
255 255 255
255 255 255
255 255 255
255 255 255
255 255 255
255 255 255
255 255 255
255 255 255
255 255 255
255 255 255
255 255 255
255 255 255
255 255 255
255 255 255
255 255 255
255 255 255
255 255 255
255 255 255
255 255 255
255 255 255
255 255 255
255 255 255
255 255 255
255 255 255
255 255 255
255 255 255
255 255 255
255 255 255
255 255 255
255 255 255
255 255 255
255 255 255
255 255 255
0 0 0
0 0 0
0 0 0
0 0 0
0 0 0
0 0 0
0 0 0
0 0 0
0 0 0
0 0 0
0 0 0
0 0 0
0 0 0
0 0 0
0 0 0
0 0 0
0 0 0
0 0 0
0 0 0
0 0 0
0 0 0
0 0 0
0 0 0
0 0 0
0 0 0
0 0 0
0 0 0
0 0 0
0 0 0
0 0 0
0 0 0
0 0 0
0 0 0
0 0 0
0 0 0
0 0 0
0 0 0
0 0 0
0 0 0
0 0 0
0 0 0
0 0 0
0 0 0
0 0 0
0 0 0
0 0 0
0 0 0
0 0 0
0 0 0
0 0 0
0 0 0
0 0 0
0 0 0
0 0 0
0 0 0
0 0 0
0 0 0
0 0 0
0 0 0
0 0 0
0 0 0
0 0 0
0 0 0
0 0 0
0 0 0
0 0 0
0 0 0
0 0 0
0 0 0
0 0 0
0 0 0
0 0 0
0 0 0
0 0 0
0 0 0
0 0 0
0 0 0
0 0 0
0 0 0
0 0 0
0 0 0
0 0 0
0 0 0
0 0 0
0 0 0
0 0 0
0 0 0
0 0 0
0 0 0
0 0 0
0 0 0
0 0 0
0 0 0
0 0 0
0 0 0
0 0 0
0 0 0
0 0 0
0 0 0
0 0 0
0 0 0
0 0 0
0 0 0
0 0 0
0 0 0
0 0 0
0 0 0
0 0 0
0 0 0
0 0 0
0 0 0
0 0 0
0 0 0
0 0 0
0 0 0
0 0 0
0 0 0
0 0 0
0 0 0
0 0 0
0 0 0
0 0 0
0 0 0
0 0 0
0 0 0
0 0 0
0 0 0
0 0 0
0 0 0
0 0 0
0 0 0
0 0 0
0 0 0
0 0 0
0 0 0
0 0 0
0 0 0
0 0 0
0 0 0
0 0 0
0 0 0
0 0 0
0 0 0
0 0 0
0 0 0
0 0 0
0 0 0
0 0 0
0 0 0
0 0 0
0 0 0
0 0 0
0 0 0
0 0 0
0 0 0
0 0 0
0 0 0
0 0 0
0 0 0
0 0 0
0 0 0
0 0 0
0 0 0
0 0 0
0 0 0
0 0 0
0 0 0
0 0 0
0 0 0
0 0 0
0 0 0
0 0 0
0 0 0
0 0 0
0 0 0
0 0 0
0 0 0
0 0 0
0 0 0
0 0 0
0 0 0
0 0 0
0 0 0
0 0 0
0 0 0
0 0 0
0 0 0
0 0 0
0 0 0
0 0 0
0 0 0
0 0 0
0 0 0
0 0 0
0 0 0
0 0 0
0 0 0
0 0 0
0 0 0
0 0 0
0 0 0
0 0 0
0 0 0
0 0 0
0 0 0
0 0 0
0 0 0
0 0 0
0 0 0
0 0 0
0 0 0
0 0 0
0 0 0
0 0 0
0 0 0
0 0 0
0 0 0
0 0 0
0 0 0
0 0 0
0 0 0
0 0 0
0 0 0
0 0 0
0 0 0
0 0 0
0 0 0
0 0 0
0 0 0
0 0 0
0 0 0
0 0 0
0 0 0
0 0 0
0 0 0
0 0 0
0 0 0
0 0 0
0 0 0
0 0 0
0 0 0
0 0 0
0 0 0
0 0 0
0 0 0
0 0 0
0 0 0
0 0 0
0 0 0
0 0 0
0 0 0
0 0 0
0 0 0
0 0 0
0 0 0
0 0 0
0 0 0
0 0 0
0 0 0
0 0 0
0 0 0
0 0 0
0 0 0
0 0 0
0 0 0
0 0 0
0 0 0
0 0 0
0 0 0
0 0 0
0 0 0
0 0 0
0 0 0
0 0 0
0 0 0
0 0 0
0 0 0
0 0 0
0 0 0
0 0 0
0 0 0
0 0 0
0 0 0
0 0 0
0 0 0
0 0 0
0 0 0
0 0 0
0 0 0
0 0 0
0 0 0
0 0 0
0 0 0
0 0 0
0 0 0
0 0 0
0 0 0
0 0 0
0 0 0
0 0 0
0 0 0
0 0 0
0 0 0
0 0 0
255 255 255
255 255 255
255 255 255
255 255 255
255 255 255
255 255 255
255 255 255
255 255 255
255 255 255
255 255 255
255 255 255
255 255 255
255 255 255
255 255 255
255 255 255
255 255 255
255 255 255
255 255 255
255 255 255
255 255 255
255 255 255
255 255 255
255 255 255
255 255 255
255 255 255
255 255 255
255 255 255
255 255 255
255 255 255
255 255 255
255 255 255
255 255 255
255 255 255
255 255 255
255 255 255
255 255 255
255 255 255
255 255 255
255 255 255
255 255 255
255 255 255
255 255 255
255 255 255
255 255 255
255 255 255
255 255 255
255 255 255
255 255 255
255 255 255
255 255 255
255 255 255
255 255 255
255 255 255
255 255 255
255 255 255
255 255 255
255 255 255
255 255 255
255 255 255
255 255 255
255 255 255
255 255 255
255 255 255
255 255 255
255 255 255
255 255 255
255 255 255
255 255 255
255 255 255
255 255 255
255 255 255
255 255 255
255 255 255
255 255 255
255 255 255
255 255 255
255 255 255
255 255 255
255 255 255
255 255 255
255 255 255
255 255 255
255 255 255
255 255 255
255 255 255
255 255 255
255 255 255
255 255 255
255 255 255
255 255 255
255 255 255
255 255 255
255 255 255
255 255 255
255 255 255
255 255 255
0 0 0
0 0 0
0 0 0
0 0 0
0 0 0
0 0 0
0 0 0
0 0 0
0 0 0
0 0 0
0 0 0
0 0 0
0 0 0
0 0 0
0 0 0
0 0 0
0 0 0
0 0 0
0 0 0
0 0 0
0 0 0
0 0 0
0 0 0
0 0 0
0 0 0
0 0 0
0 0 0
0 0 0
0 0 0
0 0 0
0 0 0
0 0 0
0 0 0
0 0 0
0 0 0
0 0 0
0 0 0
0 0 0
0 0 0
0 0 0
0 0 0
0 0 0
0 0 0
0 0 0
0 0 0
0 0 0
0 0 0
0 0 0
0 0 0
0 0 0
0 0 0
0 0 0
0 0 0
0 0 0
0 0 0
0 0 0
0 0 0
0 0 0
0 0 0
0 0 0
0 0 0
0 0 0
0 0 0
0 0 0
0 0 0
0 0 0
0 0 0
0 0 0
0 0 0
0 0 0
0 0 0
0 0 0
0 0 0
0 0 0
0 0 0
0 0 0
0 0 0
0 0 0
0 0 0
0 0 0
0 0 0
0 0 0
0 0 0
0 0 0
0 0 0
0 0 0
0 0 0
0 0 0
0 0 0
0 0 0
0 0 0
0 0 0
0 0 0
0 0 0
0 0 0
0 0 0
0 0 0
0 0 0
0 0 0
0 0 0
0 0 0
0 0 0
0 0 0
0 0 0
0 0 0
0 0 0
0 0 0
0 0 0
0 0 0
0 0 0
0 0 0
0 0 0
0 0 0
0 0 0
0 0 0
0 0 0
0 0 0
0 0 0
0 0 0
0 0 0
0 0 0
0 0 0
0 0 0
0 0 0
0 0 0
0 0 0
0 0 0
0 0 0
0 0 0
0 0 0
0 0 0
0 0 0
0 0 0
0 0 0
0 0 0
0 0 0
0 0 0
0 0 0
0 0 0
0 0 0
0 0 0
0 0 0
0 0 0
0 0 0
0 0 0
0 0 0
0 0 0
0 0 0
0 0 0
0 0 0
0 0 0
0 0 0
0 0 0
0 0 0
0 0 0
0 0 0
0 0 0
0 0 0
0 0 0
0 0 0
0 0 0
0 0 0
0 0 0
0 0 0
0 0 0
0 0 0
0 0 0
0 0 0
0 0 0
0 0 0
0 0 0
0 0 0
0 0 0
0 0 0
0 0 0
0 0 0
0 0 0
0 0 0
0 0 0
0 0 0
0 0 0
0 0 0
0 0 0
0 0 0
0 0 0
0 0 0
0 0 0
0 0 0
0 0 0
0 0 0
0 0 0
0 0 0
0 0 0
0 0 0
0 0 0
0 0 0
0 0 0
0 0 0
0 0 0
0 0 0
0 0 0
0 0 0
0 0 0
0 0 0
0 0 0
0 0 0
0 0 0
0 0 0
0 0 0
0 0 0
0 0 0
0 0 0
0 0 0
0 0 0
0 0 0
0 0 0
0 0 0
0 0 0
0 0 0
0 0 0
0 0 0
0 0 0
0 0 0
0 0 0
0 0 0
0 0 0
0 0 0
0 0 0
0 0 0
0 0 0
0 0 0
0 0 0
0 0 0
0 0 0
0 0 0
0 0 0
0 0 0
0 0 0
0 0 0
0 0 0
0 0 0
0 0 0
0 0 0
0 0 0
0 0 0
0 0 0
0 0 0
0 0 0
0 0 0
0 0 0
0 0 0
0 0 0
0 0 0
0 0 0
0 0 0
0 0 0
0 0 0
0 0 0
0 0 0
0 0 0
0 0 0
0 0 0
0 0 0
0 0 0
0 0 0
0 0 0
0 0 0
0 0 0
0 0 0
0 0 0
0 0 0
0 0 0
0 0 0
0 0 0
0 0 0
0 0 0
0 0 0
0 0 0
0 0 0
0 0 0
0 0 0
0 0 0
0 0 0
0 0 0
0 0 0
0 0 0
0 0 0
0 0 0
0 0 0
0 0 0
0 0 0
0 0 0
0 0 0
0 0 0
0 0 0
0 0 0
0 0 0
0 0 0
0 0 0
0 0 0
0 0 0
0 0 0
0 0 0
0 0 0
169 169 169
255 255 255
255 255 255
255 255 255
255 255 255
255 255 255
255 255 255
255 255 255
255 255 255
255 255 255
255 255 255
255 255 255
255 255 255
255 255 255
255 255 255
255 255 255
255 255 255
255 255 255
255 255 255
255 255 255
255 255 255
255 255 255
255 255 255
255 255 255
255 255 255
255 255 255
255 255 255
255 255 255
255 255 255
255 255 255
255 255 255
255 255 255
255 255 255
255 255 255
255 255 255
255 255 255
255 255 255
255 255 255
255 255 255
255 255 255
255 255 255
255 255 255
255 255 255
255 255 255
255 255 255
255 255 255
255 255 255
255 255 255
255 255 255
255 255 255
255 255 255
255 255 255
255 255 255
255 255 255
255 255 255
255 255 255
255 255 255
255 255 255
255 255 255
255 255 255
255 255 255
255 255 255
255 255 255
255 255 255
255 255 255
255 255 255
255 255 255
255 255 255
255 255 255
255 255 255
255 255 255
255 255 255
255 255 255
255 255 255
255 255 255
255 255 255
255 255 255
255 255 255
255 255 255
255 255 255
255 255 255
255 255 255
255 255 255
255 255 255
255 255 255
255 255 255
255 255 255
255 255 255
255 255 255
255 255 255
255 255 255
255 255 255
255 255 255
255 255 255
255 255 255
114 114 114
0 0 0
0 0 0
0 0 0
0 0 0
0 0 0
0 0 0
0 0 0
0 0 0
0 0 0
0 0 0
0 0 0
0 0 0
0 0 0
0 0 0
0 0 0
0 0 0
0 0 0
0 0 0
0 0 0
0 0 0
0 0 0
0 0 0
0 0 0
0 0 0
0 0 0
0 0 0
0 0 0
0 0 0
0 0 0
0 0 0
0 0 0
0 0 0
0 0 0
0 0 0
0 0 0
0 0 0
0 0 0
0 0 0
0 0 0
0 0 0
0 0 0
0 0 0
0 0 0
0 0 0
0 0 0
0 0 0
0 0 0
0 0 0
0 0 0
0 0 0
0 0 0
0 0 0
0 0 0
0 0 0
0 0 0
0 0 0
0 0 0
0 0 0
0 0 0
0 0 0
0 0 0
0 0 0
0 0 0
0 0 0
0 0 0
0 0 0
0 0 0
0 0 0
0 0 0
0 0 0
0 0 0
0 0 0
0 0 0
0 0 0
0 0 0
0 0 0
0 0 0
0 0 0
0 0 0
0 0 0
0 0 0
0 0 0
0 0 0
0 0 0
0 0 0
0 0 0
0 0 0
0 0 0
0 0 0
0 0 0
0 0 0
0 0 0
0 0 0
0 0 0
0 0 0
0 0 0
0 0 0
0 0 0
0 0 0
0 0 0
0 0 0
0 0 0
0 0 0
0 0 0
0 0 0
0 0 0
0 0 0
0 0 0
0 0 0
0 0 0
0 0 0
0 0 0
0 0 0
0 0 0
0 0 0
0 0 0
0 0 0
0 0 0
0 0 0
0 0 0
0 0 0
0 0 0
0 0 0
0 0 0
0 0 0
0 0 0
0 0 0
0 0 0
0 0 0
0 0 0
0 0 0
0 0 0
0 0 0
0 0 0
0 0 0
0 0 0
0 0 0
0 0 0
0 0 0
0 0 0
0 0 0
0 0 0
0 0 0
0 0 0
0 0 0
0 0 0
0 0 0
0 0 0
0 0 0
0 0 0
0 0 0
0 0 0
0 0 0
0 0 0
0 0 0
0 0 0
0 0 0
0 0 0
0 0 0
0 0 0
0 0 0
0 0 0
0 0 0
0 0 0
0 0 0
0 0 0
0 0 0
0 0 0
0 0 0
0 0 0
0 0 0
0 0 0
0 0 0
0 0 0
0 0 0
0 0 0
0 0 0
0 0 0
0 0 0
0 0 0
0 0 0
0 0 0
0 0 0
0 0 0
0 0 0
0 0 0
0 0 0
0 0 0
0 0 0
0 0 0
0 0 0
0 0 0
0 0 0
0 0 0
0 0 0
0 0 0
0 0 0
0 0 0
0 0 0
0 0 0
0 0 0
0 0 0
0 0 0
0 0 0
0 0 0
0 0 0
0 0 0
0 0 0
0 0 0
0 0 0
0 0 0
0 0 0
0 0 0
0 0 0
0 0 0
0 0 0
0 0 0
0 0 0
0 0 0
0 0 0
0 0 0
0 0 0
0 0 0
0 0 0
0 0 0
0 0 0
0 0 0
0 0 0
0 0 0
0 0 0
0 0 0
0 0 0
0 0 0
0 0 0
0 0 0
0 0 0
0 0 0
0 0 0
0 0 0
0 0 0
0 0 0
0 0 0
0 0 0
0 0 0
0 0 0
0 0 0
0 0 0
0 0 0
0 0 0
0 0 0
0 0 0
0 0 0
0 0 0
0 0 0
0 0 0
0 0 0
0 0 0
0 0 0
0 0 0
0 0 0
0 0 0
0 0 0
0 0 0
0 0 0
0 0 0
0 0 0
0 0 0
0 0 0
0 0 0
0 0 0
0 0 0
0 0 0
0 0 0
0 0 0
0 0 0
0 0 0
0 0 0
0 0 0
0 0 0
0 0 0
0 0 0
0 0 0
0 0 0
0 0 0
0 0 0
0 0 0
0 0 0
0 0 0
0 0 0
0 0 0
0 0 0
0 0 0
0 0 0
0 0 0
0 0 0
0 0 0
0 0 0
0 0 0
0 0 0
0 0 0
0 0 0
0 0 0
0 0 0
0 0 0
0 0 0
255 255 255
255 255 255
255 255 255
255 255 255
255 255 255
255 255 255
255 255 255
255 255 255
255 255 255
255 255 255
255 255 255
255 255 255
255 255 255
255 255 255
255 255 255
255 255 255
255 255 255
255 255 255
255 255 255
255 255 255
255 255 255
255 255 255
255 255 255
255 255 255
255 255 255
255 255 255
255 255 255
255 255 255
255 255 255
255 255 255
255 255 255
255 255 255
255 255 255
255 255 255
255 255 255
255 255 255
255 255 255
255 255 255
255 255 255
255 255 255
255 255 255
255 255 255
255 255 255
255 255 255
255 255 255
255 255 255
255 255 255
255 255 255
255 255 255
255 255 255
255 255 255
255 255 255
255 255 255
255 255 255
255 255 255
255 255 255
255 255 255
255 255 255
255 255 255
255 255 255
255 255 255
255 255 255
255 255 255
255 255 255
255 255 255
255 255 255
255 255 255
255 255 255
255 255 255
255 255 255
255 255 255
255 255 255
255 255 255
255 255 255
255 255 255
255 255 255
255 255 255
255 255 255
255 255 255
255 255 255
255 255 255
255 255 255
255 255 255
255 255 255
255 255 255
255 255 255
255 255 255
255 255 255
255 255 255
255 255 255
255 255 255
255 255 255
255 255 255
255 255 255
0 0 0
0 0 0
0 0 0
0 0 0
0 0 0
0 0 0
0 0 0
0 0 0
0 0 0
0 0 0
0 0 0
0 0 0
0 0 0
0 0 0
0 0 0
0 0 0
0 0 0
0 0 0
0 0 0
0 0 0
0 0 0
0 0 0
0 0 0
0 0 0
0 0 0
0 0 0
0 0 0
0 0 0
0 0 0
0 0 0
0 0 0
0 0 0
0 0 0
0 0 0
0 0 0
0 0 0
0 0 0
0 0 0
0 0 0
0 0 0
0 0 0
0 0 0
0 0 0
0 0 0
0 0 0
0 0 0
0 0 0
0 0 0
0 0 0
0 0 0
0 0 0
0 0 0
0 0 0
0 0 0
0 0 0
0 0 0
0 0 0
0 0 0
0 0 0
0 0 0
0 0 0
0 0 0
0 0 0
0 0 0
0 0 0
0 0 0
0 0 0
0 0 0
0 0 0
0 0 0
0 0 0
0 0 0
0 0 0
0 0 0
0 0 0
0 0 0
0 0 0
0 0 0
0 0 0
0 0 0
0 0 0
0 0 0
0 0 0
0 0 0
0 0 0
0 0 0
0 0 0
0 0 0
0 0 0
0 0 0
0 0 0
0 0 0
0 0 0
0 0 0
0 0 0
0 0 0
0 0 0
0 0 0
0 0 0
0 0 0
0 0 0
0 0 0
0 0 0
0 0 0
0 0 0
0 0 0
0 0 0
0 0 0
0 0 0
0 0 0
0 0 0
0 0 0
0 0 0
0 0 0
0 0 0
0 0 0
0 0 0
0 0 0
0 0 0
0 0 0
0 0 0
0 0 0
0 0 0
0 0 0
0 0 0
0 0 0
0 0 0
0 0 0
0 0 0
0 0 0
0 0 0
0 0 0
0 0 0
0 0 0
0 0 0
0 0 0
0 0 0
0 0 0
0 0 0
0 0 0
0 0 0
0 0 0
0 0 0
0 0 0
0 0 0
0 0 0
0 0 0
0 0 0
0 0 0
0 0 0
0 0 0
0 0 0
0 0 0
0 0 0
0 0 0
0 0 0
0 0 0
0 0 0
0 0 0
0 0 0
0 0 0
0 0 0
0 0 0
0 0 0
0 0 0
0 0 0
0 0 0
0 0 0
0 0 0
0 0 0
0 0 0
0 0 0
0 0 0
0 0 0
0 0 0
0 0 0
0 0 0
0 0 0
0 0 0
0 0 0
0 0 0
0 0 0
0 0 0
0 0 0
0 0 0
0 0 0
0 0 0
0 0 0
0 0 0
0 0 0
0 0 0
0 0 0
0 0 0
0 0 0
0 0 0
0 0 0
0 0 0
0 0 0
0 0 0
0 0 0
0 0 0
0 0 0
0 0 0
0 0 0
0 0 0
0 0 0
0 0 0
0 0 0
0 0 0
0 0 0
0 0 0
0 0 0
0 0 0
0 0 0
0 0 0
0 0 0
0 0 0
0 0 0
0 0 0
0 0 0
0 0 0
0 0 0
0 0 0
0 0 0
0 0 0
0 0 0
0 0 0
0 0 0
0 0 0
0 0 0
0 0 0
0 0 0
0 0 0
0 0 0
0 0 0
0 0 0
0 0 0
0 0 0
0 0 0
0 0 0
0 0 0
0 0 0
0 0 0
0 0 0
0 0 0
0 0 0
0 0 0
0 0 0
0 0 0
0 0 0
0 0 0
0 0 0
0 0 0
0 0 0
0 0 0
0 0 0
0 0 0
0 0 0
0 0 0
0 0 0
0 0 0
0 0 0
0 0 0
0 0 0
0 0 0
0 0 0
0 0 0
0 0 0
0 0 0
0 0 0
0 0 0
0 0 0
0 0 0
0 0 0
0 0 0
0 0 0
0 0 0
0 0 0
0 0 0
0 0 0
0 0 0
0 0 0
0 0 0
0 0 0
0 0 0
0 0 0
0 0 0
0 0 0
0 0 0
0 0 0
0 0 0
0 0 0
0 0 0
0 0 0
0 0 0
0 0 0
0 0 0
0 0 0
0 0 0
0 0 0
0 0 0
0 0 0
0 0 0
0 0 0
0 0 0
0 0 0
255 255 255
255 255 255
255 255 255
255 255 255
255 255 255
255 255 255
255 255 255
255 255 255
255 255 255
255 255 255
255 255 255
255 255 255
255 255 255
255 255 255
255 255 255
255 255 255
255 255 255
255 255 255
255 255 255
255 255 255
255 255 255
255 255 255
255 255 255
255 255 255
255 255 255
255 255 255
255 255 255
255 255 255
255 255 255
255 255 255
255 255 255
255 255 255
255 255 255
255 255 255
255 255 255
255 255 255
255 255 255
255 255 255
255 255 255
255 255 255
255 255 255
255 255 255
255 255 255
255 255 255
255 255 255
255 255 255
255 255 255
255 255 255
255 255 255
255 255 255
255 255 255
255 255 255
255 255 255
255 255 255
255 255 255
255 255 255
255 255 255
255 255 255
255 255 255
255 255 255
255 255 255
255 255 255
255 255 255
255 255 255
255 255 255
255 255 255
255 255 255
255 255 255
255 255 255
255 255 255
255 255 255
255 255 255
255 255 255
255 255 255
255 255 255
255 255 255
255 255 255
255 255 255
255 255 255
255 255 255
255 255 255
255 255 255
255 255 255
255 255 255
255 255 255
255 255 255
255 255 255
255 255 255
255 255 255
255 255 255
255 255 255
255 255 255
255 255 255
255 255 255
0 0 0
0 0 0
0 0 0
0 0 0
0 0 0
0 0 0
0 0 0
0 0 0
0 0 0
0 0 0
0 0 0
0 0 0
0 0 0
0 0 0
0 0 0
0 0 0
0 0 0
0 0 0
0 0 0
0 0 0
0 0 0
0 0 0
0 0 0
0 0 0
0 0 0
0 0 0
0 0 0
0 0 0
0 0 0
0 0 0
0 0 0
0 0 0
0 0 0
0 0 0
0 0 0
0 0 0
0 0 0
0 0 0
0 0 0
0 0 0
0 0 0
0 0 0
0 0 0
0 0 0
0 0 0
0 0 0
0 0 0
0 0 0
0 0 0
0 0 0
0 0 0
0 0 0
0 0 0
0 0 0
0 0 0
0 0 0
0 0 0
0 0 0
0 0 0
0 0 0
0 0 0
0 0 0
0 0 0
0 0 0
0 0 0
0 0 0
0 0 0
0 0 0
0 0 0
0 0 0
0 0 0
0 0 0
0 0 0
0 0 0
0 0 0
0 0 0
0 0 0
0 0 0
0 0 0
0 0 0
0 0 0
0 0 0
0 0 0
0 0 0
0 0 0
0 0 0
0 0 0
0 0 0
0 0 0
0 0 0
0 0 0
0 0 0
0 0 0
0 0 0
0 0 0
0 0 0
0 0 0
0 0 0
0 0 0
0 0 0
0 0 0
0 0 0
0 0 0
0 0 0
0 0 0
0 0 0
0 0 0
0 0 0
0 0 0
0 0 0
0 0 0
0 0 0
0 0 0
0 0 0
0 0 0
0 0 0
0 0 0
0 0 0
0 0 0
0 0 0
0 0 0
0 0 0
0 0 0
0 0 0
0 0 0
0 0 0
0 0 0
0 0 0
0 0 0
0 0 0
0 0 0
0 0 0
0 0 0
0 0 0
0 0 0
0 0 0
0 0 0
0 0 0
0 0 0
0 0 0
0 0 0
0 0 0
0 0 0
0 0 0
0 0 0
0 0 0
0 0 0
0 0 0
0 0 0
0 0 0
0 0 0
0 0 0
0 0 0
0 0 0
0 0 0
0 0 0
0 0 0
0 0 0
0 0 0
0 0 0
0 0 0
0 0 0
0 0 0
0 0 0
0 0 0
0 0 0
0 0 0
0 0 0
0 0 0
0 0 0
0 0 0
0 0 0
0 0 0
0 0 0
0 0 0
0 0 0
0 0 0
0 0 0
0 0 0
0 0 0
0 0 0
0 0 0
0 0 0
0 0 0
0 0 0
0 0 0
0 0 0
0 0 0
0 0 0
0 0 0
0 0 0
0 0 0
0 0 0
0 0 0
0 0 0
0 0 0
0 0 0
0 0 0
0 0 0
0 0 0
0 0 0
0 0 0
0 0 0
0 0 0
0 0 0
0 0 0
0 0 0
0 0 0
0 0 0
0 0 0
0 0 0
0 0 0
0 0 0
0 0 0
0 0 0
0 0 0
0 0 0
0 0 0
0 0 0
0 0 0
0 0 0
0 0 0
0 0 0
0 0 0
0 0 0
0 0 0
0 0 0
0 0 0
0 0 0
0 0 0
0 0 0
0 0 0
0 0 0
0 0 0
0 0 0
0 0 0
0 0 0
0 0 0
0 0 0
0 0 0
0 0 0
0 0 0
0 0 0
0 0 0
0 0 0
0 0 0
0 0 0
0 0 0
0 0 0
0 0 0
0 0 0
0 0 0
0 0 0
0 0 0
0 0 0
0 0 0
0 0 0
0 0 0
0 0 0
0 0 0
0 0 0
0 0 0
0 0 0
0 0 0
0 0 0
0 0 0
0 0 0
0 0 0
0 0 0
0 0 0
0 0 0
0 0 0
0 0 0
0 0 0
0 0 0
0 0 0
0 0 0
0 0 0
0 0 0
0 0 0
0 0 0
0 0 0
0 0 0
0 0 0
0 0 0
0 0 0
0 0 0
0 0 0
0 0 0
0 0 0
0 0 0
0 0 0
0 0 0
0 0 0
0 0 0
0 0 0
0 0 0
0 0 0
0 0 0
0 0 0
0 0 0
0 0 0
0 0 0
0 0 0
0 0 0
0 0 0
228 228 228
255 255 255
255 255 255
255 255 255
255 255 255
255 255 255
255 255 255
255 255 255
255 255 255
255 255 255
255 255 255
255 255 255
255 255 255
255 255 255
255 255 255
255 255 255
255 255 255
255 255 255
255 255 255
255 255 255
255 255 255
255 255 255
255 255 255
255 255 255
255 255 255
255 255 255
255 255 255
255 255 255
255 255 255
255 255 255
255 255 255
255 255 255
255 255 255
255 255 255
255 255 255
255 255 255
255 255 255
255 255 255
255 255 255
255 255 255
255 255 255
255 255 255
255 255 255
255 255 255
255 255 255
255 255 255
255 255 255
255 255 255
255 255 255
255 255 255
255 255 255
255 255 255
255 255 255
255 255 255
255 255 255
255 255 255
255 255 255
255 255 255
255 255 255
255 255 255
255 255 255
255 255 255
255 255 255
255 255 255
255 255 255
255 255 255
255 255 255
255 255 255
255 255 255
255 255 255
255 255 255
255 255 255
255 255 255
255 255 255
255 255 255
255 255 255
255 255 255
255 255 255
255 255 255
255 255 255
255 255 255
255 255 255
255 255 255
255 255 255
255 255 255
255 255 255
255 255 255
255 255 255
255 255 255
255 255 255
255 255 255
255 255 255
255 255 255
255 255 255
0 0 0
0 0 0
0 0 0
0 0 0
0 0 0
0 0 0
0 0 0
0 0 0
0 0 0
0 0 0
0 0 0
0 0 0
0 0 0
0 0 0
0 0 0
0 0 0
0 0 0
0 0 0
0 0 0
0 0 0
0 0 0
0 0 0
0 0 0
0 0 0
0 0 0
0 0 0
0 0 0
0 0 0
0 0 0
0 0 0
0 0 0
0 0 0
0 0 0
0 0 0
0 0 0
0 0 0
0 0 0
0 0 0
0 0 0
0 0 0
0 0 0
0 0 0
0 0 0
0 0 0
0 0 0
0 0 0
0 0 0
0 0 0
0 0 0
0 0 0
0 0 0
0 0 0
0 0 0
0 0 0
0 0 0
0 0 0
0 0 0
0 0 0
0 0 0
0 0 0
0 0 0
0 0 0
0 0 0
0 0 0
0 0 0
0 0 0
0 0 0
0 0 0
0 0 0
0 0 0
0 0 0
0 0 0
0 0 0
0 0 0
0 0 0
0 0 0
0 0 0
0 0 0
0 0 0
0 0 0
0 0 0
0 0 0
0 0 0
0 0 0
0 0 0
0 0 0
0 0 0
0 0 0
0 0 0
0 0 0
0 0 0
0 0 0
0 0 0
0 0 0
0 0 0
0 0 0
0 0 0
0 0 0
0 0 0
0 0 0
0 0 0
0 0 0
0 0 0
0 0 0
0 0 0
0 0 0
0 0 0
0 0 0
0 0 0
0 0 0
0 0 0
0 0 0
0 0 0
0 0 0
0 0 0
0 0 0
0 0 0
0 0 0
0 0 0
0 0 0
0 0 0
0 0 0
0 0 0
0 0 0
0 0 0
0 0 0
0 0 0
0 0 0
0 0 0
0 0 0
0 0 0
0 0 0
0 0 0
0 0 0
0 0 0
0 0 0
0 0 0
0 0 0
0 0 0
0 0 0
0 0 0
0 0 0
0 0 0
0 0 0
0 0 0
0 0 0
0 0 0
0 0 0
0 0 0
0 0 0
0 0 0
0 0 0
0 0 0
0 0 0
0 0 0
0 0 0
0 0 0
0 0 0
0 0 0
0 0 0
0 0 0
0 0 0
0 0 0
0 0 0
0 0 0
0 0 0
0 0 0
0 0 0
0 0 0
0 0 0
0 0 0
0 0 0
0 0 0
0 0 0
0 0 0
0 0 0
0 0 0
0 0 0
0 0 0
0 0 0
0 0 0
0 0 0
0 0 0
0 0 0
0 0 0
0 0 0
0 0 0
0 0 0
0 0 0
0 0 0
0 0 0
0 0 0
0 0 0
0 0 0
0 0 0
0 0 0
0 0 0
0 0 0
0 0 0
0 0 0
0 0 0
0 0 0
0 0 0
0 0 0
0 0 0
0 0 0
0 0 0
0 0 0
0 0 0
0 0 0
0 0 0
0 0 0
0 0 0
0 0 0
0 0 0
0 0 0
0 0 0
0 0 0
0 0 0
0 0 0
0 0 0
0 0 0
0 0 0
0 0 0
0 0 0
0 0 0
0 0 0
0 0 0
0 0 0
0 0 0
0 0 0
0 0 0
0 0 0
0 0 0
0 0 0
0 0 0
0 0 0
0 0 0
0 0 0
0 0 0
0 0 0
0 0 0
0 0 0
0 0 0
0 0 0
0 0 0
0 0 0
0 0 0
0 0 0
0 0 0
0 0 0
0 0 0
0 0 0
0 0 0
0 0 0
0 0 0
0 0 0
0 0 0
0 0 0
0 0 0
0 0 0
0 0 0
0 0 0
0 0 0
0 0 0
0 0 0
0 0 0
0 0 0
0 0 0
0 0 0
0 0 0
0 0 0
0 0 0
0 0 0
0 0 0
0 0 0
0 0 0
0 0 0
0 0 0
0 0 0
0 0 0
0 0 0
0 0 0
0 0 0
0 0 0
0 0 0
0 0 0
0 0 0
0 0 0
0 0 0
0 0 0
0 0 0
0 0 0
0 0 0
0 0 0
0 0 0
0 0 0
0 0 0
0 0 0
0 0 0
0 0 0
0 0 0
0 0 0
0 0 0
0 0 0
0 0 0
102 102 102
255 255 255
255 255 255
255 255 255
255 255 255
255 255 255
255 255 255
255 255 255
255 255 255
255 255 255
255 255 255
255 255 255
255 255 255
255 255 255
255 255 255
255 255 255
255 255 255
255 255 255
255 255 255
255 255 255
255 255 255
255 255 255
255 255 255
255 255 255
255 255 255
255 255 255
255 255 255
255 255 255
255 255 255
255 255 255
255 255 255
255 255 255
255 255 255
255 255 255
255 255 255
255 255 255
255 255 255
255 255 255
255 255 255
255 255 255
255 255 255
255 255 255
255 255 255
255 255 255
255 255 255
255 255 255
255 255 255
255 255 255
255 255 255
255 255 255
255 255 255
255 255 255
255 255 255
255 255 255
255 255 255
255 255 255
255 255 255
255 255 255
255 255 255
255 255 255
255 255 255
255 255 255
255 255 255
255 255 255
255 255 255
255 255 255
255 255 255
255 255 255
255 255 255
255 255 255
255 255 255
255 255 255
255 255 255
255 255 255
255 255 255
255 255 255
255 255 255
255 255 255
255 255 255
255 255 255
255 255 255
255 255 255
255 255 255
255 255 255
255 255 255
255 255 255
255 255 255
255 255 255
255 255 255
255 255 255
255 255 255
255 255 255
255 255 255
114 114 114
0 0 0
0 0 0
0 0 0
0 0 0
0 0 0
0 0 0
0 0 0
0 0 0
0 0 0
0 0 0
0 0 0
0 0 0
0 0 0
0 0 0
0 0 0
0 0 0
0 0 0
0 0 0
0 0 0
0 0 0
0 0 0
0 0 0
0 0 0
0 0 0
0 0 0
0 0 0
0 0 0
0 0 0
0 0 0
0 0 0
0 0 0
0 0 0
0 0 0
0 0 0
0 0 0
0 0 0
0 0 0
0 0 0
0 0 0
0 0 0
0 0 0
0 0 0
0 0 0
0 0 0
0 0 0
0 0 0
0 0 0
0 0 0
0 0 0
0 0 0
0 0 0
0 0 0
0 0 0
0 0 0
0 0 0
0 0 0
0 0 0
0 0 0
0 0 0
0 0 0
0 0 0
0 0 0
0 0 0
0 0 0
0 0 0
0 0 0
0 0 0
0 0 0
0 0 0
0 0 0
0 0 0
0 0 0
0 0 0
0 0 0
0 0 0
0 0 0
0 0 0
0 0 0
0 0 0
0 0 0
0 0 0
0 0 0
0 0 0
0 0 0
0 0 0
0 0 0
0 0 0
0 0 0
0 0 0
0 0 0
0 0 0
0 0 0
0 0 0
0 0 0
0 0 0
0 0 0
0 0 0
0 0 0
0 0 0
0 0 0
0 0 0
0 0 0
0 0 0
0 0 0
0 0 0
0 0 0
0 0 0
0 0 0
0 0 0
0 0 0
0 0 0
0 0 0
0 0 0
0 0 0
0 0 0
0 0 0
0 0 0
0 0 0
0 0 0
0 0 0
0 0 0
0 0 0
0 0 0
0 0 0
0 0 0
0 0 0
0 0 0
0 0 0
0 0 0
0 0 0
0 0 0
0 0 0
0 0 0
0 0 0
0 0 0
0 0 0
0 0 0
0 0 0
0 0 0
0 0 0
0 0 0
0 0 0
0 0 0
0 0 0
0 0 0
0 0 0
0 0 0
0 0 0
0 0 0
0 0 0
0 0 0
0 0 0
0 0 0
0 0 0
0 0 0
0 0 0
0 0 0
0 0 0
0 0 0
0 0 0
0 0 0
0 0 0
0 0 0
0 0 0
0 0 0
0 0 0
0 0 0
0 0 0
0 0 0
0 0 0
0 0 0
0 0 0
0 0 0
0 0 0
0 0 0
0 0 0
0 0 0
0 0 0
0 0 0
0 0 0
0 0 0
0 0 0
0 0 0
0 0 0
0 0 0
0 0 0
0 0 0
0 0 0
0 0 0
0 0 0
0 0 0
0 0 0
0 0 0
0 0 0
0 0 0
0 0 0
0 0 0
0 0 0
0 0 0
0 0 0
0 0 0
0 0 0
0 0 0
0 0 0
0 0 0
0 0 0
0 0 0
0 0 0
0 0 0
0 0 0
0 0 0
0 0 0
0 0 0
0 0 0
0 0 0
0 0 0
0 0 0
0 0 0
0 0 0
0 0 0
0 0 0
0 0 0
0 0 0
0 0 0
0 0 0
0 0 0
0 0 0
0 0 0
0 0 0
0 0 0
0 0 0
0 0 0
0 0 0
0 0 0
0 0 0
0 0 0
0 0 0
0 0 0
0 0 0
0 0 0
0 0 0
0 0 0
0 0 0
0 0 0
0 0 0
0 0 0
0 0 0
0 0 0
0 0 0
0 0 0
0 0 0
0 0 0
0 0 0
0 0 0
0 0 0
0 0 0
0 0 0
0 0 0
0 0 0
0 0 0
0 0 0
0 0 0
0 0 0
0 0 0
0 0 0
0 0 0
0 0 0
0 0 0
0 0 0
0 0 0
0 0 0
0 0 0
0 0 0
0 0 0
0 0 0
0 0 0
0 0 0
0 0 0
0 0 0
0 0 0
0 0 0
0 0 0
0 0 0
0 0 0
0 0 0
0 0 0
0 0 0
0 0 0
0 0 0
0 0 0
0 0 0
0 0 0
0 0 0
0 0 0
0 0 0
0 0 0
0 0 0
0 0 0
0 0 0
0 0 0
0 0 0
0 0 0
0 0 0
0 0 0
0 0 0
0 0 0
0 0 0
255 255 255
255 255 255
255 255 255
255 255 255
255 255 255
255 255 255
255 255 255
255 255 255
255 255 255
255 255 255
255 255 255
255 255 255
255 255 255
255 255 255
255 255 255
255 255 255
255 255 255
255 255 255
255 255 255
255 255 255
255 255 255
255 255 255
255 255 255
255 255 255
255 255 255
255 255 255
255 255 255
255 255 255
255 255 255
255 255 255
255 255 255
255 255 255
255 255 255
255 255 255
255 255 255
255 255 255
255 255 255
255 255 255
255 255 255
255 255 255
255 255 255
255 255 255
255 255 255
255 255 255
255 255 255
255 255 255
255 255 255
255 255 255
255 255 255
255 255 255
255 255 255
255 255 255
255 255 255
255 255 255
255 255 255
255 255 255
255 255 255
255 255 255
255 255 255
255 255 255
255 255 255
255 255 255
255 255 255
255 255 255
255 255 255
255 255 255
255 255 255
255 255 255
255 255 255
255 255 255
255 255 255
255 255 255
255 255 255
255 255 255
255 255 255
255 255 255
255 255 255
255 255 255
255 255 255
255 255 255
255 255 255
255 255 255
255 255 255
255 255 255
255 255 255
255 255 255
255 255 255
255 255 255
255 255 255
255 255 255
255 255 255
255 255 255
0 0 0
0 0 0
0 0 0
0 0 0
0 0 0
0 0 0
0 0 0
0 0 0
0 0 0
0 0 0
0 0 0
0 0 0
0 0 0
0 0 0
0 0 0
0 0 0
0 0 0
0 0 0
0 0 0
0 0 0
0 0 0
0 0 0
0 0 0
0 0 0
0 0 0
0 0 0
0 0 0
0 0 0
0 0 0
0 0 0
0 0 0
0 0 0
0 0 0
0 0 0
0 0 0
0 0 0
0 0 0
0 0 0
0 0 0
0 0 0
0 0 0
0 0 0
0 0 0
0 0 0
0 0 0
0 0 0
0 0 0
0 0 0
0 0 0
0 0 0
0 0 0
0 0 0
0 0 0
0 0 0
0 0 0
0 0 0
0 0 0
0 0 0
0 0 0
0 0 0
0 0 0
0 0 0
0 0 0
0 0 0
0 0 0
0 0 0
0 0 0
0 0 0
0 0 0
0 0 0
0 0 0
0 0 0
0 0 0
0 0 0
0 0 0
0 0 0
0 0 0
0 0 0
0 0 0
0 0 0
0 0 0
0 0 0
0 0 0
0 0 0
0 0 0
0 0 0
0 0 0
0 0 0
0 0 0
0 0 0
0 0 0
0 0 0
0 0 0
0 0 0
0 0 0
0 0 0
0 0 0
0 0 0
0 0 0
0 0 0
0 0 0
0 0 0
0 0 0
0 0 0
0 0 0
0 0 0
0 0 0
0 0 0
0 0 0
0 0 0
0 0 0
0 0 0
0 0 0
0 0 0
0 0 0
0 0 0
0 0 0
0 0 0
0 0 0
0 0 0
0 0 0
0 0 0
0 0 0
0 0 0
0 0 0
0 0 0
0 0 0
0 0 0
0 0 0
0 0 0
0 0 0
0 0 0
0 0 0
0 0 0
0 0 0
0 0 0
0 0 0
0 0 0
0 0 0
0 0 0
0 0 0
0 0 0
0 0 0
0 0 0
0 0 0
0 0 0
0 0 0
0 0 0
0 0 0
0 0 0
0 0 0
0 0 0
0 0 0
0 0 0
0 0 0
0 0 0
0 0 0
0 0 0
0 0 0
0 0 0
0 0 0
0 0 0
0 0 0
0 0 0
0 0 0
0 0 0
0 0 0
0 0 0
0 0 0
0 0 0
0 0 0
0 0 0
0 0 0
0 0 0
0 0 0
0 0 0
0 0 0
0 0 0
0 0 0
0 0 0
0 0 0
0 0 0
0 0 0
0 0 0
0 0 0
0 0 0
0 0 0
0 0 0
0 0 0
0 0 0
0 0 0
0 0 0
0 0 0
0 0 0
0 0 0
0 0 0
0 0 0
0 0 0
0 0 0
0 0 0
0 0 0
0 0 0
0 0 0
0 0 0
0 0 0
0 0 0
0 0 0
0 0 0
0 0 0
0 0 0
0 0 0
0 0 0
0 0 0
0 0 0
0 0 0
0 0 0
0 0 0
0 0 0
0 0 0
0 0 0
0 0 0
0 0 0
0 0 0
0 0 0
0 0 0
0 0 0
0 0 0
0 0 0
0 0 0
0 0 0
0 0 0
0 0 0
0 0 0
0 0 0
0 0 0
0 0 0
0 0 0
0 0 0
0 0 0
0 0 0
0 0 0
0 0 0
0 0 0
0 0 0
0 0 0
0 0 0
0 0 0
0 0 0
0 0 0
0 0 0
0 0 0
0 0 0
0 0 0
0 0 0
0 0 0
0 0 0
0 0 0
0 0 0
0 0 0
0 0 0
0 0 0
0 0 0
0 0 0
0 0 0
0 0 0
0 0 0
0 0 0
0 0 0
0 0 0
0 0 0
0 0 0
0 0 0
0 0 0
0 0 0
0 0 0
0 0 0
0 0 0
0 0 0
0 0 0
0 0 0
0 0 0
0 0 0
0 0 0
0 0 0
0 0 0
0 0 0
0 0 0
0 0 0
0 0 0
0 0 0
0 0 0
0 0 0
0 0 0
0 0 0
0 0 0
0 0 0
0 0 0
0 0 0
0 0 0
0 0 0
0 0 0
0 0 0
0 0 0
0 0 0
0 0 0
0 0 0
0 0 0
0 0 0
255 255 255
255 255 255
255 255 255
255 255 255
255 255 255
255 255 255
255 255 255
255 255 255
255 255 255
255 255 255
255 255 255
255 255 255
255 255 255
255 255 255
255 255 255
255 255 255
255 255 255
255 255 255
255 255 255
255 255 255
255 255 255
255 255 255
255 255 255
255 255 255
255 255 255
255 255 255
255 255 255
255 255 255
255 255 255
255 255 255
255 255 255
255 255 255
255 255 255
255 255 255
255 255 255
255 255 255
255 255 255
255 255 255
255 255 255
255 255 255
255 255 255
255 255 255
255 255 255
255 255 255
255 255 255
255 255 255
255 255 255
255 255 255
255 255 255
255 255 255
255 255 255
255 255 255
255 255 255
255 255 255
255 255 255
255 255 255
255 255 255
255 255 255
255 255 255
255 255 255
255 255 255
255 255 255
255 255 255
255 255 255
255 255 255
255 255 255
255 255 255
255 255 255
255 255 255
255 255 255
255 255 255
255 255 255
255 255 255
255 255 255
255 255 255
255 255 255
255 255 255
255 255 255
255 255 255
255 255 255
255 255 255
255 255 255
255 255 255
255 255 255
255 255 255
255 255 255
255 255 255
255 255 255
255 255 255
255 255 255
255 255 255
211 211 211
0 0 0
0 0 0
0 0 0
0 0 0
0 0 0
0 0 0
0 0 0
0 0 0
0 0 0
0 0 0
0 0 0
0 0 0
0 0 0
0 0 0
0 0 0
0 0 0
0 0 0
0 0 0
0 0 0
0 0 0
0 0 0
0 0 0
0 0 0
0 0 0
0 0 0
0 0 0
0 0 0
0 0 0
0 0 0
0 0 0
0 0 0
0 0 0
0 0 0
0 0 0
0 0 0
0 0 0
0 0 0
0 0 0
0 0 0
0 0 0
0 0 0
0 0 0
0 0 0
0 0 0
0 0 0
0 0 0
0 0 0
0 0 0
0 0 0
0 0 0
0 0 0
0 0 0
0 0 0
0 0 0
0 0 0
0 0 0
0 0 0
0 0 0
0 0 0
0 0 0
0 0 0
0 0 0
0 0 0
0 0 0
0 0 0
0 0 0
0 0 0
0 0 0
0 0 0
0 0 0
0 0 0
0 0 0
0 0 0
0 0 0
0 0 0
0 0 0
0 0 0
0 0 0
0 0 0
0 0 0
0 0 0
0 0 0
0 0 0
0 0 0
0 0 0
0 0 0
0 0 0
0 0 0
0 0 0
0 0 0
0 0 0
0 0 0
0 0 0
0 0 0
0 0 0
0 0 0
0 0 0
0 0 0
0 0 0
0 0 0
0 0 0
0 0 0
0 0 0
0 0 0
0 0 0
0 0 0
0 0 0
0 0 0
0 0 0
0 0 0
0 0 0
0 0 0
0 0 0
0 0 0
0 0 0
0 0 0
0 0 0
0 0 0
0 0 0
0 0 0
0 0 0
0 0 0
0 0 0
0 0 0
0 0 0
0 0 0
0 0 0
0 0 0
0 0 0
0 0 0
0 0 0
0 0 0
0 0 0
0 0 0
0 0 0
0 0 0
0 0 0
0 0 0
0 0 0
0 0 0
0 0 0
0 0 0
0 0 0
0 0 0
0 0 0
0 0 0
0 0 0
0 0 0
0 0 0
0 0 0
0 0 0
0 0 0
0 0 0
0 0 0
0 0 0
0 0 0
0 0 0
0 0 0
0 0 0
0 0 0
0 0 0
0 0 0
0 0 0
0 0 0
0 0 0
0 0 0
0 0 0
0 0 0
0 0 0
0 0 0
0 0 0
0 0 0
0 0 0
0 0 0
0 0 0
0 0 0
0 0 0
0 0 0
0 0 0
0 0 0
0 0 0
0 0 0
0 0 0
0 0 0
0 0 0
0 0 0
0 0 0
0 0 0
0 0 0
0 0 0
0 0 0
0 0 0
0 0 0
0 0 0
0 0 0
0 0 0
0 0 0
0 0 0
0 0 0
0 0 0
0 0 0
0 0 0
0 0 0
0 0 0
0 0 0
0 0 0
0 0 0
0 0 0
0 0 0
0 0 0
0 0 0
0 0 0
0 0 0
0 0 0
0 0 0
0 0 0
0 0 0
0 0 0
0 0 0
0 0 0
0 0 0
0 0 0
0 0 0
0 0 0
0 0 0
0 0 0
0 0 0
0 0 0
0 0 0
0 0 0
0 0 0
0 0 0
0 0 0
0 0 0
0 0 0
0 0 0
0 0 0
0 0 0
0 0 0
0 0 0
0 0 0
0 0 0
0 0 0
0 0 0
0 0 0
0 0 0
0 0 0
0 0 0
0 0 0
0 0 0
0 0 0
0 0 0
0 0 0
0 0 0
0 0 0
0 0 0
0 0 0
0 0 0
0 0 0
0 0 0
0 0 0
0 0 0
0 0 0
0 0 0
0 0 0
0 0 0
0 0 0
0 0 0
0 0 0
0 0 0
0 0 0
0 0 0
0 0 0
0 0 0
0 0 0
0 0 0
0 0 0
0 0 0
0 0 0
0 0 0
0 0 0
0 0 0
0 0 0
0 0 0
0 0 0
0 0 0
0 0 0
0 0 0
0 0 0
0 0 0
0 0 0
0 0 0
0 0 0
0 0 0
0 0 0
0 0 0
0 0 0
0 0 0
0 0 0
0 0 0
0 0 0
0 0 0
0 0 0
0 0 0
0 0 0
0 0 0
0 0 0
0 0 0
72 72 72
255 255 255
255 255 255
255 255 255
255 255 255
255 255 255
255 255 255
255 255 255
255 255 255
255 255 255
255 255 255
255 255 255
255 255 255
255 255 255
255 255 255
255 255 255
255 255 255
255 255 255
255 255 255
255 255 255
255 255 255
255 255 255
255 255 255
255 255 255
255 255 255
255 255 255
255 255 255
255 255 255
255 255 255
255 255 255
255 255 255
255 255 255
255 255 255
255 255 255
255 255 255
255 255 255
255 255 255
255 255 255
255 255 255
255 255 255
255 255 255
255 255 255
255 255 255
255 255 255
255 255 255
255 255 255
255 255 255
255 255 255
255 255 255
255 255 255
255 255 255
255 255 255
255 255 255
255 255 255
255 255 255
255 255 255
255 255 255
255 255 255
255 255 255
255 255 255
255 255 255
255 255 255
255 255 255
255 255 255
255 255 255
255 255 255
255 255 255
255 255 255
255 255 255
255 255 255
255 255 255
255 255 255
255 255 255
255 255 255
255 255 255
255 255 255
255 255 255
255 255 255
255 255 255
255 255 255
255 255 255
255 255 255
255 255 255
255 255 255
255 255 255
255 255 255
255 255 255
255 255 255
255 255 255
255 255 255
255 255 255
51 51 51
0 0 0
0 0 0
0 0 0
0 0 0
0 0 0
0 0 0
0 0 0
0 0 0
0 0 0
0 0 0
0 0 0
0 0 0
0 0 0
0 0 0
0 0 0
0 0 0
0 0 0
0 0 0
0 0 0
0 0 0
0 0 0
0 0 0
0 0 0
0 0 0
0 0 0
0 0 0
0 0 0
0 0 0
0 0 0
0 0 0
0 0 0
0 0 0
0 0 0
0 0 0
0 0 0
0 0 0
0 0 0
0 0 0
0 0 0
0 0 0
0 0 0
0 0 0
0 0 0
0 0 0
0 0 0
0 0 0
0 0 0
0 0 0
0 0 0
0 0 0
0 0 0
0 0 0
0 0 0
0 0 0
0 0 0
0 0 0
0 0 0
0 0 0
0 0 0
0 0 0
0 0 0
0 0 0
0 0 0
0 0 0
0 0 0
0 0 0
0 0 0
0 0 0
0 0 0
0 0 0
0 0 0
0 0 0
0 0 0
0 0 0
0 0 0
0 0 0
0 0 0
0 0 0
0 0 0
0 0 0
0 0 0
0 0 0
0 0 0
0 0 0
0 0 0
0 0 0
0 0 0
0 0 0
0 0 0
0 0 0
0 0 0
0 0 0
0 0 0
0 0 0
0 0 0
0 0 0
0 0 0
0 0 0
0 0 0
0 0 0
0 0 0
0 0 0
0 0 0
0 0 0
0 0 0
0 0 0
0 0 0
0 0 0
0 0 0
0 0 0
0 0 0
0 0 0
0 0 0
0 0 0
0 0 0
0 0 0
0 0 0
0 0 0
0 0 0
0 0 0
0 0 0
0 0 0
0 0 0
0 0 0
0 0 0
0 0 0
0 0 0
0 0 0
0 0 0
0 0 0
0 0 0
0 0 0
0 0 0
0 0 0
0 0 0
0 0 0
0 0 0
0 0 0
0 0 0
0 0 0
0 0 0
0 0 0
0 0 0
0 0 0
0 0 0
0 0 0
0 0 0
0 0 0
0 0 0
0 0 0
0 0 0
0 0 0
0 0 0
0 0 0
0 0 0
0 0 0
0 0 0
0 0 0
0 0 0
0 0 0
0 0 0
0 0 0
0 0 0
0 0 0
0 0 0
0 0 0
0 0 0
0 0 0
0 0 0
0 0 0
0 0 0
0 0 0
0 0 0
0 0 0
0 0 0
0 0 0
0 0 0
0 0 0
0 0 0
0 0 0
0 0 0
0 0 0
0 0 0
0 0 0
0 0 0
0 0 0
0 0 0
0 0 0
0 0 0
0 0 0
0 0 0
0 0 0
0 0 0
0 0 0
0 0 0
0 0 0
0 0 0
0 0 0
0 0 0
0 0 0
0 0 0
0 0 0
0 0 0
0 0 0
0 0 0
0 0 0
0 0 0
0 0 0
0 0 0
0 0 0
0 0 0
0 0 0
0 0 0
0 0 0
0 0 0
0 0 0
0 0 0
0 0 0
0 0 0
0 0 0
0 0 0
0 0 0
0 0 0
0 0 0
0 0 0
0 0 0
0 0 0
0 0 0
0 0 0
0 0 0
0 0 0
0 0 0
0 0 0
0 0 0
0 0 0
0 0 0
0 0 0
0 0 0
0 0 0
0 0 0
0 0 0
0 0 0
0 0 0
0 0 0
0 0 0
0 0 0
0 0 0
0 0 0
0 0 0
0 0 0
0 0 0
0 0 0
0 0 0
0 0 0
0 0 0
0 0 0
0 0 0
0 0 0
0 0 0
0 0 0
0 0 0
0 0 0
0 0 0
0 0 0
0 0 0
0 0 0
0 0 0
0 0 0
0 0 0
0 0 0
0 0 0
0 0 0
0 0 0
0 0 0
0 0 0
0 0 0
0 0 0
0 0 0
0 0 0
0 0 0
0 0 0
0 0 0
0 0 0
0 0 0
0 0 0
0 0 0
0 0 0
0 0 0
0 0 0
0 0 0
0 0 0
0 0 0
0 0 0
0 0 0
0 0 0
0 0 0
0 0 0
0 0 0
0 0 0
0 0 0
0 0 0
0 0 0
0 0 0
0 0 0
0 0 0
0 0 0
0 0 0
0 0 0
0 0 0
255 255 255
255 255 255
255 255 255
255 255 255
255 255 255
255 255 255
255 255 255
255 255 255
255 255 255
255 255 255
255 255 255
255 255 255
255 255 255
255 255 255
255 255 255
255 255 255
255 255 255
255 255 255
255 255 255
255 255 255
255 255 255
255 255 255
255 255 255
255 255 255
255 255 255
255 255 255
255 255 255
255 255 255
255 255 255
255 255 255
255 255 255
255 255 255
255 255 255
255 255 255
255 255 255
255 255 255
255 255 255
255 255 255
255 255 255
255 255 255
255 255 255
255 255 255
255 255 255
255 255 255
255 255 255
255 255 255
255 255 255
255 255 255
255 255 255
255 255 255
255 255 255
255 255 255
255 255 255
255 255 255
255 255 255
255 255 255
255 255 255
255 255 255
255 255 255
255 255 255
255 255 255
255 255 255
255 255 255
255 255 255
255 255 255
255 255 255
255 255 255
255 255 255
255 255 255
255 255 255
255 255 255
255 255 255
255 255 255
255 255 255
255 255 255
255 255 255
255 255 255
255 255 255
255 255 255
255 255 255
255 255 255
255 255 255
255 255 255
255 255 255
255 255 255
255 255 255
255 255 255
255 255 255
255 255 255
255 255 255
0 0 0
0 0 0
0 0 0
0 0 0
0 0 0
0 0 0
0 0 0
0 0 0
0 0 0
0 0 0
0 0 0
0 0 0
0 0 0
0 0 0
0 0 0
0 0 0
0 0 0
0 0 0
0 0 0
0 0 0
0 0 0
0 0 0
0 0 0
0 0 0
0 0 0
0 0 0
0 0 0
0 0 0
0 0 0
0 0 0
0 0 0
0 0 0
0 0 0
0 0 0
0 0 0
0 0 0
0 0 0
0 0 0
0 0 0
0 0 0
0 0 0
0 0 0
0 0 0
0 0 0
0 0 0
0 0 0
0 0 0
0 0 0
0 0 0
0 0 0
0 0 0
0 0 0
0 0 0
0 0 0
0 0 0
0 0 0
0 0 0
0 0 0
0 0 0
0 0 0
0 0 0
0 0 0
0 0 0
0 0 0
0 0 0
0 0 0
0 0 0
0 0 0
0 0 0
0 0 0
0 0 0
0 0 0
0 0 0
0 0 0
0 0 0
0 0 0
0 0 0
0 0 0
0 0 0
0 0 0
0 0 0
0 0 0
0 0 0
0 0 0
0 0 0
0 0 0
0 0 0
0 0 0
0 0 0
0 0 0
0 0 0
0 0 0
0 0 0
0 0 0
0 0 0
0 0 0
0 0 0
0 0 0
0 0 0
0 0 0
0 0 0
0 0 0
0 0 0
0 0 0
0 0 0
0 0 0
0 0 0
0 0 0
0 0 0
0 0 0
0 0 0
0 0 0
0 0 0
0 0 0
0 0 0
0 0 0
0 0 0
0 0 0
0 0 0
0 0 0
0 0 0
0 0 0
0 0 0
0 0 0
0 0 0
0 0 0
0 0 0
0 0 0
0 0 0
0 0 0
0 0 0
0 0 0
0 0 0
0 0 0
0 0 0
0 0 0
0 0 0
0 0 0
0 0 0
0 0 0
0 0 0
0 0 0
0 0 0
0 0 0
0 0 0
0 0 0
0 0 0
0 0 0
0 0 0
0 0 0
0 0 0
0 0 0
0 0 0
0 0 0
0 0 0
0 0 0
0 0 0
0 0 0
0 0 0
0 0 0
0 0 0
0 0 0
0 0 0
0 0 0
0 0 0
0 0 0
0 0 0
0 0 0
0 0 0
0 0 0
0 0 0
0 0 0
0 0 0
0 0 0
0 0 0
0 0 0
0 0 0
0 0 0
0 0 0
0 0 0
0 0 0
0 0 0
0 0 0
0 0 0
0 0 0
0 0 0
0 0 0
0 0 0
0 0 0
0 0 0
0 0 0
0 0 0
0 0 0
0 0 0
0 0 0
0 0 0
0 0 0
0 0 0
0 0 0
0 0 0
0 0 0
0 0 0
0 0 0
0 0 0
0 0 0
0 0 0
0 0 0
0 0 0
0 0 0
0 0 0
0 0 0
0 0 0
0 0 0
0 0 0
0 0 0
0 0 0
0 0 0
0 0 0
0 0 0
0 0 0
0 0 0
0 0 0
0 0 0
0 0 0
0 0 0
0 0 0
0 0 0
0 0 0
0 0 0
0 0 0
0 0 0
0 0 0
0 0 0
0 0 0
0 0 0
0 0 0
0 0 0
0 0 0
0 0 0
0 0 0
0 0 0
0 0 0
0 0 0
0 0 0
0 0 0
0 0 0
0 0 0
0 0 0
0 0 0
0 0 0
0 0 0
0 0 0
0 0 0
0 0 0
0 0 0
0 0 0
0 0 0
0 0 0
0 0 0
0 0 0
0 0 0
0 0 0
0 0 0
0 0 0
0 0 0
0 0 0
0 0 0
0 0 0
0 0 0
0 0 0
0 0 0
0 0 0
0 0 0
0 0 0
0 0 0
0 0 0
0 0 0
0 0 0
0 0 0
0 0 0
0 0 0
0 0 0
0 0 0
0 0 0
0 0 0
0 0 0
0 0 0
0 0 0
0 0 0
0 0 0
0 0 0
0 0 0
0 0 0
0 0 0
0 0 0
0 0 0
0 0 0
0 0 0
0 0 0
0 0 0
0 0 0
0 0 0
0 0 0
0 0 0
0 0 0
0 0 0
0 0 0
0 0 0
0 0 0
0 0 0
191 191 191
255 255 255
255 255 255
255 255 255
255 255 255
255 255 255
255 255 255
255 255 255
255 255 255
255 255 255
255 255 255
255 255 255
255 255 255
255 255 255
255 255 255
255 255 255
255 255 255
255 255 255
255 255 255
255 255 255
255 255 255
255 255 255
255 255 255
255 255 255
255 255 255
255 255 255
255 255 255
255 255 255
255 255 255
255 255 255
255 255 255
255 255 255
255 255 255
255 255 255
255 255 255
255 255 255
255 255 255
255 255 255
255 255 255
255 255 255
255 255 255
255 255 255
255 255 255
255 255 255
255 255 255
255 255 255
255 255 255
255 255 255
255 255 255
255 255 255
255 255 255
255 255 255
255 255 255
255 255 255
255 255 255
255 255 255
255 255 255
255 255 255
255 255 255
255 255 255
255 255 255
255 255 255
255 255 255
255 255 255
255 255 255
255 255 255
255 255 255
255 255 255
255 255 255
255 255 255
255 255 255
255 255 255
255 255 255
255 255 255
255 255 255
255 255 255
255 255 255
255 255 255
255 255 255
255 255 255
255 255 255
255 255 255
255 255 255
255 255 255
255 255 255
255 255 255
255 255 255
255 255 255
255 255 255
144 144 144
0 0 0
0 0 0
0 0 0
0 0 0
0 0 0
0 0 0
0 0 0
0 0 0
0 0 0
0 0 0
0 0 0
0 0 0
0 0 0
0 0 0
0 0 0
0 0 0
0 0 0
0 0 0
0 0 0
0 0 0
0 0 0
0 0 0
0 0 0
0 0 0
0 0 0
0 0 0
0 0 0
0 0 0
0 0 0
0 0 0
0 0 0
0 0 0
0 0 0
0 0 0
0 0 0
0 0 0
0 0 0
0 0 0
0 0 0
0 0 0
0 0 0
0 0 0
0 0 0
0 0 0
0 0 0
0 0 0
0 0 0
0 0 0
0 0 0
0 0 0
0 0 0
0 0 0
0 0 0
0 0 0
0 0 0
0 0 0
0 0 0
0 0 0
0 0 0
0 0 0
0 0 0
0 0 0
0 0 0
0 0 0
0 0 0
0 0 0
0 0 0
0 0 0
0 0 0
0 0 0
0 0 0
0 0 0
0 0 0
0 0 0
0 0 0
0 0 0
0 0 0
0 0 0
0 0 0
0 0 0
0 0 0
0 0 0
0 0 0
0 0 0
0 0 0
0 0 0
0 0 0
0 0 0
0 0 0
0 0 0
0 0 0
0 0 0
0 0 0
0 0 0
0 0 0
0 0 0
0 0 0
0 0 0
0 0 0
0 0 0
0 0 0
0 0 0
0 0 0
0 0 0
0 0 0
0 0 0
0 0 0
0 0 0
0 0 0
0 0 0
0 0 0
0 0 0
0 0 0
0 0 0
0 0 0
0 0 0
0 0 0
0 0 0
0 0 0
0 0 0
0 0 0
0 0 0
0 0 0
0 0 0
0 0 0
0 0 0
0 0 0
0 0 0
0 0 0
0 0 0
0 0 0
0 0 0
0 0 0
0 0 0
0 0 0
0 0 0
0 0 0
0 0 0
0 0 0
0 0 0
0 0 0
0 0 0
0 0 0
0 0 0
0 0 0
0 0 0
0 0 0
0 0 0
0 0 0
0 0 0
0 0 0
0 0 0
0 0 0
0 0 0
0 0 0
0 0 0
0 0 0
0 0 0
0 0 0
0 0 0
0 0 0
0 0 0
0 0 0
0 0 0
0 0 0
0 0 0
0 0 0
0 0 0
0 0 0
0 0 0
0 0 0
0 0 0
0 0 0
0 0 0
0 0 0
0 0 0
0 0 0
0 0 0
0 0 0
0 0 0
0 0 0
0 0 0
0 0 0
0 0 0
0 0 0
0 0 0
0 0 0
0 0 0
0 0 0
0 0 0
0 0 0
0 0 0
0 0 0
0 0 0
0 0 0
0 0 0
0 0 0
0 0 0
0 0 0
0 0 0
0 0 0
0 0 0
0 0 0
0 0 0
0 0 0
0 0 0
0 0 0
0 0 0
0 0 0
0 0 0
0 0 0
0 0 0
0 0 0
0 0 0
0 0 0
0 0 0
0 0 0
0 0 0
0 0 0
0 0 0
0 0 0
0 0 0
0 0 0
0 0 0
0 0 0
0 0 0
0 0 0
0 0 0
0 0 0
0 0 0
0 0 0
0 0 0
0 0 0
0 0 0
0 0 0
0 0 0
0 0 0
0 0 0
0 0 0
0 0 0
0 0 0
0 0 0
0 0 0
0 0 0
0 0 0
0 0 0
0 0 0
0 0 0
0 0 0
0 0 0
0 0 0
0 0 0
0 0 0
0 0 0
0 0 0
0 0 0
0 0 0
0 0 0
0 0 0
0 0 0
0 0 0
0 0 0
0 0 0
0 0 0
0 0 0
0 0 0
0 0 0
0 0 0
0 0 0
0 0 0
0 0 0
0 0 0
0 0 0
0 0 0
0 0 0
0 0 0
0 0 0
0 0 0
0 0 0
0 0 0
0 0 0
0 0 0
0 0 0
0 0 0
0 0 0
0 0 0
0 0 0
0 0 0
0 0 0
0 0 0
0 0 0
0 0 0
0 0 0
0 0 0
0 0 0
0 0 0
0 0 0
0 0 0
0 0 0
0 0 0
0 0 0
0 0 0
0 0 0
0 0 0
0 0 0
0 0 0
0 0 0
0 0 0
0 0 0
0 0 0
0 0 0
255 255 255
255 255 255
255 255 255
255 255 255
255 255 255
255 255 255
255 255 255
255 255 255
255 255 255
255 255 255
255 255 255
255 255 255
255 255 255
255 255 255
255 255 255
255 255 255
255 255 255
255 255 255
255 255 255
255 255 255
255 255 255
255 255 255
255 255 255
255 255 255
255 255 255
255 255 255
255 255 255
255 255 255
255 255 255
255 255 255
255 255 255
255 255 255
255 255 255
255 255 255
255 255 255
255 255 255
255 255 255
255 255 255
255 255 255
255 255 255
255 255 255
255 255 255
255 255 255
255 255 255
255 255 255
255 255 255
255 255 255
255 255 255
255 255 255
255 255 255
255 255 255
255 255 255
255 255 255
255 255 255
255 255 255
255 255 255
255 255 255
255 255 255
255 255 255
255 255 255
255 255 255
255 255 255
255 255 255
255 255 255
255 255 255
255 255 255
255 255 255
255 255 255
255 255 255
255 255 255
255 255 255
255 255 255
255 255 255
255 255 255
255 255 255
255 255 255
255 255 255
255 255 255
255 255 255
255 255 255
255 255 255
255 255 255
255 255 255
255 255 255
255 255 255
255 255 255
255 255 255
255 255 255
0 0 0
0 0 0
0 0 0
0 0 0
0 0 0
0 0 0
0 0 0
0 0 0
0 0 0
0 0 0
0 0 0
0 0 0
0 0 0
0 0 0
0 0 0
0 0 0
0 0 0
0 0 0
0 0 0
0 0 0
0 0 0
0 0 0
0 0 0
0 0 0
0 0 0
0 0 0
0 0 0
0 0 0
0 0 0
0 0 0
0 0 0
0 0 0
0 0 0
0 0 0
0 0 0
0 0 0
0 0 0
0 0 0
0 0 0
0 0 0
0 0 0
0 0 0
0 0 0
0 0 0
0 0 0
0 0 0
0 0 0
0 0 0
0 0 0
0 0 0
0 0 0
0 0 0
0 0 0
0 0 0
0 0 0
0 0 0
0 0 0
0 0 0
0 0 0
0 0 0
0 0 0
0 0 0
0 0 0
0 0 0
0 0 0
0 0 0
0 0 0
0 0 0
0 0 0
0 0 0
0 0 0
0 0 0
0 0 0
0 0 0
0 0 0
0 0 0
0 0 0
0 0 0
0 0 0
0 0 0
0 0 0
0 0 0
0 0 0
0 0 0
0 0 0
0 0 0
0 0 0
0 0 0
0 0 0
0 0 0
0 0 0
0 0 0
0 0 0
0 0 0
0 0 0
0 0 0
0 0 0
0 0 0
0 0 0
0 0 0
0 0 0
0 0 0
0 0 0
0 0 0
0 0 0
0 0 0
0 0 0
0 0 0
0 0 0
0 0 0
0 0 0
0 0 0
0 0 0
0 0 0
0 0 0
0 0 0
0 0 0
0 0 0
0 0 0
0 0 0
0 0 0
0 0 0
0 0 0
0 0 0
0 0 0
0 0 0
0 0 0
0 0 0
0 0 0
0 0 0
0 0 0
0 0 0
0 0 0
0 0 0
0 0 0
0 0 0
0 0 0
0 0 0
0 0 0
0 0 0
0 0 0
0 0 0
0 0 0
0 0 0
0 0 0
0 0 0
0 0 0
0 0 0
0 0 0
0 0 0
0 0 0
0 0 0
0 0 0
0 0 0
0 0 0
0 0 0
0 0 0
0 0 0
0 0 0
0 0 0
0 0 0
0 0 0
0 0 0
0 0 0
0 0 0
0 0 0
0 0 0
0 0 0
0 0 0
0 0 0
0 0 0
0 0 0
0 0 0
0 0 0
0 0 0
0 0 0
0 0 0
0 0 0
0 0 0
0 0 0
0 0 0
0 0 0
0 0 0
0 0 0
0 0 0
0 0 0
0 0 0
0 0 0
0 0 0
0 0 0
0 0 0
0 0 0
0 0 0
0 0 0
0 0 0
0 0 0
0 0 0
0 0 0
0 0 0
0 0 0
0 0 0
0 0 0
0 0 0
0 0 0
0 0 0
0 0 0
0 0 0
0 0 0
0 0 0
0 0 0
0 0 0
0 0 0
0 0 0
0 0 0
0 0 0
0 0 0
0 0 0
0 0 0
0 0 0
0 0 0
0 0 0
0 0 0
0 0 0
0 0 0
0 0 0
0 0 0
0 0 0
0 0 0
0 0 0
0 0 0
0 0 0
0 0 0
0 0 0
0 0 0
0 0 0
0 0 0
0 0 0
0 0 0
0 0 0
0 0 0
0 0 0
0 0 0
0 0 0
0 0 0
0 0 0
0 0 0
0 0 0
0 0 0
0 0 0
0 0 0
0 0 0
0 0 0
0 0 0
0 0 0
0 0 0
0 0 0
0 0 0
0 0 0
0 0 0
0 0 0
0 0 0
0 0 0
0 0 0
0 0 0
0 0 0
0 0 0
0 0 0
0 0 0
0 0 0
0 0 0
0 0 0
0 0 0
0 0 0
0 0 0
0 0 0
0 0 0
0 0 0
0 0 0
0 0 0
0 0 0
0 0 0
0 0 0
0 0 0
0 0 0
0 0 0
0 0 0
0 0 0
0 0 0
0 0 0
0 0 0
0 0 0
0 0 0
0 0 0
0 0 0
0 0 0
0 0 0
0 0 0
0 0 0
0 0 0
0 0 0
0 0 0
0 0 0
0 0 0
0 0 0
0 0 0
0 0 0
0 0 0
0 0 0
0 0 0
0 0 0
0 0 0
0 0 0
255 255 255
255 255 255
255 255 255
255 255 255
255 255 255
255 255 255
255 255 255
255 255 255
255 255 255
255 255 255
255 255 255
255 255 255
255 255 255
255 255 255
255 255 255
255 255 255
255 255 255
255 255 255
255 255 255
255 255 255
255 255 255
255 255 255
255 255 255
255 255 255
255 255 255
255 255 255
255 255 255
255 255 255
255 255 255
255 255 255
255 255 255
255 255 255
255 255 255
255 255 255
255 255 255
255 255 255
255 255 255
255 255 255
255 255 255
255 255 255
255 255 255
255 255 255
255 255 255
255 255 255
255 255 255
255 255 255
255 255 255
255 255 255
255 255 255
255 255 255
255 255 255
255 255 255
255 255 255
255 255 255
255 255 255
255 255 255
255 255 255
255 255 255
255 255 255
255 255 255
255 255 255
255 255 255
255 255 255
255 255 255
255 255 255
255 255 255
255 255 255
255 255 255
255 255 255
255 255 255
255 255 255
255 255 255
255 255 255
255 255 255
255 255 255
255 255 255
255 255 255
255 255 255
255 255 255
255 255 255
255 255 255
255 255 255
255 255 255
255 255 255
255 255 255
255 255 255
255 255 255
228 228 228
0 0 0
0 0 0
0 0 0
0 0 0
0 0 0
0 0 0
0 0 0
0 0 0
0 0 0
0 0 0
0 0 0
0 0 0
0 0 0
0 0 0
0 0 0
0 0 0
0 0 0
0 0 0
0 0 0
0 0 0
0 0 0
0 0 0
0 0 0
0 0 0
0 0 0
0 0 0
0 0 0
0 0 0
0 0 0
0 0 0
0 0 0
0 0 0
0 0 0
0 0 0
0 0 0
0 0 0
0 0 0
0 0 0
0 0 0
0 0 0
0 0 0
0 0 0
0 0 0
0 0 0
0 0 0
0 0 0
0 0 0
0 0 0
0 0 0
0 0 0
0 0 0
0 0 0
0 0 0
0 0 0
0 0 0
0 0 0
0 0 0
0 0 0
0 0 0
0 0 0
0 0 0
0 0 0
0 0 0
0 0 0
0 0 0
0 0 0
0 0 0
0 0 0
0 0 0
0 0 0
0 0 0
0 0 0
0 0 0
0 0 0
0 0 0
0 0 0
0 0 0
0 0 0
0 0 0
0 0 0
0 0 0
0 0 0
0 0 0
0 0 0
0 0 0
0 0 0
0 0 0
0 0 0
0 0 0
0 0 0
0 0 0
0 0 0
0 0 0
0 0 0
0 0 0
0 0 0
0 0 0
0 0 0
0 0 0
0 0 0
0 0 0
0 0 0
0 0 0
0 0 0
0 0 0
0 0 0
0 0 0
0 0 0
0 0 0
0 0 0
0 0 0
0 0 0
0 0 0
0 0 0
0 0 0
0 0 0
0 0 0
0 0 0
0 0 0
0 0 0
0 0 0
0 0 0
0 0 0
0 0 0
0 0 0
0 0 0
0 0 0
0 0 0
0 0 0
0 0 0
0 0 0
0 0 0
0 0 0
0 0 0
0 0 0
0 0 0
0 0 0
0 0 0
0 0 0
0 0 0
0 0 0
0 0 0
0 0 0
0 0 0
0 0 0
0 0 0
0 0 0
0 0 0
0 0 0
0 0 0
0 0 0
0 0 0
0 0 0
0 0 0
0 0 0
0 0 0
0 0 0
0 0 0
0 0 0
0 0 0
0 0 0
0 0 0
0 0 0
0 0 0
0 0 0
0 0 0
0 0 0
0 0 0
0 0 0
0 0 0
0 0 0
0 0 0
0 0 0
0 0 0
0 0 0
0 0 0
0 0 0
0 0 0
0 0 0
0 0 0
0 0 0
0 0 0
0 0 0
0 0 0
0 0 0
0 0 0
0 0 0
0 0 0
0 0 0
0 0 0
0 0 0
0 0 0
0 0 0
0 0 0
0 0 0
0 0 0
0 0 0
0 0 0
0 0 0
0 0 0
0 0 0
0 0 0
0 0 0
0 0 0
0 0 0
0 0 0
0 0 0
0 0 0
0 0 0
0 0 0
0 0 0
0 0 0
0 0 0
0 0 0
0 0 0
0 0 0
0 0 0
0 0 0
0 0 0
0 0 0
0 0 0
0 0 0
0 0 0
0 0 0
0 0 0
0 0 0
0 0 0
0 0 0
0 0 0
0 0 0
0 0 0
0 0 0
0 0 0
0 0 0
0 0 0
0 0 0
0 0 0
0 0 0
0 0 0
0 0 0
0 0 0
0 0 0
0 0 0
0 0 0
0 0 0
0 0 0
0 0 0
0 0 0
0 0 0
0 0 0
0 0 0
0 0 0
0 0 0
0 0 0
0 0 0
0 0 0
0 0 0
0 0 0
0 0 0
0 0 0
0 0 0
0 0 0
0 0 0
0 0 0
0 0 0
0 0 0
0 0 0
0 0 0
0 0 0
0 0 0
0 0 0
0 0 0
0 0 0
0 0 0
0 0 0
0 0 0
0 0 0
0 0 0
0 0 0
0 0 0
0 0 0
0 0 0
0 0 0
0 0 0
0 0 0
0 0 0
0 0 0
0 0 0
0 0 0
0 0 0
0 0 0
0 0 0
0 0 0
0 0 0
0 0 0
0 0 0
0 0 0
0 0 0
0 0 0
0 0 0
0 0 0
0 0 0
0 0 0
0 0 0
0 0 0
0 0 0
0 0 0
0 0 0
0 0 0
0 0 0
0 0 0
0 0 0
0 0 0
255 255 255
255 255 255
255 255 255
255 255 255
255 255 255
255 255 255
255 255 255
255 255 255
255 255 255
255 255 255
255 255 255
255 255 255
255 255 255
255 255 255
255 255 255
255 255 255
255 255 255
255 255 255
255 255 255
255 255 255
255 255 255
255 255 255
255 255 255
255 255 255
255 255 255
255 255 255
255 255 255
255 255 255
255 255 255
255 255 255
255 255 255
255 255 255
255 255 255
255 255 255
255 255 255
255 255 255
255 255 255
255 255 255
255 255 255
255 255 255
255 255 255
255 255 255
255 255 255
255 255 255
255 255 255
255 255 255
255 255 255
255 255 255
255 255 255
255 255 255
255 255 255
255 255 255
255 255 255
255 255 255
255 255 255
255 255 255
255 255 255
255 255 255
255 255 255
255 255 255
255 255 255
255 255 255
255 255 255
255 255 255
255 255 255
255 255 255
255 255 255
255 255 255
255 255 255
255 255 255
255 255 255
255 255 255
255 255 255
255 255 255
255 255 255
255 255 255
255 255 255
255 255 255
255 255 255
255 255 255
255 255 255
255 255 255
255 255 255
255 255 255
255 255 255
255 255 255
0 0 0
0 0 0
0 0 0
0 0 0
0 0 0
0 0 0
0 0 0
0 0 0
0 0 0
0 0 0
0 0 0
0 0 0
0 0 0
0 0 0
0 0 0
0 0 0
0 0 0
0 0 0
0 0 0
0 0 0
0 0 0
0 0 0
0 0 0
0 0 0
0 0 0
0 0 0
0 0 0
0 0 0
0 0 0
0 0 0
0 0 0
0 0 0
0 0 0
0 0 0
0 0 0
0 0 0
0 0 0
0 0 0
0 0 0
0 0 0
0 0 0
0 0 0
0 0 0
0 0 0
0 0 0
0 0 0
0 0 0
0 0 0
0 0 0
0 0 0
0 0 0
0 0 0
0 0 0
0 0 0
0 0 0
0 0 0
0 0 0
0 0 0
0 0 0
0 0 0
0 0 0
0 0 0
0 0 0
0 0 0
0 0 0
0 0 0
0 0 0
0 0 0
0 0 0
0 0 0
0 0 0
0 0 0
0 0 0
0 0 0
0 0 0
0 0 0
0 0 0
0 0 0
0 0 0
0 0 0
0 0 0
0 0 0
0 0 0
0 0 0
0 0 0
0 0 0
0 0 0
0 0 0
0 0 0
0 0 0
0 0 0
0 0 0
0 0 0
0 0 0
0 0 0
0 0 0
0 0 0
0 0 0
0 0 0
0 0 0
0 0 0
0 0 0
0 0 0
0 0 0
0 0 0
0 0 0
0 0 0
0 0 0
0 0 0
0 0 0
0 0 0
0 0 0
0 0 0
0 0 0
0 0 0
0 0 0
0 0 0
0 0 0
0 0 0
0 0 0
0 0 0
0 0 0
0 0 0
0 0 0
0 0 0
0 0 0
0 0 0
0 0 0
0 0 0
0 0 0
0 0 0
0 0 0
0 0 0
0 0 0
0 0 0
0 0 0
0 0 0
0 0 0
0 0 0
0 0 0
0 0 0
0 0 0
0 0 0
0 0 0
0 0 0
0 0 0
0 0 0
0 0 0
0 0 0
0 0 0
0 0 0
0 0 0
0 0 0
0 0 0
0 0 0
0 0 0
0 0 0
0 0 0
0 0 0
0 0 0
0 0 0
0 0 0
0 0 0
0 0 0
0 0 0
0 0 0
0 0 0
0 0 0
0 0 0
0 0 0
0 0 0
0 0 0
0 0 0
0 0 0
0 0 0
0 0 0
0 0 0
0 0 0
0 0 0
0 0 0
0 0 0
0 0 0
0 0 0
0 0 0
0 0 0
0 0 0
0 0 0
0 0 0
0 0 0
0 0 0
0 0 0
0 0 0
0 0 0
0 0 0
0 0 0
0 0 0
0 0 0
0 0 0
0 0 0
0 0 0
0 0 0
0 0 0
0 0 0
0 0 0
0 0 0
0 0 0
0 0 0
0 0 0
0 0 0
0 0 0
0 0 0
0 0 0
0 0 0
0 0 0
0 0 0
0 0 0
0 0 0
0 0 0
0 0 0
0 0 0
0 0 0
0 0 0
0 0 0
0 0 0
0 0 0
0 0 0
0 0 0
0 0 0
0 0 0
0 0 0
0 0 0
0 0 0
0 0 0
0 0 0
0 0 0
0 0 0
0 0 0
0 0 0
0 0 0
0 0 0
0 0 0
0 0 0
0 0 0
0 0 0
0 0 0
0 0 0
0 0 0
0 0 0
0 0 0
0 0 0
0 0 0
0 0 0
0 0 0
0 0 0
0 0 0
0 0 0
0 0 0
0 0 0
0 0 0
0 0 0
0 0 0
0 0 0
0 0 0
0 0 0
0 0 0
0 0 0
0 0 0
0 0 0
0 0 0
0 0 0
0 0 0
0 0 0
0 0 0
0 0 0
0 0 0
0 0 0
0 0 0
0 0 0
0 0 0
0 0 0
0 0 0
0 0 0
0 0 0
0 0 0
0 0 0
0 0 0
0 0 0
0 0 0
0 0 0
0 0 0
0 0 0
0 0 0
0 0 0
0 0 0
0 0 0
0 0 0
0 0 0
0 0 0
0 0 0
0 0 0
0 0 0
0 0 0
0 0 0
0 0 0
0 0 0
0 0 0
0 0 0
0 0 0
0 0 0
0 0 0
0 0 0
0 0 0
0 0 0
0 0 0
177 177 177
255 255 255
255 255 255
255 255 255
255 255 255
255 255 255
255 255 255
255 255 255
255 255 255
255 255 255
255 255 255
255 255 255
255 255 255
255 255 255
255 255 255
255 255 255
255 255 255
255 255 255
255 255 255
255 255 255
255 255 255
255 255 255
255 255 255
255 255 255
255 255 255
255 255 255
255 255 255
255 255 255
255 255 255
255 255 255
255 255 255
255 255 255
255 255 255
255 255 255
255 255 255
255 255 255
255 255 255
255 255 255
255 255 255
255 255 255
255 255 255
255 255 255
255 255 255
255 255 255
255 255 255
255 255 255
255 255 255
255 255 255
255 255 255
255 255 255
255 255 255
255 255 255
255 255 255
255 255 255
255 255 255
255 255 255
255 255 255
255 255 255
255 255 255
255 255 255
255 255 255
255 255 255
255 255 255
255 255 255
255 255 255
255 255 255
255 255 255
255 255 255
255 255 255
255 255 255
255 255 255
255 255 255
255 255 255
255 255 255
255 255 255
255 255 255
255 255 255
255 255 255
255 255 255
255 255 255
255 255 255
255 255 255
255 255 255
255 255 255
255 255 255
177 177 177
0 0 0
0 0 0
0 0 0
0 0 0
0 0 0
0 0 0
0 0 0
0 0 0
0 0 0
0 0 0
0 0 0
0 0 0
0 0 0
0 0 0
0 0 0
0 0 0
0 0 0
0 0 0
0 0 0
0 0 0
0 0 0
0 0 0
0 0 0
0 0 0
0 0 0
0 0 0
0 0 0
0 0 0
0 0 0
0 0 0
0 0 0
0 0 0
0 0 0
0 0 0
0 0 0
0 0 0
0 0 0
0 0 0
0 0 0
0 0 0
0 0 0
0 0 0
0 0 0
0 0 0
0 0 0
0 0 0
0 0 0
0 0 0
0 0 0
0 0 0
0 0 0
0 0 0
0 0 0
0 0 0
0 0 0
0 0 0
0 0 0
0 0 0
0 0 0
0 0 0
0 0 0
0 0 0
0 0 0
0 0 0
0 0 0
0 0 0
0 0 0
0 0 0
0 0 0
0 0 0
0 0 0
0 0 0
0 0 0
0 0 0
0 0 0
0 0 0
0 0 0
0 0 0
0 0 0
0 0 0
0 0 0
0 0 0
0 0 0
0 0 0
0 0 0
0 0 0
0 0 0
0 0 0
0 0 0
0 0 0
0 0 0
0 0 0
0 0 0
0 0 0
0 0 0
0 0 0
0 0 0
0 0 0
0 0 0
0 0 0
0 0 0
0 0 0
0 0 0
0 0 0
0 0 0
0 0 0
0 0 0
0 0 0
0 0 0
0 0 0
0 0 0
0 0 0
0 0 0
0 0 0
0 0 0
0 0 0
0 0 0
0 0 0
0 0 0
0 0 0
0 0 0
0 0 0
0 0 0
0 0 0
0 0 0
0 0 0
0 0 0
0 0 0
0 0 0
0 0 0
0 0 0
0 0 0
0 0 0
0 0 0
0 0 0
0 0 0
0 0 0
0 0 0
0 0 0
0 0 0
0 0 0
0 0 0
0 0 0
0 0 0
0 0 0
0 0 0
0 0 0
0 0 0
0 0 0
0 0 0
0 0 0
0 0 0
0 0 0
0 0 0
0 0 0
0 0 0
0 0 0
0 0 0
0 0 0
0 0 0
0 0 0
0 0 0
0 0 0
0 0 0
0 0 0
0 0 0
0 0 0
0 0 0
0 0 0
0 0 0
0 0 0
0 0 0
0 0 0
0 0 0
0 0 0
0 0 0
0 0 0
0 0 0
0 0 0
0 0 0
0 0 0
0 0 0
0 0 0
0 0 0
0 0 0
0 0 0
0 0 0
0 0 0
0 0 0
0 0 0
0 0 0
0 0 0
0 0 0
0 0 0
0 0 0
0 0 0
0 0 0
0 0 0
0 0 0
0 0 0
0 0 0
0 0 0
0 0 0
0 0 0
0 0 0
0 0 0
0 0 0
0 0 0
0 0 0
0 0 0
0 0 0
0 0 0
0 0 0
0 0 0
0 0 0
0 0 0
0 0 0
0 0 0
0 0 0
0 0 0
0 0 0
0 0 0
0 0 0
0 0 0
0 0 0
0 0 0
0 0 0
0 0 0
0 0 0
0 0 0
0 0 0
0 0 0
0 0 0
0 0 0
0 0 0
0 0 0
0 0 0
0 0 0
0 0 0
0 0 0
0 0 0
0 0 0
0 0 0
0 0 0
0 0 0
0 0 0
0 0 0
0 0 0
0 0 0
0 0 0
0 0 0
0 0 0
0 0 0
0 0 0
0 0 0
0 0 0
0 0 0
0 0 0
0 0 0
0 0 0
0 0 0
0 0 0
0 0 0
0 0 0
0 0 0
0 0 0
0 0 0
0 0 0
0 0 0
0 0 0
0 0 0
0 0 0
0 0 0
0 0 0
0 0 0
0 0 0
0 0 0
0 0 0
0 0 0
0 0 0
0 0 0
0 0 0
0 0 0
0 0 0
0 0 0
0 0 0
0 0 0
0 0 0
0 0 0
0 0 0
0 0 0
0 0 0
0 0 0
0 0 0
0 0 0
0 0 0
0 0 0
0 0 0
0 0 0
0 0 0
0 0 0
0 0 0
0 0 0
0 0 0
0 0 0
0 0 0
0 0 0
0 0 0
0 0 0
0 0 0
0 0 0
0 0 0
0 0 0
0 0 0
0 0 0
255 255 255
255 255 255
255 255 255
255 255 255
255 255 255
255 255 255
255 255 255
255 255 255
255 255 255
255 255 255
255 255 255
255 255 255
255 255 255
255 255 255
255 255 255
255 255 255
255 255 255
255 255 255
255 255 255
255 255 255
255 255 255
255 255 255
255 255 255
255 255 255
255 255 255
255 255 255
255 255 255
255 255 255
255 255 255
255 255 255
255 255 255
255 255 255
255 255 255
255 255 255
255 255 255
255 255 255
255 255 255
255 255 255
255 255 255
255 255 255
255 255 255
255 255 255
255 255 255
255 255 255
255 255 255
255 255 255
255 255 255
255 255 255
255 255 255
255 255 255
255 255 255
255 255 255
255 255 255
255 255 255
255 255 255
255 255 255
255 255 255
255 255 255
255 255 255
255 255 255
255 255 255
255 255 255
255 255 255
255 255 255
255 255 255
255 255 255
255 255 255
255 255 255
255 255 255
255 255 255
255 255 255
255 255 255
255 255 255
255 255 255
255 255 255
255 255 255
255 255 255
255 255 255
255 255 255
255 255 255
255 255 255
255 255 255
255 255 255
255 255 255
0 0 0
0 0 0
0 0 0
0 0 0
0 0 0
0 0 0
0 0 0
0 0 0
0 0 0
0 0 0
0 0 0
0 0 0
0 0 0
0 0 0
0 0 0
0 0 0
0 0 0
0 0 0
0 0 0
0 0 0
0 0 0
0 0 0
0 0 0
0 0 0
0 0 0
0 0 0
0 0 0
0 0 0
0 0 0
0 0 0
0 0 0
0 0 0
0 0 0
0 0 0
0 0 0
0 0 0
0 0 0
0 0 0
0 0 0
0 0 0
0 0 0
0 0 0
0 0 0
0 0 0
0 0 0
0 0 0
0 0 0
0 0 0
0 0 0
0 0 0
0 0 0
0 0 0
0 0 0
0 0 0
0 0 0
0 0 0
0 0 0
0 0 0
0 0 0
0 0 0
0 0 0
0 0 0
0 0 0
0 0 0
0 0 0
0 0 0
0 0 0
0 0 0
0 0 0
0 0 0
0 0 0
0 0 0
0 0 0
0 0 0
0 0 0
0 0 0
0 0 0
0 0 0
0 0 0
0 0 0
0 0 0
0 0 0
0 0 0
0 0 0
0 0 0
0 0 0
0 0 0
0 0 0
0 0 0
0 0 0
0 0 0
0 0 0
0 0 0
0 0 0
0 0 0
0 0 0
0 0 0
0 0 0
0 0 0
0 0 0
0 0 0
0 0 0
0 0 0
0 0 0
0 0 0
0 0 0
0 0 0
0 0 0
0 0 0
0 0 0
0 0 0
0 0 0
0 0 0
0 0 0
0 0 0
0 0 0
0 0 0
0 0 0
0 0 0
0 0 0
0 0 0
0 0 0
0 0 0
0 0 0
0 0 0
0 0 0
0 0 0
0 0 0
0 0 0
0 0 0
0 0 0
0 0 0
0 0 0
0 0 0
0 0 0
0 0 0
0 0 0
0 0 0
0 0 0
0 0 0
0 0 0
0 0 0
0 0 0
0 0 0
0 0 0
0 0 0
0 0 0
0 0 0
0 0 0
0 0 0
0 0 0
0 0 0
0 0 0
0 0 0
0 0 0
0 0 0
0 0 0
0 0 0
0 0 0
0 0 0
0 0 0
0 0 0
0 0 0
0 0 0
0 0 0
0 0 0
0 0 0
0 0 0
0 0 0
0 0 0
0 0 0
0 0 0
0 0 0
0 0 0
0 0 0
0 0 0
0 0 0
0 0 0
0 0 0
0 0 0
0 0 0
0 0 0
0 0 0
0 0 0
0 0 0
0 0 0
0 0 0
0 0 0
0 0 0
0 0 0
0 0 0
0 0 0
0 0 0
0 0 0
0 0 0
0 0 0
0 0 0
0 0 0
0 0 0
0 0 0
0 0 0
0 0 0
0 0 0
0 0 0
0 0 0
0 0 0
0 0 0
0 0 0
0 0 0
0 0 0
0 0 0
0 0 0
0 0 0
0 0 0
0 0 0
0 0 0
0 0 0
0 0 0
0 0 0
0 0 0
0 0 0
0 0 0
0 0 0
0 0 0
0 0 0
0 0 0
0 0 0
0 0 0
0 0 0
0 0 0
0 0 0
0 0 0
0 0 0
0 0 0
0 0 0
0 0 0
0 0 0
0 0 0
0 0 0
0 0 0
0 0 0
0 0 0
0 0 0
0 0 0
0 0 0
0 0 0
0 0 0
0 0 0
0 0 0
0 0 0
0 0 0
0 0 0
0 0 0
0 0 0
0 0 0
0 0 0
0 0 0
0 0 0
0 0 0
0 0 0
0 0 0
0 0 0
0 0 0
0 0 0
0 0 0
0 0 0
0 0 0
0 0 0
0 0 0
0 0 0
0 0 0
0 0 0
0 0 0
0 0 0
0 0 0
0 0 0
0 0 0
0 0 0
0 0 0
0 0 0
0 0 0
0 0 0
0 0 0
0 0 0
0 0 0
0 0 0
0 0 0
0 0 0
0 0 0
0 0 0
0 0 0
0 0 0
0 0 0
0 0 0
0 0 0
0 0 0
0 0 0
0 0 0
0 0 0
0 0 0
0 0 0
0 0 0
0 0 0
0 0 0
0 0 0
0 0 0
0 0 0
0 0 0
0 0 0
0 0 0
0 0 0
0 0 0
0 0 0
0 0 0
0 0 0
0 0 0
135 135 135
255 255 255
255 255 255
255 255 255
255 255 255
255 255 255
255 255 255
255 255 255
255 255 255
255 255 255
255 255 255
255 255 255
255 255 255
255 255 255
255 255 255
255 255 255
255 255 255
255 255 255
255 255 255
255 255 255
255 255 255
255 255 255
255 255 255
255 255 255
255 255 255
255 255 255
255 255 255
255 255 255
255 255 255
255 255 255
255 255 255
255 255 255
255 255 255
255 255 255
255 255 255
255 255 255
255 255 255
255 255 255
255 255 255
255 255 255
255 255 255
255 255 255
255 255 255
255 255 255
255 255 255
255 255 255
255 255 255
255 255 255
255 255 255
255 255 255
255 255 255
255 255 255
255 255 255
255 255 255
255 255 255
255 255 255
255 255 255
255 255 255
255 255 255
255 255 255
255 255 255
255 255 255
255 255 255
255 255 255
255 255 255
255 255 255
255 255 255
255 255 255
255 255 255
255 255 255
255 255 255
255 255 255
255 255 255
255 255 255
255 255 255
255 255 255
255 255 255
255 255 255
255 255 255
255 255 255
255 255 255
255 255 255
255 255 255
102 102 102
0 0 0
0 0 0
0 0 0
0 0 0
0 0 0
0 0 0
0 0 0
0 0 0
0 0 0
0 0 0
0 0 0
0 0 0
0 0 0
0 0 0
0 0 0
0 0 0
0 0 0
0 0 0
0 0 0
0 0 0
0 0 0
0 0 0
0 0 0
0 0 0
0 0 0
0 0 0
0 0 0
0 0 0
0 0 0
0 0 0
0 0 0
0 0 0
0 0 0
0 0 0
0 0 0
0 0 0
0 0 0
0 0 0
0 0 0
0 0 0
0 0 0
0 0 0
0 0 0
0 0 0
0 0 0
0 0 0
0 0 0
0 0 0
0 0 0
0 0 0
0 0 0
0 0 0
0 0 0
0 0 0
0 0 0
0 0 0
0 0 0
0 0 0
0 0 0
0 0 0
0 0 0
0 0 0
0 0 0
0 0 0
0 0 0
0 0 0
0 0 0
0 0 0
0 0 0
0 0 0
0 0 0
0 0 0
0 0 0
0 0 0
0 0 0
0 0 0
0 0 0
0 0 0
0 0 0
0 0 0
0 0 0
0 0 0
0 0 0
0 0 0
0 0 0
0 0 0
0 0 0
0 0 0
0 0 0
0 0 0
0 0 0
0 0 0
0 0 0
0 0 0
0 0 0
0 0 0
0 0 0
0 0 0
0 0 0
0 0 0
0 0 0
0 0 0
0 0 0
0 0 0
0 0 0
0 0 0
0 0 0
0 0 0
0 0 0
0 0 0
0 0 0
0 0 0
0 0 0
0 0 0
0 0 0
0 0 0
0 0 0
0 0 0
0 0 0
0 0 0
0 0 0
0 0 0
0 0 0
0 0 0
0 0 0
0 0 0
0 0 0
0 0 0
0 0 0
0 0 0
0 0 0
0 0 0
0 0 0
0 0 0
0 0 0
0 0 0
0 0 0
0 0 0
0 0 0
0 0 0
0 0 0
0 0 0
0 0 0
0 0 0
0 0 0
0 0 0
0 0 0
0 0 0
0 0 0
0 0 0
0 0 0
0 0 0
0 0 0
0 0 0
0 0 0
0 0 0
0 0 0
0 0 0
0 0 0
0 0 0
0 0 0
0 0 0
0 0 0
0 0 0
0 0 0
0 0 0
0 0 0
0 0 0
0 0 0
0 0 0
0 0 0
0 0 0
0 0 0
0 0 0
0 0 0
0 0 0
0 0 0
0 0 0
0 0 0
0 0 0
0 0 0
0 0 0
0 0 0
0 0 0
0 0 0
0 0 0
0 0 0
0 0 0
0 0 0
0 0 0
0 0 0
0 0 0
0 0 0
0 0 0
0 0 0
0 0 0
0 0 0
0 0 0
0 0 0
0 0 0
0 0 0
0 0 0
0 0 0
0 0 0
0 0 0
0 0 0
0 0 0
0 0 0
0 0 0
0 0 0
0 0 0
0 0 0
0 0 0
0 0 0
0 0 0
0 0 0
0 0 0
0 0 0
0 0 0
0 0 0
0 0 0
0 0 0
0 0 0
0 0 0
0 0 0
0 0 0
0 0 0
0 0 0
0 0 0
0 0 0
0 0 0
0 0 0
0 0 0
0 0 0
0 0 0
0 0 0
0 0 0
0 0 0
0 0 0
0 0 0
0 0 0
0 0 0
0 0 0
0 0 0
0 0 0
0 0 0
0 0 0
0 0 0
0 0 0
0 0 0
0 0 0
0 0 0
0 0 0
0 0 0
0 0 0
0 0 0
0 0 0
0 0 0
0 0 0
0 0 0
0 0 0
0 0 0
0 0 0
0 0 0
0 0 0
0 0 0
0 0 0
0 0 0
0 0 0
0 0 0
0 0 0
0 0 0
0 0 0
0 0 0
0 0 0
0 0 0
0 0 0
0 0 0
0 0 0
0 0 0
0 0 0
0 0 0
0 0 0
0 0 0
0 0 0
0 0 0
0 0 0
0 0 0
0 0 0
0 0 0
0 0 0
0 0 0
0 0 0
0 0 0
0 0 0
0 0 0
0 0 0
0 0 0
0 0 0
0 0 0
0 0 0
0 0 0
0 0 0
0 0 0
0 0 0
0 0 0
0 0 0
0 0 0
0 0 0
0 0 0
0 0 0
0 0 0
0 0 0
0 0 0
0 0 0
0 0 0
0 0 0
255 255 255
255 255 255
255 255 255
255 255 255
255 255 255
255 255 255
255 255 255
255 255 255
255 255 255
255 255 255
255 255 255
255 255 255
255 255 255
255 255 255
255 255 255
255 255 255
255 255 255
255 255 255
255 255 255
255 255 255
255 255 255
255 255 255
255 255 255
255 255 255
255 255 255
255 255 255
255 255 255
255 255 255
255 255 255
255 255 255
255 255 255
255 255 255
255 255 255
255 255 255
255 255 255
255 255 255
255 255 255
255 255 255
255 255 255
255 255 255
255 255 255
255 255 255
255 255 255
255 255 255
255 255 255
255 255 255
255 255 255
255 255 255
255 255 255
255 255 255
255 255 255
255 255 255
255 255 255
255 255 255
255 255 255
255 255 255
255 255 255
255 255 255
255 255 255
255 255 255
255 255 255
255 255 255
255 255 255
255 255 255
255 255 255
255 255 255
255 255 255
255 255 255
255 255 255
255 255 255
255 255 255
255 255 255
255 255 255
255 255 255
255 255 255
255 255 255
255 255 255
255 255 255
255 255 255
255 255 255
255 255 255
255 255 255
0 0 0
0 0 0
0 0 0
0 0 0
0 0 0
0 0 0
0 0 0
0 0 0
0 0 0
0 0 0
0 0 0
0 0 0
0 0 0
0 0 0
0 0 0
0 0 0
0 0 0
0 0 0
0 0 0
0 0 0
0 0 0
0 0 0
0 0 0
0 0 0
0 0 0
0 0 0
0 0 0
0 0 0
0 0 0
0 0 0
0 0 0
0 0 0
0 0 0
0 0 0
0 0 0
0 0 0
0 0 0
0 0 0
0 0 0
0 0 0
0 0 0
0 0 0
0 0 0
0 0 0
0 0 0
0 0 0
0 0 0
0 0 0
0 0 0
0 0 0
0 0 0
0 0 0
0 0 0
0 0 0
0 0 0
0 0 0
0 0 0
0 0 0
0 0 0
0 0 0
0 0 0
0 0 0
0 0 0
0 0 0
0 0 0
0 0 0
0 0 0
0 0 0
0 0 0
0 0 0
0 0 0
0 0 0
0 0 0
0 0 0
0 0 0
0 0 0
0 0 0
0 0 0
0 0 0
0 0 0
0 0 0
0 0 0
0 0 0
0 0 0
0 0 0
0 0 0
0 0 0
0 0 0
0 0 0
0 0 0
0 0 0
0 0 0
0 0 0
0 0 0
0 0 0
0 0 0
0 0 0
0 0 0
0 0 0
0 0 0
0 0 0
0 0 0
0 0 0
0 0 0
0 0 0
0 0 0
0 0 0
0 0 0
0 0 0
0 0 0
0 0 0
0 0 0
0 0 0
0 0 0
0 0 0
0 0 0
0 0 0
0 0 0
0 0 0
0 0 0
0 0 0
0 0 0
0 0 0
0 0 0
0 0 0
0 0 0
0 0 0
0 0 0
0 0 0
0 0 0
0 0 0
0 0 0
0 0 0
0 0 0
0 0 0
0 0 0
0 0 0
0 0 0
0 0 0
0 0 0
0 0 0
0 0 0
0 0 0
0 0 0
0 0 0
0 0 0
0 0 0
0 0 0
0 0 0
0 0 0
0 0 0
0 0 0
0 0 0
0 0 0
0 0 0
0 0 0
0 0 0
0 0 0
0 0 0
0 0 0
0 0 0
0 0 0
0 0 0
0 0 0
0 0 0
0 0 0
0 0 0
0 0 0
0 0 0
0 0 0
0 0 0
0 0 0
0 0 0
0 0 0
0 0 0
0 0 0
0 0 0
0 0 0
0 0 0
0 0 0
0 0 0
0 0 0
0 0 0
0 0 0
0 0 0
0 0 0
0 0 0
0 0 0
0 0 0
0 0 0
0 0 0
0 0 0
0 0 0
0 0 0
0 0 0
0 0 0
0 0 0
0 0 0
0 0 0
0 0 0
0 0 0
0 0 0
0 0 0
0 0 0
0 0 0
0 0 0
0 0 0
0 0 0
0 0 0
0 0 0
0 0 0
0 0 0
0 0 0
0 0 0
0 0 0
0 0 0
0 0 0
0 0 0
0 0 0
0 0 0
0 0 0
0 0 0
0 0 0
0 0 0
0 0 0
0 0 0
0 0 0
0 0 0
0 0 0
0 0 0
0 0 0
0 0 0
0 0 0
0 0 0
0 0 0
0 0 0
0 0 0
0 0 0
0 0 0
0 0 0
0 0 0
0 0 0
0 0 0
0 0 0
0 0 0
0 0 0
0 0 0
0 0 0
0 0 0
0 0 0
0 0 0
0 0 0
0 0 0
0 0 0
0 0 0
0 0 0
0 0 0
0 0 0
0 0 0
0 0 0
0 0 0
0 0 0
0 0 0
0 0 0
0 0 0
0 0 0
0 0 0
0 0 0
0 0 0
0 0 0
0 0 0
0 0 0
0 0 0
0 0 0
0 0 0
0 0 0
0 0 0
0 0 0
0 0 0
0 0 0
0 0 0
0 0 0
0 0 0
0 0 0
0 0 0
0 0 0
0 0 0
0 0 0
0 0 0
0 0 0
0 0 0
0 0 0
0 0 0
0 0 0
0 0 0
0 0 0
0 0 0
0 0 0
0 0 0
0 0 0
0 0 0
0 0 0
0 0 0
0 0 0
0 0 0
0 0 0
0 0 0
0 0 0
0 0 0
0 0 0
0 0 0
0 0 0
0 0 0
0 0 0
0 0 0
0 0 0
0 0 0
0 0 0
51 51 51
255 255 255
255 255 255
255 255 255
255 255 255
255 255 255
255 255 255
255 255 255
255 255 255
255 255 255
255 255 255
255 255 255
255 255 255
255 255 255
255 255 255
255 255 255
255 255 255
255 255 255
255 255 255
255 255 255
255 255 255
255 255 255
255 255 255
255 255 255
255 255 255
255 255 255
255 255 255
255 255 255
255 255 255
255 255 255
255 255 255
255 255 255
255 255 255
255 255 255
255 255 255
255 255 255
255 255 255
255 255 255
255 255 255
255 255 255
255 255 255
255 255 255
255 255 255
255 255 255
255 255 255
255 255 255
255 255 255
255 255 255
255 255 255
255 255 255
255 255 255
255 255 255
255 255 255
255 255 255
255 255 255
255 255 255
255 255 255
255 255 255
255 255 255
255 255 255
255 255 255
255 255 255
255 255 255
255 255 255
255 255 255
255 255 255
255 255 255
255 255 255
255 255 255
255 255 255
255 255 255
255 255 255
255 255 255
255 255 255
255 255 255
255 255 255
255 255 255
255 255 255
255 255 255
255 255 255
255 255 255
0 0 0
0 0 0
0 0 0
0 0 0
0 0 0
0 0 0
0 0 0
0 0 0
0 0 0
0 0 0
0 0 0
0 0 0
0 0 0
0 0 0
0 0 0
0 0 0
0 0 0
0 0 0
0 0 0
0 0 0
0 0 0
0 0 0
0 0 0
0 0 0
0 0 0
0 0 0
0 0 0
0 0 0
0 0 0
0 0 0
0 0 0
0 0 0
0 0 0
0 0 0
0 0 0
0 0 0
0 0 0
0 0 0
0 0 0
0 0 0
0 0 0
0 0 0
0 0 0
0 0 0
0 0 0
0 0 0
0 0 0
0 0 0
0 0 0
0 0 0
0 0 0
0 0 0
0 0 0
0 0 0
0 0 0
0 0 0
0 0 0
0 0 0
0 0 0
0 0 0
0 0 0
0 0 0
0 0 0
0 0 0
0 0 0
0 0 0
0 0 0
0 0 0
0 0 0
0 0 0
0 0 0
0 0 0
0 0 0
0 0 0
0 0 0
0 0 0
0 0 0
0 0 0
0 0 0
0 0 0
0 0 0
0 0 0
0 0 0
0 0 0
0 0 0
0 0 0
0 0 0
0 0 0
0 0 0
0 0 0
0 0 0
0 0 0
0 0 0
0 0 0
0 0 0
0 0 0
0 0 0
0 0 0
0 0 0
0 0 0
0 0 0
0 0 0
0 0 0
0 0 0
0 0 0
0 0 0
0 0 0
0 0 0
0 0 0
0 0 0
0 0 0
0 0 0
0 0 0
0 0 0
0 0 0
0 0 0
0 0 0
0 0 0
0 0 0
0 0 0
0 0 0
0 0 0
0 0 0
0 0 0
0 0 0
0 0 0
0 0 0
0 0 0
0 0 0
0 0 0
0 0 0
0 0 0
0 0 0
0 0 0
0 0 0
0 0 0
0 0 0
0 0 0
0 0 0
0 0 0
0 0 0
0 0 0
0 0 0
0 0 0
0 0 0
0 0 0
0 0 0
0 0 0
0 0 0
0 0 0
0 0 0
0 0 0
0 0 0
0 0 0
0 0 0
0 0 0
0 0 0
0 0 0
0 0 0
0 0 0
0 0 0
0 0 0
0 0 0
0 0 0
0 0 0
0 0 0
0 0 0
0 0 0
0 0 0
0 0 0
0 0 0
0 0 0
0 0 0
0 0 0
0 0 0
0 0 0
0 0 0
0 0 0
0 0 0
0 0 0
0 0 0
0 0 0
0 0 0
0 0 0
0 0 0
0 0 0
0 0 0
0 0 0
0 0 0
0 0 0
0 0 0
0 0 0
0 0 0
0 0 0
0 0 0
0 0 0
0 0 0
0 0 0
0 0 0
0 0 0
0 0 0
0 0 0
0 0 0
0 0 0
0 0 0
0 0 0
0 0 0
0 0 0
0 0 0
0 0 0
0 0 0
0 0 0
0 0 0
0 0 0
0 0 0
0 0 0
0 0 0
0 0 0
0 0 0
0 0 0
0 0 0
0 0 0
0 0 0
0 0 0
0 0 0
0 0 0
0 0 0
0 0 0
0 0 0
0 0 0
0 0 0
0 0 0
0 0 0
0 0 0
0 0 0
0 0 0
0 0 0
0 0 0
0 0 0
0 0 0
0 0 0
0 0 0
0 0 0
0 0 0
0 0 0
0 0 0
0 0 0
0 0 0
0 0 0
0 0 0
0 0 0
0 0 0
0 0 0
0 0 0
0 0 0
0 0 0
0 0 0
0 0 0
0 0 0
0 0 0
0 0 0
0 0 0
0 0 0
0 0 0
0 0 0
0 0 0
0 0 0
0 0 0
0 0 0
0 0 0
0 0 0
0 0 0
0 0 0
0 0 0
0 0 0
0 0 0
0 0 0
0 0 0
0 0 0
0 0 0
0 0 0
0 0 0
0 0 0
0 0 0
0 0 0
0 0 0
0 0 0
0 0 0
0 0 0
0 0 0
0 0 0
0 0 0
0 0 0
0 0 0
0 0 0
0 0 0
0 0 0
0 0 0
0 0 0
0 0 0
0 0 0
0 0 0
0 0 0
0 0 0
0 0 0
0 0 0
0 0 0
0 0 0
0 0 0
0 0 0
0 0 0
0 0 0
0 0 0
0 0 0
0 0 0
0 0 0
0 0 0
0 0 0
0 0 0
0 0 0
153 153 153
255 255 255
255 255 255
255 255 255
255 255 255
255 255 255
255 255 255
255 255 255
255 255 255
255 255 255
255 255 255
255 255 255
255 255 255
255 255 255
255 255 255
255 255 255
255 255 255
255 255 255
255 255 255
255 255 255
255 255 255
255 255 255
255 255 255
255 255 255
255 255 255
255 255 255
255 255 255
255 255 255
255 255 255
255 255 255
255 255 255
255 255 255
255 255 255
255 255 255
255 255 255
255 255 255
255 255 255
255 255 255
255 255 255
255 255 255
255 255 255
255 255 255
255 255 255
255 255 255
255 255 255
255 255 255
255 255 255
255 255 255
255 255 255
255 255 255
255 255 255
255 255 255
255 255 255
255 255 255
255 255 255
255 255 255
255 255 255
255 255 255
255 255 255
255 255 255
255 255 255
255 255 255
255 255 255
255 255 255
255 255 255
255 255 255
255 255 255
255 255 255
255 255 255
255 255 255
255 255 255
255 255 255
255 255 255
255 255 255
255 255 255
255 255 255
255 255 255
255 255 255
255 255 255
125 125 125
0 0 0
0 0 0
0 0 0
0 0 0
0 0 0
0 0 0
0 0 0
0 0 0
0 0 0
0 0 0
0 0 0
0 0 0
0 0 0
0 0 0
0 0 0
0 0 0
0 0 0
0 0 0
0 0 0
0 0 0
0 0 0
0 0 0
0 0 0
0 0 0
0 0 0
0 0 0
0 0 0
0 0 0
0 0 0
0 0 0
0 0 0
0 0 0
0 0 0
0 0 0
0 0 0
0 0 0
0 0 0
0 0 0
0 0 0
0 0 0
0 0 0
0 0 0
0 0 0
0 0 0
0 0 0
0 0 0
0 0 0
0 0 0
0 0 0
0 0 0
0 0 0
0 0 0
0 0 0
0 0 0
0 0 0
0 0 0
0 0 0
0 0 0
0 0 0
0 0 0
0 0 0
0 0 0
0 0 0
0 0 0
0 0 0
0 0 0
0 0 0
0 0 0
0 0 0
0 0 0
0 0 0
0 0 0
0 0 0
0 0 0
0 0 0
0 0 0
0 0 0
0 0 0
0 0 0
0 0 0
0 0 0
0 0 0
0 0 0
0 0 0
0 0 0
0 0 0
0 0 0
0 0 0
0 0 0
0 0 0
0 0 0
0 0 0
0 0 0
0 0 0
0 0 0
0 0 0
0 0 0
0 0 0
0 0 0
0 0 0
0 0 0
0 0 0
0 0 0
0 0 0
0 0 0
0 0 0
0 0 0
0 0 0
0 0 0
0 0 0
0 0 0
0 0 0
0 0 0
0 0 0
0 0 0
0 0 0
0 0 0
0 0 0
0 0 0
0 0 0
0 0 0
0 0 0
0 0 0
0 0 0
0 0 0
0 0 0
0 0 0
0 0 0
0 0 0
0 0 0
0 0 0
0 0 0
0 0 0
0 0 0
0 0 0
0 0 0
0 0 0
0 0 0
0 0 0
0 0 0
0 0 0
0 0 0
0 0 0
0 0 0
0 0 0
0 0 0
0 0 0
0 0 0
0 0 0
0 0 0
0 0 0
0 0 0
0 0 0
0 0 0
0 0 0
0 0 0
0 0 0
0 0 0
0 0 0
0 0 0
0 0 0
0 0 0
0 0 0
0 0 0
0 0 0
0 0 0
0 0 0
0 0 0
0 0 0
0 0 0
0 0 0
0 0 0
0 0 0
0 0 0
0 0 0
0 0 0
0 0 0
0 0 0
0 0 0
0 0 0
0 0 0
0 0 0
0 0 0
0 0 0
0 0 0
0 0 0
0 0 0
0 0 0
0 0 0
0 0 0
0 0 0
0 0 0
0 0 0
0 0 0
0 0 0
0 0 0
0 0 0
0 0 0
0 0 0
0 0 0
0 0 0
0 0 0
0 0 0
0 0 0
0 0 0
0 0 0
0 0 0
0 0 0
0 0 0
0 0 0
0 0 0
0 0 0
0 0 0
0 0 0
0 0 0
0 0 0
0 0 0
0 0 0
0 0 0
0 0 0
0 0 0
0 0 0
0 0 0
0 0 0
0 0 0
0 0 0
0 0 0
0 0 0
0 0 0
0 0 0
0 0 0
0 0 0
0 0 0
0 0 0
0 0 0
0 0 0
0 0 0
0 0 0
0 0 0
0 0 0
0 0 0
0 0 0
0 0 0
0 0 0
0 0 0
0 0 0
0 0 0
0 0 0
0 0 0
0 0 0
0 0 0
0 0 0
0 0 0
0 0 0
0 0 0
0 0 0
0 0 0
0 0 0
0 0 0
0 0 0
0 0 0
0 0 0
0 0 0
0 0 0
0 0 0
0 0 0
0 0 0
0 0 0
0 0 0
0 0 0
0 0 0
0 0 0
0 0 0
0 0 0
0 0 0
0 0 0
0 0 0
0 0 0
0 0 0
0 0 0
0 0 0
0 0 0
0 0 0
0 0 0
0 0 0
0 0 0
0 0 0
0 0 0
0 0 0
0 0 0
0 0 0
0 0 0
0 0 0
0 0 0
0 0 0
0 0 0
0 0 0
0 0 0
0 0 0
0 0 0
0 0 0
0 0 0
0 0 0
0 0 0
0 0 0
0 0 0
0 0 0
0 0 0
0 0 0
0 0 0
0 0 0
0 0 0
0 0 0
0 0 0
0 0 0
0 0 0
0 0 0
0 0 0
0 0 0
0 0 0
0 0 0
255 255 255
255 255 255
255 255 255
255 255 255
255 255 255
255 255 255
255 255 255
255 255 255
255 255 255
255 255 255
255 255 255
255 255 255
255 255 255
255 255 255
255 255 255
255 255 255
255 255 255
255 255 255
255 255 255
255 255 255
255 255 255
255 255 255
255 255 255
255 255 255
255 255 255
255 255 255
255 255 255
255 255 255
255 255 255
255 255 255
255 255 255
255 255 255
255 255 255
255 255 255
255 255 255
255 255 255
255 255 255
255 255 255
255 255 255
255 255 255
255 255 255
255 255 255
255 255 255
255 255 255
255 255 255
255 255 255
255 255 255
255 255 255
255 255 255
255 255 255
255 255 255
255 255 255
255 255 255
255 255 255
255 255 255
255 255 255
255 255 255
255 255 255
255 255 255
255 255 255
255 255 255
255 255 255
255 255 255
255 255 255
255 255 255
255 255 255
255 255 255
255 255 255
255 255 255
255 255 255
255 255 255
255 255 255
255 255 255
255 255 255
255 255 255
255 255 255
255 255 255
255 255 255
0 0 0
0 0 0
0 0 0
0 0 0
0 0 0
0 0 0
0 0 0
0 0 0
0 0 0
0 0 0
0 0 0
0 0 0
0 0 0
0 0 0
0 0 0
0 0 0
0 0 0
0 0 0
0 0 0
0 0 0
0 0 0
0 0 0
0 0 0
0 0 0
0 0 0
0 0 0
0 0 0
0 0 0
0 0 0
0 0 0
0 0 0
0 0 0
0 0 0
0 0 0
0 0 0
0 0 0
0 0 0
0 0 0
0 0 0
0 0 0
0 0 0
0 0 0
0 0 0
0 0 0
0 0 0
0 0 0
0 0 0
0 0 0
0 0 0
0 0 0
0 0 0
0 0 0
0 0 0
0 0 0
0 0 0
0 0 0
0 0 0
0 0 0
0 0 0
0 0 0
0 0 0
0 0 0
0 0 0
0 0 0
0 0 0
0 0 0
0 0 0
0 0 0
0 0 0
0 0 0
0 0 0
0 0 0
0 0 0
0 0 0
0 0 0
0 0 0
0 0 0
0 0 0
0 0 0
0 0 0
0 0 0
0 0 0
0 0 0
0 0 0
0 0 0
0 0 0
0 0 0
0 0 0
0 0 0
0 0 0
0 0 0
0 0 0
0 0 0
0 0 0
0 0 0
0 0 0
0 0 0
0 0 0
0 0 0
0 0 0
0 0 0
0 0 0
0 0 0
0 0 0
0 0 0
0 0 0
0 0 0
0 0 0
0 0 0
0 0 0
0 0 0
0 0 0
0 0 0
0 0 0
0 0 0
0 0 0
0 0 0
0 0 0
0 0 0
0 0 0
0 0 0
0 0 0
0 0 0
0 0 0
0 0 0
0 0 0
0 0 0
0 0 0
0 0 0
0 0 0
0 0 0
0 0 0
0 0 0
0 0 0
0 0 0
0 0 0
0 0 0
0 0 0
0 0 0
0 0 0
0 0 0
0 0 0
0 0 0
0 0 0
0 0 0
0 0 0
0 0 0
0 0 0
0 0 0
0 0 0
0 0 0
0 0 0
0 0 0
0 0 0
0 0 0
0 0 0
0 0 0
0 0 0
0 0 0
0 0 0
0 0 0
0 0 0
0 0 0
0 0 0
0 0 0
0 0 0
0 0 0
0 0 0
0 0 0
0 0 0
0 0 0
0 0 0
0 0 0
0 0 0
0 0 0
0 0 0
0 0 0
0 0 0
0 0 0
0 0 0
0 0 0
0 0 0
0 0 0
0 0 0
0 0 0
0 0 0
0 0 0
0 0 0
0 0 0
0 0 0
0 0 0
0 0 0
0 0 0
0 0 0
0 0 0
0 0 0
0 0 0
0 0 0
0 0 0
0 0 0
0 0 0
0 0 0
0 0 0
0 0 0
0 0 0
0 0 0
0 0 0
0 0 0
0 0 0
0 0 0
0 0 0
0 0 0
0 0 0
0 0 0
0 0 0
0 0 0
0 0 0
0 0 0
0 0 0
0 0 0
0 0 0
0 0 0
0 0 0
0 0 0
0 0 0
0 0 0
0 0 0
0 0 0
0 0 0
0 0 0
0 0 0
0 0 0
0 0 0
0 0 0
0 0 0
0 0 0
0 0 0
0 0 0
0 0 0
0 0 0
0 0 0
0 0 0
0 0 0
0 0 0
0 0 0
0 0 0
0 0 0
0 0 0
0 0 0
0 0 0
0 0 0
0 0 0
0 0 0
0 0 0
0 0 0
0 0 0
0 0 0
0 0 0
0 0 0
0 0 0
0 0 0
0 0 0
0 0 0
0 0 0
0 0 0
0 0 0
0 0 0
0 0 0
0 0 0
0 0 0
0 0 0
0 0 0
0 0 0
0 0 0
0 0 0
0 0 0
0 0 0
0 0 0
0 0 0
0 0 0
0 0 0
0 0 0
0 0 0
0 0 0
0 0 0
0 0 0
0 0 0
0 0 0
0 0 0
0 0 0
0 0 0
0 0 0
0 0 0
0 0 0
0 0 0
0 0 0
0 0 0
0 0 0
0 0 0
0 0 0
0 0 0
0 0 0
0 0 0
0 0 0
0 0 0
0 0 0
0 0 0
0 0 0
0 0 0
0 0 0
0 0 0
0 0 0
0 0 0
0 0 0
0 0 0
0 0 0
0 0 0
0 0 0
0 0 0
0 0 0
0 0 0
0 0 0
0 0 0
255 255 255
255 255 255
255 255 255
255 255 255
255 255 255
255 255 255
255 255 255
255 255 255
255 255 255
255 255 255
255 255 255
255 255 255
255 255 255
255 255 255
255 255 255
255 255 255
255 255 255
255 255 255
255 255 255
255 255 255
255 255 255
255 255 255
255 255 255
255 255 255
255 255 255
255 255 255
255 255 255
255 255 255
255 255 255
255 255 255
255 255 255
255 255 255
255 255 255
255 255 255
255 255 255
255 255 255
255 255 255
255 255 255
255 255 255
255 255 255
255 255 255
255 255 255
255 255 255
255 255 255
255 255 255
255 255 255
255 255 255
255 255 255
255 255 255
255 255 255
255 255 255
255 255 255
255 255 255
255 255 255
255 255 255
255 255 255
255 255 255
255 255 255
255 255 255
255 255 255
255 255 255
255 255 255
255 255 255
255 255 255
255 255 255
255 255 255
255 255 255
255 255 255
255 255 255
255 255 255
255 255 255
255 255 255
255 255 255
255 255 255
255 255 255
255 255 255
0 0 0
0 0 0
0 0 0
0 0 0
0 0 0
0 0 0
0 0 0
0 0 0
0 0 0
0 0 0
0 0 0
0 0 0
0 0 0
0 0 0
0 0 0
0 0 0
0 0 0
0 0 0
0 0 0
0 0 0
0 0 0
0 0 0
0 0 0
0 0 0
0 0 0
0 0 0
0 0 0
0 0 0
0 0 0
0 0 0
0 0 0
0 0 0
0 0 0
0 0 0
0 0 0
0 0 0
0 0 0
0 0 0
0 0 0
0 0 0
0 0 0
0 0 0
0 0 0
0 0 0
0 0 0
0 0 0
0 0 0
0 0 0
0 0 0
0 0 0
0 0 0
0 0 0
0 0 0
0 0 0
0 0 0
0 0 0
0 0 0
0 0 0
0 0 0
0 0 0
0 0 0
0 0 0
0 0 0
0 0 0
0 0 0
0 0 0
0 0 0
0 0 0
0 0 0
0 0 0
0 0 0
0 0 0
0 0 0
0 0 0
0 0 0
0 0 0
0 0 0
0 0 0
0 0 0
0 0 0
0 0 0
0 0 0
0 0 0
0 0 0
0 0 0
0 0 0
0 0 0
0 0 0
0 0 0
0 0 0
0 0 0
0 0 0
0 0 0
0 0 0
0 0 0
0 0 0
0 0 0
0 0 0
0 0 0
0 0 0
0 0 0
0 0 0
0 0 0
0 0 0
0 0 0
0 0 0
0 0 0
0 0 0
0 0 0
0 0 0
0 0 0
0 0 0
0 0 0
0 0 0
0 0 0
0 0 0
0 0 0
0 0 0
0 0 0
0 0 0
0 0 0
0 0 0
0 0 0
0 0 0
0 0 0
0 0 0
0 0 0
0 0 0
0 0 0
0 0 0
0 0 0
0 0 0
0 0 0
0 0 0
0 0 0
0 0 0
0 0 0
0 0 0
0 0 0
0 0 0
0 0 0
0 0 0
0 0 0
0 0 0
0 0 0
0 0 0
0 0 0
0 0 0
0 0 0
0 0 0
0 0 0
0 0 0
0 0 0
0 0 0
0 0 0
0 0 0
0 0 0
0 0 0
0 0 0
0 0 0
0 0 0
0 0 0
0 0 0
0 0 0
0 0 0
0 0 0
0 0 0
0 0 0
0 0 0
0 0 0
0 0 0
0 0 0
0 0 0
0 0 0
0 0 0
0 0 0
0 0 0
0 0 0
0 0 0
0 0 0
0 0 0
0 0 0
0 0 0
0 0 0
0 0 0
0 0 0
0 0 0
0 0 0
0 0 0
0 0 0
0 0 0
0 0 0
0 0 0
0 0 0
0 0 0
0 0 0
0 0 0
0 0 0
0 0 0
0 0 0
0 0 0
0 0 0
0 0 0
0 0 0
0 0 0
0 0 0
0 0 0
0 0 0
0 0 0
0 0 0
0 0 0
0 0 0
0 0 0
0 0 0
0 0 0
0 0 0
0 0 0
0 0 0
0 0 0
0 0 0
0 0 0
0 0 0
0 0 0
0 0 0
0 0 0
0 0 0
0 0 0
0 0 0
0 0 0
0 0 0
0 0 0
0 0 0
0 0 0
0 0 0
0 0 0
0 0 0
0 0 0
0 0 0
0 0 0
0 0 0
0 0 0
0 0 0
0 0 0
0 0 0
0 0 0
0 0 0
0 0 0
0 0 0
0 0 0
0 0 0
0 0 0
0 0 0
0 0 0
0 0 0
0 0 0
0 0 0
0 0 0
0 0 0
0 0 0
0 0 0
0 0 0
0 0 0
0 0 0
0 0 0
0 0 0
0 0 0
0 0 0
0 0 0
0 0 0
0 0 0
0 0 0
0 0 0
0 0 0
0 0 0
0 0 0
0 0 0
0 0 0
0 0 0
0 0 0
0 0 0
0 0 0
0 0 0
0 0 0
0 0 0
0 0 0
0 0 0
0 0 0
0 0 0
0 0 0
0 0 0
0 0 0
0 0 0
0 0 0
0 0 0
0 0 0
0 0 0
0 0 0
0 0 0
0 0 0
0 0 0
0 0 0
0 0 0
0 0 0
0 0 0
0 0 0
0 0 0
0 0 0
0 0 0
0 0 0
0 0 0
0 0 0
0 0 0
0 0 0
0 0 0
0 0 0
0 0 0
0 0 0
0 0 0
0 0 0
0 0 0
0 0 0
0 0 0
0 0 0
0 0 0
0 0 0
255 255 255
255 255 255
255 255 255
255 255 255
255 255 255
255 255 255
255 255 255
255 255 255
255 255 255
255 255 255
255 255 255
255 255 255
255 255 255
255 255 255
255 255 255
255 255 255
255 255 255
255 255 255
255 255 255
255 255 255
255 255 255
255 255 255
255 255 255
255 255 255
255 255 255
255 255 255
255 255 255
255 255 255
255 255 255
255 255 255
255 255 255
255 255 255
255 255 255
255 255 255
255 255 255
255 255 255
255 255 255
255 255 255
255 255 255
255 255 255
255 255 255
255 255 255
255 255 255
255 255 255
255 255 255
255 255 255
255 255 255
255 255 255
255 255 255
255 255 255
255 255 255
255 255 255
255 255 255
255 255 255
255 255 255
255 255 255
255 255 255
255 255 255
255 255 255
255 255 255
255 255 255
255 255 255
255 255 255
255 255 255
255 255 255
255 255 255
255 255 255
255 255 255
255 255 255
255 255 255
255 255 255
255 255 255
255 255 255
255 255 255
0 0 0
0 0 0
0 0 0
0 0 0
0 0 0
0 0 0
0 0 0
0 0 0
0 0 0
0 0 0
0 0 0
0 0 0
0 0 0
0 0 0
0 0 0
0 0 0
0 0 0
0 0 0
0 0 0
0 0 0
0 0 0
0 0 0
0 0 0
0 0 0
0 0 0
0 0 0
0 0 0
0 0 0
0 0 0
0 0 0
0 0 0
0 0 0
0 0 0
0 0 0
0 0 0
0 0 0
0 0 0
0 0 0
0 0 0
0 0 0
0 0 0
0 0 0
0 0 0
0 0 0
0 0 0
0 0 0
0 0 0
0 0 0
0 0 0
0 0 0
0 0 0
0 0 0
0 0 0
0 0 0
0 0 0
0 0 0
0 0 0
0 0 0
0 0 0
0 0 0
0 0 0
0 0 0
0 0 0
0 0 0
0 0 0
0 0 0
0 0 0
0 0 0
0 0 0
0 0 0
0 0 0
0 0 0
0 0 0
0 0 0
0 0 0
0 0 0
0 0 0
0 0 0
0 0 0
0 0 0
0 0 0
0 0 0
0 0 0
0 0 0
0 0 0
0 0 0
0 0 0
0 0 0
0 0 0
0 0 0
0 0 0
0 0 0
0 0 0
0 0 0
0 0 0
0 0 0
0 0 0
0 0 0
0 0 0
0 0 0
0 0 0
0 0 0
0 0 0
0 0 0
0 0 0
0 0 0
0 0 0
0 0 0
0 0 0
0 0 0
0 0 0
0 0 0
0 0 0
0 0 0
0 0 0
0 0 0
0 0 0
0 0 0
0 0 0
0 0 0
0 0 0
0 0 0
0 0 0
0 0 0
0 0 0
0 0 0
0 0 0
0 0 0
0 0 0
0 0 0
0 0 0
0 0 0
0 0 0
0 0 0
0 0 0
0 0 0
0 0 0
0 0 0
0 0 0
0 0 0
0 0 0
0 0 0
0 0 0
0 0 0
0 0 0
0 0 0
0 0 0
0 0 0
0 0 0
0 0 0
0 0 0
0 0 0
0 0 0
0 0 0
0 0 0
0 0 0
0 0 0
0 0 0
0 0 0
0 0 0
0 0 0
0 0 0
0 0 0
0 0 0
0 0 0
0 0 0
0 0 0
0 0 0
0 0 0
0 0 0
0 0 0
0 0 0
0 0 0
0 0 0
0 0 0
0 0 0
0 0 0
0 0 0
0 0 0
0 0 0
0 0 0
0 0 0
0 0 0
0 0 0
0 0 0
0 0 0
0 0 0
0 0 0
0 0 0
0 0 0
0 0 0
0 0 0
0 0 0
0 0 0
0 0 0
0 0 0
0 0 0
0 0 0
0 0 0
0 0 0
0 0 0
0 0 0
0 0 0
0 0 0
0 0 0
0 0 0
0 0 0
0 0 0
0 0 0
0 0 0
0 0 0
0 0 0
0 0 0
0 0 0
0 0 0
0 0 0
0 0 0
0 0 0
0 0 0
0 0 0
0 0 0
0 0 0
0 0 0
0 0 0
0 0 0
0 0 0
0 0 0
0 0 0
0 0 0
0 0 0
0 0 0
0 0 0
0 0 0
0 0 0
0 0 0
0 0 0
0 0 0
0 0 0
0 0 0
0 0 0
0 0 0
0 0 0
0 0 0
0 0 0
0 0 0
0 0 0
0 0 0
0 0 0
0 0 0
0 0 0
0 0 0
0 0 0
0 0 0
0 0 0
0 0 0
0 0 0
0 0 0
0 0 0
0 0 0
0 0 0
0 0 0
0 0 0
0 0 0
0 0 0
0 0 0
0 0 0
0 0 0
0 0 0
0 0 0
0 0 0
0 0 0
0 0 0
0 0 0
0 0 0
0 0 0
0 0 0
0 0 0
0 0 0
0 0 0
0 0 0
0 0 0
0 0 0
0 0 0
0 0 0
0 0 0
0 0 0
0 0 0
0 0 0
0 0 0
0 0 0
0 0 0
0 0 0
0 0 0
0 0 0
0 0 0
0 0 0
0 0 0
0 0 0
0 0 0
0 0 0
0 0 0
0 0 0
0 0 0
0 0 0
0 0 0
0 0 0
0 0 0
0 0 0
0 0 0
0 0 0
0 0 0
0 0 0
0 0 0
0 0 0
0 0 0
0 0 0
0 0 0
0 0 0
0 0 0
0 0 0
0 0 0
0 0 0
0 0 0
0 0 0
0 0 0
0 0 0
72 72 72
255 255 255
255 255 255
255 255 255
255 255 255
255 255 255
255 255 255
255 255 255
255 255 255
255 255 255
255 255 255
255 255 255
255 255 255
255 255 255
255 255 255
255 255 255
255 255 255
255 255 255
255 255 255
255 255 255
255 255 255
255 255 255
255 255 255
255 255 255
255 255 255
255 255 255
255 255 255
255 255 255
255 255 255
255 255 255
255 255 255
255 255 255
255 255 255
255 255 255
255 255 255
255 255 255
255 255 255
255 255 255
255 255 255
255 255 255
255 255 255
255 255 255
255 255 255
255 255 255
255 255 255
255 255 255
255 255 255
255 255 255
255 255 255
255 255 255
255 255 255
255 255 255
255 255 255
255 255 255
255 255 255
255 255 255
255 255 255
255 255 255
255 255 255
255 255 255
255 255 255
255 255 255
255 255 255
255 255 255
255 255 255
255 255 255
255 255 255
255 255 255
255 255 255
255 255 255
255 255 255
255 255 255
255 255 255
88 88 88
0 0 0
0 0 0
0 0 0
0 0 0
0 0 0
0 0 0
0 0 0
0 0 0
0 0 0
0 0 0
0 0 0
0 0 0
0 0 0
0 0 0
0 0 0
0 0 0
0 0 0
0 0 0
0 0 0
0 0 0
0 0 0
0 0 0
0 0 0
0 0 0
0 0 0
0 0 0
0 0 0
0 0 0
0 0 0
0 0 0
0 0 0
0 0 0
0 0 0
0 0 0
0 0 0
0 0 0
0 0 0
0 0 0
0 0 0
0 0 0
0 0 0
0 0 0
0 0 0
0 0 0
0 0 0
0 0 0
0 0 0
0 0 0
0 0 0
0 0 0
0 0 0
0 0 0
0 0 0
0 0 0
0 0 0
0 0 0
0 0 0
0 0 0
0 0 0
0 0 0
0 0 0
0 0 0
0 0 0
0 0 0
0 0 0
0 0 0
0 0 0
0 0 0
0 0 0
0 0 0
0 0 0
0 0 0
0 0 0
0 0 0
0 0 0
0 0 0
0 0 0
0 0 0
0 0 0
0 0 0
0 0 0
0 0 0
0 0 0
0 0 0
0 0 0
0 0 0
0 0 0
0 0 0
0 0 0
0 0 0
0 0 0
0 0 0
0 0 0
0 0 0
0 0 0
0 0 0
0 0 0
0 0 0
0 0 0
0 0 0
0 0 0
0 0 0
0 0 0
0 0 0
0 0 0
0 0 0
0 0 0
0 0 0
0 0 0
0 0 0
0 0 0
0 0 0
0 0 0
0 0 0
0 0 0
0 0 0
0 0 0
0 0 0
0 0 0
0 0 0
0 0 0
0 0 0
0 0 0
0 0 0
0 0 0
0 0 0
0 0 0
0 0 0
0 0 0
0 0 0
0 0 0
0 0 0
0 0 0
0 0 0
0 0 0
0 0 0
0 0 0
0 0 0
0 0 0
0 0 0
0 0 0
0 0 0
0 0 0
0 0 0
0 0 0
0 0 0
0 0 0
0 0 0
0 0 0
0 0 0
0 0 0
0 0 0
0 0 0
0 0 0
0 0 0
0 0 0
0 0 0
0 0 0
0 0 0
0 0 0
0 0 0
0 0 0
0 0 0
0 0 0
0 0 0
0 0 0
0 0 0
0 0 0
0 0 0
0 0 0
0 0 0
0 0 0
0 0 0
0 0 0
0 0 0
0 0 0
0 0 0
0 0 0
0 0 0
0 0 0
0 0 0
0 0 0
0 0 0
0 0 0
0 0 0
0 0 0
0 0 0
0 0 0
0 0 0
0 0 0
0 0 0
0 0 0
0 0 0
0 0 0
0 0 0
0 0 0
0 0 0
0 0 0
0 0 0
0 0 0
0 0 0
0 0 0
0 0 0
0 0 0
0 0 0
0 0 0
0 0 0
0 0 0
0 0 0
0 0 0
0 0 0
0 0 0
0 0 0
0 0 0
0 0 0
0 0 0
0 0 0
0 0 0
0 0 0
0 0 0
0 0 0
0 0 0
0 0 0
0 0 0
0 0 0
0 0 0
0 0 0
0 0 0
0 0 0
0 0 0
0 0 0
0 0 0
0 0 0
0 0 0
0 0 0
0 0 0
0 0 0
0 0 0
0 0 0
0 0 0
0 0 0
0 0 0
0 0 0
0 0 0
0 0 0
0 0 0
0 0 0
0 0 0
0 0 0
0 0 0
0 0 0
0 0 0
0 0 0
0 0 0
0 0 0
0 0 0
0 0 0
0 0 0
0 0 0
0 0 0
0 0 0
0 0 0
0 0 0
0 0 0
0 0 0
0 0 0
0 0 0
0 0 0
0 0 0
0 0 0
0 0 0
0 0 0
0 0 0
0 0 0
0 0 0
0 0 0
0 0 0
0 0 0
0 0 0
0 0 0
0 0 0
0 0 0
0 0 0
0 0 0
0 0 0
0 0 0
0 0 0
0 0 0
0 0 0
0 0 0
0 0 0
0 0 0
0 0 0
0 0 0
0 0 0
0 0 0
0 0 0
0 0 0
0 0 0
0 0 0
0 0 0
0 0 0
0 0 0
0 0 0
0 0 0
0 0 0
0 0 0
0 0 0
0 0 0
0 0 0
0 0 0
0 0 0
0 0 0
0 0 0
0 0 0
0 0 0
0 0 0
0 0 0
0 0 0
0 0 0
0 0 0
0 0 0
0 0 0
0 0 0
0 0 0
0 0 0
0 0 0
135 135 135
255 255 255
255 255 255
255 255 255
255 255 255
255 255 255
255 255 255
255 255 255
255 255 255
255 255 255
255 255 255
255 255 255
255 255 255
255 255 255
255 255 255
255 255 255
255 255 255
255 255 255
255 255 255
255 255 255
255 255 255
255 255 255
255 255 255
255 255 255
255 255 255
255 255 255
255 255 255
255 255 255
255 255 255
255 255 255
255 255 255
255 255 255
255 255 255
255 255 255
255 255 255
255 255 255
255 255 255
255 255 255
255 255 255
255 255 255
255 255 255
255 255 255
255 255 255
255 255 255
255 255 255
255 255 255
255 255 255
255 255 255
255 255 255
255 255 255
255 255 255
255 255 255
255 255 255
255 255 255
255 255 255
255 255 255
255 255 255
255 255 255
255 255 255
255 255 255
255 255 255
255 255 255
255 255 255
255 255 255
255 255 255
255 255 255
255 255 255
255 255 255
255 255 255
255 255 255
255 255 255
184 184 184
0 0 0
0 0 0
0 0 0
0 0 0
0 0 0
0 0 0
0 0 0
0 0 0
0 0 0
0 0 0
0 0 0
0 0 0
0 0 0
0 0 0
0 0 0
0 0 0
0 0 0
0 0 0
0 0 0
0 0 0
0 0 0
0 0 0
0 0 0
0 0 0
0 0 0
0 0 0
0 0 0
0 0 0
0 0 0
0 0 0
0 0 0
0 0 0
0 0 0
0 0 0
0 0 0
0 0 0
0 0 0
0 0 0
0 0 0
0 0 0
0 0 0
0 0 0
0 0 0
0 0 0
0 0 0
0 0 0
0 0 0
0 0 0
0 0 0
0 0 0
0 0 0
0 0 0
0 0 0
0 0 0
0 0 0
0 0 0
0 0 0
0 0 0
0 0 0
0 0 0
0 0 0
0 0 0
0 0 0
0 0 0
0 0 0
0 0 0
0 0 0
0 0 0
0 0 0
0 0 0
0 0 0
0 0 0
0 0 0
0 0 0
0 0 0
0 0 0
0 0 0
0 0 0
0 0 0
0 0 0
0 0 0
0 0 0
0 0 0
0 0 0
0 0 0
0 0 0
0 0 0
0 0 0
0 0 0
0 0 0
0 0 0
0 0 0
0 0 0
0 0 0
0 0 0
0 0 0
0 0 0
0 0 0
0 0 0
0 0 0
0 0 0
0 0 0
0 0 0
0 0 0
0 0 0
0 0 0
0 0 0
0 0 0
0 0 0
0 0 0
0 0 0
0 0 0
0 0 0
0 0 0
0 0 0
0 0 0
0 0 0
0 0 0
0 0 0
0 0 0
0 0 0
0 0 0
0 0 0
0 0 0
0 0 0
0 0 0
0 0 0
0 0 0
0 0 0
0 0 0
0 0 0
0 0 0
0 0 0
0 0 0
0 0 0
0 0 0
0 0 0
0 0 0
0 0 0
0 0 0
0 0 0
0 0 0
0 0 0
0 0 0
0 0 0
0 0 0
0 0 0
0 0 0
0 0 0
0 0 0
0 0 0
0 0 0
0 0 0
0 0 0
0 0 0
0 0 0
0 0 0
0 0 0
0 0 0
0 0 0
0 0 0
0 0 0
0 0 0
0 0 0
0 0 0
0 0 0
0 0 0
0 0 0
0 0 0
0 0 0
0 0 0
0 0 0
0 0 0
0 0 0
0 0 0
0 0 0
0 0 0
0 0 0
0 0 0
0 0 0
0 0 0
0 0 0
0 0 0
0 0 0
0 0 0
0 0 0
0 0 0
0 0 0
0 0 0
0 0 0
0 0 0
0 0 0
0 0 0
0 0 0
0 0 0
0 0 0
0 0 0
0 0 0
0 0 0
0 0 0
0 0 0
0 0 0
0 0 0
0 0 0
0 0 0
0 0 0
0 0 0
0 0 0
0 0 0
0 0 0
0 0 0
0 0 0
0 0 0
0 0 0
0 0 0
0 0 0
0 0 0
0 0 0
0 0 0
0 0 0
0 0 0
0 0 0
0 0 0
0 0 0
0 0 0
0 0 0
0 0 0
0 0 0
0 0 0
0 0 0
0 0 0
0 0 0
0 0 0
0 0 0
0 0 0
0 0 0
0 0 0
0 0 0
0 0 0
0 0 0
0 0 0
0 0 0
0 0 0
0 0 0
0 0 0
0 0 0
0 0 0
0 0 0
0 0 0
0 0 0
0 0 0
0 0 0
0 0 0
0 0 0
0 0 0
0 0 0
0 0 0
0 0 0
0 0 0
0 0 0
0 0 0
0 0 0
0 0 0
0 0 0
0 0 0
0 0 0
0 0 0
0 0 0
0 0 0
0 0 0
0 0 0
0 0 0
0 0 0
0 0 0
0 0 0
0 0 0
0 0 0
0 0 0
0 0 0
0 0 0
0 0 0
0 0 0
0 0 0
0 0 0
0 0 0
0 0 0
0 0 0
0 0 0
0 0 0
0 0 0
0 0 0
0 0 0
0 0 0
0 0 0
0 0 0
0 0 0
0 0 0
0 0 0
0 0 0
0 0 0
0 0 0
0 0 0
0 0 0
0 0 0
0 0 0
0 0 0
0 0 0
0 0 0
0 0 0
0 0 0
0 0 0
0 0 0
0 0 0
0 0 0
0 0 0
0 0 0
0 0 0
0 0 0
0 0 0
0 0 0
0 0 0
0 0 0
0 0 0
0 0 0
0 0 0
0 0 0
0 0 0
0 0 0
0 0 0
135 135 135
255 255 255
255 255 255
255 255 255
255 255 255
255 255 255
255 255 255
255 255 255
255 255 255
255 255 255
255 255 255
255 255 255
255 255 255
255 255 255
255 255 255
255 255 255
255 255 255
255 255 255
255 255 255
255 255 255
255 255 255
255 255 255
255 255 255
255 255 255
255 255 255
255 255 255
255 255 255
255 255 255
255 255 255
255 255 255
255 255 255
255 255 255
255 255 255
255 255 255
255 255 255
255 255 255
255 255 255
255 255 255
255 255 255
255 255 255
255 255 255
255 255 255
255 255 255
255 255 255
255 255 255
255 255 255
255 255 255
255 255 255
255 255 255
255 255 255
255 255 255
255 255 255
255 255 255
255 255 255
255 255 255
255 255 255
255 255 255
255 255 255
255 255 255
255 255 255
255 255 255
255 255 255
255 255 255
255 255 255
255 255 255
255 255 255
255 255 255
255 255 255
255 255 255
153 153 153
0 0 0
0 0 0
0 0 0
0 0 0
0 0 0
0 0 0
0 0 0
0 0 0
0 0 0
0 0 0
0 0 0
0 0 0
0 0 0
0 0 0
0 0 0
0 0 0
0 0 0
0 0 0
0 0 0
0 0 0
0 0 0
0 0 0
0 0 0
0 0 0
0 0 0
0 0 0
0 0 0
0 0 0
0 0 0
0 0 0
0 0 0
0 0 0
0 0 0
0 0 0
0 0 0
0 0 0
0 0 0
0 0 0
0 0 0
0 0 0
0 0 0
0 0 0
0 0 0
0 0 0
0 0 0
0 0 0
0 0 0
0 0 0
0 0 0
0 0 0
0 0 0
0 0 0
0 0 0
0 0 0
0 0 0
0 0 0
0 0 0
0 0 0
0 0 0
0 0 0
0 0 0
0 0 0
0 0 0
0 0 0
0 0 0
0 0 0
0 0 0
0 0 0
0 0 0
0 0 0
0 0 0
0 0 0
0 0 0
0 0 0
0 0 0
0 0 0
0 0 0
0 0 0
0 0 0
0 0 0
0 0 0
0 0 0
0 0 0
0 0 0
0 0 0
0 0 0
0 0 0
0 0 0
0 0 0
0 0 0
0 0 0
0 0 0
0 0 0
0 0 0
0 0 0
0 0 0
0 0 0
0 0 0
0 0 0
0 0 0
0 0 0
0 0 0
0 0 0
0 0 0
0 0 0
0 0 0
0 0 0
0 0 0
0 0 0
0 0 0
0 0 0
0 0 0
0 0 0
0 0 0
0 0 0
0 0 0
0 0 0
0 0 0
0 0 0
0 0 0
0 0 0
0 0 0
0 0 0
0 0 0
0 0 0
0 0 0
0 0 0
0 0 0
0 0 0
0 0 0
0 0 0
0 0 0
0 0 0
0 0 0
0 0 0
0 0 0
0 0 0
0 0 0
0 0 0
0 0 0
0 0 0
0 0 0
0 0 0
0 0 0
0 0 0
0 0 0
0 0 0
0 0 0
0 0 0
0 0 0
0 0 0
0 0 0
0 0 0
0 0 0
0 0 0
0 0 0
0 0 0
0 0 0
0 0 0
0 0 0
0 0 0
0 0 0
0 0 0
0 0 0
0 0 0
0 0 0
0 0 0
0 0 0
0 0 0
0 0 0
0 0 0
0 0 0
0 0 0
0 0 0
0 0 0
0 0 0
0 0 0
0 0 0
0 0 0
0 0 0
0 0 0
0 0 0
0 0 0
0 0 0
0 0 0
0 0 0
0 0 0
0 0 0
0 0 0
0 0 0
0 0 0
0 0 0
0 0 0
0 0 0
0 0 0
0 0 0
0 0 0
0 0 0
0 0 0
0 0 0
0 0 0
0 0 0
0 0 0
0 0 0
0 0 0
0 0 0
0 0 0
0 0 0
0 0 0
0 0 0
0 0 0
0 0 0
0 0 0
0 0 0
0 0 0
0 0 0
0 0 0
0 0 0
0 0 0
0 0 0
0 0 0
0 0 0
0 0 0
0 0 0
0 0 0
0 0 0
0 0 0
0 0 0
0 0 0
0 0 0
0 0 0
0 0 0
0 0 0
0 0 0
0 0 0
0 0 0
0 0 0
0 0 0
0 0 0
0 0 0
0 0 0
0 0 0
0 0 0
0 0 0
0 0 0
0 0 0
0 0 0
0 0 0
0 0 0
0 0 0
0 0 0
0 0 0
0 0 0
0 0 0
0 0 0
0 0 0
0 0 0
0 0 0
0 0 0
0 0 0
0 0 0
0 0 0
0 0 0
0 0 0
0 0 0
0 0 0
0 0 0
0 0 0
0 0 0
0 0 0
0 0 0
0 0 0
0 0 0
0 0 0
0 0 0
0 0 0
0 0 0
0 0 0
0 0 0
0 0 0
0 0 0
0 0 0
0 0 0
0 0 0
0 0 0
0 0 0
0 0 0
0 0 0
0 0 0
0 0 0
0 0 0
0 0 0
0 0 0
0 0 0
0 0 0
0 0 0
0 0 0
0 0 0
0 0 0
0 0 0
0 0 0
0 0 0
0 0 0
0 0 0
0 0 0
0 0 0
0 0 0
0 0 0
0 0 0
0 0 0
0 0 0
0 0 0
0 0 0
0 0 0
0 0 0
0 0 0
0 0 0
0 0 0
0 0 0
0 0 0
0 0 0
0 0 0
0 0 0
0 0 0
0 0 0
0 0 0
0 0 0
0 0 0
0 0 0
0 0 0
0 0 0
161 161 161
255 255 255
255 255 255
255 255 255
255 255 255
255 255 255
255 255 255
255 255 255
255 255 255
255 255 255
255 255 255
255 255 255
255 255 255
255 255 255
255 255 255
255 255 255
255 255 255
255 255 255
255 255 255
255 255 255
255 255 255
255 255 255
255 255 255
255 255 255
255 255 255
255 255 255
255 255 255
255 255 255
255 255 255
255 255 255
255 255 255
255 255 255
255 255 255
255 255 255
255 255 255
255 255 255
255 255 255
255 255 255
255 255 255
255 255 255
255 255 255
255 255 255
255 255 255
255 255 255
255 255 255
255 255 255
255 255 255
255 255 255
255 255 255
255 255 255
255 255 255
255 255 255
255 255 255
255 255 255
255 255 255
255 255 255
255 255 255
255 255 255
255 255 255
255 255 255
255 255 255
255 255 255
255 255 255
255 255 255
255 255 255
255 255 255
255 255 255
144 144 144
0 0 0
0 0 0
0 0 0
0 0 0
0 0 0
0 0 0
0 0 0
0 0 0
0 0 0
0 0 0
0 0 0
0 0 0
0 0 0
0 0 0
0 0 0
0 0 0
0 0 0
0 0 0
0 0 0
0 0 0
0 0 0
0 0 0
0 0 0
0 0 0
0 0 0
0 0 0
0 0 0
0 0 0
0 0 0
0 0 0
0 0 0
0 0 0
0 0 0
0 0 0
0 0 0
0 0 0
0 0 0
0 0 0
0 0 0
0 0 0
0 0 0
0 0 0
0 0 0
0 0 0
0 0 0
0 0 0
0 0 0
0 0 0
0 0 0
0 0 0
0 0 0
0 0 0
0 0 0
0 0 0
0 0 0
0 0 0
0 0 0
0 0 0
0 0 0
0 0 0
0 0 0
0 0 0
0 0 0
0 0 0
0 0 0
0 0 0
0 0 0
0 0 0
0 0 0
0 0 0
0 0 0
0 0 0
0 0 0
0 0 0
0 0 0
0 0 0
0 0 0
0 0 0
0 0 0
0 0 0
0 0 0
0 0 0
0 0 0
0 0 0
0 0 0
0 0 0
0 0 0
0 0 0
0 0 0
0 0 0
0 0 0
0 0 0
0 0 0
0 0 0
0 0 0
0 0 0
0 0 0
0 0 0
0 0 0
0 0 0
0 0 0
0 0 0
0 0 0
0 0 0
0 0 0
0 0 0
0 0 0
0 0 0
0 0 0
0 0 0
0 0 0
0 0 0
0 0 0
0 0 0
0 0 0
0 0 0
0 0 0
0 0 0
0 0 0
0 0 0
0 0 0
0 0 0
0 0 0
0 0 0
0 0 0
0 0 0
0 0 0
0 0 0
0 0 0
0 0 0
0 0 0
0 0 0
0 0 0
0 0 0
0 0 0
0 0 0
0 0 0
0 0 0
0 0 0
0 0 0
0 0 0
0 0 0
0 0 0
0 0 0
0 0 0
0 0 0
0 0 0
0 0 0
0 0 0
0 0 0
0 0 0
0 0 0
0 0 0
0 0 0
0 0 0
0 0 0
0 0 0
0 0 0
0 0 0
0 0 0
0 0 0
0 0 0
0 0 0
0 0 0
0 0 0
0 0 0
0 0 0
0 0 0
0 0 0
0 0 0
0 0 0
0 0 0
0 0 0
0 0 0
0 0 0
0 0 0
0 0 0
0 0 0
0 0 0
0 0 0
0 0 0
0 0 0
0 0 0
0 0 0
0 0 0
0 0 0
0 0 0
0 0 0
0 0 0
0 0 0
0 0 0
0 0 0
0 0 0
0 0 0
0 0 0
0 0 0
0 0 0
0 0 0
0 0 0
0 0 0
0 0 0
0 0 0
0 0 0
0 0 0
0 0 0
0 0 0
0 0 0
0 0 0
0 0 0
0 0 0
0 0 0
0 0 0
0 0 0
0 0 0
0 0 0
0 0 0
0 0 0
0 0 0
0 0 0
0 0 0
0 0 0
0 0 0
0 0 0
0 0 0
0 0 0
0 0 0
0 0 0
0 0 0
0 0 0
0 0 0
0 0 0
0 0 0
0 0 0
0 0 0
0 0 0
0 0 0
0 0 0
0 0 0
0 0 0
0 0 0
0 0 0
0 0 0
0 0 0
0 0 0
0 0 0
0 0 0
0 0 0
0 0 0
0 0 0
0 0 0
0 0 0
0 0 0
0 0 0
0 0 0
0 0 0
0 0 0
0 0 0
0 0 0
0 0 0
0 0 0
0 0 0
0 0 0
0 0 0
0 0 0
0 0 0
0 0 0
0 0 0
0 0 0
0 0 0
0 0 0
0 0 0
0 0 0
0 0 0
0 0 0
0 0 0
0 0 0
0 0 0
0 0 0
0 0 0
0 0 0
0 0 0
0 0 0
0 0 0
0 0 0
0 0 0
0 0 0
0 0 0
0 0 0
0 0 0
0 0 0
0 0 0
0 0 0
0 0 0
0 0 0
0 0 0
0 0 0
0 0 0
0 0 0
0 0 0
0 0 0
0 0 0
0 0 0
0 0 0
0 0 0
0 0 0
0 0 0
0 0 0
0 0 0
0 0 0
0 0 0
0 0 0
0 0 0
0 0 0
0 0 0
0 0 0
0 0 0
0 0 0
0 0 0
0 0 0
0 0 0
0 0 0
0 0 0
0 0 0
0 0 0
0 0 0
0 0 0
0 0 0
0 0 0
0 0 0
0 0 0
0 0 0
0 0 0
0 0 0
144 144 144
255 255 255
255 255 255
255 255 255
255 255 255
255 255 255
255 255 255
255 255 255
255 255 255
255 255 255
255 255 255
255 255 255
255 255 255
255 255 255
255 255 255
255 255 255
255 255 255
255 255 255
255 255 255
255 255 255
255 255 255
255 255 255
255 255 255
255 255 255
255 255 255
255 255 255
255 255 255
255 255 255
255 255 255
255 255 255
255 255 255
255 255 255
255 255 255
255 255 255
255 255 255
255 255 255
255 255 255
255 255 255
255 255 255
255 255 255
255 255 255
255 255 255
255 255 255
255 255 255
255 255 255
255 255 255
255 255 255
255 255 255
255 255 255
255 255 255
255 255 255
255 255 255
255 255 255
255 255 255
255 255 255
255 255 255
255 255 255
255 255 255
255 255 255
255 255 255
255 255 255
255 255 255
255 255 255
255 255 255
255 255 255
161 161 161
0 0 0
0 0 0
0 0 0
0 0 0
0 0 0
0 0 0
0 0 0
0 0 0
0 0 0
0 0 0
0 0 0
0 0 0
0 0 0
0 0 0
0 0 0
0 0 0
0 0 0
0 0 0
0 0 0
0 0 0
0 0 0
0 0 0
0 0 0
0 0 0
0 0 0
0 0 0
0 0 0
0 0 0
0 0 0
0 0 0
0 0 0
0 0 0
0 0 0
0 0 0
0 0 0
0 0 0
0 0 0
0 0 0
0 0 0
0 0 0
0 0 0
0 0 0
0 0 0
0 0 0
0 0 0
0 0 0
0 0 0
0 0 0
0 0 0
0 0 0
0 0 0
0 0 0
0 0 0
0 0 0
0 0 0
0 0 0
0 0 0
0 0 0
0 0 0
0 0 0
0 0 0
0 0 0
0 0 0
0 0 0
0 0 0
0 0 0
0 0 0
0 0 0
0 0 0
0 0 0
0 0 0
0 0 0
0 0 0
0 0 0
0 0 0
0 0 0
0 0 0
0 0 0
0 0 0
0 0 0
0 0 0
0 0 0
0 0 0
0 0 0
0 0 0
0 0 0
0 0 0
0 0 0
0 0 0
0 0 0
0 0 0
0 0 0
0 0 0
0 0 0
0 0 0
0 0 0
0 0 0
0 0 0
0 0 0
0 0 0
0 0 0
0 0 0
0 0 0
0 0 0
0 0 0
0 0 0
0 0 0
0 0 0
0 0 0
0 0 0
0 0 0
0 0 0
0 0 0
0 0 0
0 0 0
0 0 0
0 0 0
0 0 0
0 0 0
0 0 0
0 0 0
0 0 0
0 0 0
0 0 0
0 0 0
0 0 0
0 0 0
0 0 0
0 0 0
0 0 0
0 0 0
0 0 0
0 0 0
0 0 0
0 0 0
0 0 0
0 0 0
0 0 0
0 0 0
0 0 0
0 0 0
0 0 0
0 0 0
0 0 0
0 0 0
0 0 0
0 0 0
0 0 0
0 0 0
0 0 0
0 0 0
0 0 0
0 0 0
0 0 0
0 0 0
0 0 0
0 0 0
0 0 0
0 0 0
0 0 0
0 0 0
0 0 0
0 0 0
0 0 0
0 0 0
0 0 0
0 0 0
0 0 0
0 0 0
0 0 0
0 0 0
0 0 0
0 0 0
0 0 0
0 0 0
0 0 0
0 0 0
0 0 0
0 0 0
0 0 0
0 0 0
0 0 0
0 0 0
0 0 0
0 0 0
0 0 0
0 0 0
0 0 0
0 0 0
0 0 0
0 0 0
0 0 0
0 0 0
0 0 0
0 0 0
0 0 0
0 0 0
0 0 0
0 0 0
0 0 0
0 0 0
0 0 0
0 0 0
0 0 0
0 0 0
0 0 0
0 0 0
0 0 0
0 0 0
0 0 0
0 0 0
0 0 0
0 0 0
0 0 0
0 0 0
0 0 0
0 0 0
0 0 0
0 0 0
0 0 0
0 0 0
0 0 0
0 0 0
0 0 0
0 0 0
0 0 0
0 0 0
0 0 0
0 0 0
0 0 0
0 0 0
0 0 0
0 0 0
0 0 0
0 0 0
0 0 0
0 0 0
0 0 0
0 0 0
0 0 0
0 0 0
0 0 0
0 0 0
0 0 0
0 0 0
0 0 0
0 0 0
0 0 0
0 0 0
0 0 0
0 0 0
0 0 0
0 0 0
0 0 0
0 0 0
0 0 0
0 0 0
0 0 0
0 0 0
0 0 0
0 0 0
0 0 0
0 0 0
0 0 0
0 0 0
0 0 0
0 0 0
0 0 0
0 0 0
0 0 0
0 0 0
0 0 0
0 0 0
0 0 0
0 0 0
0 0 0
0 0 0
0 0 0
0 0 0
0 0 0
0 0 0
0 0 0
0 0 0
0 0 0
0 0 0
0 0 0
0 0 0
0 0 0
0 0 0
0 0 0
0 0 0
0 0 0
0 0 0
0 0 0
0 0 0
0 0 0
0 0 0
0 0 0
0 0 0
0 0 0
0 0 0
0 0 0
0 0 0
0 0 0
0 0 0
0 0 0
0 0 0
0 0 0
0 0 0
0 0 0
0 0 0
0 0 0
0 0 0
0 0 0
0 0 0
0 0 0
0 0 0
0 0 0
0 0 0
0 0 0
0 0 0
0 0 0
0 0 0
0 0 0
0 0 0
0 0 0
0 0 0
0 0 0
0 0 0
0 0 0
0 0 0
0 0 0
0 0 0
0 0 0
0 0 0
114 114 114
255 255 255
255 255 255
255 255 255
255 255 255
255 255 255
255 255 255
255 255 255
255 255 255
255 255 255
255 255 255
255 255 255
255 255 255
255 255 255
255 255 255
255 255 255
255 255 255
255 255 255
255 255 255
255 255 255
255 255 255
255 255 255
255 255 255
255 255 255
255 255 255
255 255 255
255 255 255
255 255 255
255 255 255
255 255 255
255 255 255
255 255 255
255 255 255
255 255 255
255 255 255
255 255 255
255 255 255
255 255 255
255 255 255
255 255 255
255 255 255
255 255 255
255 255 255
255 255 255
255 255 255
255 255 255
255 255 255
255 255 255
255 255 255
255 255 255
255 255 255
255 255 255
255 255 255
255 255 255
255 255 255
255 255 255
255 255 255
255 255 255
255 255 255
255 255 255
255 255 255
255 255 255
255 255 255
51 51 51
0 0 0
0 0 0
0 0 0
0 0 0
0 0 0
0 0 0
0 0 0
0 0 0
0 0 0
0 0 0
0 0 0
0 0 0
0 0 0
0 0 0
0 0 0
0 0 0
0 0 0
0 0 0
0 0 0
0 0 0
0 0 0
0 0 0
0 0 0
0 0 0
0 0 0
0 0 0
0 0 0
0 0 0
0 0 0
0 0 0
0 0 0
0 0 0
0 0 0
0 0 0
0 0 0
0 0 0
0 0 0
0 0 0
0 0 0
0 0 0
0 0 0
0 0 0
0 0 0
0 0 0
0 0 0
0 0 0
0 0 0
0 0 0
0 0 0
0 0 0
0 0 0
0 0 0
0 0 0
0 0 0
0 0 0
0 0 0
0 0 0
0 0 0
0 0 0
0 0 0
0 0 0
0 0 0
0 0 0
0 0 0
0 0 0
0 0 0
0 0 0
0 0 0
0 0 0
0 0 0
0 0 0
0 0 0
0 0 0
0 0 0
0 0 0
0 0 0
0 0 0
0 0 0
0 0 0
0 0 0
0 0 0
0 0 0
0 0 0
0 0 0
0 0 0
0 0 0
0 0 0
0 0 0
0 0 0
0 0 0
0 0 0
0 0 0
0 0 0
0 0 0
0 0 0
0 0 0
0 0 0
0 0 0
0 0 0
0 0 0
0 0 0
0 0 0
0 0 0
0 0 0
0 0 0
0 0 0
0 0 0
0 0 0
0 0 0
0 0 0
0 0 0
0 0 0
0 0 0
0 0 0
0 0 0
0 0 0
0 0 0
0 0 0
0 0 0
0 0 0
0 0 0
0 0 0
0 0 0
0 0 0
0 0 0
0 0 0
0 0 0
0 0 0
0 0 0
0 0 0
0 0 0
0 0 0
0 0 0
0 0 0
0 0 0
0 0 0
0 0 0
0 0 0
0 0 0
0 0 0
0 0 0
0 0 0
0 0 0
0 0 0
0 0 0
0 0 0
0 0 0
0 0 0
0 0 0
0 0 0
0 0 0
0 0 0
0 0 0
0 0 0
0 0 0
0 0 0
0 0 0
0 0 0
0 0 0
0 0 0
0 0 0
0 0 0
0 0 0
0 0 0
0 0 0
0 0 0
0 0 0
0 0 0
0 0 0
0 0 0
0 0 0
0 0 0
0 0 0
0 0 0
0 0 0
0 0 0
0 0 0
0 0 0
0 0 0
0 0 0
0 0 0
0 0 0
0 0 0
0 0 0
0 0 0
0 0 0
0 0 0
0 0 0
0 0 0
0 0 0
0 0 0
0 0 0
0 0 0
0 0 0
0 0 0
0 0 0
0 0 0
0 0 0
0 0 0
0 0 0
0 0 0
0 0 0
0 0 0
0 0 0
0 0 0
0 0 0
0 0 0
0 0 0
0 0 0
0 0 0
0 0 0
0 0 0
0 0 0
0 0 0
0 0 0
0 0 0
0 0 0
0 0 0
0 0 0
0 0 0
0 0 0
0 0 0
0 0 0
0 0 0
0 0 0
0 0 0
0 0 0
0 0 0
0 0 0
0 0 0
0 0 0
0 0 0
0 0 0
0 0 0
0 0 0
0 0 0
0 0 0
0 0 0
0 0 0
0 0 0
0 0 0
0 0 0
0 0 0
0 0 0
0 0 0
0 0 0
0 0 0
0 0 0
0 0 0
0 0 0
0 0 0
0 0 0
0 0 0
0 0 0
0 0 0
0 0 0
0 0 0
0 0 0
0 0 0
0 0 0
0 0 0
0 0 0
0 0 0
0 0 0
0 0 0
0 0 0
0 0 0
0 0 0
0 0 0
0 0 0
0 0 0
0 0 0
0 0 0
0 0 0
0 0 0
0 0 0
0 0 0
0 0 0
0 0 0
0 0 0
0 0 0
0 0 0
0 0 0
0 0 0
0 0 0
0 0 0
0 0 0
0 0 0
0 0 0
0 0 0
0 0 0
0 0 0
0 0 0
0 0 0
0 0 0
0 0 0
0 0 0
0 0 0
0 0 0
0 0 0
0 0 0
0 0 0
0 0 0
0 0 0
0 0 0
0 0 0
0 0 0
0 0 0
0 0 0
0 0 0
0 0 0
0 0 0
0 0 0
0 0 0
0 0 0
0 0 0
0 0 0
0 0 0
0 0 0
0 0 0
0 0 0
0 0 0
0 0 0
0 0 0
0 0 0
0 0 0
0 0 0
0 0 0
0 0 0
0 0 0
0 0 0
0 0 0
0 0 0
0 0 0
0 0 0
0 0 0
0 0 0
0 0 0
255 255 255
255 255 255
255 255 255
255 255 255
255 255 255
255 255 255
255 255 255
255 255 255
255 255 255
255 255 255
255 255 255
255 255 255
255 255 255
255 255 255
255 255 255
255 255 255
255 255 255
255 255 255
255 255 255
255 255 255
255 255 255
255 255 255
255 255 255
255 255 255
255 255 255
255 255 255
255 255 255
255 255 255
255 255 255
255 255 255
255 255 255
255 255 255
255 255 255
255 255 255
255 255 255
255 255 255
255 255 255
255 255 255
255 255 255
255 255 255
255 255 255
255 255 255
255 255 255
255 255 255
255 255 255
255 255 255
255 255 255
255 255 255
255 255 255
255 255 255
255 255 255
255 255 255
255 255 255
255 255 255
255 255 255
255 255 255
255 255 255
255 255 255
255 255 255
255 255 255
0 0 0
0 0 0
0 0 0
0 0 0
0 0 0
0 0 0
0 0 0
0 0 0
0 0 0
0 0 0
0 0 0
0 0 0
0 0 0
0 0 0
0 0 0
0 0 0
0 0 0
0 0 0
0 0 0
0 0 0
0 0 0
0 0 0
0 0 0
0 0 0
0 0 0
0 0 0
0 0 0
0 0 0
0 0 0
0 0 0
0 0 0
0 0 0
0 0 0
0 0 0
0 0 0
0 0 0
0 0 0
0 0 0
0 0 0
0 0 0
0 0 0
0 0 0
0 0 0
0 0 0
0 0 0
0 0 0
0 0 0
0 0 0
0 0 0
0 0 0
0 0 0
0 0 0
0 0 0
0 0 0
0 0 0
0 0 0
0 0 0
0 0 0
0 0 0
0 0 0
0 0 0
0 0 0
0 0 0
0 0 0
0 0 0
0 0 0
0 0 0
0 0 0
0 0 0
0 0 0
0 0 0
0 0 0
0 0 0
0 0 0
0 0 0
0 0 0
0 0 0
0 0 0
0 0 0
0 0 0
0 0 0
0 0 0
0 0 0
0 0 0
0 0 0
0 0 0
0 0 0
0 0 0
0 0 0
0 0 0
0 0 0
0 0 0
0 0 0
0 0 0
0 0 0
0 0 0
0 0 0
0 0 0
0 0 0
0 0 0
0 0 0
0 0 0
0 0 0
0 0 0
0 0 0
0 0 0
0 0 0
0 0 0
0 0 0
0 0 0
0 0 0
0 0 0
0 0 0
0 0 0
0 0 0
0 0 0
0 0 0
0 0 0
0 0 0
0 0 0
0 0 0
0 0 0
0 0 0
0 0 0
0 0 0
0 0 0
0 0 0
0 0 0
0 0 0
0 0 0
0 0 0
0 0 0
0 0 0
0 0 0
0 0 0
0 0 0
0 0 0
0 0 0
0 0 0
0 0 0
0 0 0
0 0 0
0 0 0
0 0 0
0 0 0
0 0 0
0 0 0
0 0 0
0 0 0
0 0 0
0 0 0
0 0 0
0 0 0
0 0 0
0 0 0
0 0 0
0 0 0
0 0 0
0 0 0
0 0 0
0 0 0
0 0 0
0 0 0
0 0 0
0 0 0
0 0 0
0 0 0
0 0 0
0 0 0
0 0 0
0 0 0
0 0 0
0 0 0
0 0 0
0 0 0
0 0 0
0 0 0
0 0 0
0 0 0
0 0 0
0 0 0
0 0 0
0 0 0
0 0 0
0 0 0
0 0 0
0 0 0
0 0 0
0 0 0
0 0 0
0 0 0
0 0 0
0 0 0
0 0 0
0 0 0
0 0 0
0 0 0
0 0 0
0 0 0
0 0 0
0 0 0
0 0 0
0 0 0
0 0 0
0 0 0
0 0 0
0 0 0
0 0 0
0 0 0
0 0 0
0 0 0
0 0 0
0 0 0
0 0 0
0 0 0
0 0 0
0 0 0
0 0 0
0 0 0
0 0 0
0 0 0
0 0 0
0 0 0
0 0 0
0 0 0
0 0 0
0 0 0
0 0 0
0 0 0
0 0 0
0 0 0
0 0 0
0 0 0
0 0 0
0 0 0
0 0 0
0 0 0
0 0 0
0 0 0
0 0 0
0 0 0
0 0 0
0 0 0
0 0 0
0 0 0
0 0 0
0 0 0
0 0 0
0 0 0
0 0 0
0 0 0
0 0 0
0 0 0
0 0 0
0 0 0
0 0 0
0 0 0
0 0 0
0 0 0
0 0 0
0 0 0
0 0 0
0 0 0
0 0 0
0 0 0
0 0 0
0 0 0
0 0 0
0 0 0
0 0 0
0 0 0
0 0 0
0 0 0
0 0 0
0 0 0
0 0 0
0 0 0
0 0 0
0 0 0
0 0 0
0 0 0
0 0 0
0 0 0
0 0 0
0 0 0
0 0 0
0 0 0
0 0 0
0 0 0
0 0 0
0 0 0
0 0 0
0 0 0
0 0 0
0 0 0
0 0 0
0 0 0
0 0 0
0 0 0
0 0 0
0 0 0
0 0 0
0 0 0
0 0 0
0 0 0
0 0 0
0 0 0
0 0 0
0 0 0
0 0 0
0 0 0
0 0 0
0 0 0
0 0 0
0 0 0
0 0 0
0 0 0
0 0 0
0 0 0
0 0 0
0 0 0
0 0 0
0 0 0
0 0 0
0 0 0
0 0 0
0 0 0
0 0 0
0 0 0
0 0 0
0 0 0
0 0 0
0 0 0
0 0 0
0 0 0
0 0 0
0 0 0
0 0 0
0 0 0
0 0 0
0 0 0
255 255 255
255 255 255
255 255 255
255 255 255
255 255 255
255 255 255
255 255 255
255 255 255
255 255 255
255 255 255
255 255 255
255 255 255
255 255 255
255 255 255
255 255 255
255 255 255
255 255 255
255 255 255
255 255 255
255 255 255
255 255 255
255 255 255
255 255 255
255 255 255
255 255 255
255 255 255
255 255 255
255 255 255
255 255 255
255 255 255
255 255 255
255 255 255
255 255 255
255 255 255
255 255 255
255 255 255
255 255 255
255 255 255
255 255 255
255 255 255
255 255 255
255 255 255
255 255 255
255 255 255
255 255 255
255 255 255
255 255 255
255 255 255
255 255 255
255 255 255
255 255 255
255 255 255
255 255 255
255 255 255
255 255 255
255 255 255
255 255 255
223 223 223
0 0 0
0 0 0
0 0 0
0 0 0
0 0 0
0 0 0
0 0 0
0 0 0
0 0 0
0 0 0
0 0 0
0 0 0
0 0 0
0 0 0
0 0 0
0 0 0
0 0 0
0 0 0
0 0 0
0 0 0
0 0 0
0 0 0
0 0 0
0 0 0
0 0 0
0 0 0
0 0 0
0 0 0
0 0 0
0 0 0
0 0 0
0 0 0
0 0 0
0 0 0
0 0 0
0 0 0
0 0 0
0 0 0
0 0 0
0 0 0
0 0 0
0 0 0
0 0 0
0 0 0
0 0 0
0 0 0
0 0 0
0 0 0
0 0 0
0 0 0
0 0 0
0 0 0
0 0 0
0 0 0
0 0 0
0 0 0
0 0 0
0 0 0
0 0 0
0 0 0
0 0 0
0 0 0
0 0 0
0 0 0
0 0 0
0 0 0
0 0 0
0 0 0
0 0 0
0 0 0
0 0 0
0 0 0
0 0 0
0 0 0
0 0 0
0 0 0
0 0 0
0 0 0
0 0 0
0 0 0
0 0 0
0 0 0
0 0 0
0 0 0
0 0 0
0 0 0
0 0 0
0 0 0
0 0 0
0 0 0
0 0 0
0 0 0
0 0 0
0 0 0
0 0 0
0 0 0
0 0 0
0 0 0
0 0 0
0 0 0
0 0 0
0 0 0
0 0 0
0 0 0
0 0 0
0 0 0
0 0 0
0 0 0
0 0 0
0 0 0
0 0 0
0 0 0
0 0 0
0 0 0
0 0 0
0 0 0
0 0 0
0 0 0
0 0 0
0 0 0
0 0 0
0 0 0
0 0 0
0 0 0
0 0 0
0 0 0
0 0 0
0 0 0
0 0 0
0 0 0
0 0 0
0 0 0
0 0 0
0 0 0
0 0 0
0 0 0
0 0 0
0 0 0
0 0 0
0 0 0
0 0 0
0 0 0
0 0 0
0 0 0
0 0 0
0 0 0
0 0 0
0 0 0
0 0 0
0 0 0
0 0 0
0 0 0
0 0 0
0 0 0
0 0 0
0 0 0
0 0 0
0 0 0
0 0 0
0 0 0
0 0 0
0 0 0
0 0 0
0 0 0
0 0 0
0 0 0
0 0 0
0 0 0
0 0 0
0 0 0
0 0 0
0 0 0
0 0 0
0 0 0
0 0 0
0 0 0
0 0 0
0 0 0
0 0 0
0 0 0
0 0 0
0 0 0
0 0 0
0 0 0
0 0 0
0 0 0
0 0 0
0 0 0
0 0 0
0 0 0
0 0 0
0 0 0
0 0 0
0 0 0
0 0 0
0 0 0
0 0 0
0 0 0
0 0 0
0 0 0
0 0 0
0 0 0
0 0 0
0 0 0
0 0 0
0 0 0
0 0 0
0 0 0
0 0 0
0 0 0
0 0 0
0 0 0
0 0 0
0 0 0
0 0 0
0 0 0
0 0 0
0 0 0
0 0 0
0 0 0
0 0 0
0 0 0
0 0 0
0 0 0
0 0 0
0 0 0
0 0 0
0 0 0
0 0 0
0 0 0
0 0 0
0 0 0
0 0 0
0 0 0
0 0 0
0 0 0
0 0 0
0 0 0
0 0 0
0 0 0
0 0 0
0 0 0
0 0 0
0 0 0
0 0 0
0 0 0
0 0 0
0 0 0
0 0 0
0 0 0
0 0 0
0 0 0
0 0 0
0 0 0
0 0 0
0 0 0
0 0 0
0 0 0
0 0 0
0 0 0
0 0 0
0 0 0
0 0 0
0 0 0
0 0 0
0 0 0
0 0 0
0 0 0
0 0 0
0 0 0
0 0 0
0 0 0
0 0 0
0 0 0
0 0 0
0 0 0
0 0 0
0 0 0
0 0 0
0 0 0
0 0 0
0 0 0
0 0 0
0 0 0
0 0 0
0 0 0
0 0 0
0 0 0
0 0 0
0 0 0
0 0 0
0 0 0
0 0 0
0 0 0
0 0 0
0 0 0
0 0 0
0 0 0
0 0 0
0 0 0
0 0 0
0 0 0
0 0 0
0 0 0
0 0 0
0 0 0
0 0 0
0 0 0
0 0 0
0 0 0
0 0 0
0 0 0
0 0 0
0 0 0
0 0 0
0 0 0
0 0 0
0 0 0
0 0 0
0 0 0
0 0 0
0 0 0
0 0 0
0 0 0
0 0 0
0 0 0
0 0 0
0 0 0
0 0 0
0 0 0
0 0 0
0 0 0
0 0 0
0 0 0
0 0 0
0 0 0
0 0 0
0 0 0
0 0 0
0 0 0
0 0 0
0 0 0
0 0 0
114 114 114
255 255 255
255 255 255
255 255 255
255 255 255
255 255 255
255 255 255
255 255 255
255 255 255
255 255 255
255 255 255
255 255 255
255 255 255
255 255 255
255 255 255
255 255 255
255 255 255
255 255 255
255 255 255
255 255 255
255 255 255
255 255 255
255 255 255
255 255 255
255 255 255
255 255 255
255 255 255
255 255 255
255 255 255
255 255 255
255 255 255
255 255 255
255 255 255
255 255 255
255 255 255
255 255 255
255 255 255
255 255 255
255 255 255
255 255 255
255 255 255
255 255 255
255 255 255
255 255 255
255 255 255
255 255 255
255 255 255
255 255 255
255 255 255
255 255 255
255 255 255
255 255 255
255 255 255
255 255 255
255 255 255
135 135 135
0 0 0
0 0 0
0 0 0
0 0 0
0 0 0
0 0 0
0 0 0
0 0 0
0 0 0
0 0 0
0 0 0
0 0 0
0 0 0
0 0 0
0 0 0
0 0 0
0 0 0
0 0 0
0 0 0
0 0 0
0 0 0
0 0 0
0 0 0
0 0 0
0 0 0
0 0 0
0 0 0
0 0 0
0 0 0
0 0 0
0 0 0
0 0 0
0 0 0
0 0 0
0 0 0
0 0 0
0 0 0
0 0 0
0 0 0
0 0 0
0 0 0
0 0 0
0 0 0
0 0 0
0 0 0
0 0 0
0 0 0
0 0 0
0 0 0
0 0 0
0 0 0
0 0 0
0 0 0
0 0 0
0 0 0
0 0 0
0 0 0
0 0 0
0 0 0
0 0 0
0 0 0
0 0 0
0 0 0
0 0 0
0 0 0
0 0 0
0 0 0
0 0 0
0 0 0
0 0 0
0 0 0
0 0 0
0 0 0
0 0 0
0 0 0
0 0 0
0 0 0
0 0 0
0 0 0
0 0 0
0 0 0
0 0 0
0 0 0
0 0 0
0 0 0
0 0 0
0 0 0
0 0 0
0 0 0
0 0 0
0 0 0
0 0 0
0 0 0
0 0 0
0 0 0
0 0 0
0 0 0
0 0 0
0 0 0
0 0 0
0 0 0
0 0 0
0 0 0
0 0 0
0 0 0
0 0 0
0 0 0
0 0 0
0 0 0
0 0 0
0 0 0
0 0 0
0 0 0
0 0 0
0 0 0
0 0 0
0 0 0
0 0 0
0 0 0
0 0 0
0 0 0
0 0 0
0 0 0
0 0 0
0 0 0
0 0 0
0 0 0
0 0 0
0 0 0
0 0 0
0 0 0
0 0 0
0 0 0
0 0 0
0 0 0
0 0 0
0 0 0
0 0 0
0 0 0
0 0 0
0 0 0
0 0 0
0 0 0
0 0 0
0 0 0
0 0 0
0 0 0
0 0 0
0 0 0
0 0 0
0 0 0
0 0 0
0 0 0
0 0 0
0 0 0
0 0 0
0 0 0
0 0 0
0 0 0
0 0 0
0 0 0
0 0 0
0 0 0
0 0 0
0 0 0
0 0 0
0 0 0
0 0 0
0 0 0
0 0 0
0 0 0
0 0 0
0 0 0
0 0 0
0 0 0
0 0 0
0 0 0
0 0 0
0 0 0
0 0 0
0 0 0
0 0 0
0 0 0
0 0 0
0 0 0
0 0 0
0 0 0
0 0 0
0 0 0
0 0 0
0 0 0
0 0 0
0 0 0
0 0 0
0 0 0
0 0 0
0 0 0
0 0 0
0 0 0
0 0 0
0 0 0
0 0 0
0 0 0
0 0 0
0 0 0
0 0 0
0 0 0
0 0 0
0 0 0
0 0 0
0 0 0
0 0 0
0 0 0
0 0 0
0 0 0
0 0 0
0 0 0
0 0 0
0 0 0
0 0 0
0 0 0
0 0 0
0 0 0
0 0 0
0 0 0
0 0 0
0 0 0
0 0 0
0 0 0
0 0 0
0 0 0
0 0 0
0 0 0
0 0 0
0 0 0
0 0 0
0 0 0
0 0 0
0 0 0
0 0 0
0 0 0
0 0 0
0 0 0
0 0 0
0 0 0
0 0 0
0 0 0
0 0 0
0 0 0
0 0 0
0 0 0
0 0 0
0 0 0
0 0 0
0 0 0
0 0 0
0 0 0
0 0 0
0 0 0
0 0 0
0 0 0
0 0 0
0 0 0
0 0 0
0 0 0
0 0 0
0 0 0
0 0 0
0 0 0
0 0 0
0 0 0
0 0 0
0 0 0
0 0 0
0 0 0
0 0 0
0 0 0
0 0 0
0 0 0
0 0 0
0 0 0
0 0 0
0 0 0
0 0 0
0 0 0
0 0 0
0 0 0
0 0 0
0 0 0
0 0 0
0 0 0
0 0 0
0 0 0
0 0 0
0 0 0
0 0 0
0 0 0
0 0 0
0 0 0
0 0 0
0 0 0
0 0 0
0 0 0
0 0 0
0 0 0
0 0 0
0 0 0
0 0 0
0 0 0
0 0 0
0 0 0
0 0 0
0 0 0
0 0 0
0 0 0
0 0 0
0 0 0
0 0 0
0 0 0
0 0 0
0 0 0
0 0 0
0 0 0
0 0 0
0 0 0
0 0 0
0 0 0
0 0 0
0 0 0
0 0 0
0 0 0
0 0 0
0 0 0
0 0 0
0 0 0
0 0 0
0 0 0
0 0 0
0 0 0
0 0 0
0 0 0
0 0 0
0 0 0
0 0 0
0 0 0
0 0 0
255 255 255
255 255 255
255 255 255
255 255 255
255 255 255
255 255 255
255 255 255
255 255 255
255 255 255
255 255 255
255 255 255
255 255 255
255 255 255
255 255 255
255 255 255
255 255 255
255 255 255
255 255 255
255 255 255
255 255 255
255 255 255
255 255 255
255 255 255
255 255 255
255 255 255
255 255 255
255 255 255
255 255 255
255 255 255
255 255 255
255 255 255
255 255 255
255 255 255
255 255 255
255 255 255
255 255 255
255 255 255
255 255 255
255 255 255
255 255 255
255 255 255
255 255 255
255 255 255
255 255 255
255 255 255
255 255 255
255 255 255
255 255 255
255 255 255
255 255 255
255 255 255
255 255 255
0 0 0
0 0 0
0 0 0
0 0 0
0 0 0
0 0 0
0 0 0
0 0 0
0 0 0
0 0 0
0 0 0
0 0 0
0 0 0
0 0 0
0 0 0
0 0 0
0 0 0
0 0 0
0 0 0
0 0 0
0 0 0
0 0 0
0 0 0
0 0 0
0 0 0
0 0 0
0 0 0
0 0 0
0 0 0
0 0 0
0 0 0
0 0 0
0 0 0
0 0 0
0 0 0
0 0 0
0 0 0
0 0 0
0 0 0
0 0 0
0 0 0
0 0 0
0 0 0
0 0 0
0 0 0
0 0 0
0 0 0
0 0 0
0 0 0
0 0 0
0 0 0
0 0 0
0 0 0
0 0 0
0 0 0
0 0 0
0 0 0
0 0 0
0 0 0
0 0 0
0 0 0
0 0 0
0 0 0
0 0 0
0 0 0
0 0 0
0 0 0
0 0 0
0 0 0
0 0 0
0 0 0
0 0 0
0 0 0
0 0 0
0 0 0
0 0 0
0 0 0
0 0 0
0 0 0
0 0 0
0 0 0
0 0 0
0 0 0
0 0 0
0 0 0
0 0 0
0 0 0
0 0 0
0 0 0
0 0 0
0 0 0
0 0 0
0 0 0
0 0 0
0 0 0
0 0 0
0 0 0
0 0 0
0 0 0
0 0 0
0 0 0
0 0 0
0 0 0
0 0 0
0 0 0
0 0 0
0 0 0
0 0 0
0 0 0
0 0 0
0 0 0
0 0 0
0 0 0
0 0 0
0 0 0
0 0 0
0 0 0
0 0 0
0 0 0
0 0 0
0 0 0
0 0 0
0 0 0
0 0 0
0 0 0
0 0 0
0 0 0
0 0 0
0 0 0
0 0 0
0 0 0
0 0 0
0 0 0
0 0 0
0 0 0
0 0 0
0 0 0
0 0 0
0 0 0
0 0 0
0 0 0
0 0 0
0 0 0
0 0 0
0 0 0
0 0 0
0 0 0
0 0 0
0 0 0
0 0 0
0 0 0
0 0 0
0 0 0
0 0 0
0 0 0
0 0 0
0 0 0
0 0 0
0 0 0
0 0 0
0 0 0
0 0 0
0 0 0
0 0 0
0 0 0
0 0 0
0 0 0
0 0 0
0 0 0
0 0 0
0 0 0
0 0 0
0 0 0
0 0 0
0 0 0
0 0 0
0 0 0
0 0 0
0 0 0
0 0 0
0 0 0
0 0 0
0 0 0
0 0 0
0 0 0
0 0 0
0 0 0
0 0 0
0 0 0
0 0 0
0 0 0
0 0 0
0 0 0
0 0 0
0 0 0
0 0 0
0 0 0
0 0 0
0 0 0
0 0 0
0 0 0
0 0 0
0 0 0
0 0 0
0 0 0
0 0 0
0 0 0
0 0 0
0 0 0
0 0 0
0 0 0
0 0 0
0 0 0
0 0 0
0 0 0
0 0 0
0 0 0
0 0 0
0 0 0
0 0 0
0 0 0
0 0 0
0 0 0
0 0 0
0 0 0
0 0 0
0 0 0
0 0 0
0 0 0
0 0 0
0 0 0
0 0 0
0 0 0
0 0 0
0 0 0
0 0 0
0 0 0
0 0 0
0 0 0
0 0 0
0 0 0
0 0 0
0 0 0
0 0 0
0 0 0
0 0 0
0 0 0
0 0 0
0 0 0
0 0 0
0 0 0
0 0 0
0 0 0
0 0 0
0 0 0
0 0 0
0 0 0
0 0 0
0 0 0
0 0 0
0 0 0
0 0 0
0 0 0
0 0 0
0 0 0
0 0 0
0 0 0
0 0 0
0 0 0
0 0 0
0 0 0
0 0 0
0 0 0
0 0 0
0 0 0
0 0 0
0 0 0
0 0 0
0 0 0
0 0 0
0 0 0
0 0 0
0 0 0
0 0 0
0 0 0
0 0 0
0 0 0
0 0 0
0 0 0
0 0 0
0 0 0
0 0 0
0 0 0
0 0 0
0 0 0
0 0 0
0 0 0
0 0 0
0 0 0
0 0 0
0 0 0
0 0 0
0 0 0
0 0 0
0 0 0
0 0 0
0 0 0
0 0 0
0 0 0
0 0 0
0 0 0
0 0 0
0 0 0
0 0 0
0 0 0
0 0 0
0 0 0
0 0 0
0 0 0
0 0 0
0 0 0
0 0 0
0 0 0
0 0 0
0 0 0
0 0 0
0 0 0
0 0 0
0 0 0
0 0 0
0 0 0
0 0 0
0 0 0
0 0 0
0 0 0
0 0 0
0 0 0
0 0 0
0 0 0
0 0 0
0 0 0
0 0 0
0 0 0
0 0 0
0 0 0
0 0 0
0 0 0
0 0 0
0 0 0
125 125 125
255 255 255
255 255 255
255 255 255
255 255 255
255 255 255
255 255 255
255 255 255
255 255 255
255 255 255
255 255 255
255 255 255
255 255 255
255 255 255
255 255 255
255 255 255
255 255 255
255 255 255
255 255 255
255 255 255
255 255 255
255 255 255
255 255 255
255 255 255
255 255 255
255 255 255
255 255 255
255 255 255
255 255 255
255 255 255
255 255 255
255 255 255
255 255 255
255 255 255
255 255 255
255 255 255
255 255 255
255 255 255
255 255 255
255 255 255
255 255 255
255 255 255
255 255 255
255 255 255
255 255 255
255 255 255
255 255 255
255 255 255
255 255 255
72 72 72
0 0 0
0 0 0
0 0 0
0 0 0
0 0 0
0 0 0
0 0 0
0 0 0
0 0 0
0 0 0
0 0 0
0 0 0
0 0 0
0 0 0
0 0 0
0 0 0
0 0 0
0 0 0
0 0 0
0 0 0
0 0 0
0 0 0
0 0 0
0 0 0
0 0 0
0 0 0
0 0 0
0 0 0
0 0 0
0 0 0
0 0 0
0 0 0
0 0 0
0 0 0
0 0 0
0 0 0
0 0 0
0 0 0
0 0 0
0 0 0
0 0 0
0 0 0
0 0 0
0 0 0
0 0 0
0 0 0
0 0 0
0 0 0
0 0 0
0 0 0
0 0 0
0 0 0
0 0 0
0 0 0
0 0 0
0 0 0
0 0 0
0 0 0
0 0 0
0 0 0
0 0 0
0 0 0
0 0 0
0 0 0
0 0 0
0 0 0
0 0 0
0 0 0
0 0 0
0 0 0
0 0 0
0 0 0
0 0 0
0 0 0
0 0 0
0 0 0
0 0 0
0 0 0
0 0 0
0 0 0
0 0 0
0 0 0
0 0 0
0 0 0
0 0 0
0 0 0
0 0 0
0 0 0
0 0 0
0 0 0
0 0 0
0 0 0
0 0 0
0 0 0
0 0 0
0 0 0
0 0 0
0 0 0
0 0 0
0 0 0
0 0 0
0 0 0
0 0 0
0 0 0
0 0 0
0 0 0
0 0 0
0 0 0
0 0 0
0 0 0
0 0 0
0 0 0
0 0 0
0 0 0
0 0 0
0 0 0
0 0 0
0 0 0
0 0 0
0 0 0
0 0 0
0 0 0
0 0 0
0 0 0
0 0 0
0 0 0
0 0 0
0 0 0
0 0 0
0 0 0
0 0 0
0 0 0
0 0 0
0 0 0
0 0 0
0 0 0
0 0 0
0 0 0
0 0 0
0 0 0
0 0 0
0 0 0
0 0 0
0 0 0
0 0 0
0 0 0
0 0 0
0 0 0
0 0 0
0 0 0
0 0 0
0 0 0
0 0 0
0 0 0
0 0 0
0 0 0
0 0 0
0 0 0
0 0 0
0 0 0
0 0 0
0 0 0
0 0 0
0 0 0
0 0 0
0 0 0
0 0 0
0 0 0
0 0 0
0 0 0
0 0 0
0 0 0
0 0 0
0 0 0
0 0 0
0 0 0
0 0 0
0 0 0
0 0 0
0 0 0
0 0 0
0 0 0
0 0 0
0 0 0
0 0 0
0 0 0
0 0 0
0 0 0
0 0 0
0 0 0
0 0 0
0 0 0
0 0 0
0 0 0
0 0 0
0 0 0
0 0 0
0 0 0
0 0 0
0 0 0
0 0 0
0 0 0
0 0 0
0 0 0
0 0 0
0 0 0
0 0 0
0 0 0
0 0 0
0 0 0
0 0 0
0 0 0
0 0 0
0 0 0
0 0 0
0 0 0
0 0 0
0 0 0
0 0 0
0 0 0
0 0 0
0 0 0
0 0 0
0 0 0
0 0 0
0 0 0
0 0 0
0 0 0
0 0 0
0 0 0
0 0 0
0 0 0
0 0 0
0 0 0
0 0 0
0 0 0
0 0 0
0 0 0
0 0 0
0 0 0
0 0 0
0 0 0
0 0 0
0 0 0
0 0 0
0 0 0
0 0 0
0 0 0
0 0 0
0 0 0
0 0 0
0 0 0
0 0 0
0 0 0
0 0 0
0 0 0
0 0 0
0 0 0
0 0 0
0 0 0
0 0 0
0 0 0
0 0 0
0 0 0
0 0 0
0 0 0
0 0 0
0 0 0
0 0 0
0 0 0
0 0 0
0 0 0
0 0 0
0 0 0
0 0 0
0 0 0
0 0 0
0 0 0
0 0 0
0 0 0
0 0 0
0 0 0
0 0 0
0 0 0
0 0 0
0 0 0
0 0 0
0 0 0
0 0 0
0 0 0
0 0 0
0 0 0
0 0 0
0 0 0
0 0 0
0 0 0
0 0 0
0 0 0
0 0 0
0 0 0
0 0 0
0 0 0
0 0 0
0 0 0
0 0 0
0 0 0
0 0 0
0 0 0
0 0 0
0 0 0
0 0 0
0 0 0
0 0 0
0 0 0
0 0 0
0 0 0
0 0 0
0 0 0
0 0 0
0 0 0
0 0 0
0 0 0
0 0 0
0 0 0
0 0 0
0 0 0
0 0 0
0 0 0
0 0 0
0 0 0
0 0 0
0 0 0
0 0 0
0 0 0
0 0 0
0 0 0
0 0 0
0 0 0
0 0 0
0 0 0
0 0 0
0 0 0
0 0 0
0 0 0
0 0 0
0 0 0
0 0 0
0 0 0
0 0 0
0 0 0
0 0 0
0 0 0
114 114 114
255 255 255
255 255 255
255 255 255
255 255 255
255 255 255
255 255 255
255 255 255
255 255 255
255 255 255
255 255 255
255 255 255
255 255 255
255 255 255
255 255 255
255 255 255
255 255 255
255 255 255
255 255 255
255 255 255
255 255 255
255 255 255
255 255 255
255 255 255
255 255 255
255 255 255
255 255 255
255 255 255
255 255 255
255 255 255
255 255 255
255 255 255
255 255 255
255 255 255
255 255 255
255 255 255
255 255 255
255 255 255
255 255 255
255 255 255
255 255 255
255 255 255
255 255 255
255 255 255
255 255 255
144 144 144
0 0 0
0 0 0
0 0 0
0 0 0
0 0 0
0 0 0
0 0 0
0 0 0
0 0 0
0 0 0
0 0 0
0 0 0
0 0 0
0 0 0
0 0 0
0 0 0
0 0 0
0 0 0
0 0 0
0 0 0
0 0 0
0 0 0
0 0 0
0 0 0
0 0 0
0 0 0
0 0 0
0 0 0
0 0 0
0 0 0
0 0 0
0 0 0
0 0 0
0 0 0
0 0 0
0 0 0
0 0 0
0 0 0
0 0 0
0 0 0
0 0 0
0 0 0
0 0 0
0 0 0
0 0 0
0 0 0
0 0 0
0 0 0
0 0 0
0 0 0
0 0 0
0 0 0
0 0 0
0 0 0
0 0 0
0 0 0
0 0 0
0 0 0
0 0 0
0 0 0
0 0 0
0 0 0
0 0 0
0 0 0
0 0 0
0 0 0
0 0 0
0 0 0
0 0 0
0 0 0
0 0 0
0 0 0
0 0 0
0 0 0
0 0 0
0 0 0
0 0 0
0 0 0
0 0 0
0 0 0
0 0 0
0 0 0
0 0 0
0 0 0
0 0 0
0 0 0
0 0 0
0 0 0
0 0 0
0 0 0
0 0 0
0 0 0
0 0 0
0 0 0
0 0 0
0 0 0
0 0 0
0 0 0
0 0 0
0 0 0
0 0 0
0 0 0
0 0 0
0 0 0
0 0 0
0 0 0
0 0 0
0 0 0
0 0 0
0 0 0
0 0 0
0 0 0
0 0 0
0 0 0
0 0 0
0 0 0
0 0 0
0 0 0
0 0 0
0 0 0
0 0 0
0 0 0
0 0 0
0 0 0
0 0 0
0 0 0
0 0 0
0 0 0
0 0 0
0 0 0
0 0 0
0 0 0
0 0 0
0 0 0
0 0 0
0 0 0
0 0 0
0 0 0
0 0 0
0 0 0
0 0 0
0 0 0
0 0 0
0 0 0
0 0 0
0 0 0
0 0 0
0 0 0
0 0 0
0 0 0
0 0 0
0 0 0
0 0 0
0 0 0
0 0 0
0 0 0
0 0 0
0 0 0
0 0 0
0 0 0
0 0 0
0 0 0
0 0 0
0 0 0
0 0 0
0 0 0
0 0 0
0 0 0
0 0 0
0 0 0
0 0 0
0 0 0
0 0 0
0 0 0
0 0 0
0 0 0
0 0 0
0 0 0
0 0 0
0 0 0
0 0 0
0 0 0
0 0 0
0 0 0
0 0 0
0 0 0
0 0 0
0 0 0
0 0 0
0 0 0
0 0 0
0 0 0
0 0 0
0 0 0
0 0 0
0 0 0
0 0 0
0 0 0
0 0 0
0 0 0
0 0 0
0 0 0
0 0 0
0 0 0
0 0 0
0 0 0
0 0 0
0 0 0
0 0 0
0 0 0
0 0 0
0 0 0
0 0 0
0 0 0
0 0 0
0 0 0
0 0 0
0 0 0
0 0 0
0 0 0
0 0 0
0 0 0
0 0 0
0 0 0
0 0 0
0 0 0
0 0 0
0 0 0
0 0 0
0 0 0
0 0 0
0 0 0
0 0 0
0 0 0
0 0 0
0 0 0
0 0 0
0 0 0
0 0 0
0 0 0
0 0 0
0 0 0
0 0 0
0 0 0
0 0 0
0 0 0
0 0 0
0 0 0
0 0 0
0 0 0
0 0 0
0 0 0
0 0 0
0 0 0
0 0 0
0 0 0
0 0 0
0 0 0
0 0 0
0 0 0
0 0 0
0 0 0
0 0 0
0 0 0
0 0 0
0 0 0
0 0 0
0 0 0
0 0 0
0 0 0
0 0 0
0 0 0
0 0 0
0 0 0
0 0 0
0 0 0
0 0 0
0 0 0
0 0 0
0 0 0
0 0 0
0 0 0
0 0 0
0 0 0
0 0 0
0 0 0
0 0 0
0 0 0
0 0 0
0 0 0
0 0 0
0 0 0
0 0 0
0 0 0
0 0 0
0 0 0
0 0 0
0 0 0
0 0 0
0 0 0
0 0 0
0 0 0
0 0 0
0 0 0
0 0 0
0 0 0
0 0 0
0 0 0
0 0 0
0 0 0
0 0 0
0 0 0
0 0 0
0 0 0
0 0 0
0 0 0
0 0 0
0 0 0
0 0 0
0 0 0
0 0 0
0 0 0
0 0 0
0 0 0
0 0 0
0 0 0
0 0 0
0 0 0
0 0 0
0 0 0
0 0 0
0 0 0
0 0 0
0 0 0
0 0 0
0 0 0
0 0 0
0 0 0
0 0 0
0 0 0
0 0 0
0 0 0
0 0 0
0 0 0
0 0 0
0 0 0
0 0 0
0 0 0
0 0 0
0 0 0
0 0 0
0 0 0
0 0 0
0 0 0
0 0 0
0 0 0
153 153 153
255 255 255
255 255 255
255 255 255
255 255 255
255 255 255
255 255 255
255 255 255
255 255 255
255 255 255
255 255 255
255 255 255
255 255 255
255 255 255
255 255 255
255 255 255
255 255 255
255 255 255
255 255 255
255 255 255
255 255 255
255 255 255
255 255 255
255 255 255
255 255 255
255 255 255
255 255 255
255 255 255
255 255 255
255 255 255
255 255 255
255 255 255
255 255 255
255 255 255
255 255 255
255 255 255
255 255 255
255 255 255
255 255 255
255 255 255
255 255 255
161 161 161
0 0 0
0 0 0
0 0 0
0 0 0
0 0 0
0 0 0
0 0 0
0 0 0
0 0 0
0 0 0
0 0 0
0 0 0
0 0 0
0 0 0
0 0 0
0 0 0
0 0 0
0 0 0
0 0 0
0 0 0
0 0 0
0 0 0
0 0 0
0 0 0
0 0 0
0 0 0
0 0 0
0 0 0
0 0 0
0 0 0
0 0 0
0 0 0
0 0 0
0 0 0
0 0 0
0 0 0
0 0 0
0 0 0
0 0 0
0 0 0
0 0 0
0 0 0
0 0 0
0 0 0
0 0 0
0 0 0
0 0 0
0 0 0
0 0 0
0 0 0
0 0 0
0 0 0
0 0 0
0 0 0
0 0 0
0 0 0
0 0 0
0 0 0
0 0 0
0 0 0
0 0 0
0 0 0
0 0 0
0 0 0
0 0 0
0 0 0
0 0 0
0 0 0
0 0 0
0 0 0
0 0 0
0 0 0
0 0 0
0 0 0
0 0 0
0 0 0
0 0 0
0 0 0
0 0 0
0 0 0
0 0 0
0 0 0
0 0 0
0 0 0
0 0 0
0 0 0
0 0 0
0 0 0
0 0 0
0 0 0
0 0 0
0 0 0
0 0 0
0 0 0
0 0 0
0 0 0
0 0 0
0 0 0
0 0 0
0 0 0
0 0 0
0 0 0
0 0 0
0 0 0
0 0 0
0 0 0
0 0 0
0 0 0
0 0 0
0 0 0
0 0 0
0 0 0
0 0 0
0 0 0
0 0 0
0 0 0
0 0 0
0 0 0
0 0 0
0 0 0
0 0 0
0 0 0
0 0 0
0 0 0
0 0 0
0 0 0
0 0 0
0 0 0
0 0 0
0 0 0
0 0 0
0 0 0
0 0 0
0 0 0
0 0 0
0 0 0
0 0 0
0 0 0
0 0 0
0 0 0
0 0 0
0 0 0
0 0 0
0 0 0
0 0 0
0 0 0
0 0 0
0 0 0
0 0 0
0 0 0
0 0 0
0 0 0
0 0 0
0 0 0
0 0 0
0 0 0
0 0 0
0 0 0
0 0 0
0 0 0
0 0 0
0 0 0
0 0 0
0 0 0
0 0 0
0 0 0
0 0 0
0 0 0
0 0 0
0 0 0
0 0 0
0 0 0
0 0 0
0 0 0
0 0 0
0 0 0
0 0 0
0 0 0
0 0 0
0 0 0
0 0 0
0 0 0
0 0 0
0 0 0
0 0 0
0 0 0
0 0 0
0 0 0
0 0 0
0 0 0
0 0 0
0 0 0
0 0 0
0 0 0
0 0 0
0 0 0
0 0 0
0 0 0
0 0 0
0 0 0
0 0 0
0 0 0
0 0 0
0 0 0
0 0 0
0 0 0
0 0 0
0 0 0
0 0 0
0 0 0
0 0 0
0 0 0
0 0 0
0 0 0
0 0 0
0 0 0
0 0 0
0 0 0
0 0 0
0 0 0
0 0 0
0 0 0
0 0 0
0 0 0
0 0 0
0 0 0
0 0 0
0 0 0
0 0 0
0 0 0
0 0 0
0 0 0
0 0 0
0 0 0
0 0 0
0 0 0
0 0 0
0 0 0
0 0 0
0 0 0
0 0 0
0 0 0
0 0 0
0 0 0
0 0 0
0 0 0
0 0 0
0 0 0
0 0 0
0 0 0
0 0 0
0 0 0
0 0 0
0 0 0
0 0 0
0 0 0
0 0 0
0 0 0
0 0 0
0 0 0
0 0 0
0 0 0
0 0 0
0 0 0
0 0 0
0 0 0
0 0 0
0 0 0
0 0 0
0 0 0
0 0 0
0 0 0
0 0 0
0 0 0
0 0 0
0 0 0
0 0 0
0 0 0
0 0 0
0 0 0
0 0 0
0 0 0
0 0 0
0 0 0
0 0 0
0 0 0
0 0 0
0 0 0
0 0 0
0 0 0
0 0 0
0 0 0
0 0 0
0 0 0
0 0 0
0 0 0
0 0 0
0 0 0
0 0 0
0 0 0
0 0 0
0 0 0
0 0 0
0 0 0
0 0 0
0 0 0
0 0 0
0 0 0
0 0 0
0 0 0
0 0 0
0 0 0
0 0 0
0 0 0
0 0 0
0 0 0
0 0 0
0 0 0
0 0 0
0 0 0
0 0 0
0 0 0
0 0 0
0 0 0
0 0 0
0 0 0
0 0 0
0 0 0
0 0 0
0 0 0
0 0 0
0 0 0
0 0 0
0 0 0
0 0 0
0 0 0
0 0 0
0 0 0
0 0 0
0 0 0
0 0 0
0 0 0
0 0 0
0 0 0
0 0 0
0 0 0
0 0 0
0 0 0
0 0 0
0 0 0
0 0 0
0 0 0
0 0 0
0 0 0
0 0 0
0 0 0
0 0 0
0 0 0
0 0 0
0 0 0
51 51 51
255 255 255
255 255 255
255 255 255
255 255 255
255 255 255
255 255 255
255 255 255
255 255 255
255 255 255
255 255 255
255 255 255
255 255 255
255 255 255
255 255 255
255 255 255
255 255 255
255 255 255
255 255 255
255 255 255
255 255 255
255 255 255
255 255 255
255 255 255
255 255 255
255 255 255
255 255 255
255 255 255
255 255 255
255 255 255
255 255 255
255 255 255
255 255 255
255 255 255
255 255 255
255 255 255
255 255 255
88 88 88
0 0 0
0 0 0
0 0 0
0 0 0
0 0 0
0 0 0
0 0 0
0 0 0
0 0 0
0 0 0
0 0 0
0 0 0
0 0 0
0 0 0
0 0 0
0 0 0
0 0 0
0 0 0
0 0 0
0 0 0
0 0 0
0 0 0
0 0 0
0 0 0
0 0 0
0 0 0
0 0 0
0 0 0
0 0 0
0 0 0
0 0 0
0 0 0
0 0 0
0 0 0
0 0 0
0 0 0
0 0 0
0 0 0
0 0 0
0 0 0
0 0 0
0 0 0
0 0 0
0 0 0
0 0 0
0 0 0
0 0 0
0 0 0
0 0 0
0 0 0
0 0 0
0 0 0
0 0 0
0 0 0
0 0 0
0 0 0
0 0 0
0 0 0
0 0 0
0 0 0
0 0 0
0 0 0
0 0 0
0 0 0
0 0 0
0 0 0
0 0 0
0 0 0
0 0 0
0 0 0
0 0 0
0 0 0
0 0 0
0 0 0
0 0 0
0 0 0
0 0 0
0 0 0
0 0 0
0 0 0
0 0 0
0 0 0
0 0 0
0 0 0
0 0 0
0 0 0
0 0 0
0 0 0
0 0 0
0 0 0
0 0 0
0 0 0
0 0 0
0 0 0
0 0 0
0 0 0
0 0 0
0 0 0
0 0 0
0 0 0
0 0 0
0 0 0
0 0 0
0 0 0
0 0 0
0 0 0
0 0 0
0 0 0
0 0 0
0 0 0
0 0 0
0 0 0
0 0 0
0 0 0
0 0 0
0 0 0
0 0 0
0 0 0
0 0 0
0 0 0
0 0 0
0 0 0
0 0 0
0 0 0
0 0 0
0 0 0
0 0 0
0 0 0
0 0 0
0 0 0
0 0 0
0 0 0
0 0 0
0 0 0
0 0 0
0 0 0
0 0 0
0 0 0
0 0 0
0 0 0
0 0 0
0 0 0
0 0 0
0 0 0
0 0 0
0 0 0
0 0 0
0 0 0
0 0 0
0 0 0
0 0 0
0 0 0
0 0 0
0 0 0
0 0 0
0 0 0
0 0 0
0 0 0
0 0 0
0 0 0
0 0 0
0 0 0
0 0 0
0 0 0
0 0 0
0 0 0
0 0 0
0 0 0
0 0 0
0 0 0
0 0 0
0 0 0
0 0 0
0 0 0
0 0 0
0 0 0
0 0 0
0 0 0
0 0 0
0 0 0
0 0 0
0 0 0
0 0 0
0 0 0
0 0 0
0 0 0
0 0 0
0 0 0
0 0 0
0 0 0
0 0 0
0 0 0
0 0 0
0 0 0
0 0 0
0 0 0
0 0 0
0 0 0
0 0 0
0 0 0
0 0 0
0 0 0
0 0 0
0 0 0
0 0 0
0 0 0
0 0 0
0 0 0
0 0 0
0 0 0
0 0 0
0 0 0
0 0 0
0 0 0
0 0 0
0 0 0
0 0 0
0 0 0
0 0 0
0 0 0
0 0 0
0 0 0
0 0 0
0 0 0
0 0 0
0 0 0
0 0 0
0 0 0
0 0 0
0 0 0
0 0 0
0 0 0
0 0 0
0 0 0
0 0 0
0 0 0
0 0 0
0 0 0
0 0 0
0 0 0
0 0 0
0 0 0
0 0 0
0 0 0
0 0 0
0 0 0
0 0 0
0 0 0
0 0 0
0 0 0
0 0 0
0 0 0
0 0 0
0 0 0
0 0 0
0 0 0
0 0 0
0 0 0
0 0 0
0 0 0
0 0 0
0 0 0
0 0 0
0 0 0
0 0 0
0 0 0
0 0 0
0 0 0
0 0 0
0 0 0
0 0 0
0 0 0
0 0 0
0 0 0
0 0 0
0 0 0
0 0 0
0 0 0
0 0 0
0 0 0
0 0 0
0 0 0
0 0 0
0 0 0
0 0 0
0 0 0
0 0 0
0 0 0
0 0 0
0 0 0
0 0 0
0 0 0
0 0 0
0 0 0
0 0 0
0 0 0
0 0 0
0 0 0
0 0 0
0 0 0
0 0 0
0 0 0
0 0 0
0 0 0
0 0 0
0 0 0
0 0 0
0 0 0
0 0 0
0 0 0
0 0 0
0 0 0
0 0 0
0 0 0
0 0 0
0 0 0
0 0 0
0 0 0
0 0 0
0 0 0
0 0 0
0 0 0
0 0 0
0 0 0
0 0 0
0 0 0
0 0 0
0 0 0
0 0 0
0 0 0
0 0 0
0 0 0
0 0 0
0 0 0
0 0 0
0 0 0
0 0 0
0 0 0
0 0 0
0 0 0
0 0 0
0 0 0
0 0 0
0 0 0
0 0 0
0 0 0
0 0 0
0 0 0
0 0 0
0 0 0
0 0 0
0 0 0
0 0 0
0 0 0
0 0 0
0 0 0
0 0 0
0 0 0
0 0 0
0 0 0
0 0 0
0 0 0
0 0 0
0 0 0
0 0 0
144 144 144
255 255 255
255 255 255
255 255 255
255 255 255
255 255 255
255 255 255
255 255 255
255 255 255
255 255 255
255 255 255
255 255 255
255 255 255
255 255 255
255 255 255
255 255 255
255 255 255
255 255 255
255 255 255
255 255 255
255 255 255
255 255 255
255 255 255
255 255 255
255 255 255
255 255 255
255 255 255
255 255 255
255 255 255
255 255 255
255 255 255
135 135 135
0 0 0
0 0 0
0 0 0
0 0 0
0 0 0
0 0 0
0 0 0
0 0 0
0 0 0
0 0 0
0 0 0
0 0 0
0 0 0
0 0 0
0 0 0
0 0 0
0 0 0
0 0 0
0 0 0
0 0 0
0 0 0
0 0 0
0 0 0
0 0 0
0 0 0
0 0 0
0 0 0
0 0 0
0 0 0
0 0 0
0 0 0
0 0 0
0 0 0
0 0 0
0 0 0
0 0 0
0 0 0
0 0 0
0 0 0
0 0 0
0 0 0
0 0 0
0 0 0
0 0 0
0 0 0
0 0 0
0 0 0
0 0 0
0 0 0
0 0 0
0 0 0
0 0 0
0 0 0
0 0 0
0 0 0
0 0 0
0 0 0
0 0 0
0 0 0
0 0 0
0 0 0
0 0 0
0 0 0
0 0 0
0 0 0
0 0 0
0 0 0
0 0 0
0 0 0
0 0 0
0 0 0
0 0 0
0 0 0
0 0 0
0 0 0
0 0 0
0 0 0
0 0 0
0 0 0
0 0 0
0 0 0
0 0 0
0 0 0
0 0 0
0 0 0
0 0 0
0 0 0
0 0 0
0 0 0
0 0 0
0 0 0
0 0 0
0 0 0
0 0 0
0 0 0
0 0 0
0 0 0
0 0 0
0 0 0
0 0 0
0 0 0
0 0 0
0 0 0
0 0 0
0 0 0
0 0 0
0 0 0
0 0 0
0 0 0
0 0 0
0 0 0
0 0 0
0 0 0
0 0 0
0 0 0
0 0 0
0 0 0
0 0 0
0 0 0
0 0 0
0 0 0
0 0 0
0 0 0
0 0 0
0 0 0
0 0 0
0 0 0
0 0 0
0 0 0
0 0 0
0 0 0
0 0 0
0 0 0
0 0 0
0 0 0
0 0 0
0 0 0
0 0 0
0 0 0
0 0 0
0 0 0
0 0 0
0 0 0
0 0 0
0 0 0
0 0 0
0 0 0
0 0 0
0 0 0
0 0 0
0 0 0
0 0 0
0 0 0
0 0 0
0 0 0
0 0 0
0 0 0
0 0 0
0 0 0
0 0 0
0 0 0
0 0 0
0 0 0
0 0 0
0 0 0
0 0 0
0 0 0
0 0 0
0 0 0
0 0 0
0 0 0
0 0 0
0 0 0
0 0 0
0 0 0
0 0 0
0 0 0
0 0 0
0 0 0
0 0 0
0 0 0
0 0 0
0 0 0
0 0 0
0 0 0
0 0 0
0 0 0
0 0 0
0 0 0
0 0 0
0 0 0
0 0 0
0 0 0
0 0 0
0 0 0
0 0 0
0 0 0
0 0 0
0 0 0
0 0 0
0 0 0
0 0 0
0 0 0
0 0 0
0 0 0
0 0 0
0 0 0
0 0 0
0 0 0
0 0 0
0 0 0
0 0 0
0 0 0
0 0 0
0 0 0
0 0 0
0 0 0
0 0 0
0 0 0
0 0 0
0 0 0
0 0 0
0 0 0
0 0 0
0 0 0
0 0 0
0 0 0
0 0 0
0 0 0
0 0 0
0 0 0
0 0 0
0 0 0
0 0 0
0 0 0
0 0 0
0 0 0
0 0 0
0 0 0
0 0 0
0 0 0
0 0 0
0 0 0
0 0 0
0 0 0
0 0 0
0 0 0
0 0 0
0 0 0
0 0 0
0 0 0
0 0 0
0 0 0
0 0 0
0 0 0
0 0 0
0 0 0
0 0 0
0 0 0
0 0 0
0 0 0
0 0 0
0 0 0
0 0 0
0 0 0
0 0 0
0 0 0
0 0 0
0 0 0
0 0 0
0 0 0
0 0 0
0 0 0
0 0 0
0 0 0
0 0 0
0 0 0
0 0 0
0 0 0
0 0 0
0 0 0
0 0 0
0 0 0
0 0 0
0 0 0
0 0 0
0 0 0
0 0 0
0 0 0
0 0 0
0 0 0
0 0 0
0 0 0
0 0 0
0 0 0
0 0 0
0 0 0
0 0 0
0 0 0
0 0 0
0 0 0
0 0 0
0 0 0
0 0 0
0 0 0
0 0 0
0 0 0
0 0 0
0 0 0
0 0 0
0 0 0
0 0 0
0 0 0
0 0 0
0 0 0
0 0 0
0 0 0
0 0 0
0 0 0
0 0 0
0 0 0
0 0 0
0 0 0
0 0 0
0 0 0
0 0 0
0 0 0
0 0 0
0 0 0
0 0 0
0 0 0
0 0 0
0 0 0
0 0 0
0 0 0
0 0 0
0 0 0
0 0 0
0 0 0
0 0 0
0 0 0
0 0 0
0 0 0
0 0 0
0 0 0
0 0 0
0 0 0
0 0 0
0 0 0
0 0 0
0 0 0
0 0 0
0 0 0
0 0 0
0 0 0
0 0 0
0 0 0
0 0 0
0 0 0
0 0 0
0 0 0
0 0 0
0 0 0
0 0 0
0 0 0
0 0 0
0 0 0
0 0 0
0 0 0
0 0 0
0 0 0
72 72 72
255 255 255
255 255 255
255 255 255
255 255 255
255 255 255
255 255 255
255 255 255
255 255 255
255 255 255
255 255 255
255 255 255
255 255 255
255 255 255
255 255 255
255 255 255
255 255 255
255 255 255
255 255 255
255 255 255
255 255 255
255 255 255
255 255 255
255 255 255
255 255 255
72 72 72
0 0 0
0 0 0
0 0 0
0 0 0
0 0 0
0 0 0
0 0 0
0 0 0
0 0 0
0 0 0
0 0 0
0 0 0
0 0 0
0 0 0
0 0 0
0 0 0
0 0 0
0 0 0
0 0 0
0 0 0
0 0 0
0 0 0
0 0 0
0 0 0
0 0 0
0 0 0
0 0 0
0 0 0
0 0 0
0 0 0
0 0 0
0 0 0
0 0 0
0 0 0
0 0 0
0 0 0
0 0 0
0 0 0
0 0 0
0 0 0
0 0 0
0 0 0
0 0 0
0 0 0
0 0 0
0 0 0
0 0 0
0 0 0
0 0 0
0 0 0
0 0 0
0 0 0
0 0 0
0 0 0
0 0 0
0 0 0
0 0 0
0 0 0
0 0 0
0 0 0
0 0 0
0 0 0
0 0 0
0 0 0
0 0 0
0 0 0
0 0 0
0 0 0
0 0 0
0 0 0
0 0 0
0 0 0
0 0 0
0 0 0
0 0 0
0 0 0
0 0 0
0 0 0
0 0 0
0 0 0
0 0 0
0 0 0
0 0 0
0 0 0
0 0 0
0 0 0
0 0 0
0 0 0
0 0 0
0 0 0
0 0 0
0 0 0
0 0 0
0 0 0
0 0 0
0 0 0
0 0 0
0 0 0
0 0 0
0 0 0
0 0 0
0 0 0
0 0 0
0 0 0
0 0 0
0 0 0
0 0 0
0 0 0
0 0 0
0 0 0
0 0 0
0 0 0
0 0 0
0 0 0
0 0 0
0 0 0
0 0 0
0 0 0
0 0 0
0 0 0
0 0 0
0 0 0
0 0 0
0 0 0
0 0 0
0 0 0
0 0 0
0 0 0
0 0 0
0 0 0
0 0 0
0 0 0
0 0 0
0 0 0
0 0 0
0 0 0
0 0 0
0 0 0
0 0 0
0 0 0
0 0 0
0 0 0
0 0 0
0 0 0
0 0 0
0 0 0
0 0 0
0 0 0
0 0 0
0 0 0
0 0 0
0 0 0
0 0 0
0 0 0
0 0 0
0 0 0
0 0 0
0 0 0
0 0 0
0 0 0
0 0 0
0 0 0
0 0 0
0 0 0
0 0 0
0 0 0
0 0 0
0 0 0
0 0 0
0 0 0
0 0 0
0 0 0
0 0 0
0 0 0
0 0 0
0 0 0
0 0 0
0 0 0
0 0 0
0 0 0
0 0 0
0 0 0
0 0 0
0 0 0
0 0 0
0 0 0
0 0 0
0 0 0
0 0 0
0 0 0
0 0 0
0 0 0
0 0 0
0 0 0
0 0 0
0 0 0
0 0 0
0 0 0
0 0 0
0 0 0
0 0 0
0 0 0
0 0 0
0 0 0
0 0 0
0 0 0
0 0 0
0 0 0
0 0 0
0 0 0
0 0 0
0 0 0
0 0 0
0 0 0
0 0 0
0 0 0
0 0 0
0 0 0
0 0 0
0 0 0
0 0 0
0 0 0
0 0 0
0 0 0
0 0 0
0 0 0
0 0 0
0 0 0
0 0 0
0 0 0
0 0 0
0 0 0
0 0 0
0 0 0
0 0 0
0 0 0
0 0 0
0 0 0
0 0 0
0 0 0
0 0 0
0 0 0
0 0 0
0 0 0
0 0 0
0 0 0
0 0 0
0 0 0
0 0 0
0 0 0
0 0 0
0 0 0
0 0 0
0 0 0
0 0 0
0 0 0
0 0 0
0 0 0
0 0 0
0 0 0
0 0 0
0 0 0
0 0 0
0 0 0
0 0 0
0 0 0
0 0 0
0 0 0
0 0 0
0 0 0
0 0 0
0 0 0
0 0 0
0 0 0
0 0 0
0 0 0
0 0 0
0 0 0
0 0 0
0 0 0
0 0 0
0 0 0
0 0 0
0 0 0
0 0 0
0 0 0
0 0 0
0 0 0
0 0 0
0 0 0
0 0 0
0 0 0
0 0 0
0 0 0
0 0 0
0 0 0
0 0 0
0 0 0
0 0 0
0 0 0
0 0 0
0 0 0
0 0 0
0 0 0
0 0 0
0 0 0
0 0 0
0 0 0
0 0 0
0 0 0
0 0 0
0 0 0
0 0 0
0 0 0
0 0 0
0 0 0
0 0 0
0 0 0
0 0 0
0 0 0
0 0 0
0 0 0
0 0 0
0 0 0
0 0 0
0 0 0
0 0 0
0 0 0
0 0 0
0 0 0
0 0 0
0 0 0
0 0 0
0 0 0
0 0 0
0 0 0
0 0 0
0 0 0
0 0 0
0 0 0
0 0 0
0 0 0
0 0 0
0 0 0
0 0 0
0 0 0
0 0 0
0 0 0
0 0 0
0 0 0
0 0 0
0 0 0
0 0 0
0 0 0
0 0 0
0 0 0
0 0 0
0 0 0
0 0 0
0 0 0
0 0 0
0 0 0
0 0 0
0 0 0
0 0 0
0 0 0
0 0 0
0 0 0
0 0 0
0 0 0
0 0 0
0 0 0
0 0 0
0 0 0
0 0 0
0 0 0
0 0 0
0 0 0
0 0 0
153 153 153
255 255 255
255 255 255
255 255 255
255 255 255
255 255 255
255 255 255
255 255 255
255 255 255
255 255 255
255 255 255
255 255 255
255 255 255
255 255 255
245 245 245
198 198 198
51 51 51
0 0 0
0 0 0
0 0 0
0 0 0
0 0 0
0 0 0
0 0 0
0 0 0
0 0 0
0 0 0
0 0 0
0 0 0
0 0 0
0 0 0
0 0 0
0 0 0
0 0 0
0 0 0
0 0 0
0 0 0
0 0 0
0 0 0
0 0 0
0 0 0
0 0 0
0 0 0
0 0 0
0 0 0
0 0 0
0 0 0
0 0 0
0 0 0
0 0 0
0 0 0
0 0 0
0 0 0
0 0 0
0 0 0
0 0 0
0 0 0
0 0 0
0 0 0
0 0 0
0 0 0
0 0 0
0 0 0
0 0 0
0 0 0
0 0 0
0 0 0
0 0 0
0 0 0
0 0 0
0 0 0
0 0 0
0 0 0
0 0 0
0 0 0
0 0 0
0 0 0
0 0 0
0 0 0
0 0 0
0 0 0
0 0 0
0 0 0
0 0 0
0 0 0
0 0 0
0 0 0
0 0 0
0 0 0
0 0 0
0 0 0
0 0 0
0 0 0
0 0 0
0 0 0
0 0 0
0 0 0
0 0 0
0 0 0
0 0 0
0 0 0
0 0 0
0 0 0
0 0 0
0 0 0
0 0 0
0 0 0
0 0 0
0 0 0
0 0 0
0 0 0
0 0 0
0 0 0
0 0 0
0 0 0
0 0 0
0 0 0
0 0 0
0 0 0
0 0 0
0 0 0
0 0 0
0 0 0
0 0 0
0 0 0
0 0 0
0 0 0
0 0 0
0 0 0
0 0 0
0 0 0
0 0 0
0 0 0
0 0 0
0 0 0
0 0 0
0 0 0
0 0 0
0 0 0
0 0 0
0 0 0
0 0 0
0 0 0
0 0 0
0 0 0
0 0 0
0 0 0
0 0 0
0 0 0
0 0 0
0 0 0
0 0 0
0 0 0
0 0 0
0 0 0
0 0 0
0 0 0
0 0 0
0 0 0
0 0 0
0 0 0
0 0 0
0 0 0
0 0 0
0 0 0
0 0 0
0 0 0
0 0 0
0 0 0
0 0 0
0 0 0
0 0 0
0 0 0
0 0 0
0 0 0
0 0 0
0 0 0
0 0 0
0 0 0
0 0 0
0 0 0
0 0 0
0 0 0
0 0 0
0 0 0
0 0 0
0 0 0
0 0 0
0 0 0
0 0 0
0 0 0
0 0 0
0 0 0
0 0 0
0 0 0
0 0 0
0 0 0
0 0 0
0 0 0
0 0 0
0 0 0
0 0 0
0 0 0
0 0 0
0 0 0
0 0 0
0 0 0
0 0 0
0 0 0
0 0 0
0 0 0
0 0 0
0 0 0
0 0 0
0 0 0
0 0 0
0 0 0
0 0 0
0 0 0
0 0 0
0 0 0
0 0 0
0 0 0
0 0 0
0 0 0
0 0 0
0 0 0
0 0 0
0 0 0
0 0 0
0 0 0
0 0 0
0 0 0
0 0 0
0 0 0
0 0 0
0 0 0
0 0 0
0 0 0
0 0 0
0 0 0
0 0 0
0 0 0
0 0 0
0 0 0
0 0 0
0 0 0
0 0 0
0 0 0
0 0 0
0 0 0
0 0 0
0 0 0
0 0 0
0 0 0
0 0 0
0 0 0
0 0 0
0 0 0
0 0 0
0 0 0
0 0 0
0 0 0
0 0 0
0 0 0
0 0 0
0 0 0
0 0 0
0 0 0
0 0 0
0 0 0
0 0 0
0 0 0
0 0 0
0 0 0
0 0 0
0 0 0
0 0 0
0 0 0
0 0 0
0 0 0
0 0 0
0 0 0
0 0 0
0 0 0
0 0 0
0 0 0
0 0 0
0 0 0
0 0 0
0 0 0
0 0 0
0 0 0
0 0 0
0 0 0
0 0 0
0 0 0
0 0 0
0 0 0
0 0 0
0 0 0
0 0 0
0 0 0
0 0 0
0 0 0
0 0 0
0 0 0
0 0 0
0 0 0
0 0 0
0 0 0
0 0 0
0 0 0
0 0 0
0 0 0
0 0 0
0 0 0
0 0 0
0 0 0
0 0 0
0 0 0
0 0 0
0 0 0
0 0 0
0 0 0
0 0 0
0 0 0
0 0 0
0 0 0
0 0 0
0 0 0
0 0 0
0 0 0
0 0 0
0 0 0
0 0 0
0 0 0
0 0 0
0 0 0
0 0 0
0 0 0
0 0 0
0 0 0
0 0 0
0 0 0
0 0 0
0 0 0
0 0 0
0 0 0
0 0 0
0 0 0
0 0 0
0 0 0
0 0 0
0 0 0
0 0 0
0 0 0
0 0 0
0 0 0
0 0 0
0 0 0
0 0 0
0 0 0
0 0 0
0 0 0
0 0 0
0 0 0
0 0 0
0 0 0
0 0 0
0 0 0
0 0 0
0 0 0
0 0 0
0 0 0
0 0 0
0 0 0
0 0 0
0 0 0
0 0 0
0 0 0
0 0 0
0 0 0
0 0 0
0 0 0
0 0 0
0 0 0
0 0 0
0 0 0
0 0 0
0 0 0
0 0 0
0 0 0
0 0 0
0 0 0
0 0 0
0 0 0
0 0 0
0 0 0
0 0 0
0 0 0
0 0 0
0 0 0
0 0 0
0 0 0
0 0 0
0 0 0
0 0 0
0 0 0
0 0 0
0 0 0
0 0 0
0 0 0
0 0 0
0 0 0
0 0 0
0 0 0
0 0 0
0 0 0
0 0 0
0 0 0
0 0 0
0 0 0
0 0 0
0 0 0
0 0 0
0 0 0
0 0 0
0 0 0
0 0 0
0 0 0
0 0 0
0 0 0
0 0 0
0 0 0
0 0 0
0 0 0
0 0 0
0 0 0
0 0 0
0 0 0
0 0 0
0 0 0
0 0 0
0 0 0
0 0 0
0 0 0
0 0 0
0 0 0
0 0 0
0 0 0
0 0 0
0 0 0
0 0 0
0 0 0
0 0 0
0 0 0
0 0 0
0 0 0
0 0 0
0 0 0
0 0 0
0 0 0
0 0 0
0 0 0
0 0 0
0 0 0
0 0 0
0 0 0
0 0 0
0 0 0
0 0 0
0 0 0
0 0 0
0 0 0
0 0 0
0 0 0
0 0 0
0 0 0
0 0 0
0 0 0
0 0 0
0 0 0
0 0 0
0 0 0
0 0 0
0 0 0
0 0 0
0 0 0
0 0 0
0 0 0
0 0 0
0 0 0
0 0 0
0 0 0
0 0 0
0 0 0
0 0 0
0 0 0
0 0 0
0 0 0
0 0 0
0 0 0
0 0 0
0 0 0
0 0 0
0 0 0
0 0 0
0 0 0
0 0 0
0 0 0
0 0 0
0 0 0
0 0 0
0 0 0
0 0 0
0 0 0
0 0 0
0 0 0
0 0 0
0 0 0
0 0 0
0 0 0
0 0 0
0 0 0
0 0 0
0 0 0
0 0 0
0 0 0
0 0 0
0 0 0
0 0 0
0 0 0
0 0 0
0 0 0
0 0 0
0 0 0
0 0 0
0 0 0
0 0 0
0 0 0
0 0 0
0 0 0
0 0 0
0 0 0
0 0 0
0 0 0
0 0 0
0 0 0
0 0 0
0 0 0
0 0 0
0 0 0
0 0 0
0 0 0
0 0 0
0 0 0
0 0 0
0 0 0
0 0 0
0 0 0
0 0 0
0 0 0
0 0 0
0 0 0
0 0 0
0 0 0
0 0 0
0 0 0
0 0 0
0 0 0
0 0 0
0 0 0
0 0 0
0 0 0
0 0 0
0 0 0
0 0 0
0 0 0
0 0 0
0 0 0
0 0 0
0 0 0
0 0 0
0 0 0
0 0 0
0 0 0
0 0 0
0 0 0
0 0 0
0 0 0
0 0 0
0 0 0
0 0 0
0 0 0
0 0 0
0 0 0
0 0 0
0 0 0
0 0 0
0 0 0
0 0 0
0 0 0
0 0 0
0 0 0
0 0 0
0 0 0
0 0 0
0 0 0
0 0 0
0 0 0
0 0 0
0 0 0
0 0 0
0 0 0
0 0 0
0 0 0
0 0 0
0 0 0
0 0 0
0 0 0
0 0 0
0 0 0
0 0 0
0 0 0
0 0 0
0 0 0
0 0 0
0 0 0
0 0 0
0 0 0
0 0 0
0 0 0
0 0 0
0 0 0
0 0 0
0 0 0
0 0 0
0 0 0
0 0 0
0 0 0
0 0 0
0 0 0
0 0 0
0 0 0
0 0 0
0 0 0
0 0 0
0 0 0
0 0 0
0 0 0
0 0 0
0 0 0
0 0 0
0 0 0
0 0 0
0 0 0
0 0 0
0 0 0
0 0 0
0 0 0
0 0 0
0 0 0
0 0 0
0 0 0
0 0 0
0 0 0
0 0 0
0 0 0
0 0 0
0 0 0
0 0 0
0 0 0
0 0 0
0 0 0
0 0 0
0 0 0
0 0 0
0 0 0
0 0 0
0 0 0
0 0 0
0 0 0
0 0 0
0 0 0
0 0 0
0 0 0
0 0 0
0 0 0
0 0 0
0 0 0
0 0 0
0 0 0
0 0 0
0 0 0
0 0 0
0 0 0
0 0 0
0 0 0
0 0 0
0 0 0
0 0 0
0 0 0
0 0 0
0 0 0
0 0 0
0 0 0
0 0 0
0 0 0
0 0 0
0 0 0
0 0 0
0 0 0
0 0 0
0 0 0
0 0 0
0 0 0
0 0 0
0 0 0
0 0 0
0 0 0
0 0 0
0 0 0
0 0 0
0 0 0
0 0 0
0 0 0
0 0 0
0 0 0
0 0 0
0 0 0
0 0 0
0 0 0
0 0 0
0 0 0
0 0 0
0 0 0
0 0 0
0 0 0
0 0 0
0 0 0
0 0 0
0 0 0
0 0 0
0 0 0
0 0 0
0 0 0
0 0 0
0 0 0
0 0 0
0 0 0
0 0 0
0 0 0
0 0 0
0 0 0
0 0 0
0 0 0
0 0 0
0 0 0
0 0 0
0 0 0
0 0 0
0 0 0
0 0 0
0 0 0
0 0 0
0 0 0
0 0 0
0 0 0
0 0 0
0 0 0
0 0 0
0 0 0
0 0 0
0 0 0
0 0 0
0 0 0
0 0 0
0 0 0
0 0 0
0 0 0
0 0 0
0 0 0
0 0 0
0 0 0
0 0 0
0 0 0
0 0 0
0 0 0
0 0 0
0 0 0
0 0 0
0 0 0
0 0 0
0 0 0
0 0 0
0 0 0
0 0 0
0 0 0
0 0 0
0 0 0
0 0 0
0 0 0
0 0 0
0 0 0
0 0 0
0 0 0
0 0 0
0 0 0
0 0 0
0 0 0
0 0 0
0 0 0
0 0 0
0 0 0
0 0 0
0 0 0
0 0 0
0 0 0
0 0 0
0 0 0
0 0 0
0 0 0
0 0 0
0 0 0
0 0 0
0 0 0
0 0 0
0 0 0
0 0 0
0 0 0
0 0 0
0 0 0
0 0 0
0 0 0
0 0 0
0 0 0
0 0 0
0 0 0
0 0 0
0 0 0
0 0 0
0 0 0
0 0 0
0 0 0
0 0 0
0 0 0
0 0 0
0 0 0
0 0 0
0 0 0
0 0 0
0 0 0
0 0 0
0 0 0
0 0 0
0 0 0
0 0 0
0 0 0
0 0 0
0 0 0
0 0 0
0 0 0
0 0 0
0 0 0
0 0 0
0 0 0
0 0 0
0 0 0
0 0 0
0 0 0
0 0 0
0 0 0
0 0 0
0 0 0
0 0 0
0 0 0
0 0 0
0 0 0
0 0 0
0 0 0
0 0 0
0 0 0
0 0 0
0 0 0
0 0 0
0 0 0
0 0 0
0 0 0
0 0 0
0 0 0
0 0 0
0 0 0
0 0 0
0 0 0
0 0 0
0 0 0
0 0 0
0 0 0
0 0 0
0 0 0
0 0 0
0 0 0
0 0 0
0 0 0
0 0 0
0 0 0
0 0 0
0 0 0
0 0 0
0 0 0
0 0 0
0 0 0
0 0 0
0 0 0
0 0 0
0 0 0
0 0 0
0 0 0
0 0 0
0 0 0
0 0 0
0 0 0
0 0 0
0 0 0
0 0 0
0 0 0
0 0 0
0 0 0
0 0 0
0 0 0
0 0 0
0 0 0
0 0 0
0 0 0
0 0 0
0 0 0
0 0 0
0 0 0
0 0 0
0 0 0
0 0 0
0 0 0
0 0 0
0 0 0
0 0 0
0 0 0
0 0 0
0 0 0
0 0 0
0 0 0
0 0 0
0 0 0
0 0 0
0 0 0
0 0 0
0 0 0
0 0 0
0 0 0
0 0 0
0 0 0
0 0 0
0 0 0
0 0 0
0 0 0
0 0 0
0 0 0
0 0 0
0 0 0
0 0 0
0 0 0
0 0 0
0 0 0
0 0 0
0 0 0
0 0 0
0 0 0
0 0 0
0 0 0
0 0 0
0 0 0
0 0 0
0 0 0
0 0 0
0 0 0
0 0 0
0 0 0
0 0 0
0 0 0
0 0 0
0 0 0
0 0 0
0 0 0
0 0 0
0 0 0
0 0 0
0 0 0
0 0 0
0 0 0
0 0 0
0 0 0
0 0 0
0 0 0
0 0 0
0 0 0
0 0 0
0 0 0
0 0 0
0 0 0
0 0 0
0 0 0
0 0 0
0 0 0
0 0 0
0 0 0
0 0 0
0 0 0
0 0 0
0 0 0
0 0 0
0 0 0
0 0 0
0 0 0
0 0 0
0 0 0
0 0 0
0 0 0
0 0 0
0 0 0
0 0 0
0 0 0
0 0 0
0 0 0
0 0 0
0 0 0
0 0 0
0 0 0
0 0 0
0 0 0
0 0 0
0 0 0
0 0 0
0 0 0
0 0 0
0 0 0
0 0 0
0 0 0
0 0 0
0 0 0
0 0 0
0 0 0
0 0 0
0 0 0
0 0 0
0 0 0
0 0 0
0 0 0
0 0 0
0 0 0
0 0 0
0 0 0
0 0 0
0 0 0
0 0 0
0 0 0
0 0 0
0 0 0
0 0 0
0 0 0
0 0 0
0 0 0
0 0 0
0 0 0
0 0 0
0 0 0
0 0 0
0 0 0
0 0 0
0 0 0
0 0 0
0 0 0
0 0 0
0 0 0
0 0 0
0 0 0
0 0 0
0 0 0
0 0 0
0 0 0
0 0 0
0 0 0
0 0 0
0 0 0
0 0 0
0 0 0
0 0 0
0 0 0
0 0 0
0 0 0
0 0 0
0 0 0
0 0 0
0 0 0
0 0 0
0 0 0
0 0 0
0 0 0
0 0 0
0 0 0
0 0 0
0 0 0
0 0 0
0 0 0
0 0 0
0 0 0
0 0 0
0 0 0
0 0 0
0 0 0
0 0 0
0 0 0
0 0 0
0 0 0
0 0 0
0 0 0
0 0 0
0 0 0
0 0 0
0 0 0
0 0 0
0 0 0
0 0 0
0 0 0
0 0 0
0 0 0
0 0 0
0 0 0
0 0 0
0 0 0
0 0 0
0 0 0
0 0 0
0 0 0
0 0 0
0 0 0
0 0 0
0 0 0
0 0 0
0 0 0
0 0 0
0 0 0
0 0 0
0 0 0
0 0 0
0 0 0
0 0 0
0 0 0
0 0 0
0 0 0
0 0 0
0 0 0
0 0 0
0 0 0
0 0 0
0 0 0
0 0 0
0 0 0
0 0 0
0 0 0
0 0 0
0 0 0
0 0 0
0 0 0
0 0 0
0 0 0
0 0 0
0 0 0
0 0 0
0 0 0
0 0 0
0 0 0
0 0 0
0 0 0
0 0 0
0 0 0
0 0 0
0 0 0
0 0 0
0 0 0
0 0 0
0 0 0
0 0 0
0 0 0
0 0 0
0 0 0
0 0 0
0 0 0
0 0 0
0 0 0
0 0 0
0 0 0
0 0 0
0 0 0
0 0 0
0 0 0
0 0 0
0 0 0
0 0 0
0 0 0
0 0 0
0 0 0
0 0 0
0 0 0
0 0 0
0 0 0
0 0 0
0 0 0
0 0 0
0 0 0
0 0 0
0 0 0
0 0 0
0 0 0
0 0 0
0 0 0
0 0 0
0 0 0
0 0 0
0 0 0
0 0 0
0 0 0
0 0 0
0 0 0
0 0 0
0 0 0
0 0 0
0 0 0
0 0 0
0 0 0
0 0 0
0 0 0
0 0 0
0 0 0
0 0 0
0 0 0
0 0 0
0 0 0
0 0 0
0 0 0
0 0 0
0 0 0
0 0 0
0 0 0
0 0 0
0 0 0
0 0 0
0 0 0
0 0 0
0 0 0
0 0 0
0 0 0
0 0 0
0 0 0
0 0 0
0 0 0
0 0 0
0 0 0
0 0 0
0 0 0
0 0 0
0 0 0
0 0 0
0 0 0
0 0 0
0 0 0
0 0 0
0 0 0
0 0 0
0 0 0
0 0 0
0 0 0
0 0 0
0 0 0
0 0 0
0 0 0
0 0 0
0 0 0
0 0 0
0 0 0
0 0 0
0 0 0
0 0 0
0 0 0
0 0 0
0 0 0
0 0 0
0 0 0
0 0 0
0 0 0
0 0 0
0 0 0
0 0 0
0 0 0
0 0 0
0 0 0
0 0 0
0 0 0
0 0 0
0 0 0
0 0 0
0 0 0
0 0 0
0 0 0
0 0 0
0 0 0
0 0 0
0 0 0
0 0 0
0 0 0
0 0 0
0 0 0
0 0 0
0 0 0
0 0 0
0 0 0
0 0 0
0 0 0
0 0 0
0 0 0
0 0 0
0 0 0
0 0 0
0 0 0
0 0 0
0 0 0
0 0 0
0 0 0
0 0 0
0 0 0
0 0 0
0 0 0
0 0 0
0 0 0
0 0 0
0 0 0
0 0 0
0 0 0
0 0 0
0 0 0
0 0 0
0 0 0
0 0 0
0 0 0
0 0 0
0 0 0
0 0 0
0 0 0
0 0 0
0 0 0
0 0 0
0 0 0
0 0 0
0 0 0
0 0 0
0 0 0
0 0 0
0 0 0
0 0 0
0 0 0
0 0 0
0 0 0
0 0 0
0 0 0
0 0 0
0 0 0
0 0 0
0 0 0
0 0 0
0 0 0
0 0 0
0 0 0
0 0 0
0 0 0
0 0 0
0 0 0
0 0 0
0 0 0
0 0 0
0 0 0
0 0 0
0 0 0
0 0 0
0 0 0
0 0 0
0 0 0
0 0 0
0 0 0
0 0 0
0 0 0
0 0 0
0 0 0
0 0 0
0 0 0
0 0 0
0 0 0
0 0 0
0 0 0
0 0 0
0 0 0
0 0 0
0 0 0
0 0 0
0 0 0
0 0 0
0 0 0
0 0 0
0 0 0
0 0 0
0 0 0
0 0 0
0 0 0
0 0 0
0 0 0
0 0 0
0 0 0
0 0 0
0 0 0
0 0 0
0 0 0
0 0 0
0 0 0
0 0 0
0 0 0
0 0 0
0 0 0
0 0 0
0 0 0
0 0 0
0 0 0
0 0 0
0 0 0
0 0 0
0 0 0
0 0 0
0 0 0
0 0 0
0 0 0
0 0 0
0 0 0
0 0 0
0 0 0
0 0 0
0 0 0
0 0 0
0 0 0
0 0 0
0 0 0
0 0 0
0 0 0
0 0 0
0 0 0
0 0 0
0 0 0
0 0 0
0 0 0
0 0 0
0 0 0
0 0 0
0 0 0
0 0 0
0 0 0
0 0 0
0 0 0
0 0 0
0 0 0
0 0 0
0 0 0
0 0 0
0 0 0
0 0 0
0 0 0
0 0 0
0 0 0
0 0 0
0 0 0
0 0 0
0 0 0
0 0 0
0 0 0
0 0 0
0 0 0
0 0 0
0 0 0
0 0 0
0 0 0
0 0 0
0 0 0
0 0 0
0 0 0
0 0 0
0 0 0
0 0 0
0 0 0
0 0 0
0 0 0
0 0 0
0 0 0
0 0 0
0 0 0
0 0 0
0 0 0
0 0 0
0 0 0
0 0 0
0 0 0
0 0 0
0 0 0
0 0 0
0 0 0
0 0 0
0 0 0
0 0 0
0 0 0
0 0 0
0 0 0
0 0 0
0 0 0
0 0 0
0 0 0
0 0 0
0 0 0
0 0 0
0 0 0
0 0 0
0 0 0
0 0 0
0 0 0
0 0 0
0 0 0
0 0 0
0 0 0
0 0 0
0 0 0
0 0 0
0 0 0
0 0 0
0 0 0
0 0 0
0 0 0
0 0 0
0 0 0
0 0 0
0 0 0
0 0 0
0 0 0
0 0 0
0 0 0
0 0 0
0 0 0
0 0 0
0 0 0
0 0 0
0 0 0
0 0 0
0 0 0
0 0 0
0 0 0
0 0 0
0 0 0
0 0 0
0 0 0
0 0 0
0 0 0
0 0 0
0 0 0
0 0 0
0 0 0
0 0 0
0 0 0
0 0 0
0 0 0
0 0 0
0 0 0
0 0 0
0 0 0
0 0 0
0 0 0
0 0 0
0 0 0
0 0 0
0 0 0
0 0 0
0 0 0
0 0 0
0 0 0
0 0 0
0 0 0
0 0 0
0 0 0
0 0 0
0 0 0
0 0 0
0 0 0
0 0 0
0 0 0
0 0 0
0 0 0
0 0 0
0 0 0
0 0 0
0 0 0
0 0 0
0 0 0
0 0 0
0 0 0
0 0 0
0 0 0
0 0 0
0 0 0
0 0 0
0 0 0
0 0 0
0 0 0
0 0 0
0 0 0
0 0 0
0 0 0
0 0 0
0 0 0
0 0 0
0 0 0
0 0 0
0 0 0
0 0 0
0 0 0
0 0 0
0 0 0
0 0 0
0 0 0
0 0 0
0 0 0
0 0 0
0 0 0
0 0 0
0 0 0
0 0 0
0 0 0
0 0 0
0 0 0
0 0 0
0 0 0
0 0 0
0 0 0
0 0 0
0 0 0
0 0 0
0 0 0
0 0 0
0 0 0
0 0 0
0 0 0
0 0 0
0 0 0
0 0 0
0 0 0
0 0 0
0 0 0
0 0 0
0 0 0
0 0 0
0 0 0
0 0 0
0 0 0
0 0 0
0 0 0
0 0 0
0 0 0
0 0 0
0 0 0
0 0 0
0 0 0
0 0 0
0 0 0
0 0 0
0 0 0
0 0 0
0 0 0
0 0 0
0 0 0
0 0 0
0 0 0
0 0 0
0 0 0
0 0 0
0 0 0
0 0 0
0 0 0
0 0 0
0 0 0
0 0 0
0 0 0
0 0 0
0 0 0
0 0 0
0 0 0
0 0 0
0 0 0
0 0 0
0 0 0
0 0 0
0 0 0
0 0 0
0 0 0
0 0 0
0 0 0
0 0 0
0 0 0
0 0 0
0 0 0
0 0 0
0 0 0
0 0 0
0 0 0
0 0 0
0 0 0
0 0 0
0 0 0
0 0 0
0 0 0
0 0 0
0 0 0
0 0 0
0 0 0
0 0 0
0 0 0
0 0 0
0 0 0
0 0 0
0 0 0
0 0 0
0 0 0
0 0 0
0 0 0
0 0 0
0 0 0
0 0 0
0 0 0
0 0 0
0 0 0
0 0 0
0 0 0
0 0 0
0 0 0
0 0 0
0 0 0
0 0 0
0 0 0
0 0 0
0 0 0
0 0 0
0 0 0
0 0 0
0 0 0
0 0 0
0 0 0
0 0 0
0 0 0
0 0 0
0 0 0
0 0 0
0 0 0
0 0 0
0 0 0
0 0 0
0 0 0
0 0 0
0 0 0
0 0 0
0 0 0
0 0 0
0 0 0
0 0 0
0 0 0
0 0 0
0 0 0
0 0 0
0 0 0
0 0 0
0 0 0
0 0 0
0 0 0
0 0 0
0 0 0
0 0 0
0 0 0
0 0 0
0 0 0
0 0 0
0 0 0
0 0 0
0 0 0
0 0 0
0 0 0
0 0 0
0 0 0
0 0 0
0 0 0
0 0 0
0 0 0
0 0 0
0 0 0
0 0 0
0 0 0
0 0 0
0 0 0
0 0 0
0 0 0
0 0 0
0 0 0
0 0 0
0 0 0
0 0 0
0 0 0
0 0 0
0 0 0
0 0 0
0 0 0
0 0 0
0 0 0
0 0 0
0 0 0
0 0 0
0 0 0
0 0 0
0 0 0
0 0 0
0 0 0
0 0 0
0 0 0
0 0 0
0 0 0
0 0 0
0 0 0
0 0 0
0 0 0
0 0 0
0 0 0
0 0 0
0 0 0
0 0 0
0 0 0
0 0 0
0 0 0
0 0 0
0 0 0
0 0 0
0 0 0
0 0 0
0 0 0
0 0 0
0 0 0
0 0 0
0 0 0
0 0 0
0 0 0
0 0 0
0 0 0
0 0 0
0 0 0
0 0 0
0 0 0
0 0 0
0 0 0
0 0 0
0 0 0
0 0 0
0 0 0
0 0 0
0 0 0
0 0 0
0 0 0
0 0 0
0 0 0
0 0 0
0 0 0
0 0 0
0 0 0
0 0 0
0 0 0
0 0 0
0 0 0
0 0 0
0 0 0
0 0 0
0 0 0
0 0 0
0 0 0
0 0 0
0 0 0
0 0 0
0 0 0
0 0 0
0 0 0
0 0 0
0 0 0
0 0 0
0 0 0
0 0 0
0 0 0
0 0 0
0 0 0
0 0 0
0 0 0
0 0 0
0 0 0
0 0 0
0 0 0
0 0 0
0 0 0
0 0 0
0 0 0
0 0 0
0 0 0
0 0 0
0 0 0
0 0 0
0 0 0
0 0 0
0 0 0
0 0 0
0 0 0
0 0 0
0 0 0
0 0 0
0 0 0
0 0 0
0 0 0
0 0 0
0 0 0
0 0 0
0 0 0
0 0 0
0 0 0
0 0 0
0 0 0
0 0 0
0 0 0
0 0 0
0 0 0
0 0 0
0 0 0
0 0 0
0 0 0
0 0 0
0 0 0
0 0 0
0 0 0
0 0 0
0 0 0
0 0 0
0 0 0
0 0 0
0 0 0
0 0 0
0 0 0
0 0 0
0 0 0
0 0 0
0 0 0
0 0 0
0 0 0
0 0 0
0 0 0
0 0 0
0 0 0
0 0 0
0 0 0
0 0 0
0 0 0
0 0 0
0 0 0
0 0 0
0 0 0
0 0 0
0 0 0
0 0 0
0 0 0
0 0 0
0 0 0
0 0 0
0 0 0
0 0 0
0 0 0
0 0 0
0 0 0
0 0 0
0 0 0
0 0 0
0 0 0
0 0 0
0 0 0
0 0 0
0 0 0
0 0 0
0 0 0
0 0 0
0 0 0
0 0 0
0 0 0
0 0 0
0 0 0
0 0 0
0 0 0
0 0 0
0 0 0
0 0 0
0 0 0
0 0 0
0 0 0
0 0 0
0 0 0
0 0 0
0 0 0
0 0 0
0 0 0
0 0 0
0 0 0
0 0 0
0 0 0
0 0 0
0 0 0
0 0 0
0 0 0
0 0 0
0 0 0
0 0 0
0 0 0
0 0 0
0 0 0
0 0 0
0 0 0
0 0 0
0 0 0
0 0 0
0 0 0
0 0 0
0 0 0
0 0 0
0 0 0
0 0 0
0 0 0
0 0 0
0 0 0
0 0 0
0 0 0
0 0 0
0 0 0
0 0 0
0 0 0
0 0 0
0 0 0
0 0 0
0 0 0
0 0 0
0 0 0
0 0 0
0 0 0
0 0 0
0 0 0
0 0 0
0 0 0
0 0 0
0 0 0
0 0 0
0 0 0
0 0 0
0 0 0
0 0 0
0 0 0
0 0 0
0 0 0
0 0 0
0 0 0
0 0 0
0 0 0
0 0 0
0 0 0
0 0 0
0 0 0
0 0 0
0 0 0
0 0 0
0 0 0
0 0 0
0 0 0
0 0 0
0 0 0
0 0 0
0 0 0
0 0 0
0 0 0
0 0 0
0 0 0
0 0 0
0 0 0
0 0 0
0 0 0
0 0 0
0 0 0
0 0 0
0 0 0
0 0 0
0 0 0
0 0 0
0 0 0
0 0 0
0 0 0
0 0 0
0 0 0
0 0 0
0 0 0
0 0 0
0 0 0
0 0 0
0 0 0
0 0 0
0 0 0
0 0 0
0 0 0
0 0 0
0 0 0
0 0 0
0 0 0
0 0 0
0 0 0
0 0 0
0 0 0
0 0 0
0 0 0
0 0 0
0 0 0
0 0 0
0 0 0
0 0 0
0 0 0
0 0 0
0 0 0
0 0 0
0 0 0
0 0 0
0 0 0
0 0 0
0 0 0
0 0 0
0 0 0
0 0 0
0 0 0
0 0 0
0 0 0
0 0 0
0 0 0
0 0 0
0 0 0
0 0 0
0 0 0
0 0 0
0 0 0
0 0 0
0 0 0
0 0 0
0 0 0
0 0 0
0 0 0
0 0 0
0 0 0
0 0 0
0 0 0
0 0 0
0 0 0
0 0 0
0 0 0
0 0 0
0 0 0
0 0 0
0 0 0
0 0 0
0 0 0
0 0 0
0 0 0
0 0 0
0 0 0
0 0 0
0 0 0
0 0 0
0 0 0
0 0 0
0 0 0
0 0 0
0 0 0
0 0 0
0 0 0
0 0 0
0 0 0
0 0 0
0 0 0
0 0 0
0 0 0
0 0 0
0 0 0
0 0 0
0 0 0
0 0 0
0 0 0
0 0 0
0 0 0
0 0 0
0 0 0
0 0 0
0 0 0
0 0 0
0 0 0
0 0 0
0 0 0
0 0 0
0 0 0
0 0 0
0 0 0
0 0 0
0 0 0
0 0 0
0 0 0
0 0 0
0 0 0
0 0 0
0 0 0
0 0 0
0 0 0
0 0 0
0 0 0
0 0 0
0 0 0
0 0 0
0 0 0
0 0 0
0 0 0
0 0 0
0 0 0
0 0 0
0 0 0
0 0 0
0 0 0
0 0 0
0 0 0
0 0 0
0 0 0
0 0 0
0 0 0
0 0 0
0 0 0
0 0 0
0 0 0
0 0 0
0 0 0
0 0 0
0 0 0
0 0 0
0 0 0
0 0 0
0 0 0
0 0 0
0 0 0
0 0 0
0 0 0
0 0 0
0 0 0
0 0 0
0 0 0
0 0 0
0 0 0
0 0 0
0 0 0
0 0 0
0 0 0
0 0 0
0 0 0
0 0 0
0 0 0
0 0 0
0 0 0
0 0 0
0 0 0
0 0 0
0 0 0
0 0 0
0 0 0
0 0 0
0 0 0
0 0 0
0 0 0
0 0 0
0 0 0
0 0 0
0 0 0
0 0 0
0 0 0
0 0 0
0 0 0
0 0 0
0 0 0
0 0 0
0 0 0
0 0 0
0 0 0
0 0 0
0 0 0
0 0 0
0 0 0
0 0 0
0 0 0
0 0 0
0 0 0
0 0 0
0 0 0
0 0 0
0 0 0
0 0 0
0 0 0
0 0 0
0 0 0
0 0 0
0 0 0
0 0 0
0 0 0
0 0 0
0 0 0
0 0 0
0 0 0
0 0 0
0 0 0
0 0 0
0 0 0
0 0 0
0 0 0
0 0 0
0 0 0
0 0 0
0 0 0
0 0 0
0 0 0
0 0 0
0 0 0
0 0 0
0 0 0
0 0 0
0 0 0
0 0 0
0 0 0
0 0 0
0 0 0
0 0 0
0 0 0
0 0 0
0 0 0
0 0 0
0 0 0
0 0 0
0 0 0
0 0 0
0 0 0
0 0 0
0 0 0
0 0 0
0 0 0
0 0 0
0 0 0
0 0 0
0 0 0
0 0 0
0 0 0
0 0 0
0 0 0
0 0 0
0 0 0
0 0 0
0 0 0
0 0 0
0 0 0
0 0 0
0 0 0
0 0 0
0 0 0
0 0 0
0 0 0
0 0 0
0 0 0
0 0 0
0 0 0
0 0 0
0 0 0
0 0 0
0 0 0
0 0 0
0 0 0
0 0 0
0 0 0
0 0 0
0 0 0
0 0 0
0 0 0
0 0 0
0 0 0
0 0 0
0 0 0
0 0 0
0 0 0
0 0 0
0 0 0
0 0 0
0 0 0
0 0 0
0 0 0
0 0 0
0 0 0
0 0 0
0 0 0
0 0 0
0 0 0
0 0 0
0 0 0
0 0 0
0 0 0
0 0 0
0 0 0
0 0 0
0 0 0
0 0 0
0 0 0
0 0 0
0 0 0
0 0 0
0 0 0
0 0 0
0 0 0
0 0 0
0 0 0
0 0 0
0 0 0
0 0 0
0 0 0
0 0 0
0 0 0
0 0 0
0 0 0
0 0 0
0 0 0
0 0 0
0 0 0
0 0 0
0 0 0
0 0 0
0 0 0
0 0 0
0 0 0
0 0 0
0 0 0
0 0 0
0 0 0
0 0 0
0 0 0
0 0 0
0 0 0
0 0 0
0 0 0
0 0 0
0 0 0
0 0 0
0 0 0
0 0 0
0 0 0
0 0 0
0 0 0
0 0 0
0 0 0
0 0 0
0 0 0
0 0 0
0 0 0
0 0 0
0 0 0
0 0 0
0 0 0
0 0 0
0 0 0
0 0 0
0 0 0
0 0 0
0 0 0
0 0 0
0 0 0
0 0 0
0 0 0
0 0 0
0 0 0
0 0 0
0 0 0
0 0 0
0 0 0
0 0 0
0 0 0
0 0 0
0 0 0
0 0 0
0 0 0
0 0 0
0 0 0
0 0 0
0 0 0
0 0 0
0 0 0
0 0 0
0 0 0
0 0 0
0 0 0
0 0 0
0 0 0
0 0 0
0 0 0
0 0 0
0 0 0
0 0 0
0 0 0
0 0 0
0 0 0
0 0 0
0 0 0
0 0 0
0 0 0
0 0 0
0 0 0
0 0 0
0 0 0
0 0 0
0 0 0
0 0 0
0 0 0
0 0 0
0 0 0
0 0 0
0 0 0
0 0 0
0 0 0
0 0 0
0 0 0
0 0 0
0 0 0
0 0 0
0 0 0
0 0 0
0 0 0
0 0 0
0 0 0
0 0 0
0 0 0
0 0 0
0 0 0
0 0 0
0 0 0
0 0 0
0 0 0
0 0 0
0 0 0
0 0 0
0 0 0
0 0 0
0 0 0
0 0 0
0 0 0
0 0 0
0 0 0
0 0 0
0 0 0
0 0 0
0 0 0
0 0 0
0 0 0
0 0 0
0 0 0
0 0 0
0 0 0
0 0 0
0 0 0
0 0 0
0 0 0
0 0 0
0 0 0
0 0 0
0 0 0
0 0 0
0 0 0
0 0 0
0 0 0
0 0 0
0 0 0
0 0 0
0 0 0
0 0 0
0 0 0
0 0 0
0 0 0
0 0 0
0 0 0
0 0 0
0 0 0
0 0 0
0 0 0
0 0 0
0 0 0
0 0 0
0 0 0
0 0 0
0 0 0
0 0 0
0 0 0
0 0 0
0 0 0
0 0 0
0 0 0
0 0 0
0 0 0
0 0 0
0 0 0
0 0 0
0 0 0
0 0 0
0 0 0
0 0 0
0 0 0
0 0 0
0 0 0
0 0 0
0 0 0
0 0 0
0 0 0
0 0 0
0 0 0
0 0 0
0 0 0
0 0 0
0 0 0
0 0 0
0 0 0
0 0 0
0 0 0
0 0 0
0 0 0
0 0 0
0 0 0
0 0 0
0 0 0
0 0 0
0 0 0
0 0 0
0 0 0
0 0 0
0 0 0
0 0 0
0 0 0
0 0 0
0 0 0
0 0 0
0 0 0
0 0 0
0 0 0
0 0 0
0 0 0
0 0 0
0 0 0
0 0 0
0 0 0
0 0 0
0 0 0
0 0 0
0 0 0
0 0 0
0 0 0
0 0 0
0 0 0
0 0 0
0 0 0
0 0 0
0 0 0
0 0 0
0 0 0
0 0 0
0 0 0
0 0 0
0 0 0
0 0 0
0 0 0
0 0 0
0 0 0
0 0 0
0 0 0
0 0 0
0 0 0
0 0 0
0 0 0
0 0 0
0 0 0
0 0 0
0 0 0
0 0 0
0 0 0
0 0 0
0 0 0
0 0 0
0 0 0
0 0 0
0 0 0
0 0 0
0 0 0
0 0 0
0 0 0
0 0 0
0 0 0
0 0 0
0 0 0
0 0 0
0 0 0
0 0 0
0 0 0
0 0 0
0 0 0
0 0 0
0 0 0
0 0 0
0 0 0
0 0 0
0 0 0
0 0 0
0 0 0
0 0 0
0 0 0
0 0 0
0 0 0
0 0 0
0 0 0
0 0 0
0 0 0
0 0 0
0 0 0
0 0 0
0 0 0
0 0 0
0 0 0
0 0 0
0 0 0
0 0 0
0 0 0
0 0 0
0 0 0
0 0 0
0 0 0
0 0 0
0 0 0
0 0 0
0 0 0
0 0 0
0 0 0
0 0 0
0 0 0
0 0 0
0 0 0
0 0 0
0 0 0
0 0 0
0 0 0
0 0 0
0 0 0
0 0 0
0 0 0
0 0 0
0 0 0
0 0 0
0 0 0
0 0 0
0 0 0
0 0 0
0 0 0
0 0 0
0 0 0
0 0 0
0 0 0
0 0 0
0 0 0
0 0 0
0 0 0
0 0 0
0 0 0
0 0 0
0 0 0
0 0 0
0 0 0
0 0 0
0 0 0
0 0 0
0 0 0
0 0 0
0 0 0
0 0 0
0 0 0
0 0 0
0 0 0
0 0 0
0 0 0
0 0 0
0 0 0
0 0 0
0 0 0
0 0 0
0 0 0
0 0 0
0 0 0
0 0 0
0 0 0
0 0 0
0 0 0
0 0 0
0 0 0
0 0 0
0 0 0
0 0 0
0 0 0
0 0 0
0 0 0
0 0 0
0 0 0
0 0 0
0 0 0
0 0 0
0 0 0
0 0 0
0 0 0
0 0 0
0 0 0
0 0 0
0 0 0
0 0 0
0 0 0
0 0 0
0 0 0
0 0 0
0 0 0
0 0 0
0 0 0
0 0 0
0 0 0
0 0 0
0 0 0
0 0 0
0 0 0
0 0 0
0 0 0
0 0 0
0 0 0
0 0 0
0 0 0
0 0 0
0 0 0
0 0 0
0 0 0
0 0 0
0 0 0
0 0 0
0 0 0
0 0 0
0 0 0
0 0 0
0 0 0
0 0 0
0 0 0
0 0 0
0 0 0
0 0 0
0 0 0
0 0 0
0 0 0
0 0 0
0 0 0
0 0 0
0 0 0
0 0 0
0 0 0
0 0 0
0 0 0
0 0 0
0 0 0
0 0 0
0 0 0
0 0 0
0 0 0
0 0 0
0 0 0
0 0 0
0 0 0
0 0 0
0 0 0
0 0 0
0 0 0
0 0 0
0 0 0
0 0 0
0 0 0
0 0 0
0 0 0
0 0 0
0 0 0
0 0 0
0 0 0
0 0 0
0 0 0
0 0 0
0 0 0
0 0 0
0 0 0
0 0 0
0 0 0
0 0 0
0 0 0
0 0 0
0 0 0
0 0 0
0 0 0
0 0 0
0 0 0
0 0 0
0 0 0
0 0 0
0 0 0
0 0 0
0 0 0
0 0 0
0 0 0
0 0 0
0 0 0
0 0 0
0 0 0
0 0 0
0 0 0
0 0 0
0 0 0
0 0 0
0 0 0
0 0 0
0 0 0
0 0 0
0 0 0
0 0 0
0 0 0
0 0 0
0 0 0
0 0 0
0 0 0
0 0 0
0 0 0
0 0 0
0 0 0
0 0 0
0 0 0
0 0 0
0 0 0
0 0 0
0 0 0
0 0 0
0 0 0
0 0 0
0 0 0
0 0 0
0 0 0
0 0 0
0 0 0
0 0 0
0 0 0
0 0 0
0 0 0
0 0 0
0 0 0
0 0 0
0 0 0
0 0 0
0 0 0
0 0 0
0 0 0
0 0 0
0 0 0
0 0 0
0 0 0
0 0 0
0 0 0
0 0 0
0 0 0
0 0 0
0 0 0
0 0 0
0 0 0
0 0 0
0 0 0
0 0 0
0 0 0
0 0 0
0 0 0
0 0 0
0 0 0
0 0 0
0 0 0
0 0 0
0 0 0
0 0 0
0 0 0
0 0 0
0 0 0
0 0 0
0 0 0
0 0 0
0 0 0
0 0 0
0 0 0
0 0 0
0 0 0
0 0 0
0 0 0
0 0 0
0 0 0
0 0 0
0 0 0
0 0 0
0 0 0
0 0 0
0 0 0
0 0 0
0 0 0
0 0 0
0 0 0
0 0 0
0 0 0
0 0 0
0 0 0
0 0 0
0 0 0
0 0 0
0 0 0
0 0 0
0 0 0
0 0 0
0 0 0
0 0 0
0 0 0
0 0 0
0 0 0
0 0 0
0 0 0
0 0 0
0 0 0
0 0 0
0 0 0
0 0 0
0 0 0
0 0 0
0 0 0
0 0 0
0 0 0
0 0 0
0 0 0
0 0 0
0 0 0
0 0 0
0 0 0
0 0 0
0 0 0
0 0 0
0 0 0
0 0 0
0 0 0
0 0 0
0 0 0
0 0 0
0 0 0
0 0 0
0 0 0
0 0 0
0 0 0
0 0 0
0 0 0
0 0 0
0 0 0
0 0 0
0 0 0
0 0 0
0 0 0
0 0 0
0 0 0
0 0 0
0 0 0
0 0 0
0 0 0
0 0 0
0 0 0
0 0 0
0 0 0
0 0 0
0 0 0
0 0 0
0 0 0
0 0 0
0 0 0
0 0 0
0 0 0
0 0 0
0 0 0
0 0 0
0 0 0
0 0 0
0 0 0
0 0 0
0 0 0
0 0 0
0 0 0
0 0 0
0 0 0
0 0 0
0 0 0
0 0 0
0 0 0
0 0 0
0 0 0
0 0 0
0 0 0
0 0 0
0 0 0
0 0 0
0 0 0
0 0 0
0 0 0
0 0 0
0 0 0
0 0 0
0 0 0
0 0 0
0 0 0
0 0 0
0 0 0
0 0 0
0 0 0
0 0 0
0 0 0
0 0 0
0 0 0
0 0 0
0 0 0
0 0 0
0 0 0
0 0 0
0 0 0
0 0 0
0 0 0
0 0 0
0 0 0
0 0 0
0 0 0
0 0 0
0 0 0
0 0 0
0 0 0
0 0 0
0 0 0
0 0 0
0 0 0
0 0 0
0 0 0
0 0 0
0 0 0
0 0 0
0 0 0
0 0 0
0 0 0
0 0 0
0 0 0
0 0 0
0 0 0
0 0 0
0 0 0
0 0 0
0 0 0
0 0 0
0 0 0
0 0 0
0 0 0
0 0 0
0 0 0
0 0 0
0 0 0
0 0 0
0 0 0
0 0 0
0 0 0
0 0 0
0 0 0
0 0 0
0 0 0
0 0 0
0 0 0
0 0 0
0 0 0
0 0 0
0 0 0
0 0 0
0 0 0
0 0 0
0 0 0
0 0 0
0 0 0
0 0 0
0 0 0
0 0 0
0 0 0
0 0 0
0 0 0
0 0 0
0 0 0
0 0 0
0 0 0
0 0 0
0 0 0
0 0 0
0 0 0
0 0 0
0 0 0
0 0 0
0 0 0
0 0 0
0 0 0
0 0 0
0 0 0
0 0 0
0 0 0
0 0 0
0 0 0
0 0 0
0 0 0
0 0 0
0 0 0
0 0 0
0 0 0
0 0 0
0 0 0
0 0 0
0 0 0
0 0 0
0 0 0
0 0 0
0 0 0
0 0 0
0 0 0
0 0 0
0 0 0
0 0 0
0 0 0
0 0 0
0 0 0
0 0 0
0 0 0
0 0 0
0 0 0
0 0 0
0 0 0
0 0 0
0 0 0
0 0 0
0 0 0
0 0 0
0 0 0
0 0 0
0 0 0
0 0 0
0 0 0
0 0 0
0 0 0
0 0 0
0 0 0
0 0 0
0 0 0
0 0 0
0 0 0
0 0 0
0 0 0
0 0 0
0 0 0
0 0 0
0 0 0
0 0 0
0 0 0
0 0 0
0 0 0
0 0 0
0 0 0
0 0 0
0 0 0
0 0 0
0 0 0
0 0 0
0 0 0
0 0 0
0 0 0
0 0 0
0 0 0
0 0 0
0 0 0
0 0 0
0 0 0
0 0 0
0 0 0
0 0 0
0 0 0
0 0 0
0 0 0
0 0 0
0 0 0
0 0 0
0 0 0
0 0 0
0 0 0
0 0 0
0 0 0
0 0 0
0 0 0
0 0 0
0 0 0
0 0 0
0 0 0
0 0 0
0 0 0
0 0 0
0 0 0
0 0 0
0 0 0
0 0 0
0 0 0
0 0 0
0 0 0
0 0 0
0 0 0
0 0 0
0 0 0
0 0 0
0 0 0
0 0 0
0 0 0
0 0 0
0 0 0
0 0 0
0 0 0
0 0 0
0 0 0
0 0 0
0 0 0
0 0 0
0 0 0
0 0 0
0 0 0
0 0 0
0 0 0
0 0 0
0 0 0
0 0 0
0 0 0
0 0 0
0 0 0
0 0 0
0 0 0
0 0 0
0 0 0
0 0 0
0 0 0
0 0 0
0 0 0
0 0 0
0 0 0
0 0 0
0 0 0
0 0 0
0 0 0
0 0 0
0 0 0
0 0 0
0 0 0
0 0 0
0 0 0
0 0 0
0 0 0
0 0 0
0 0 0
0 0 0
0 0 0
0 0 0
0 0 0
0 0 0
0 0 0
0 0 0
0 0 0
0 0 0
0 0 0
0 0 0
0 0 0
0 0 0
0 0 0
0 0 0
0 0 0
0 0 0
0 0 0
0 0 0
0 0 0
0 0 0
0 0 0
0 0 0
0 0 0
0 0 0
0 0 0
0 0 0
0 0 0
0 0 0
0 0 0
0 0 0
0 0 0
0 0 0
0 0 0
0 0 0
0 0 0
0 0 0
0 0 0
0 0 0
0 0 0
0 0 0
0 0 0
0 0 0
0 0 0
0 0 0
0 0 0
0 0 0
0 0 0
0 0 0
0 0 0
0 0 0
0 0 0
0 0 0
0 0 0
0 0 0
0 0 0
0 0 0
0 0 0
0 0 0
0 0 0
0 0 0
0 0 0
0 0 0
0 0 0
0 0 0
0 0 0
0 0 0
0 0 0
0 0 0
0 0 0
0 0 0
0 0 0
0 0 0
0 0 0
0 0 0
0 0 0
0 0 0
0 0 0
0 0 0
0 0 0
0 0 0
0 0 0
0 0 0
0 0 0
0 0 0
0 0 0
0 0 0
0 0 0
0 0 0
0 0 0
0 0 0
0 0 0
0 0 0
0 0 0
0 0 0
0 0 0
0 0 0
0 0 0
0 0 0
0 0 0
0 0 0
0 0 0
0 0 0
0 0 0
0 0 0
0 0 0
0 0 0
0 0 0
0 0 0
0 0 0
0 0 0
0 0 0
0 0 0
0 0 0
0 0 0
0 0 0
0 0 0
0 0 0
0 0 0
0 0 0
0 0 0
0 0 0
0 0 0
0 0 0
0 0 0
0 0 0
0 0 0
0 0 0
0 0 0
0 0 0
0 0 0
0 0 0
0 0 0
0 0 0
0 0 0
0 0 0
0 0 0
0 0 0
0 0 0
0 0 0
0 0 0
0 0 0
0 0 0
0 0 0
0 0 0
0 0 0
0 0 0
0 0 0
0 0 0
0 0 0
0 0 0
0 0 0
0 0 0
0 0 0
0 0 0
0 0 0
0 0 0
0 0 0
0 0 0
0 0 0
0 0 0
0 0 0
0 0 0
0 0 0
0 0 0
0 0 0
0 0 0
0 0 0
0 0 0
0 0 0
0 0 0
0 0 0
0 0 0
0 0 0
0 0 0
0 0 0
0 0 0
0 0 0
0 0 0
0 0 0
0 0 0
0 0 0
0 0 0
0 0 0
0 0 0
0 0 0
0 0 0
0 0 0
0 0 0
0 0 0
0 0 0
0 0 0
0 0 0
0 0 0
0 0 0
0 0 0
0 0 0
0 0 0
0 0 0
0 0 0
0 0 0
0 0 0
0 0 0
0 0 0
0 0 0
0 0 0
0 0 0
0 0 0
0 0 0
0 0 0
0 0 0
0 0 0
0 0 0
0 0 0
0 0 0
0 0 0
0 0 0
0 0 0
0 0 0
0 0 0
0 0 0
0 0 0
0 0 0
0 0 0
0 0 0
0 0 0
0 0 0
0 0 0
0 0 0
0 0 0
0 0 0
0 0 0
0 0 0
0 0 0
0 0 0
0 0 0
0 0 0
0 0 0
0 0 0
0 0 0
0 0 0
0 0 0
0 0 0
0 0 0
0 0 0
0 0 0
0 0 0
0 0 0
0 0 0
0 0 0
0 0 0
0 0 0
0 0 0
0 0 0
0 0 0
0 0 0
0 0 0
0 0 0
0 0 0
0 0 0
0 0 0
0 0 0
0 0 0
0 0 0
0 0 0
0 0 0
0 0 0
0 0 0
0 0 0
0 0 0
0 0 0
0 0 0
0 0 0
0 0 0
0 0 0
0 0 0
0 0 0
0 0 0
0 0 0
0 0 0
0 0 0
0 0 0
0 0 0
0 0 0
0 0 0
0 0 0
0 0 0
0 0 0
0 0 0
0 0 0
0 0 0
0 0 0
0 0 0
0 0 0
0 0 0
0 0 0
0 0 0
0 0 0
0 0 0
0 0 0
0 0 0
0 0 0
0 0 0
0 0 0
0 0 0
0 0 0
0 0 0
0 0 0
0 0 0
0 0 0
0 0 0
0 0 0
0 0 0
0 0 0
0 0 0
0 0 0
0 0 0
0 0 0
0 0 0
0 0 0
0 0 0
0 0 0
0 0 0
0 0 0
0 0 0
0 0 0
0 0 0
0 0 0
0 0 0
0 0 0
0 0 0
0 0 0
0 0 0
0 0 0
0 0 0
0 0 0
0 0 0
0 0 0
0 0 0
0 0 0
0 0 0
0 0 0
0 0 0
0 0 0
0 0 0
0 0 0
0 0 0
0 0 0
0 0 0
0 0 0
0 0 0
0 0 0
0 0 0
0 0 0
0 0 0
0 0 0
0 0 0
0 0 0
0 0 0
0 0 0
0 0 0
0 0 0
0 0 0
0 0 0
0 0 0
0 0 0
0 0 0
0 0 0
0 0 0
0 0 0
0 0 0
0 0 0
0 0 0
0 0 0
0 0 0
0 0 0
0 0 0
0 0 0
0 0 0
0 0 0
0 0 0
0 0 0
0 0 0
0 0 0
0 0 0
0 0 0
0 0 0
0 0 0
0 0 0
0 0 0
0 0 0
0 0 0
0 0 0
0 0 0
0 0 0
0 0 0
0 0 0
0 0 0
0 0 0
0 0 0
0 0 0
0 0 0
0 0 0
0 0 0
0 0 0
0 0 0
0 0 0
0 0 0
0 0 0
0 0 0
0 0 0
0 0 0
0 0 0
0 0 0
0 0 0
0 0 0
0 0 0
0 0 0
0 0 0
0 0 0
0 0 0
0 0 0
0 0 0
0 0 0
0 0 0
0 0 0
0 0 0
0 0 0
0 0 0
0 0 0
0 0 0
0 0 0
0 0 0
0 0 0
0 0 0
0 0 0
0 0 0
0 0 0
0 0 0
0 0 0
0 0 0
0 0 0
0 0 0
0 0 0
0 0 0
0 0 0
0 0 0
0 0 0
0 0 0
0 0 0
0 0 0
0 0 0
0 0 0
0 0 0
0 0 0
0 0 0
0 0 0
0 0 0
0 0 0
0 0 0
0 0 0
0 0 0
0 0 0
0 0 0
0 0 0
0 0 0
0 0 0
0 0 0
0 0 0
0 0 0
0 0 0
0 0 0
0 0 0
0 0 0
0 0 0
0 0 0
0 0 0
0 0 0
0 0 0
0 0 0
0 0 0
0 0 0
0 0 0
0 0 0
0 0 0
0 0 0
0 0 0
0 0 0
0 0 0
0 0 0
0 0 0
0 0 0
0 0 0
0 0 0
0 0 0
0 0 0
0 0 0
0 0 0
0 0 0
0 0 0
0 0 0
0 0 0
0 0 0
0 0 0
0 0 0
0 0 0
0 0 0
0 0 0
0 0 0
0 0 0
0 0 0
0 0 0
0 0 0
0 0 0
0 0 0
0 0 0
0 0 0
0 0 0
0 0 0
0 0 0
0 0 0
0 0 0
0 0 0
0 0 0
0 0 0
0 0 0
0 0 0
0 0 0
0 0 0
0 0 0
0 0 0
0 0 0
0 0 0
0 0 0
0 0 0
0 0 0
0 0 0
0 0 0
0 0 0
0 0 0
0 0 0
0 0 0
0 0 0
0 0 0
0 0 0
0 0 0
0 0 0
0 0 0
0 0 0
0 0 0
0 0 0
0 0 0
0 0 0
0 0 0
0 0 0
0 0 0
0 0 0
0 0 0
0 0 0
0 0 0
0 0 0
0 0 0
0 0 0
0 0 0
0 0 0
0 0 0
0 0 0
0 0 0
0 0 0
0 0 0
0 0 0
0 0 0
0 0 0
0 0 0
0 0 0
0 0 0
0 0 0
0 0 0
0 0 0
0 0 0
0 0 0
0 0 0
0 0 0
0 0 0
0 0 0
0 0 0
0 0 0
0 0 0
0 0 0
0 0 0
0 0 0
0 0 0
0 0 0
0 0 0
0 0 0
0 0 0
0 0 0
0 0 0
0 0 0
0 0 0
0 0 0
0 0 0
0 0 0
0 0 0
0 0 0
0 0 0
0 0 0
0 0 0
0 0 0
0 0 0
0 0 0
0 0 0
0 0 0
0 0 0
0 0 0
0 0 0
0 0 0
0 0 0
0 0 0
0 0 0
0 0 0
0 0 0
0 0 0
0 0 0
0 0 0
0 0 0
0 0 0
0 0 0
0 0 0
0 0 0
0 0 0
0 0 0
0 0 0
0 0 0
0 0 0
0 0 0
0 0 0
0 0 0
0 0 0
0 0 0
0 0 0
0 0 0
0 0 0
0 0 0
0 0 0
0 0 0
0 0 0
0 0 0
0 0 0
0 0 0
0 0 0
0 0 0
0 0 0
0 0 0
0 0 0
0 0 0
0 0 0
0 0 0
0 0 0
0 0 0
0 0 0
0 0 0
0 0 0
0 0 0
0 0 0
0 0 0
0 0 0
0 0 0
0 0 0
0 0 0
0 0 0
0 0 0
0 0 0
0 0 0
0 0 0
0 0 0
0 0 0
0 0 0
0 0 0
0 0 0
0 0 0
0 0 0
0 0 0
0 0 0
0 0 0
0 0 0
0 0 0
0 0 0
0 0 0
0 0 0
0 0 0
0 0 0
0 0 0
0 0 0
0 0 0
0 0 0
0 0 0
0 0 0
0 0 0
0 0 0
0 0 0
0 0 0
0 0 0
0 0 0
0 0 0
0 0 0
0 0 0
0 0 0
0 0 0
0 0 0
0 0 0
0 0 0
0 0 0
0 0 0
0 0 0
0 0 0
0 0 0
0 0 0
0 0 0
0 0 0
0 0 0
0 0 0
0 0 0
0 0 0
0 0 0
0 0 0
0 0 0
0 0 0
0 0 0
0 0 0
0 0 0
0 0 0
0 0 0
0 0 0
0 0 0
0 0 0
0 0 0
0 0 0
0 0 0
0 0 0
0 0 0
0 0 0
0 0 0
0 0 0
0 0 0
0 0 0
0 0 0
0 0 0
0 0 0
0 0 0
0 0 0
0 0 0
0 0 0
0 0 0
0 0 0
0 0 0
0 0 0
0 0 0
0 0 0
0 0 0
0 0 0
0 0 0
0 0 0
0 0 0
0 0 0
0 0 0
0 0 0
0 0 0
0 0 0
0 0 0
0 0 0
0 0 0
0 0 0
0 0 0
0 0 0
0 0 0
0 0 0
0 0 0
0 0 0
0 0 0
0 0 0
0 0 0
0 0 0
0 0 0
0 0 0
0 0 0
0 0 0
0 0 0
0 0 0
0 0 0
0 0 0
0 0 0
0 0 0
0 0 0
0 0 0
0 0 0
0 0 0
0 0 0
0 0 0
0 0 0
0 0 0
0 0 0
0 0 0
0 0 0
0 0 0
0 0 0
0 0 0
0 0 0
0 0 0
0 0 0
0 0 0
0 0 0
0 0 0
0 0 0
0 0 0
0 0 0
0 0 0
0 0 0
0 0 0
0 0 0
0 0 0
0 0 0
0 0 0
0 0 0
0 0 0
0 0 0
0 0 0
0 0 0
0 0 0
0 0 0
0 0 0
0 0 0
0 0 0
0 0 0
0 0 0
0 0 0
0 0 0
0 0 0
0 0 0
0 0 0
0 0 0
0 0 0
0 0 0
0 0 0
0 0 0
0 0 0
0 0 0
0 0 0
0 0 0
0 0 0
0 0 0
0 0 0
0 0 0
0 0 0
0 0 0
0 0 0
0 0 0
0 0 0
0 0 0
0 0 0
0 0 0
0 0 0
0 0 0
0 0 0
0 0 0
0 0 0
0 0 0
0 0 0
0 0 0
0 0 0
0 0 0
0 0 0
0 0 0
0 0 0
0 0 0
0 0 0
0 0 0
0 0 0
0 0 0
0 0 0
0 0 0
0 0 0
0 0 0
0 0 0
0 0 0
0 0 0
0 0 0
0 0 0
0 0 0
0 0 0
0 0 0
0 0 0
0 0 0
0 0 0
0 0 0
0 0 0
0 0 0
0 0 0
0 0 0
0 0 0
0 0 0
0 0 0
0 0 0
0 0 0
0 0 0
0 0 0
0 0 0
0 0 0
0 0 0
0 0 0
0 0 0
0 0 0
0 0 0
0 0 0
0 0 0
0 0 0
0 0 0
0 0 0
0 0 0
0 0 0
0 0 0
0 0 0
0 0 0
0 0 0
0 0 0
0 0 0
0 0 0
0 0 0
0 0 0
0 0 0
0 0 0
0 0 0
0 0 0
0 0 0
0 0 0
0 0 0
0 0 0
0 0 0
0 0 0
0 0 0
0 0 0
0 0 0
0 0 0
0 0 0
0 0 0
0 0 0
0 0 0
0 0 0
0 0 0
0 0 0
0 0 0
0 0 0
0 0 0
0 0 0
0 0 0
0 0 0
0 0 0
0 0 0
0 0 0
0 0 0
0 0 0
0 0 0
0 0 0
0 0 0
0 0 0
0 0 0
0 0 0
0 0 0
0 0 0
0 0 0
0 0 0
0 0 0
0 0 0
0 0 0
0 0 0
0 0 0
0 0 0
0 0 0
0 0 0
0 0 0
0 0 0
0 0 0
0 0 0
0 0 0
0 0 0
0 0 0
0 0 0
0 0 0
0 0 0
0 0 0
0 0 0
0 0 0
0 0 0
0 0 0
0 0 0
0 0 0
0 0 0
0 0 0
0 0 0
0 0 0
0 0 0
0 0 0
0 0 0
0 0 0
0 0 0
0 0 0
0 0 0
0 0 0
0 0 0
0 0 0
0 0 0
0 0 0
0 0 0
0 0 0
0 0 0
0 0 0
0 0 0
0 0 0
0 0 0
0 0 0
0 0 0
0 0 0
0 0 0
0 0 0
0 0 0
0 0 0
0 0 0
0 0 0
0 0 0
0 0 0
0 0 0
0 0 0
0 0 0
0 0 0
0 0 0
0 0 0
0 0 0
0 0 0
0 0 0
0 0 0
0 0 0
0 0 0
0 0 0
0 0 0
0 0 0
0 0 0
0 0 0
0 0 0
0 0 0
0 0 0
0 0 0
0 0 0
0 0 0
0 0 0
0 0 0
0 0 0
0 0 0
0 0 0
0 0 0
0 0 0
0 0 0
0 0 0
0 0 0
0 0 0
0 0 0
0 0 0
0 0 0
0 0 0
0 0 0
0 0 0
0 0 0
0 0 0
0 0 0
0 0 0
0 0 0
0 0 0
0 0 0
0 0 0
0 0 0
0 0 0
0 0 0
0 0 0
0 0 0
0 0 0
0 0 0
0 0 0
0 0 0
0 0 0
0 0 0
0 0 0
0 0 0
0 0 0
0 0 0
0 0 0
0 0 0
0 0 0
0 0 0
0 0 0
0 0 0
0 0 0
0 0 0
0 0 0
0 0 0
0 0 0
0 0 0
0 0 0
0 0 0
0 0 0
0 0 0
0 0 0
0 0 0
0 0 0
0 0 0
0 0 0
0 0 0
0 0 0
0 0 0
0 0 0
0 0 0
0 0 0
0 0 0
0 0 0
0 0 0
0 0 0
0 0 0
0 0 0
0 0 0
0 0 0
0 0 0
0 0 0
0 0 0
0 0 0
0 0 0
0 0 0
0 0 0
0 0 0
0 0 0
0 0 0
0 0 0
0 0 0
0 0 0
0 0 0
0 0 0
0 0 0
0 0 0
0 0 0
0 0 0
0 0 0
0 0 0
0 0 0
0 0 0
0 0 0
0 0 0
0 0 0
0 0 0
0 0 0
0 0 0
0 0 0
0 0 0
0 0 0
0 0 0
0 0 0
0 0 0
0 0 0
0 0 0
0 0 0
0 0 0
0 0 0
0 0 0
0 0 0
0 0 0
0 0 0
0 0 0
0 0 0
0 0 0
0 0 0
0 0 0
0 0 0
0 0 0
0 0 0
0 0 0
0 0 0
0 0 0
0 0 0
0 0 0
0 0 0
0 0 0
0 0 0
0 0 0
0 0 0
0 0 0
0 0 0
0 0 0
0 0 0
0 0 0
0 0 0
0 0 0
0 0 0
0 0 0
0 0 0
0 0 0
0 0 0
0 0 0
0 0 0
0 0 0
0 0 0
0 0 0
0 0 0
0 0 0
0 0 0
0 0 0
0 0 0
0 0 0
0 0 0
0 0 0
0 0 0
0 0 0
0 0 0
0 0 0
0 0 0
0 0 0
0 0 0
0 0 0
0 0 0
0 0 0
0 0 0
0 0 0
0 0 0
0 0 0
0 0 0
0 0 0
0 0 0
0 0 0
0 0 0
0 0 0
0 0 0
0 0 0
0 0 0
0 0 0
0 0 0
0 0 0
0 0 0
0 0 0
0 0 0
0 0 0
0 0 0
0 0 0
0 0 0
0 0 0
0 0 0
0 0 0
0 0 0
0 0 0
0 0 0
0 0 0
0 0 0
0 0 0
0 0 0
0 0 0
0 0 0
0 0 0
0 0 0
0 0 0
0 0 0
0 0 0
0 0 0
0 0 0
0 0 0
0 0 0
0 0 0
0 0 0
0 0 0
0 0 0
0 0 0
0 0 0
0 0 0
0 0 0
0 0 0
0 0 0
0 0 0
0 0 0
0 0 0
0 0 0
0 0 0
0 0 0
0 0 0
0 0 0
0 0 0
0 0 0
0 0 0
0 0 0
0 0 0
0 0 0
0 0 0
0 0 0
0 0 0
0 0 0
0 0 0
0 0 0
0 0 0
0 0 0
0 0 0
0 0 0
0 0 0
0 0 0
0 0 0
0 0 0
0 0 0
0 0 0
0 0 0
0 0 0
0 0 0
0 0 0
0 0 0
0 0 0
0 0 0
0 0 0
0 0 0
0 0 0
0 0 0
0 0 0
0 0 0
0 0 0
0 0 0
0 0 0
0 0 0
0 0 0
0 0 0
0 0 0
0 0 0
0 0 0
0 0 0
0 0 0
0 0 0
0 0 0
0 0 0
0 0 0
0 0 0
0 0 0
0 0 0
0 0 0
0 0 0
0 0 0
0 0 0
0 0 0
0 0 0
0 0 0
0 0 0
0 0 0
0 0 0
0 0 0
0 0 0
0 0 0
0 0 0
0 0 0
0 0 0
0 0 0
0 0 0
0 0 0
0 0 0
0 0 0
0 0 0
0 0 0
0 0 0
0 0 0
0 0 0
0 0 0
0 0 0
0 0 0
0 0 0
0 0 0
0 0 0
0 0 0
0 0 0
0 0 0
0 0 0
0 0 0
0 0 0
0 0 0
0 0 0
0 0 0
0 0 0
0 0 0
0 0 0
0 0 0
0 0 0
0 0 0
0 0 0
0 0 0
0 0 0
0 0 0
0 0 0
0 0 0
0 0 0
0 0 0
0 0 0
0 0 0
0 0 0
0 0 0
0 0 0
0 0 0
0 0 0
0 0 0
0 0 0
0 0 0
0 0 0
0 0 0
0 0 0
0 0 0
0 0 0
0 0 0
0 0 0
0 0 0
0 0 0
0 0 0
0 0 0
0 0 0
0 0 0
0 0 0
0 0 0
0 0 0
0 0 0
0 0 0
0 0 0
0 0 0
0 0 0
0 0 0
0 0 0
0 0 0
0 0 0
0 0 0
0 0 0
0 0 0
0 0 0
0 0 0
0 0 0
0 0 0
0 0 0
0 0 0
0 0 0
0 0 0
0 0 0
0 0 0
0 0 0
0 0 0
0 0 0
0 0 0
0 0 0
0 0 0
0 0 0
0 0 0
0 0 0
0 0 0
0 0 0
0 0 0
0 0 0
0 0 0
0 0 0
0 0 0
0 0 0
0 0 0
0 0 0
0 0 0
0 0 0
0 0 0
0 0 0
0 0 0
0 0 0
0 0 0
0 0 0
0 0 0
0 0 0
0 0 0
0 0 0
0 0 0
0 0 0
0 0 0
0 0 0
0 0 0
0 0 0
0 0 0
0 0 0
0 0 0
0 0 0
0 0 0
0 0 0
0 0 0
0 0 0
0 0 0
0 0 0
0 0 0
0 0 0
0 0 0
0 0 0
0 0 0
0 0 0
0 0 0
0 0 0
0 0 0
0 0 0
0 0 0
0 0 0
0 0 0
0 0 0
0 0 0
0 0 0
0 0 0
0 0 0
0 0 0
0 0 0
0 0 0
0 0 0
0 0 0
0 0 0
0 0 0
0 0 0
0 0 0
0 0 0
0 0 0
0 0 0
0 0 0
0 0 0
0 0 0
0 0 0
0 0 0
0 0 0
0 0 0
0 0 0
0 0 0
0 0 0
0 0 0
0 0 0
0 0 0
0 0 0
0 0 0
0 0 0
0 0 0
0 0 0
0 0 0
0 0 0
0 0 0
0 0 0
0 0 0
0 0 0
0 0 0
0 0 0
0 0 0
0 0 0
0 0 0
0 0 0
0 0 0
0 0 0
0 0 0
0 0 0
0 0 0
0 0 0
0 0 0
0 0 0
0 0 0
0 0 0
0 0 0
0 0 0
0 0 0
0 0 0
0 0 0
0 0 0
0 0 0
0 0 0
0 0 0
0 0 0
0 0 0
0 0 0
0 0 0
0 0 0
0 0 0
0 0 0
0 0 0
0 0 0
0 0 0
0 0 0
0 0 0
0 0 0
0 0 0
0 0 0
0 0 0
0 0 0
0 0 0
0 0 0
0 0 0
0 0 0
0 0 0
0 0 0
0 0 0
0 0 0
0 0 0
0 0 0
0 0 0
0 0 0
0 0 0
0 0 0
0 0 0
0 0 0
0 0 0
0 0 0
0 0 0
0 0 0
0 0 0
0 0 0
0 0 0
0 0 0
0 0 0
0 0 0
0 0 0
0 0 0
0 0 0
0 0 0
0 0 0
0 0 0
0 0 0
0 0 0
0 0 0
0 0 0
0 0 0
0 0 0
0 0 0
0 0 0
0 0 0
0 0 0
0 0 0
0 0 0
0 0 0
0 0 0
0 0 0
0 0 0
0 0 0
0 0 0
0 0 0
0 0 0
0 0 0
0 0 0
0 0 0
0 0 0
0 0 0
0 0 0
0 0 0
0 0 0
0 0 0
0 0 0
0 0 0
0 0 0
0 0 0
0 0 0
0 0 0
0 0 0
0 0 0
0 0 0
0 0 0
0 0 0
0 0 0
0 0 0
0 0 0
0 0 0
0 0 0
0 0 0
0 0 0
0 0 0
0 0 0
0 0 0
0 0 0
0 0 0
0 0 0
0 0 0
0 0 0
0 0 0
0 0 0
0 0 0
0 0 0
0 0 0
0 0 0
0 0 0
0 0 0
0 0 0
0 0 0
0 0 0
0 0 0
0 0 0
0 0 0
0 0 0
0 0 0
0 0 0
0 0 0
0 0 0
0 0 0
0 0 0
0 0 0
0 0 0
0 0 0
0 0 0
0 0 0
0 0 0
0 0 0
0 0 0
0 0 0
0 0 0
0 0 0
0 0 0
0 0 0
0 0 0
0 0 0
0 0 0
0 0 0
0 0 0
0 0 0
0 0 0
0 0 0
0 0 0
0 0 0
0 0 0
0 0 0
0 0 0
0 0 0
0 0 0
0 0 0
0 0 0
0 0 0
0 0 0
0 0 0
0 0 0
0 0 0
0 0 0
0 0 0
0 0 0
0 0 0
0 0 0
0 0 0
0 0 0
0 0 0
0 0 0
0 0 0
0 0 0
0 0 0
0 0 0
0 0 0
0 0 0
0 0 0
0 0 0
0 0 0
0 0 0
0 0 0
0 0 0
0 0 0
0 0 0
0 0 0
0 0 0
0 0 0
0 0 0
0 0 0
0 0 0
0 0 0
0 0 0
0 0 0
0 0 0
0 0 0
0 0 0
0 0 0
0 0 0
0 0 0
0 0 0
0 0 0
0 0 0
0 0 0
0 0 0
0 0 0
0 0 0
0 0 0
0 0 0
0 0 0
0 0 0
0 0 0
0 0 0
0 0 0
0 0 0
0 0 0
0 0 0
0 0 0
0 0 0
0 0 0
0 0 0
0 0 0
0 0 0
0 0 0
0 0 0
0 0 0
0 0 0
0 0 0
0 0 0
0 0 0
0 0 0
0 0 0
0 0 0
0 0 0
0 0 0
0 0 0
0 0 0
0 0 0
0 0 0
0 0 0
0 0 0
0 0 0
0 0 0
0 0 0
0 0 0
0 0 0
0 0 0
0 0 0
0 0 0
0 0 0
0 0 0
0 0 0
0 0 0
0 0 0
0 0 0
0 0 0
0 0 0
0 0 0
0 0 0
0 0 0
0 0 0
0 0 0
0 0 0
0 0 0
0 0 0
0 0 0
0 0 0
0 0 0
0 0 0
0 0 0
0 0 0
0 0 0
0 0 0
0 0 0
0 0 0
0 0 0
0 0 0
0 0 0
0 0 0
0 0 0
0 0 0
0 0 0
0 0 0
0 0 0
0 0 0
0 0 0
0 0 0
0 0 0
0 0 0
0 0 0
0 0 0
0 0 0
0 0 0
0 0 0
0 0 0
0 0 0
0 0 0
0 0 0
0 0 0
0 0 0
0 0 0
0 0 0
0 0 0
0 0 0
0 0 0
0 0 0
0 0 0
0 0 0
0 0 0
0 0 0
0 0 0
0 0 0
0 0 0
0 0 0
0 0 0
0 0 0
0 0 0
0 0 0
0 0 0
0 0 0
0 0 0
0 0 0
0 0 0
0 0 0
0 0 0
0 0 0
0 0 0
0 0 0
0 0 0
0 0 0
0 0 0
0 0 0
0 0 0
0 0 0
0 0 0
0 0 0
0 0 0
0 0 0
0 0 0
0 0 0
0 0 0
0 0 0
0 0 0
0 0 0
0 0 0
0 0 0
0 0 0
0 0 0
0 0 0
0 0 0
0 0 0
0 0 0
0 0 0
0 0 0
0 0 0
0 0 0
0 0 0
0 0 0
0 0 0
0 0 0
0 0 0
0 0 0
0 0 0
0 0 0
0 0 0
0 0 0
0 0 0
0 0 0
0 0 0
0 0 0
0 0 0
0 0 0
0 0 0
0 0 0
0 0 0
0 0 0
0 0 0
0 0 0
0 0 0
0 0 0
0 0 0
0 0 0
0 0 0
0 0 0
0 0 0
0 0 0
0 0 0
0 0 0
0 0 0
0 0 0
0 0 0
0 0 0
0 0 0
0 0 0
0 0 0
0 0 0
0 0 0
0 0 0
0 0 0
0 0 0
0 0 0
0 0 0
0 0 0
0 0 0
0 0 0
0 0 0
0 0 0
0 0 0
0 0 0
0 0 0
0 0 0
0 0 0
0 0 0
0 0 0
0 0 0
0 0 0
0 0 0
0 0 0
0 0 0
0 0 0
0 0 0
0 0 0
0 0 0
0 0 0
0 0 0
0 0 0
0 0 0
0 0 0
0 0 0
0 0 0
0 0 0
0 0 0
0 0 0
0 0 0
0 0 0
0 0 0
0 0 0
0 0 0
0 0 0
0 0 0
0 0 0
0 0 0
0 0 0
0 0 0
0 0 0
0 0 0
0 0 0
0 0 0
0 0 0
0 0 0
0 0 0
0 0 0
0 0 0
0 0 0
0 0 0
0 0 0
0 0 0
0 0 0
0 0 0
0 0 0
0 0 0
0 0 0
0 0 0
0 0 0
0 0 0
0 0 0
0 0 0
0 0 0
0 0 0
0 0 0
0 0 0
0 0 0
0 0 0
0 0 0
0 0 0
0 0 0
0 0 0
0 0 0
0 0 0
0 0 0
0 0 0
0 0 0
0 0 0
0 0 0
0 0 0
0 0 0
0 0 0
0 0 0
0 0 0
0 0 0
0 0 0
0 0 0
0 0 0
0 0 0
0 0 0
0 0 0
0 0 0
0 0 0
0 0 0
0 0 0
0 0 0
0 0 0
0 0 0
0 0 0
0 0 0
0 0 0
0 0 0
0 0 0
0 0 0
0 0 0
0 0 0
0 0 0
0 0 0
0 0 0
0 0 0
0 0 0
0 0 0
0 0 0
0 0 0
0 0 0
0 0 0
0 0 0
0 0 0
0 0 0
0 0 0
0 0 0
0 0 0
0 0 0
0 0 0
0 0 0
0 0 0
0 0 0
0 0 0
0 0 0
0 0 0
0 0 0
0 0 0
0 0 0
0 0 0
0 0 0
0 0 0
0 0 0
0 0 0
0 0 0
0 0 0
0 0 0
0 0 0
0 0 0
0 0 0
0 0 0
0 0 0
0 0 0
0 0 0
0 0 0
0 0 0
0 0 0
0 0 0
0 0 0
0 0 0
0 0 0
0 0 0
0 0 0
0 0 0
0 0 0
0 0 0
0 0 0
0 0 0
0 0 0
0 0 0
0 0 0
0 0 0
0 0 0
0 0 0
0 0 0
0 0 0
0 0 0
0 0 0
0 0 0
0 0 0
0 0 0
0 0 0
0 0 0
0 0 0
0 0 0
0 0 0
0 0 0
0 0 0
0 0 0
0 0 0
0 0 0
0 0 0
0 0 0
0 0 0
0 0 0
0 0 0
0 0 0
0 0 0
0 0 0
0 0 0
0 0 0
0 0 0
0 0 0
0 0 0
0 0 0
0 0 0
0 0 0
0 0 0
0 0 0
0 0 0
0 0 0
0 0 0
0 0 0
0 0 0
0 0 0
0 0 0
0 0 0
0 0 0
0 0 0
0 0 0
0 0 0
0 0 0
0 0 0
0 0 0
0 0 0
0 0 0
0 0 0
0 0 0
0 0 0
0 0 0
0 0 0
0 0 0
0 0 0
0 0 0
0 0 0
0 0 0
0 0 0
0 0 0
0 0 0
0 0 0
0 0 0
0 0 0
0 0 0
0 0 0
0 0 0
0 0 0
0 0 0
0 0 0
0 0 0
0 0 0
0 0 0
0 0 0
0 0 0
0 0 0
0 0 0
0 0 0
0 0 0
0 0 0
0 0 0
0 0 0
0 0 0
0 0 0
0 0 0
0 0 0
0 0 0
0 0 0
0 0 0
0 0 0
0 0 0
0 0 0
0 0 0
0 0 0
0 0 0
0 0 0
0 0 0
0 0 0
0 0 0
0 0 0
0 0 0
0 0 0
0 0 0
0 0 0
0 0 0
0 0 0
0 0 0
0 0 0
0 0 0
0 0 0
0 0 0
0 0 0
0 0 0
0 0 0
0 0 0
0 0 0
0 0 0
0 0 0
0 0 0
0 0 0
0 0 0
0 0 0
0 0 0
0 0 0
0 0 0
0 0 0
0 0 0
0 0 0
0 0 0
0 0 0
0 0 0
0 0 0
0 0 0
0 0 0
0 0 0
0 0 0
0 0 0
0 0 0
0 0 0
0 0 0
0 0 0
0 0 0
0 0 0
0 0 0
0 0 0
0 0 0
0 0 0
0 0 0
0 0 0
0 0 0
0 0 0
0 0 0
0 0 0
0 0 0
0 0 0
0 0 0
0 0 0
0 0 0
0 0 0
0 0 0
0 0 0
0 0 0
0 0 0
0 0 0
0 0 0
0 0 0
0 0 0
0 0 0
0 0 0
0 0 0
0 0 0
0 0 0
0 0 0
0 0 0
0 0 0
0 0 0
0 0 0
0 0 0
0 0 0
0 0 0
0 0 0
0 0 0
0 0 0
0 0 0
0 0 0
0 0 0
0 0 0
0 0 0
0 0 0
0 0 0
0 0 0
0 0 0
0 0 0
0 0 0
0 0 0
0 0 0
0 0 0
0 0 0
0 0 0
0 0 0
0 0 0
0 0 0
0 0 0
0 0 0
0 0 0
0 0 0
0 0 0
0 0 0
0 0 0
0 0 0
0 0 0
0 0 0
0 0 0
0 0 0
0 0 0
0 0 0
0 0 0
0 0 0
0 0 0
0 0 0
0 0 0
0 0 0
0 0 0
0 0 0
0 0 0
0 0 0
0 0 0
0 0 0
0 0 0
0 0 0
0 0 0
0 0 0
0 0 0
0 0 0
0 0 0
0 0 0
0 0 0
0 0 0
0 0 0
0 0 0
0 0 0
0 0 0
0 0 0
0 0 0
0 0 0
0 0 0
0 0 0
0 0 0
0 0 0
0 0 0
0 0 0
0 0 0
0 0 0
0 0 0
0 0 0
0 0 0
0 0 0
0 0 0
0 0 0
0 0 0
0 0 0
0 0 0
0 0 0
0 0 0
0 0 0
0 0 0
0 0 0
0 0 0
0 0 0
0 0 0
0 0 0
0 0 0
0 0 0
0 0 0
0 0 0
0 0 0
0 0 0
0 0 0
0 0 0
0 0 0
0 0 0
0 0 0
0 0 0
0 0 0
0 0 0
0 0 0
0 0 0
0 0 0
0 0 0
0 0 0
0 0 0
0 0 0
0 0 0
0 0 0
0 0 0
0 0 0
0 0 0
0 0 0
0 0 0
0 0 0
0 0 0
0 0 0
0 0 0
0 0 0
0 0 0
0 0 0
0 0 0
0 0 0
0 0 0
0 0 0
0 0 0
0 0 0
0 0 0
0 0 0
0 0 0
0 0 0
0 0 0
0 0 0
0 0 0
0 0 0
0 0 0
0 0 0
0 0 0
0 0 0
0 0 0
0 0 0
0 0 0
0 0 0
0 0 0
0 0 0
0 0 0
0 0 0
0 0 0
0 0 0
0 0 0
0 0 0
0 0 0
0 0 0
0 0 0
0 0 0
0 0 0
0 0 0
0 0 0
0 0 0
0 0 0
0 0 0
0 0 0
0 0 0
0 0 0
0 0 0
0 0 0
0 0 0
0 0 0
0 0 0
0 0 0
0 0 0
0 0 0
0 0 0
0 0 0
0 0 0
0 0 0
0 0 0
0 0 0
0 0 0
0 0 0
0 0 0
0 0 0
0 0 0
0 0 0
0 0 0
0 0 0
0 0 0
0 0 0
0 0 0
0 0 0
0 0 0
0 0 0
0 0 0
0 0 0
0 0 0
0 0 0
0 0 0
0 0 0
0 0 0
0 0 0
0 0 0
0 0 0
0 0 0
0 0 0
0 0 0
0 0 0
0 0 0
0 0 0
0 0 0
0 0 0
0 0 0
0 0 0
0 0 0
0 0 0
0 0 0
0 0 0
0 0 0
0 0 0
0 0 0
0 0 0
0 0 0
0 0 0
0 0 0
0 0 0
0 0 0
0 0 0
0 0 0
0 0 0
0 0 0
0 0 0
0 0 0
0 0 0
0 0 0
0 0 0
0 0 0
0 0 0
0 0 0
0 0 0
0 0 0
0 0 0
0 0 0
0 0 0
0 0 0
0 0 0
0 0 0
0 0 0
0 0 0
0 0 0
0 0 0
0 0 0
0 0 0
0 0 0
0 0 0
0 0 0
0 0 0
0 0 0
0 0 0
0 0 0
0 0 0
0 0 0
0 0 0
0 0 0
0 0 0
0 0 0
0 0 0
0 0 0
0 0 0
0 0 0
0 0 0
0 0 0
0 0 0
0 0 0
0 0 0
0 0 0
0 0 0
0 0 0
0 0 0
0 0 0
0 0 0
0 0 0
0 0 0
0 0 0
0 0 0
0 0 0
0 0 0
0 0 0
0 0 0
0 0 0
0 0 0
0 0 0
0 0 0
0 0 0
0 0 0
0 0 0
0 0 0
0 0 0
0 0 0
0 0 0
0 0 0
0 0 0
0 0 0
0 0 0
0 0 0
0 0 0
0 0 0
0 0 0
0 0 0
0 0 0
0 0 0
0 0 0
0 0 0
0 0 0
0 0 0
0 0 0
0 0 0
0 0 0
0 0 0
0 0 0
0 0 0
0 0 0
0 0 0
0 0 0
0 0 0
0 0 0
0 0 0
0 0 0
0 0 0
0 0 0
0 0 0
0 0 0
0 0 0
0 0 0
0 0 0
0 0 0
0 0 0
0 0 0
0 0 0
0 0 0
0 0 0
0 0 0
0 0 0
0 0 0
0 0 0
0 0 0
0 0 0
0 0 0
0 0 0
0 0 0
0 0 0
0 0 0
0 0 0
0 0 0
0 0 0
0 0 0
0 0 0
0 0 0
0 0 0
0 0 0
0 0 0
0 0 0
0 0 0
0 0 0
0 0 0
0 0 0
0 0 0
0 0 0
0 0 0
0 0 0
0 0 0
0 0 0
0 0 0
0 0 0
0 0 0
0 0 0
0 0 0
0 0 0
0 0 0
0 0 0
0 0 0
0 0 0
0 0 0
0 0 0
0 0 0
0 0 0
0 0 0
0 0 0
0 0 0
0 0 0
0 0 0
0 0 0
0 0 0
0 0 0
0 0 0
0 0 0
0 0 0
0 0 0
0 0 0
0 0 0
0 0 0
0 0 0
0 0 0
0 0 0
0 0 0
0 0 0
0 0 0
0 0 0
0 0 0
0 0 0
0 0 0
0 0 0
0 0 0
0 0 0
0 0 0
0 0 0
0 0 0
0 0 0
0 0 0
0 0 0
0 0 0
0 0 0
0 0 0
0 0 0
0 0 0
0 0 0
0 0 0
0 0 0
0 0 0
0 0 0
0 0 0
0 0 0
0 0 0
0 0 0
0 0 0
0 0 0
0 0 0
0 0 0
0 0 0
0 0 0
0 0 0
0 0 0
0 0 0
0 0 0
0 0 0
0 0 0
0 0 0
0 0 0
0 0 0
0 0 0
0 0 0
0 0 0
0 0 0
0 0 0
0 0 0
0 0 0
0 0 0
0 0 0
0 0 0
0 0 0
0 0 0
0 0 0
0 0 0
0 0 0
0 0 0
0 0 0
0 0 0
0 0 0
0 0 0
0 0 0
0 0 0
0 0 0
0 0 0
0 0 0
0 0 0
0 0 0
0 0 0
0 0 0
0 0 0
0 0 0
0 0 0
0 0 0
0 0 0
0 0 0
0 0 0
0 0 0
0 0 0
0 0 0
0 0 0
0 0 0
0 0 0
0 0 0
0 0 0
0 0 0
0 0 0
0 0 0
0 0 0
0 0 0
0 0 0
0 0 0
0 0 0
0 0 0
0 0 0
0 0 0
0 0 0
0 0 0
0 0 0
0 0 0
0 0 0
0 0 0
0 0 0
0 0 0
0 0 0
0 0 0
0 0 0
0 0 0
0 0 0
0 0 0
0 0 0
0 0 0
0 0 0
0 0 0
0 0 0
0 0 0
0 0 0
0 0 0
0 0 0
0 0 0
0 0 0
0 0 0
0 0 0
0 0 0
0 0 0
0 0 0
0 0 0
0 0 0
0 0 0
0 0 0
0 0 0
0 0 0
0 0 0
0 0 0
0 0 0
0 0 0
0 0 0
0 0 0
0 0 0
0 0 0
0 0 0
0 0 0
0 0 0
0 0 0
0 0 0
0 0 0
0 0 0
0 0 0
0 0 0
0 0 0
0 0 0
0 0 0
0 0 0
0 0 0
0 0 0
0 0 0
0 0 0
0 0 0
0 0 0
0 0 0
0 0 0
0 0 0
0 0 0
0 0 0
0 0 0
0 0 0
0 0 0
0 0 0
0 0 0
0 0 0
0 0 0
0 0 0
0 0 0
0 0 0
0 0 0
0 0 0
0 0 0
0 0 0
0 0 0
0 0 0
0 0 0
0 0 0
0 0 0
0 0 0
0 0 0
0 0 0
0 0 0
0 0 0
0 0 0
0 0 0
0 0 0
0 0 0
0 0 0
0 0 0
0 0 0
0 0 0
0 0 0
0 0 0
0 0 0
0 0 0
0 0 0
0 0 0
0 0 0
0 0 0
0 0 0
0 0 0
0 0 0
0 0 0
0 0 0
0 0 0
0 0 0
0 0 0
0 0 0
0 0 0
0 0 0
0 0 0
0 0 0
0 0 0
0 0 0
0 0 0
0 0 0
0 0 0
0 0 0
0 0 0
0 0 0
0 0 0
0 0 0
0 0 0
0 0 0
0 0 0
0 0 0
0 0 0
0 0 0
0 0 0
0 0 0
0 0 0
0 0 0
0 0 0
0 0 0
0 0 0
0 0 0
0 0 0
0 0 0
0 0 0
0 0 0
0 0 0
0 0 0
0 0 0
0 0 0
0 0 0
0 0 0
0 0 0
0 0 0
0 0 0
0 0 0
0 0 0
0 0 0
0 0 0
0 0 0
0 0 0
0 0 0
0 0 0
0 0 0
0 0 0
0 0 0
0 0 0
0 0 0
0 0 0
0 0 0
0 0 0
0 0 0
0 0 0
0 0 0
0 0 0
0 0 0
0 0 0
0 0 0
0 0 0
0 0 0
0 0 0
0 0 0
0 0 0
0 0 0
0 0 0
0 0 0
0 0 0
0 0 0
0 0 0
0 0 0
0 0 0
0 0 0
0 0 0
0 0 0
0 0 0
0 0 0
0 0 0
0 0 0
0 0 0
0 0 0
0 0 0
0 0 0
0 0 0
0 0 0
0 0 0
0 0 0
0 0 0
0 0 0
0 0 0
0 0 0
0 0 0
0 0 0
0 0 0
0 0 0
0 0 0
0 0 0
0 0 0
0 0 0
0 0 0
0 0 0
0 0 0
0 0 0
0 0 0
0 0 0
0 0 0
0 0 0
0 0 0
0 0 0
0 0 0
0 0 0
0 0 0
0 0 0
0 0 0
0 0 0
0 0 0
0 0 0
0 0 0
0 0 0
0 0 0
0 0 0
0 0 0
0 0 0
0 0 0
0 0 0
0 0 0
0 0 0
0 0 0
0 0 0
0 0 0
0 0 0
0 0 0
0 0 0
0 0 0
0 0 0
0 0 0
0 0 0
0 0 0
0 0 0
0 0 0
0 0 0
0 0 0
0 0 0
0 0 0
0 0 0
0 0 0
0 0 0
0 0 0
0 0 0
0 0 0
0 0 0
0 0 0
0 0 0
0 0 0
0 0 0
0 0 0
0 0 0
0 0 0
0 0 0
0 0 0
0 0 0
0 0 0
0 0 0
0 0 0
0 0 0
0 0 0
0 0 0
0 0 0
0 0 0
0 0 0
0 0 0
0 0 0
0 0 0
0 0 0
0 0 0
0 0 0
0 0 0
0 0 0
0 0 0
0 0 0
0 0 0
0 0 0
0 0 0
0 0 0
0 0 0
0 0 0
0 0 0
0 0 0
0 0 0
0 0 0
0 0 0
0 0 0
0 0 0
0 0 0
0 0 0
0 0 0
0 0 0
0 0 0
0 0 0
0 0 0
0 0 0
0 0 0
0 0 0
0 0 0
0 0 0
0 0 0
0 0 0
0 0 0
0 0 0
0 0 0
0 0 0
0 0 0
0 0 0
0 0 0
0 0 0
0 0 0
0 0 0
0 0 0
0 0 0
0 0 0
0 0 0
0 0 0
0 0 0
0 0 0
0 0 0
0 0 0
0 0 0
0 0 0
0 0 0
0 0 0
0 0 0
0 0 0
0 0 0
0 0 0
0 0 0
0 0 0
0 0 0
0 0 0
0 0 0
0 0 0
0 0 0
0 0 0
0 0 0
0 0 0
0 0 0
0 0 0
0 0 0
0 0 0
0 0 0
0 0 0
0 0 0
0 0 0
0 0 0
0 0 0
0 0 0
0 0 0
0 0 0
0 0 0
0 0 0
0 0 0
0 0 0
0 0 0
0 0 0
0 0 0
0 0 0
0 0 0
0 0 0
0 0 0
0 0 0
0 0 0
0 0 0
0 0 0
0 0 0
0 0 0
0 0 0
0 0 0
0 0 0
0 0 0
0 0 0
0 0 0
0 0 0
0 0 0
0 0 0
0 0 0
0 0 0
0 0 0
0 0 0
0 0 0
0 0 0
0 0 0
0 0 0
0 0 0
0 0 0
0 0 0
0 0 0
0 0 0
0 0 0
0 0 0
0 0 0
0 0 0
0 0 0
0 0 0
0 0 0
0 0 0
0 0 0
0 0 0
0 0 0
0 0 0
0 0 0
0 0 0
0 0 0
0 0 0
0 0 0
0 0 0
0 0 0
0 0 0
0 0 0
0 0 0
0 0 0
0 0 0
0 0 0
0 0 0
0 0 0
0 0 0
0 0 0
0 0 0
0 0 0
0 0 0
0 0 0
0 0 0
0 0 0
0 0 0
0 0 0
0 0 0
0 0 0
0 0 0
0 0 0
0 0 0
0 0 0
0 0 0
0 0 0
0 0 0
0 0 0
0 0 0
0 0 0
0 0 0
0 0 0
0 0 0
0 0 0
0 0 0
0 0 0
0 0 0
0 0 0
0 0 0
0 0 0
0 0 0
0 0 0
0 0 0
0 0 0
0 0 0
0 0 0
0 0 0
0 0 0
0 0 0
0 0 0
0 0 0
0 0 0
0 0 0
0 0 0
0 0 0
0 0 0
0 0 0
0 0 0
0 0 0
0 0 0
0 0 0
0 0 0
0 0 0
0 0 0
0 0 0
0 0 0
0 0 0
0 0 0
0 0 0
0 0 0
0 0 0
0 0 0
0 0 0
0 0 0
0 0 0
0 0 0
0 0 0
0 0 0
0 0 0
0 0 0
0 0 0
0 0 0
0 0 0
0 0 0
0 0 0
0 0 0
0 0 0
0 0 0
0 0 0
0 0 0
0 0 0
0 0 0
0 0 0
0 0 0
0 0 0
0 0 0
0 0 0
0 0 0
0 0 0
0 0 0
0 0 0
0 0 0
0 0 0
0 0 0
0 0 0
0 0 0
0 0 0
0 0 0
0 0 0
0 0 0
0 0 0
0 0 0
0 0 0
0 0 0
0 0 0
0 0 0
0 0 0
0 0 0
0 0 0
0 0 0
0 0 0
0 0 0
0 0 0
0 0 0
0 0 0
0 0 0
0 0 0
0 0 0
0 0 0
0 0 0
0 0 0
0 0 0
0 0 0
0 0 0
0 0 0
0 0 0
0 0 0
0 0 0
0 0 0
0 0 0
0 0 0
0 0 0
0 0 0
0 0 0
0 0 0
0 0 0
0 0 0
0 0 0
0 0 0
0 0 0
0 0 0
0 0 0
0 0 0
0 0 0
0 0 0
0 0 0
0 0 0
0 0 0
0 0 0
0 0 0
0 0 0
0 0 0
0 0 0
0 0 0
0 0 0
0 0 0
0 0 0
0 0 0
0 0 0
0 0 0
0 0 0
0 0 0
0 0 0
0 0 0
0 0 0
0 0 0
0 0 0
0 0 0
0 0 0
0 0 0
0 0 0
0 0 0
0 0 0
0 0 0
0 0 0
0 0 0
0 0 0
0 0 0
0 0 0
0 0 0
0 0 0
0 0 0
0 0 0
0 0 0
0 0 0
0 0 0
0 0 0
0 0 0
0 0 0
0 0 0
0 0 0
0 0 0
0 0 0
0 0 0
0 0 0
0 0 0
0 0 0
0 0 0
0 0 0
0 0 0
0 0 0
0 0 0
0 0 0
0 0 0
0 0 0
0 0 0
0 0 0
0 0 0
0 0 0
0 0 0
0 0 0
0 0 0
0 0 0
0 0 0
0 0 0
0 0 0
0 0 0
0 0 0
0 0 0
0 0 0
0 0 0
0 0 0
0 0 0
0 0 0
0 0 0
0 0 0
0 0 0
0 0 0
0 0 0
0 0 0
0 0 0
0 0 0
0 0 0
0 0 0
0 0 0
0 0 0
0 0 0
0 0 0
0 0 0
0 0 0
0 0 0
0 0 0
0 0 0
0 0 0
0 0 0
0 0 0
0 0 0
0 0 0
0 0 0
0 0 0
0 0 0
0 0 0
0 0 0
0 0 0
0 0 0
0 0 0
0 0 0
0 0 0
0 0 0
0 0 0
0 0 0
0 0 0
0 0 0
0 0 0
0 0 0
0 0 0
0 0 0
0 0 0
0 0 0
0 0 0
0 0 0
0 0 0
0 0 0
0 0 0
0 0 0
0 0 0
0 0 0
0 0 0
0 0 0
0 0 0
0 0 0
0 0 0
0 0 0
0 0 0
0 0 0
0 0 0
0 0 0
0 0 0
0 0 0
0 0 0
0 0 0
0 0 0
0 0 0
0 0 0
0 0 0
0 0 0
0 0 0
0 0 0
0 0 0
0 0 0
0 0 0
0 0 0
0 0 0
0 0 0
0 0 0
0 0 0
0 0 0
0 0 0
0 0 0
0 0 0
0 0 0
0 0 0
0 0 0
0 0 0
0 0 0
0 0 0
0 0 0
0 0 0
0 0 0
0 0 0
0 0 0
0 0 0
0 0 0
0 0 0
0 0 0
0 0 0
0 0 0
0 0 0
0 0 0
0 0 0
0 0 0
0 0 0
0 0 0
0 0 0
0 0 0
0 0 0
0 0 0
0 0 0
0 0 0
0 0 0
0 0 0
0 0 0
0 0 0
0 0 0
0 0 0
0 0 0
0 0 0
0 0 0
0 0 0
0 0 0
0 0 0
0 0 0
0 0 0
0 0 0
0 0 0
0 0 0
0 0 0
0 0 0
0 0 0
0 0 0
0 0 0
0 0 0
0 0 0
0 0 0
0 0 0
0 0 0
0 0 0
0 0 0
0 0 0
0 0 0
0 0 0
0 0 0
0 0 0
0 0 0
0 0 0
0 0 0
0 0 0
0 0 0
0 0 0
0 0 0
0 0 0
0 0 0
0 0 0
0 0 0
0 0 0
0 0 0
0 0 0
0 0 0
0 0 0
0 0 0
0 0 0
0 0 0
0 0 0
0 0 0
0 0 0
0 0 0
0 0 0
0 0 0
0 0 0
0 0 0
0 0 0
0 0 0
0 0 0
0 0 0
0 0 0
0 0 0
0 0 0
0 0 0
0 0 0
0 0 0
0 0 0
0 0 0
0 0 0
0 0 0
0 0 0
0 0 0
0 0 0
0 0 0
0 0 0
0 0 0
0 0 0
0 0 0
0 0 0
0 0 0
0 0 0
0 0 0
0 0 0
0 0 0
0 0 0
0 0 0
0 0 0
0 0 0
0 0 0
0 0 0
0 0 0
0 0 0
0 0 0
0 0 0
0 0 0
0 0 0
0 0 0
0 0 0
0 0 0
0 0 0
0 0 0
0 0 0
0 0 0
0 0 0
0 0 0
0 0 0
0 0 0
0 0 0
0 0 0
0 0 0
0 0 0
0 0 0
0 0 0
0 0 0
0 0 0
0 0 0
0 0 0
0 0 0
0 0 0
0 0 0
0 0 0
0 0 0
0 0 0
0 0 0
0 0 0
0 0 0
0 0 0
0 0 0
0 0 0
0 0 0
0 0 0
0 0 0
0 0 0
0 0 0
0 0 0
0 0 0
0 0 0
0 0 0
0 0 0
0 0 0
0 0 0
0 0 0
0 0 0
0 0 0
0 0 0
0 0 0
0 0 0
0 0 0
0 0 0
0 0 0
0 0 0
0 0 0
0 0 0
0 0 0
0 0 0
0 0 0
0 0 0
0 0 0
0 0 0
0 0 0
0 0 0
0 0 0
0 0 0
0 0 0
0 0 0
0 0 0
0 0 0
0 0 0
0 0 0
0 0 0
0 0 0
0 0 0
0 0 0
0 0 0
0 0 0
0 0 0
0 0 0
0 0 0
0 0 0
0 0 0
0 0 0
0 0 0
0 0 0
0 0 0
0 0 0
0 0 0
0 0 0
0 0 0
0 0 0
0 0 0
0 0 0
0 0 0
0 0 0
0 0 0
0 0 0
0 0 0
0 0 0
0 0 0
0 0 0
0 0 0
0 0 0
0 0 0
0 0 0
0 0 0
0 0 0
0 0 0
0 0 0
0 0 0
0 0 0
0 0 0
0 0 0
0 0 0
0 0 0
0 0 0
0 0 0
0 0 0
0 0 0
0 0 0
0 0 0
0 0 0
0 0 0
0 0 0
0 0 0
0 0 0
0 0 0
0 0 0
0 0 0
0 0 0
0 0 0
0 0 0
0 0 0
0 0 0
0 0 0
0 0 0
0 0 0
0 0 0
0 0 0
0 0 0
0 0 0
0 0 0
0 0 0
0 0 0
0 0 0
0 0 0
0 0 0
0 0 0
0 0 0
0 0 0
0 0 0
0 0 0
0 0 0
0 0 0
0 0 0
0 0 0
0 0 0
0 0 0
0 0 0
0 0 0
0 0 0
0 0 0
0 0 0
0 0 0
0 0 0
0 0 0
0 0 0
0 0 0
0 0 0
0 0 0
0 0 0
0 0 0
0 0 0
0 0 0
0 0 0
0 0 0
0 0 0
0 0 0
0 0 0
0 0 0
0 0 0
0 0 0
0 0 0
0 0 0
0 0 0
0 0 0
0 0 0
0 0 0
0 0 0
0 0 0
0 0 0
0 0 0
0 0 0
0 0 0
0 0 0
0 0 0
0 0 0
0 0 0
0 0 0
0 0 0
0 0 0
0 0 0
0 0 0
0 0 0
0 0 0
0 0 0
0 0 0
0 0 0
0 0 0
0 0 0
0 0 0
0 0 0
0 0 0
0 0 0
0 0 0
0 0 0
0 0 0
0 0 0
0 0 0
0 0 0
0 0 0
0 0 0
0 0 0
0 0 0
0 0 0
0 0 0
0 0 0
0 0 0
0 0 0
0 0 0
0 0 0
0 0 0
0 0 0
0 0 0
0 0 0
0 0 0
0 0 0
0 0 0
0 0 0
0 0 0
0 0 0
0 0 0
0 0 0
0 0 0
0 0 0
0 0 0
0 0 0
0 0 0
0 0 0
0 0 0
0 0 0
0 0 0
0 0 0
0 0 0
0 0 0
0 0 0
0 0 0
0 0 0
0 0 0
0 0 0
0 0 0
0 0 0
0 0 0
0 0 0
0 0 0
0 0 0
0 0 0
0 0 0
0 0 0
0 0 0
0 0 0
0 0 0
0 0 0
0 0 0
0 0 0
0 0 0
0 0 0
0 0 0
0 0 0
0 0 0
0 0 0
0 0 0
0 0 0
0 0 0
0 0 0
0 0 0
0 0 0
0 0 0
0 0 0
0 0 0
0 0 0
0 0 0
0 0 0
0 0 0
0 0 0
0 0 0
0 0 0
0 0 0
0 0 0
0 0 0
0 0 0
0 0 0
0 0 0
0 0 0
0 0 0
0 0 0
0 0 0
0 0 0
0 0 0
0 0 0
0 0 0
0 0 0
0 0 0
0 0 0
0 0 0
0 0 0
0 0 0
0 0 0
0 0 0
0 0 0
0 0 0
0 0 0
0 0 0
0 0 0
0 0 0
0 0 0
0 0 0
0 0 0
0 0 0
0 0 0
0 0 0
0 0 0
0 0 0
0 0 0
0 0 0
0 0 0
0 0 0
0 0 0
0 0 0
0 0 0
0 0 0
0 0 0
0 0 0
0 0 0
0 0 0
0 0 0
0 0 0
0 0 0
0 0 0
0 0 0
0 0 0
0 0 0
0 0 0
0 0 0
0 0 0
0 0 0
0 0 0
0 0 0
0 0 0
0 0 0
0 0 0
0 0 0
0 0 0
0 0 0
0 0 0
0 0 0
0 0 0
0 0 0
0 0 0
0 0 0
0 0 0
0 0 0
0 0 0
0 0 0
0 0 0
0 0 0
0 0 0
0 0 0
0 0 0
0 0 0
0 0 0
0 0 0
0 0 0
0 0 0
0 0 0
0 0 0
0 0 0
0 0 0
0 0 0
0 0 0
0 0 0
0 0 0
0 0 0
0 0 0
0 0 0
0 0 0
0 0 0
0 0 0
0 0 0
0 0 0
0 0 0
0 0 0
0 0 0
0 0 0
0 0 0
0 0 0
0 0 0
0 0 0
0 0 0
0 0 0
0 0 0
0 0 0
0 0 0
0 0 0
0 0 0
0 0 0
0 0 0
0 0 0
0 0 0
0 0 0
0 0 0
0 0 0
0 0 0
0 0 0
0 0 0
0 0 0
0 0 0
0 0 0
0 0 0
0 0 0
0 0 0
0 0 0
0 0 0
0 0 0
0 0 0
0 0 0
0 0 0
0 0 0
0 0 0
0 0 0
0 0 0
0 0 0
0 0 0
0 0 0
0 0 0
0 0 0
0 0 0
0 0 0
0 0 0
0 0 0
0 0 0
0 0 0
0 0 0
0 0 0
0 0 0
0 0 0
0 0 0
0 0 0
0 0 0
0 0 0
0 0 0
0 0 0
0 0 0
0 0 0
0 0 0
0 0 0
0 0 0
0 0 0
0 0 0
0 0 0
0 0 0
0 0 0
0 0 0
0 0 0
0 0 0
0 0 0
0 0 0
0 0 0
0 0 0
0 0 0
0 0 0
0 0 0
0 0 0
0 0 0
0 0 0
0 0 0
0 0 0
0 0 0
0 0 0
0 0 0
0 0 0
0 0 0
0 0 0
0 0 0
0 0 0
0 0 0
0 0 0
0 0 0
0 0 0
0 0 0
0 0 0
0 0 0
0 0 0
0 0 0
0 0 0
0 0 0
0 0 0
0 0 0
0 0 0
0 0 0
0 0 0
0 0 0
0 0 0
0 0 0
0 0 0
0 0 0
0 0 0
0 0 0
0 0 0
0 0 0
0 0 0
0 0 0
0 0 0
0 0 0
0 0 0
0 0 0
0 0 0
0 0 0
0 0 0
0 0 0
0 0 0
0 0 0
0 0 0
0 0 0
0 0 0
0 0 0
0 0 0
0 0 0
0 0 0
0 0 0
0 0 0
0 0 0
0 0 0
0 0 0
0 0 0
0 0 0
0 0 0
0 0 0
0 0 0
0 0 0
0 0 0
0 0 0
0 0 0
0 0 0
0 0 0
0 0 0
0 0 0
0 0 0
0 0 0
0 0 0
0 0 0
0 0 0
0 0 0
0 0 0
0 0 0
0 0 0
0 0 0
0 0 0
0 0 0
0 0 0
0 0 0
0 0 0
0 0 0
0 0 0
0 0 0
0 0 0
0 0 0
0 0 0
0 0 0
0 0 0
0 0 0
0 0 0
0 0 0
0 0 0
0 0 0
0 0 0
0 0 0
0 0 0
0 0 0
0 0 0
0 0 0
0 0 0
0 0 0
0 0 0
0 0 0
0 0 0
0 0 0
0 0 0
0 0 0
0 0 0
0 0 0
0 0 0
0 0 0
0 0 0
0 0 0
0 0 0
0 0 0
0 0 0
0 0 0
0 0 0
0 0 0
0 0 0
0 0 0
0 0 0
0 0 0
0 0 0
0 0 0
0 0 0
0 0 0
0 0 0
0 0 0
0 0 0
0 0 0
0 0 0
0 0 0
0 0 0
0 0 0
0 0 0
0 0 0
0 0 0
0 0 0
0 0 0
0 0 0
0 0 0
0 0 0
0 0 0
0 0 0
0 0 0
0 0 0
0 0 0
0 0 0
0 0 0
0 0 0
0 0 0
0 0 0
0 0 0
0 0 0
0 0 0
0 0 0
0 0 0
0 0 0
0 0 0
0 0 0
0 0 0
0 0 0
0 0 0
0 0 0
0 0 0
0 0 0
0 0 0
0 0 0
0 0 0
0 0 0
0 0 0
0 0 0
0 0 0
0 0 0
0 0 0
0 0 0
0 0 0
0 0 0
0 0 0
0 0 0
0 0 0
0 0 0
0 0 0
0 0 0
0 0 0
0 0 0
0 0 0
0 0 0
0 0 0
0 0 0
0 0 0
0 0 0
0 0 0
0 0 0
0 0 0
0 0 0
0 0 0
0 0 0
0 0 0
0 0 0
0 0 0
0 0 0
0 0 0
0 0 0
0 0 0
0 0 0
0 0 0
0 0 0
0 0 0
0 0 0
0 0 0
0 0 0
0 0 0
0 0 0
0 0 0
0 0 0
0 0 0
0 0 0
0 0 0
0 0 0
0 0 0
0 0 0
0 0 0
0 0 0
0 0 0
0 0 0
0 0 0
0 0 0
0 0 0
0 0 0
0 0 0
0 0 0
0 0 0
0 0 0
0 0 0
0 0 0
0 0 0
0 0 0
0 0 0
0 0 0
0 0 0
0 0 0
0 0 0
0 0 0
0 0 0
0 0 0
0 0 0
0 0 0
0 0 0
0 0 0
0 0 0
0 0 0
0 0 0
0 0 0
0 0 0
0 0 0
0 0 0
0 0 0
0 0 0
0 0 0
0 0 0
0 0 0
0 0 0
0 0 0
0 0 0
0 0 0
0 0 0
0 0 0
0 0 0
0 0 0
0 0 0
0 0 0
0 0 0
0 0 0
0 0 0
0 0 0
0 0 0
0 0 0
0 0 0
0 0 0
0 0 0
0 0 0
0 0 0
0 0 0
0 0 0
0 0 0
0 0 0
0 0 0
0 0 0
0 0 0
0 0 0
0 0 0
0 0 0
0 0 0
0 0 0
0 0 0
0 0 0
0 0 0
0 0 0
0 0 0
0 0 0
0 0 0
0 0 0
0 0 0
0 0 0
0 0 0
0 0 0
0 0 0
0 0 0
0 0 0
0 0 0
0 0 0
0 0 0
0 0 0
0 0 0
0 0 0
0 0 0
0 0 0
0 0 0
0 0 0
0 0 0
0 0 0
0 0 0
0 0 0
0 0 0
0 0 0
0 0 0
0 0 0
0 0 0
0 0 0
0 0 0
0 0 0
0 0 0
0 0 0
0 0 0
0 0 0
0 0 0
0 0 0
0 0 0
0 0 0
0 0 0
0 0 0
0 0 0
0 0 0
0 0 0
0 0 0
0 0 0
0 0 0
0 0 0
0 0 0
0 0 0
0 0 0
0 0 0
0 0 0
0 0 0
0 0 0
0 0 0
0 0 0
0 0 0
0 0 0
0 0 0
0 0 0
0 0 0
0 0 0
0 0 0
0 0 0
0 0 0
0 0 0
0 0 0
0 0 0
0 0 0
0 0 0
0 0 0
0 0 0
0 0 0
0 0 0
0 0 0
0 0 0
0 0 0
0 0 0
0 0 0
0 0 0
0 0 0
0 0 0
0 0 0
0 0 0
0 0 0
0 0 0
0 0 0
0 0 0
0 0 0
0 0 0
0 0 0
0 0 0
0 0 0
0 0 0
0 0 0
0 0 0
0 0 0
0 0 0
0 0 0
0 0 0
0 0 0
0 0 0
0 0 0
0 0 0
0 0 0
0 0 0
0 0 0
0 0 0
0 0 0
0 0 0
0 0 0
0 0 0
0 0 0
0 0 0
0 0 0
0 0 0
0 0 0
0 0 0
0 0 0
0 0 0
0 0 0
0 0 0
0 0 0
0 0 0
0 0 0
0 0 0
0 0 0
0 0 0
0 0 0
0 0 0
0 0 0
0 0 0
0 0 0
0 0 0
0 0 0
0 0 0
0 0 0
0 0 0
0 0 0
0 0 0
0 0 0
0 0 0
0 0 0
0 0 0
0 0 0
0 0 0
0 0 0
0 0 0
0 0 0
0 0 0
0 0 0
0 0 0
0 0 0
0 0 0
0 0 0
0 0 0
0 0 0
0 0 0
0 0 0
0 0 0
0 0 0
0 0 0
0 0 0
0 0 0
0 0 0
0 0 0
0 0 0
0 0 0
0 0 0
0 0 0
0 0 0
0 0 0
0 0 0
0 0 0
0 0 0
0 0 0
0 0 0
0 0 0
0 0 0
0 0 0
0 0 0
0 0 0
0 0 0
0 0 0
0 0 0
0 0 0
0 0 0
0 0 0
0 0 0
0 0 0
0 0 0
0 0 0
0 0 0
0 0 0
0 0 0
0 0 0
0 0 0
0 0 0
0 0 0
0 0 0
0 0 0
0 0 0
0 0 0
0 0 0
0 0 0
0 0 0
0 0 0
0 0 0
0 0 0
0 0 0
0 0 0
0 0 0
0 0 0
0 0 0
0 0 0
0 0 0
0 0 0
0 0 0
0 0 0
0 0 0
0 0 0
0 0 0
0 0 0
0 0 0
0 0 0
0 0 0
0 0 0
0 0 0
0 0 0
0 0 0
0 0 0
0 0 0
0 0 0
0 0 0
0 0 0
0 0 0
0 0 0
0 0 0
0 0 0
0 0 0
0 0 0
0 0 0
0 0 0
0 0 0
0 0 0
0 0 0
0 0 0
0 0 0
0 0 0
0 0 0
0 0 0
0 0 0
0 0 0
0 0 0
0 0 0
0 0 0
0 0 0
0 0 0
0 0 0
0 0 0
0 0 0
0 0 0
0 0 0
0 0 0
0 0 0
0 0 0
0 0 0
0 0 0
0 0 0
0 0 0
0 0 0
0 0 0
0 0 0
0 0 0
0 0 0
0 0 0
0 0 0
0 0 0
0 0 0
0 0 0
0 0 0
0 0 0
0 0 0
0 0 0
0 0 0
0 0 0
0 0 0
0 0 0
0 0 0
0 0 0
0 0 0
0 0 0
0 0 0
0 0 0
0 0 0
0 0 0
0 0 0
0 0 0
0 0 0
0 0 0
0 0 0
0 0 0
0 0 0
0 0 0
0 0 0
0 0 0
0 0 0
0 0 0
0 0 0
0 0 0
0 0 0
0 0 0
0 0 0
0 0 0
0 0 0
0 0 0
0 0 0
0 0 0
0 0 0
0 0 0
0 0 0
0 0 0
0 0 0
0 0 0
0 0 0
0 0 0
0 0 0
0 0 0
0 0 0
0 0 0
0 0 0
0 0 0
0 0 0
0 0 0
0 0 0
0 0 0
0 0 0
0 0 0
0 0 0
0 0 0
0 0 0
0 0 0
0 0 0
0 0 0
0 0 0
0 0 0
0 0 0
0 0 0
0 0 0
0 0 0
0 0 0
0 0 0
0 0 0
0 0 0
0 0 0
0 0 0
0 0 0
0 0 0
0 0 0
0 0 0
0 0 0
0 0 0
0 0 0
0 0 0
0 0 0
0 0 0
0 0 0
0 0 0
0 0 0
0 0 0
0 0 0
0 0 0
0 0 0
0 0 0
0 0 0
0 0 0
0 0 0
0 0 0
0 0 0
0 0 0
0 0 0
0 0 0
0 0 0
0 0 0
0 0 0
0 0 0
0 0 0
0 0 0
0 0 0
0 0 0
0 0 0
0 0 0
0 0 0
0 0 0
0 0 0
0 0 0
0 0 0
0 0 0
0 0 0
0 0 0
0 0 0
0 0 0
0 0 0
0 0 0
0 0 0
0 0 0
0 0 0
0 0 0
0 0 0
0 0 0
0 0 0
0 0 0
0 0 0
0 0 0
0 0 0
0 0 0
0 0 0
0 0 0
0 0 0
0 0 0
0 0 0
0 0 0
0 0 0
0 0 0
0 0 0
0 0 0
0 0 0
0 0 0
0 0 0
0 0 0
0 0 0
0 0 0
0 0 0
0 0 0
0 0 0
0 0 0
0 0 0
0 0 0
0 0 0
0 0 0
0 0 0
0 0 0
0 0 0
0 0 0
0 0 0
0 0 0
0 0 0
0 0 0
0 0 0
0 0 0
0 0 0
0 0 0
0 0 0
0 0 0
0 0 0
0 0 0
0 0 0
0 0 0
0 0 0
0 0 0
0 0 0
0 0 0
0 0 0
0 0 0
0 0 0
0 0 0
0 0 0
0 0 0
0 0 0
0 0 0
0 0 0
0 0 0
0 0 0
0 0 0
0 0 0
0 0 0
0 0 0
0 0 0
0 0 0
0 0 0
0 0 0
0 0 0
0 0 0
0 0 0
0 0 0
0 0 0
0 0 0
0 0 0
0 0 0
0 0 0
0 0 0
0 0 0
0 0 0
0 0 0
0 0 0
0 0 0
0 0 0
0 0 0
0 0 0
0 0 0
0 0 0
0 0 0
0 0 0
0 0 0
0 0 0
0 0 0
0 0 0
0 0 0
0 0 0
0 0 0
0 0 0
0 0 0
0 0 0
0 0 0
0 0 0
0 0 0
0 0 0
0 0 0
0 0 0
0 0 0
0 0 0
0 0 0
0 0 0
0 0 0
0 0 0
0 0 0
0 0 0
0 0 0
0 0 0
0 0 0
0 0 0
0 0 0
0 0 0
0 0 0
0 0 0
0 0 0
0 0 0
0 0 0
0 0 0
0 0 0
0 0 0
0 0 0
0 0 0
0 0 0
0 0 0
0 0 0
0 0 0
0 0 0
0 0 0
0 0 0
0 0 0
0 0 0
0 0 0
0 0 0
0 0 0
0 0 0
0 0 0
0 0 0
0 0 0
0 0 0
0 0 0
0 0 0
0 0 0
0 0 0
0 0 0
0 0 0
0 0 0
0 0 0
0 0 0
0 0 0
0 0 0
0 0 0
0 0 0
0 0 0
0 0 0
0 0 0
0 0 0
0 0 0
0 0 0
0 0 0
0 0 0
0 0 0
0 0 0
0 0 0
0 0 0
0 0 0
0 0 0
0 0 0
0 0 0
0 0 0
0 0 0
0 0 0
0 0 0
0 0 0
0 0 0
0 0 0
0 0 0
0 0 0
0 0 0
0 0 0
0 0 0
0 0 0
0 0 0
0 0 0
0 0 0
0 0 0
0 0 0
0 0 0
0 0 0
0 0 0
0 0 0
0 0 0
0 0 0
0 0 0
0 0 0
0 0 0
0 0 0
0 0 0
0 0 0
0 0 0
0 0 0
0 0 0
0 0 0
0 0 0
0 0 0
0 0 0
0 0 0
0 0 0
0 0 0
0 0 0
0 0 0
0 0 0
0 0 0
0 0 0
0 0 0
0 0 0
0 0 0
0 0 0
0 0 0
0 0 0
0 0 0
0 0 0
0 0 0
0 0 0
0 0 0
0 0 0
0 0 0
0 0 0
0 0 0
0 0 0
0 0 0
0 0 0
0 0 0
0 0 0
0 0 0
0 0 0
0 0 0
0 0 0
0 0 0
0 0 0
0 0 0
0 0 0
0 0 0
0 0 0
0 0 0
0 0 0
0 0 0
0 0 0
0 0 0
0 0 0
0 0 0
0 0 0
0 0 0
0 0 0
0 0 0
0 0 0
0 0 0
0 0 0
0 0 0
0 0 0
0 0 0
0 0 0
0 0 0
0 0 0
0 0 0
0 0 0
0 0 0
0 0 0
0 0 0
0 0 0
0 0 0
0 0 0
0 0 0
0 0 0
0 0 0
0 0 0
0 0 0
0 0 0
0 0 0
0 0 0
0 0 0
0 0 0
0 0 0
0 0 0
0 0 0
0 0 0
0 0 0
0 0 0
0 0 0
0 0 0
0 0 0
0 0 0
0 0 0
0 0 0
0 0 0
0 0 0
0 0 0
0 0 0
0 0 0
0 0 0
0 0 0
0 0 0
0 0 0
0 0 0
0 0 0
0 0 0
0 0 0
0 0 0
0 0 0
0 0 0
0 0 0
0 0 0
0 0 0
0 0 0
0 0 0
0 0 0
0 0 0
0 0 0
0 0 0
0 0 0
0 0 0
0 0 0
0 0 0
0 0 0
0 0 0
0 0 0
0 0 0
0 0 0
0 0 0
0 0 0
0 0 0
0 0 0
0 0 0
0 0 0
0 0 0
0 0 0
0 0 0
0 0 0
0 0 0
0 0 0
0 0 0
0 0 0
0 0 0
0 0 0
0 0 0
0 0 0
0 0 0
0 0 0
0 0 0
0 0 0
0 0 0
0 0 0
0 0 0
0 0 0
0 0 0
0 0 0
0 0 0
0 0 0
0 0 0
0 0 0
0 0 0
0 0 0
0 0 0
0 0 0
0 0 0
0 0 0
0 0 0
0 0 0
0 0 0
0 0 0
0 0 0
0 0 0
0 0 0
0 0 0
0 0 0
0 0 0
0 0 0
0 0 0
0 0 0
0 0 0
0 0 0
0 0 0
0 0 0
0 0 0
0 0 0
0 0 0
0 0 0
0 0 0
0 0 0
0 0 0
0 0 0
0 0 0
0 0 0
0 0 0
0 0 0
0 0 0
0 0 0
0 0 0
0 0 0
0 0 0
0 0 0
0 0 0
0 0 0
0 0 0
0 0 0
0 0 0
0 0 0
0 0 0
0 0 0
0 0 0
0 0 0
0 0 0
0 0 0
0 0 0
0 0 0
0 0 0
0 0 0
0 0 0
0 0 0
0 0 0
0 0 0
0 0 0
0 0 0
0 0 0
0 0 0
0 0 0
0 0 0
0 0 0
0 0 0
0 0 0
0 0 0
0 0 0
0 0 0
0 0 0
0 0 0
0 0 0
0 0 0
0 0 0
0 0 0
0 0 0
0 0 0
0 0 0
0 0 0
0 0 0
0 0 0
0 0 0
0 0 0
0 0 0
0 0 0
0 0 0
0 0 0
0 0 0
0 0 0
0 0 0
0 0 0
0 0 0
0 0 0
0 0 0
0 0 0
0 0 0
0 0 0
0 0 0
0 0 0
0 0 0
0 0 0
0 0 0
0 0 0
0 0 0
0 0 0
0 0 0
0 0 0
0 0 0
0 0 0
0 0 0
0 0 0
0 0 0
0 0 0
0 0 0
0 0 0
0 0 0
0 0 0
0 0 0
0 0 0
0 0 0
0 0 0
0 0 0
0 0 0
0 0 0
0 0 0
0 0 0
0 0 0
0 0 0
0 0 0
0 0 0
0 0 0
0 0 0
0 0 0
0 0 0
0 0 0
0 0 0
0 0 0
0 0 0
0 0 0
0 0 0
0 0 0
0 0 0
0 0 0
0 0 0
0 0 0
0 0 0
0 0 0
0 0 0
0 0 0
0 0 0
0 0 0
0 0 0
0 0 0
0 0 0
0 0 0
0 0 0
0 0 0
0 0 0
0 0 0
0 0 0
0 0 0
0 0 0
0 0 0
0 0 0
0 0 0
0 0 0
0 0 0
0 0 0
0 0 0
0 0 0
0 0 0
0 0 0
0 0 0
0 0 0
0 0 0
0 0 0
0 0 0
0 0 0
0 0 0
0 0 0
0 0 0
0 0 0
0 0 0
0 0 0
0 0 0
0 0 0
0 0 0
0 0 0
0 0 0
0 0 0
0 0 0
0 0 0
0 0 0
0 0 0
0 0 0
0 0 0
0 0 0
0 0 0
0 0 0
0 0 0
0 0 0
0 0 0
0 0 0
0 0 0
0 0 0
0 0 0
0 0 0
0 0 0
0 0 0
0 0 0
0 0 0
0 0 0
0 0 0
0 0 0
0 0 0
0 0 0
0 0 0
0 0 0
0 0 0
0 0 0
0 0 0
0 0 0
0 0 0
0 0 0
0 0 0
0 0 0
0 0 0
0 0 0
0 0 0
0 0 0
0 0 0
0 0 0
0 0 0
0 0 0
0 0 0
0 0 0
0 0 0
0 0 0
0 0 0
0 0 0
0 0 0
0 0 0
0 0 0
0 0 0
0 0 0
0 0 0
0 0 0
0 0 0
0 0 0
0 0 0
0 0 0
0 0 0
0 0 0
0 0 0
0 0 0
0 0 0
0 0 0
0 0 0
0 0 0
0 0 0
0 0 0
0 0 0
0 0 0
0 0 0
0 0 0
0 0 0
0 0 0
0 0 0
0 0 0
0 0 0
0 0 0
0 0 0
0 0 0
0 0 0
0 0 0
0 0 0
0 0 0
0 0 0
0 0 0
0 0 0
0 0 0
0 0 0
0 0 0
0 0 0
0 0 0
0 0 0
0 0 0
0 0 0
0 0 0
0 0 0
0 0 0
0 0 0
0 0 0
0 0 0
0 0 0
0 0 0
0 0 0
0 0 0
0 0 0
0 0 0
0 0 0
0 0 0
0 0 0
0 0 0
0 0 0
0 0 0
0 0 0
0 0 0
0 0 0
0 0 0
0 0 0
0 0 0
0 0 0
0 0 0
0 0 0
0 0 0
0 0 0
0 0 0
0 0 0
0 0 0
0 0 0
0 0 0
0 0 0
0 0 0
0 0 0
0 0 0
0 0 0
0 0 0
0 0 0
0 0 0
0 0 0
0 0 0
0 0 0
0 0 0
0 0 0
0 0 0
0 0 0
0 0 0
0 0 0
0 0 0
0 0 0
0 0 0
0 0 0
0 0 0
0 0 0
0 0 0
0 0 0
0 0 0
0 0 0
0 0 0
0 0 0
0 0 0
0 0 0
0 0 0
0 0 0
0 0 0
0 0 0
0 0 0
0 0 0
0 0 0
0 0 0
0 0 0
0 0 0
0 0 0
0 0 0
0 0 0
0 0 0
0 0 0
0 0 0
0 0 0
0 0 0
0 0 0
0 0 0
0 0 0
0 0 0
0 0 0
0 0 0
0 0 0
0 0 0
0 0 0
0 0 0
0 0 0
0 0 0
0 0 0
0 0 0
0 0 0
0 0 0
0 0 0
0 0 0
0 0 0
0 0 0
0 0 0
0 0 0
0 0 0
0 0 0
0 0 0
0 0 0
0 0 0
0 0 0
0 0 0
0 0 0
0 0 0
0 0 0
0 0 0
0 0 0
0 0 0
0 0 0
0 0 0
0 0 0
0 0 0
0 0 0
0 0 0
0 0 0
0 0 0
0 0 0
0 0 0
0 0 0
0 0 0
0 0 0
0 0 0
0 0 0
0 0 0
0 0 0
0 0 0
0 0 0
0 0 0
0 0 0
0 0 0
0 0 0
0 0 0
0 0 0
0 0 0
0 0 0
0 0 0
0 0 0
0 0 0
0 0 0
0 0 0
0 0 0
0 0 0
0 0 0
0 0 0
0 0 0
0 0 0
0 0 0
0 0 0
0 0 0
0 0 0
0 0 0
0 0 0
0 0 0
0 0 0
0 0 0
0 0 0
0 0 0
0 0 0
0 0 0
0 0 0
0 0 0
0 0 0
0 0 0
0 0 0
0 0 0
0 0 0
0 0 0
0 0 0
0 0 0
0 0 0
0 0 0
0 0 0
0 0 0
0 0 0
0 0 0
0 0 0
0 0 0
0 0 0
0 0 0
0 0 0
0 0 0
0 0 0
0 0 0
0 0 0
0 0 0
0 0 0
0 0 0
0 0 0
0 0 0
0 0 0
0 0 0
0 0 0
0 0 0
0 0 0
0 0 0
0 0 0
0 0 0
0 0 0
0 0 0
0 0 0
0 0 0
0 0 0
0 0 0
0 0 0
0 0 0
0 0 0
0 0 0
0 0 0
0 0 0
0 0 0
0 0 0
0 0 0
0 0 0
0 0 0
0 0 0
0 0 0
0 0 0
0 0 0
0 0 0
0 0 0
0 0 0
0 0 0
0 0 0
0 0 0
0 0 0
0 0 0
0 0 0
0 0 0
0 0 0
0 0 0
0 0 0
0 0 0
0 0 0
0 0 0
0 0 0
0 0 0
0 0 0
0 0 0
0 0 0
0 0 0
0 0 0
0 0 0
0 0 0
0 0 0
0 0 0
0 0 0
0 0 0
0 0 0
0 0 0
0 0 0
0 0 0
0 0 0
0 0 0
0 0 0
0 0 0
0 0 0
0 0 0
0 0 0
0 0 0
0 0 0
0 0 0
0 0 0
0 0 0
0 0 0
0 0 0
0 0 0
0 0 0
0 0 0
0 0 0
0 0 0
0 0 0
0 0 0
0 0 0
0 0 0
0 0 0
0 0 0
0 0 0
0 0 0
0 0 0
0 0 0
0 0 0
0 0 0
0 0 0
0 0 0
0 0 0
0 0 0
0 0 0
0 0 0
0 0 0
0 0 0
0 0 0
0 0 0
0 0 0
0 0 0
0 0 0
0 0 0
0 0 0
0 0 0
0 0 0
0 0 0
0 0 0
0 0 0
0 0 0
0 0 0
0 0 0
0 0 0
0 0 0
0 0 0
0 0 0
0 0 0
0 0 0
0 0 0
0 0 0
0 0 0
0 0 0
0 0 0
0 0 0
0 0 0
0 0 0
0 0 0
0 0 0
0 0 0
0 0 0
0 0 0
0 0 0
0 0 0
0 0 0
0 0 0
0 0 0
0 0 0
0 0 0
0 0 0
0 0 0
0 0 0
0 0 0
0 0 0
0 0 0
0 0 0
0 0 0
0 0 0
0 0 0
0 0 0
0 0 0
0 0 0
0 0 0
0 0 0
0 0 0
0 0 0
0 0 0
0 0 0
0 0 0
0 0 0
0 0 0
0 0 0
0 0 0
0 0 0
0 0 0
0 0 0
0 0 0
0 0 0
0 0 0
0 0 0
0 0 0
0 0 0
0 0 0
0 0 0
0 0 0
0 0 0
0 0 0
0 0 0
0 0 0
0 0 0
0 0 0
0 0 0
0 0 0
0 0 0
0 0 0
0 0 0
0 0 0
0 0 0
0 0 0
0 0 0
0 0 0
0 0 0
0 0 0
0 0 0
0 0 0
0 0 0
0 0 0
0 0 0
0 0 0
0 0 0
0 0 0
0 0 0
0 0 0
0 0 0
0 0 0
0 0 0
0 0 0
0 0 0
0 0 0
0 0 0
0 0 0
0 0 0
0 0 0
0 0 0
0 0 0
0 0 0
0 0 0
0 0 0
0 0 0
0 0 0
0 0 0
0 0 0
0 0 0
0 0 0
0 0 0
0 0 0
0 0 0
0 0 0
0 0 0
0 0 0
0 0 0
0 0 0
0 0 0
0 0 0
0 0 0
0 0 0
0 0 0
0 0 0
0 0 0
0 0 0
0 0 0
0 0 0
0 0 0
0 0 0
0 0 0
0 0 0
0 0 0
0 0 0
0 0 0
0 0 0
0 0 0
0 0 0
0 0 0
0 0 0
0 0 0
0 0 0
0 0 0
0 0 0
0 0 0
0 0 0
0 0 0
0 0 0
0 0 0
0 0 0
0 0 0
0 0 0
0 0 0
0 0 0
0 0 0
0 0 0
0 0 0
0 0 0
0 0 0
0 0 0
0 0 0
0 0 0
0 0 0
0 0 0
0 0 0
0 0 0
0 0 0
0 0 0
0 0 0
0 0 0
0 0 0
0 0 0
0 0 0
0 0 0
0 0 0
0 0 0
0 0 0
0 0 0
0 0 0
0 0 0
0 0 0
0 0 0
0 0 0
0 0 0
0 0 0
0 0 0
0 0 0
0 0 0
0 0 0
0 0 0
0 0 0
0 0 0
0 0 0
0 0 0
0 0 0
0 0 0
0 0 0
0 0 0
0 0 0
0 0 0
0 0 0
0 0 0
0 0 0
0 0 0
0 0 0
0 0 0
0 0 0
0 0 0
0 0 0
0 0 0
0 0 0
0 0 0
0 0 0
0 0 0
0 0 0
0 0 0
0 0 0
0 0 0
0 0 0
0 0 0
0 0 0
0 0 0
0 0 0
0 0 0
0 0 0
0 0 0
0 0 0
0 0 0
0 0 0
0 0 0
0 0 0
0 0 0
0 0 0
0 0 0
0 0 0
0 0 0
0 0 0
0 0 0
0 0 0
0 0 0
0 0 0
0 0 0
0 0 0
0 0 0
0 0 0
0 0 0
0 0 0
0 0 0
0 0 0
0 0 0
0 0 0
0 0 0
0 0 0
0 0 0
0 0 0
0 0 0
0 0 0
0 0 0
0 0 0
0 0 0
0 0 0
0 0 0
0 0 0
0 0 0
0 0 0
0 0 0
0 0 0
0 0 0
0 0 0
0 0 0
0 0 0
0 0 0
0 0 0
0 0 0
0 0 0
0 0 0
0 0 0
0 0 0
0 0 0
0 0 0
0 0 0
0 0 0
0 0 0
0 0 0
0 0 0
0 0 0
0 0 0
0 0 0
0 0 0
0 0 0
0 0 0
0 0 0
0 0 0
0 0 0
0 0 0
0 0 0
0 0 0
0 0 0
97 97 97
89 89 89
211 211 211
160 160 160
187 187 187
224 224 224
207 207 207
200 200 200
141 141 141
99 99 99
77 77 77
47 47 47
0 0 0
0 0 0
0 0 0
0 0 0
0 0 0
0 0 0
0 0 0
0 0 0
0 0 0
0 0 0
0 0 0
0 0 0
0 0 0
0 0 0
0 0 0
0 0 0
0 0 0
0 0 0
0 0 0
0 0 0
0 0 0
0 0 0
0 0 0
0 0 0
0 0 0
0 0 0
0 0 0
0 0 0
0 0 0
0 0 0
0 0 0
0 0 0
0 0 0
0 0 0
0 0 0
0 0 0
0 0 0
0 0 0
0 0 0
0 0 0
0 0 0
0 0 0
0 0 0
0 0 0
0 0 0
0 0 0
0 0 0
0 0 0
0 0 0
0 0 0
0 0 0
0 0 0
0 0 0
0 0 0
0 0 0
0 0 0
0 0 0
0 0 0
0 0 0
0 0 0
0 0 0
0 0 0
0 0 0
0 0 0
0 0 0
0 0 0
0 0 0
0 0 0
0 0 0
0 0 0
0 0 0
0 0 0
0 0 0
0 0 0
0 0 0
0 0 0
0 0 0
0 0 0
0 0 0
0 0 0
0 0 0
0 0 0
0 0 0
0 0 0
0 0 0
0 0 0
0 0 0
0 0 0
0 0 0
0 0 0
0 0 0
0 0 0
0 0 0
0 0 0
0 0 0
0 0 0
0 0 0
0 0 0
0 0 0
0 0 0
0 0 0
0 0 0
0 0 0
0 0 0
0 0 0
0 0 0
0 0 0
0 0 0
0 0 0
0 0 0
0 0 0
0 0 0
0 0 0
0 0 0
0 0 0
0 0 0
0 0 0
0 0 0
0 0 0
0 0 0
0 0 0
0 0 0
0 0 0
0 0 0
0 0 0
0 0 0
0 0 0
0 0 0
0 0 0
0 0 0
0 0 0
0 0 0
0 0 0
0 0 0
0 0 0
0 0 0
0 0 0
0 0 0
0 0 0
0 0 0
0 0 0
0 0 0
0 0 0
0 0 0
0 0 0
0 0 0
0 0 0
0 0 0
0 0 0
0 0 0
0 0 0
0 0 0
0 0 0
0 0 0
0 0 0
0 0 0
0 0 0
0 0 0
0 0 0
0 0 0
0 0 0
0 0 0
0 0 0
0 0 0
0 0 0
0 0 0
0 0 0
0 0 0
0 0 0
0 0 0
0 0 0
0 0 0
0 0 0
0 0 0
0 0 0
0 0 0
0 0 0
0 0 0
0 0 0
0 0 0
0 0 0
0 0 0
0 0 0
0 0 0
0 0 0
0 0 0
0 0 0
0 0 0
0 0 0
0 0 0
0 0 0
0 0 0
0 0 0
0 0 0
0 0 0
0 0 0
0 0 0
0 0 0
0 0 0
0 0 0
0 0 0
0 0 0
0 0 0
0 0 0
0 0 0
0 0 0
0 0 0
0 0 0
0 0 0
0 0 0
0 0 0
0 0 0
0 0 0
0 0 0
0 0 0
0 0 0
0 0 0
0 0 0
0 0 0
0 0 0
0 0 0
0 0 0
0 0 0
0 0 0
0 0 0
0 0 0
0 0 0
0 0 0
0 0 0
0 0 0
0 0 0
0 0 0
0 0 0
0 0 0
0 0 0
0 0 0
0 0 0
0 0 0
0 0 0
0 0 0
0 0 0
0 0 0
0 0 0
0 0 0
0 0 0
0 0 0
0 0 0
0 0 0
0 0 0
0 0 0
0 0 0
0 0 0
0 0 0
0 0 0
0 0 0
0 0 0
0 0 0
0 0 0
0 0 0
0 0 0
0 0 0
0 0 0
0 0 0
0 0 0
0 0 0
0 0 0
0 0 0
0 0 0
0 0 0
0 0 0
0 0 0
0 0 0
0 0 0
0 0 0
0 0 0
0 0 0
0 0 0
0 0 0
0 0 0
0 0 0
0 0 0
0 0 0
0 0 0
0 0 0
0 0 0
0 0 0
0 0 0
0 0 0
0 0 0
0 0 0
0 0 0
0 0 0
0 0 0
0 0 0
0 0 0
0 0 0
0 0 0
0 0 0
0 0 0
0 0 0
0 0 0
0 0 0
0 0 0
0 0 0
0 0 0
0 0 0
0 0 0
0 0 0
0 0 0
0 0 0
0 0 0
0 0 0
0 0 0
0 0 0
0 0 0
0 0 0
0 0 0
0 0 0
0 0 0
0 0 0
0 0 0
0 0 0
0 0 0
0 0 0
0 0 0
0 0 0
0 0 0
0 0 0
0 0 0
0 0 0
0 0 0
0 0 0
0 0 0
0 0 0
0 0 0
0 0 0
0 0 0
0 0 0
0 0 0
0 0 0
0 0 0
0 0 0
0 0 0
0 0 0
0 0 0
0 0 0
0 0 0
0 0 0
0 0 0
0 0 0
0 0 0
0 0 0
0 0 0
0 0 0
0 0 0
0 0 0
0 0 0
0 0 0
0 0 0
0 0 0
0 0 0
0 0 0
0 0 0
0 0 0
0 0 0
0 0 0
0 0 0
0 0 0
0 0 0
0 0 0
0 0 0
0 0 0
0 0 0
0 0 0
0 0 0
0 0 0
0 0 0
0 0 0
0 0 0
0 0 0
0 0 0
0 0 0
29 29 29
56 56 56
146 146 146
171 171 171
201 201 201
255 255 255
255 255 255
255 255 255
255 255 255
255 255 255
255 255 255
255 255 255
255 255 255
255 255 255
255 255 255
229 229 229
208 208 208
192 192 192
149 149 149
123 123 123
84 84 84
65 65 65
29 29 29
30 30 30
0 0 0
0 0 0
0 0 0
0 0 0
0 0 0
0 0 0
0 0 0
0 0 0
0 0 0
0 0 0
0 0 0
0 0 0
0 0 0
0 0 0
0 0 0
0 0 0
0 0 0
0 0 0
0 0 0
0 0 0
0 0 0
0 0 0
0 0 0
0 0 0
0 0 0
0 0 0
0 0 0
0 0 0
0 0 0
0 0 0
0 0 0
0 0 0
0 0 0
0 0 0
0 0 0
0 0 0
0 0 0
0 0 0
0 0 0
0 0 0
0 0 0
0 0 0
0 0 0
0 0 0
0 0 0
0 0 0
0 0 0
0 0 0
0 0 0
0 0 0
0 0 0
0 0 0
0 0 0
0 0 0
0 0 0
0 0 0
0 0 0
0 0 0
0 0 0
0 0 0
0 0 0
0 0 0
0 0 0
0 0 0
0 0 0
0 0 0
0 0 0
0 0 0
0 0 0
0 0 0
0 0 0
0 0 0
0 0 0
0 0 0
0 0 0
0 0 0
0 0 0
0 0 0
0 0 0
0 0 0
0 0 0
0 0 0
0 0 0
0 0 0
0 0 0
0 0 0
0 0 0
0 0 0
0 0 0
0 0 0
0 0 0
0 0 0
0 0 0
0 0 0
0 0 0
0 0 0
0 0 0
0 0 0
0 0 0
0 0 0
0 0 0
0 0 0
0 0 0
0 0 0
0 0 0
0 0 0
0 0 0
0 0 0
0 0 0
0 0 0
0 0 0
0 0 0
0 0 0
0 0 0
0 0 0
0 0 0
0 0 0
0 0 0
0 0 0
0 0 0
0 0 0
0 0 0
0 0 0
0 0 0
0 0 0
0 0 0
0 0 0
0 0 0
0 0 0
0 0 0
0 0 0
0 0 0
0 0 0
0 0 0
0 0 0
0 0 0
0 0 0
0 0 0
0 0 0
0 0 0
0 0 0
0 0 0
0 0 0
0 0 0
0 0 0
0 0 0
0 0 0
0 0 0
0 0 0
0 0 0
0 0 0
0 0 0
0 0 0
0 0 0
0 0 0
0 0 0
0 0 0
0 0 0
0 0 0
0 0 0
0 0 0
0 0 0
0 0 0
0 0 0
0 0 0
0 0 0
0 0 0
0 0 0
0 0 0
0 0 0
0 0 0
0 0 0
0 0 0
0 0 0
0 0 0
0 0 0
0 0 0
0 0 0
0 0 0
0 0 0
0 0 0
0 0 0
0 0 0
0 0 0
0 0 0
0 0 0
0 0 0
0 0 0
0 0 0
0 0 0
0 0 0
0 0 0
0 0 0
0 0 0
0 0 0
0 0 0
0 0 0
0 0 0
0 0 0
0 0 0
0 0 0
0 0 0
0 0 0
0 0 0
0 0 0
0 0 0
0 0 0
0 0 0
0 0 0
0 0 0
0 0 0
0 0 0
0 0 0
0 0 0
0 0 0
0 0 0
0 0 0
0 0 0
0 0 0
0 0 0
0 0 0
0 0 0
0 0 0
0 0 0
0 0 0
0 0 0
0 0 0
0 0 0
0 0 0
0 0 0
0 0 0
0 0 0
0 0 0
0 0 0
0 0 0
0 0 0
0 0 0
0 0 0
0 0 0
0 0 0
0 0 0
0 0 0
0 0 0
0 0 0
0 0 0
0 0 0
0 0 0
0 0 0
0 0 0
0 0 0
0 0 0
0 0 0
0 0 0
0 0 0
0 0 0
0 0 0
0 0 0
0 0 0
0 0 0
0 0 0
0 0 0
0 0 0
0 0 0
0 0 0
0 0 0
0 0 0
0 0 0
0 0 0
0 0 0
0 0 0
0 0 0
0 0 0
0 0 0
0 0 0
0 0 0
0 0 0
0 0 0
0 0 0
0 0 0
0 0 0
0 0 0
0 0 0
0 0 0
0 0 0
0 0 0
0 0 0
0 0 0
0 0 0
0 0 0
0 0 0
0 0 0
0 0 0
0 0 0
0 0 0
0 0 0
0 0 0
0 0 0
0 0 0
0 0 0
0 0 0
0 0 0
0 0 0
0 0 0
0 0 0
0 0 0
0 0 0
0 0 0
0 0 0
0 0 0
0 0 0
0 0 0
0 0 0
0 0 0
0 0 0
0 0 0
0 0 0
0 0 0
0 0 0
0 0 0
0 0 0
0 0 0
0 0 0
0 0 0
0 0 0
0 0 0
0 0 0
0 0 0
0 0 0
0 0 0
0 0 0
0 0 0
0 0 0
0 0 0
0 0 0
0 0 0
0 0 0
0 0 0
0 0 0
0 0 0
0 0 0
0 0 0
0 0 0
0 0 0
0 0 0
0 0 0
0 0 0
0 0 0
0 0 0
0 0 0
0 0 0
0 0 0
0 0 0
0 0 0
0 0 0
0 0 0
0 0 0
0 0 0
0 0 0
0 0 0
0 0 0
0 0 0
0 0 0
0 0 0
0 0 0
0 0 0
0 0 0
0 0 0
0 0 0
0 0 0
0 0 0
0 0 0
0 0 0
0 0 0
42 42 42
41 41 41
63 63 63
123 123 123
176 176 176
167 167 167
186 186 186
174 174 174
199 199 199
221 221 221
255 255 255
255 255 255
255 255 255
255 255 255
255 255 255
255 255 255
255 255 255
255 255 255
255 255 255
255 255 255
255 255 255
250 250 250
199 199 199
180 180 180
137 137 137
77 77 77
98 98 98
129 129 129
84 84 84
84 84 84
0 0 0
0 0 0
0 0 0
0 0 0
0 0 0
0 0 0
0 0 0
0 0 0
0 0 0
0 0 0
0 0 0
0 0 0
0 0 0
0 0 0
0 0 0
0 0 0
0 0 0
0 0 0
0 0 0
0 0 0
0 0 0
0 0 0
0 0 0
0 0 0
0 0 0
0 0 0
0 0 0
0 0 0
0 0 0
0 0 0
0 0 0
0 0 0
0 0 0
0 0 0
0 0 0
0 0 0
0 0 0
0 0 0
0 0 0
0 0 0
0 0 0
0 0 0
0 0 0
0 0 0
0 0 0
0 0 0
0 0 0
0 0 0
0 0 0
0 0 0
0 0 0
0 0 0
0 0 0
0 0 0
0 0 0
0 0 0
0 0 0
0 0 0
0 0 0
0 0 0
0 0 0
0 0 0
0 0 0
0 0 0
0 0 0
0 0 0
0 0 0
0 0 0
0 0 0
0 0 0
0 0 0
0 0 0
0 0 0
0 0 0
0 0 0
0 0 0
0 0 0
0 0 0
0 0 0
0 0 0
0 0 0
0 0 0
0 0 0
0 0 0
0 0 0
0 0 0
0 0 0
0 0 0
0 0 0
0 0 0
0 0 0
0 0 0
0 0 0
0 0 0
0 0 0
0 0 0
0 0 0
0 0 0
0 0 0
0 0 0
0 0 0
0 0 0
0 0 0
0 0 0
0 0 0
0 0 0
0 0 0
0 0 0
0 0 0
0 0 0
0 0 0
0 0 0
0 0 0
0 0 0
0 0 0
0 0 0
0 0 0
0 0 0
0 0 0
0 0 0
0 0 0
0 0 0
0 0 0
0 0 0
0 0 0
0 0 0
0 0 0
0 0 0
0 0 0
0 0 0
0 0 0
0 0 0
0 0 0
0 0 0
0 0 0
0 0 0
0 0 0
0 0 0
0 0 0
0 0 0
0 0 0
0 0 0
0 0 0
0 0 0
0 0 0
0 0 0
0 0 0
0 0 0
0 0 0
0 0 0
0 0 0
0 0 0
0 0 0
0 0 0
0 0 0
0 0 0
0 0 0
0 0 0
0 0 0
0 0 0
0 0 0
0 0 0
0 0 0
0 0 0
0 0 0
0 0 0
0 0 0
0 0 0
0 0 0
0 0 0
0 0 0
0 0 0
0 0 0
0 0 0
0 0 0
0 0 0
0 0 0
0 0 0
0 0 0
0 0 0
0 0 0
0 0 0
0 0 0
0 0 0
0 0 0
0 0 0
0 0 0
0 0 0
0 0 0
0 0 0
0 0 0
0 0 0
0 0 0
0 0 0
0 0 0
0 0 0
0 0 0
0 0 0
0 0 0
0 0 0
0 0 0
0 0 0
0 0 0
0 0 0
0 0 0
0 0 0
0 0 0
0 0 0
0 0 0
0 0 0
0 0 0
0 0 0
0 0 0
0 0 0
0 0 0
0 0 0
0 0 0
0 0 0
0 0 0
0 0 0
0 0 0
0 0 0
0 0 0
0 0 0
0 0 0
0 0 0
0 0 0
0 0 0
0 0 0
0 0 0
0 0 0
0 0 0
0 0 0
0 0 0
0 0 0
0 0 0
0 0 0
0 0 0
0 0 0
0 0 0
0 0 0
0 0 0
0 0 0
0 0 0
0 0 0
0 0 0
0 0 0
0 0 0
0 0 0
0 0 0
0 0 0
0 0 0
0 0 0
0 0 0
0 0 0
0 0 0
0 0 0
0 0 0
0 0 0
0 0 0
0 0 0
0 0 0
0 0 0
0 0 0
0 0 0
0 0 0
0 0 0
0 0 0
0 0 0
0 0 0
0 0 0
0 0 0
0 0 0
0 0 0
0 0 0
0 0 0
0 0 0
0 0 0
0 0 0
0 0 0
0 0 0
0 0 0
0 0 0
0 0 0
0 0 0
0 0 0
0 0 0
0 0 0
0 0 0
0 0 0
0 0 0
0 0 0
0 0 0
0 0 0
0 0 0
0 0 0
0 0 0
0 0 0
0 0 0
0 0 0
0 0 0
0 0 0
0 0 0
0 0 0
0 0 0
0 0 0
0 0 0
0 0 0
0 0 0
0 0 0
0 0 0
0 0 0
0 0 0
0 0 0
0 0 0
0 0 0
0 0 0
0 0 0
0 0 0
0 0 0
0 0 0
0 0 0
0 0 0
0 0 0
0 0 0
0 0 0
0 0 0
0 0 0
0 0 0
0 0 0
0 0 0
0 0 0
0 0 0
0 0 0
0 0 0
0 0 0
0 0 0
0 0 0
0 0 0
0 0 0
0 0 0
0 0 0
0 0 0
0 0 0
0 0 0
0 0 0
0 0 0
0 0 0
0 0 0
0 0 0
0 0 0
0 0 0
0 0 0
0 0 0
0 0 0
0 0 0
0 0 0
0 0 0
0 0 0
0 0 0
0 0 0
0 0 0
0 0 0
0 0 0
0 0 0
0 0 0
0 0 0
44 44 44
61 61 61
42 42 42
49 49 49
89 89 89
101 101 101
119 119 119
106 106 106
165 165 165
213 213 213
243 243 243
241 241 241
255 255 255
255 255 255
255 255 255
255 255 255
255 255 255
255 255 255
255 255 255
236 236 236
255 255 255
255 255 255
255 255 255
255 255 255
255 255 255
255 255 255
218 218 218
194 194 194
164 164 164
70 70 70
54 54 54
47 47 47
69 69 69
105 105 105
64 64 64
40 40 40
0 0 0
0 0 0
0 0 0
0 0 0
0 0 0
0 0 0
0 0 0
0 0 0
0 0 0
0 0 0
0 0 0
0 0 0
0 0 0
0 0 0
0 0 0
0 0 0
0 0 0
0 0 0
0 0 0
0 0 0
0 0 0
0 0 0
0 0 0
0 0 0
0 0 0
0 0 0
0 0 0
0 0 0
0 0 0
0 0 0
0 0 0
0 0 0
0 0 0
0 0 0
0 0 0
0 0 0
0 0 0
0 0 0
0 0 0
0 0 0
0 0 0
0 0 0
0 0 0
0 0 0
0 0 0
0 0 0
0 0 0
0 0 0
0 0 0
0 0 0
0 0 0
0 0 0
0 0 0
0 0 0
0 0 0
0 0 0
0 0 0
0 0 0
0 0 0
0 0 0
0 0 0
0 0 0
0 0 0
0 0 0
0 0 0
0 0 0
0 0 0
0 0 0
0 0 0
0 0 0
0 0 0
0 0 0
0 0 0
0 0 0
0 0 0
0 0 0
0 0 0
0 0 0
0 0 0
0 0 0
0 0 0
0 0 0
0 0 0
0 0 0
0 0 0
0 0 0
0 0 0
0 0 0
0 0 0
0 0 0
0 0 0
0 0 0
0 0 0
0 0 0
0 0 0
0 0 0
0 0 0
0 0 0
0 0 0
0 0 0
0 0 0
0 0 0
0 0 0
0 0 0
0 0 0
0 0 0
0 0 0
0 0 0
0 0 0
0 0 0
0 0 0
0 0 0
0 0 0
0 0 0
0 0 0
0 0 0
0 0 0
0 0 0
0 0 0
0 0 0
0 0 0
0 0 0
0 0 0
0 0 0
0 0 0
0 0 0
0 0 0
0 0 0
0 0 0
0 0 0
0 0 0
0 0 0
0 0 0
0 0 0
0 0 0
0 0 0
0 0 0
0 0 0
0 0 0
0 0 0
0 0 0
0 0 0
0 0 0
0 0 0
0 0 0
0 0 0
0 0 0
0 0 0
0 0 0
0 0 0
0 0 0
0 0 0
0 0 0
0 0 0
0 0 0
0 0 0
0 0 0
0 0 0
0 0 0
0 0 0
0 0 0
0 0 0
0 0 0
0 0 0
0 0 0
0 0 0
0 0 0
0 0 0
0 0 0
0 0 0
0 0 0
0 0 0
0 0 0
0 0 0
0 0 0
0 0 0
0 0 0
0 0 0
0 0 0
0 0 0
0 0 0
0 0 0
0 0 0
0 0 0
0 0 0
0 0 0
0 0 0
0 0 0
0 0 0
0 0 0
0 0 0
0 0 0
0 0 0
0 0 0
0 0 0
0 0 0
0 0 0
0 0 0
0 0 0
0 0 0
0 0 0
0 0 0
0 0 0
0 0 0
0 0 0
0 0 0
0 0 0
0 0 0
0 0 0
0 0 0
0 0 0
0 0 0
0 0 0
0 0 0
0 0 0
0 0 0
0 0 0
0 0 0
0 0 0
0 0 0
0 0 0
0 0 0
0 0 0
0 0 0
0 0 0
0 0 0
0 0 0
0 0 0
0 0 0
0 0 0
0 0 0
0 0 0
0 0 0
0 0 0
0 0 0
0 0 0
0 0 0
0 0 0
0 0 0
0 0 0
0 0 0
0 0 0
0 0 0
0 0 0
0 0 0
0 0 0
0 0 0
0 0 0
0 0 0
0 0 0
0 0 0
0 0 0
0 0 0
0 0 0
0 0 0
0 0 0
0 0 0
0 0 0
0 0 0
0 0 0
0 0 0
0 0 0
0 0 0
0 0 0
0 0 0
0 0 0
0 0 0
0 0 0
0 0 0
0 0 0
0 0 0
0 0 0
0 0 0
0 0 0
0 0 0
0 0 0
0 0 0
0 0 0
0 0 0
0 0 0
0 0 0
0 0 0
0 0 0
0 0 0
0 0 0
0 0 0
0 0 0
0 0 0
0 0 0
0 0 0
0 0 0
0 0 0
0 0 0
0 0 0
0 0 0
0 0 0
0 0 0
0 0 0
0 0 0
0 0 0
0 0 0
0 0 0
0 0 0
0 0 0
0 0 0
0 0 0
0 0 0
0 0 0
0 0 0
0 0 0
0 0 0
0 0 0
0 0 0
0 0 0
0 0 0
0 0 0
0 0 0
0 0 0
0 0 0
0 0 0
0 0 0
0 0 0
0 0 0
0 0 0
0 0 0
0 0 0
0 0 0
0 0 0
0 0 0
0 0 0
0 0 0
0 0 0
0 0 0
0 0 0
0 0 0
0 0 0
0 0 0
0 0 0
0 0 0
0 0 0
0 0 0
0 0 0
0 0 0
0 0 0
0 0 0
0 0 0
0 0 0
0 0 0
0 0 0
0 0 0
0 0 0
0 0 0
0 0 0
0 0 0
0 0 0
0 0 0
0 0 0
0 0 0
0 0 0
0 0 0
0 0 0
0 0 0
65 65 65
78 78 78
49 49 49
60 60 60
82 82 82
143 143 143
134 134 134
133 133 133
125 125 125
185 185 185
240 240 240
255 255 255
251 251 251
228 228 228
238 238 238
236 236 236
229 229 229
231 231 231
221 221 221
174 174 174
192 192 192
193 193 193
255 255 255
237 237 237
217 217 217
255 255 255
255 255 255
248 248 248
200 200 200
158 158 158
123 123 123
137 137 137
142 142 142
52 52 52
48 48 48
36 36 36
57 57 57
61 61 61
77 77 77
66 66 66
0 0 0
0 0 0
0 0 0
0 0 0
0 0 0
0 0 0
0 0 0
0 0 0
0 0 0
0 0 0
0 0 0
0 0 0
0 0 0
0 0 0
0 0 0
0 0 0
0 0 0
0 0 0
0 0 0
0 0 0
0 0 0
0 0 0
0 0 0
0 0 0
0 0 0
0 0 0
0 0 0
0 0 0
0 0 0
0 0 0
0 0 0
0 0 0
0 0 0
0 0 0
0 0 0
0 0 0
0 0 0
0 0 0
0 0 0
0 0 0
0 0 0
0 0 0
0 0 0
0 0 0
0 0 0
0 0 0
0 0 0
0 0 0
0 0 0
0 0 0
0 0 0
0 0 0
0 0 0
0 0 0
0 0 0
0 0 0
0 0 0
0 0 0
0 0 0
0 0 0
0 0 0
0 0 0
0 0 0
0 0 0
0 0 0
0 0 0
0 0 0
0 0 0
0 0 0
0 0 0
0 0 0
0 0 0
0 0 0
0 0 0
0 0 0
0 0 0
0 0 0
0 0 0
0 0 0
0 0 0
0 0 0
0 0 0
0 0 0
0 0 0
0 0 0
0 0 0
0 0 0
0 0 0
0 0 0
0 0 0
0 0 0
0 0 0
0 0 0
0 0 0
0 0 0
0 0 0
0 0 0
0 0 0
0 0 0
0 0 0
0 0 0
0 0 0
0 0 0
0 0 0
0 0 0
0 0 0
0 0 0
0 0 0
0 0 0
0 0 0
0 0 0
0 0 0
0 0 0
0 0 0
0 0 0
0 0 0
0 0 0
0 0 0
0 0 0
0 0 0
0 0 0
0 0 0
0 0 0
0 0 0
0 0 0
0 0 0
0 0 0
0 0 0
0 0 0
0 0 0
0 0 0
0 0 0
0 0 0
0 0 0
0 0 0
0 0 0
0 0 0
0 0 0
0 0 0
0 0 0
0 0 0
0 0 0
0 0 0
0 0 0
0 0 0
0 0 0
0 0 0
0 0 0
0 0 0
0 0 0
0 0 0
0 0 0
0 0 0
0 0 0
0 0 0
0 0 0
0 0 0
0 0 0
0 0 0
0 0 0
0 0 0
0 0 0
0 0 0
0 0 0
0 0 0
0 0 0
0 0 0
0 0 0
0 0 0
0 0 0
0 0 0
0 0 0
0 0 0
0 0 0
0 0 0
0 0 0
0 0 0
0 0 0
0 0 0
0 0 0
0 0 0
0 0 0
0 0 0
0 0 0
0 0 0
0 0 0
0 0 0
0 0 0
0 0 0
0 0 0
0 0 0
0 0 0
0 0 0
0 0 0
0 0 0
0 0 0
0 0 0
0 0 0
0 0 0
0 0 0
0 0 0
0 0 0
0 0 0
0 0 0
0 0 0
0 0 0
0 0 0
0 0 0
0 0 0
0 0 0
0 0 0
0 0 0
0 0 0
0 0 0
0 0 0
0 0 0
0 0 0
0 0 0
0 0 0
0 0 0
0 0 0
0 0 0
0 0 0
0 0 0
0 0 0
0 0 0
0 0 0
0 0 0
0 0 0
0 0 0
0 0 0
0 0 0
0 0 0
0 0 0
0 0 0
0 0 0
0 0 0
0 0 0
0 0 0
0 0 0
0 0 0
0 0 0
0 0 0
0 0 0
0 0 0
0 0 0
0 0 0
0 0 0
0 0 0
0 0 0
0 0 0
0 0 0
0 0 0
0 0 0
0 0 0
0 0 0
0 0 0
0 0 0
0 0 0
0 0 0
0 0 0
0 0 0
0 0 0
0 0 0
0 0 0
0 0 0
0 0 0
0 0 0
0 0 0
0 0 0
0 0 0
0 0 0
0 0 0
0 0 0
0 0 0
0 0 0
0 0 0
0 0 0
0 0 0
0 0 0
0 0 0
0 0 0
0 0 0
0 0 0
0 0 0
0 0 0
0 0 0
0 0 0
0 0 0
0 0 0
0 0 0
0 0 0
0 0 0
0 0 0
0 0 0
0 0 0
0 0 0
0 0 0
0 0 0
0 0 0
0 0 0
0 0 0
0 0 0
0 0 0
0 0 0
0 0 0
0 0 0
0 0 0
0 0 0
0 0 0
0 0 0
0 0 0
0 0 0
0 0 0
0 0 0
0 0 0
0 0 0
0 0 0
0 0 0
0 0 0
0 0 0
0 0 0
0 0 0
0 0 0
0 0 0
0 0 0
0 0 0
0 0 0
0 0 0
0 0 0
0 0 0
0 0 0
0 0 0
0 0 0
0 0 0
0 0 0
0 0 0
0 0 0
0 0 0
0 0 0
0 0 0
0 0 0
0 0 0
0 0 0
0 0 0
0 0 0
0 0 0
0 0 0
0 0 0
0 0 0
0 0 0
0 0 0
0 0 0
0 0 0
0 0 0
0 0 0
0 0 0
0 0 0
39 39 39
65 65 65
60 60 60
98 98 98
133 133 133
140 140 140
91 91 91
84 84 84
80 80 80
97 97 97
145 145 145
220 220 220
255 255 255
161 161 161
160 160 160
122 122 122
129 129 129
110 110 110
75 75 75
43 43 43
100 100 100
130 130 130
203 203 203
200 200 200
179 179 179
181 181 181
186 186 186
255 255 255
255 255 255
201 201 201
241 241 241
188 188 188
186 186 186
127 127 127
151 151 151
101 101 101
81 81 81
71 71 71
53 53 53
64 64 64
64 64 64
62 62 62
71 71 71
38 38 38
0 0 0
0 0 0
0 0 0
0 0 0
0 0 0
0 0 0
0 0 0
0 0 0
0 0 0
0 0 0
0 0 0
0 0 0
0 0 0
0 0 0
0 0 0
0 0 0
0 0 0
0 0 0
0 0 0
0 0 0
0 0 0
0 0 0
0 0 0
0 0 0
0 0 0
0 0 0
0 0 0
0 0 0
0 0 0
0 0 0
0 0 0
0 0 0
0 0 0
0 0 0
0 0 0
0 0 0
0 0 0
0 0 0
0 0 0
0 0 0
0 0 0
0 0 0
0 0 0
0 0 0
0 0 0
0 0 0
0 0 0
0 0 0
0 0 0
0 0 0
0 0 0
0 0 0
0 0 0
0 0 0
0 0 0
0 0 0
0 0 0
0 0 0
0 0 0
0 0 0
0 0 0
0 0 0
0 0 0
0 0 0
0 0 0
0 0 0
0 0 0
0 0 0
0 0 0
0 0 0
0 0 0
0 0 0
0 0 0
0 0 0
0 0 0
0 0 0
0 0 0
0 0 0
0 0 0
0 0 0
0 0 0
0 0 0
0 0 0
0 0 0
0 0 0
0 0 0
0 0 0
0 0 0
0 0 0
0 0 0
0 0 0
0 0 0
0 0 0
0 0 0
0 0 0
0 0 0
0 0 0
0 0 0
0 0 0
0 0 0
0 0 0
0 0 0
0 0 0
0 0 0
0 0 0
0 0 0
0 0 0
0 0 0
0 0 0
0 0 0
0 0 0
0 0 0
0 0 0
0 0 0
0 0 0
0 0 0
0 0 0
0 0 0
0 0 0
0 0 0
0 0 0
0 0 0
0 0 0
0 0 0
0 0 0
0 0 0
0 0 0
0 0 0
0 0 0
0 0 0
0 0 0
0 0 0
0 0 0
0 0 0
0 0 0
0 0 0
0 0 0
0 0 0
0 0 0
0 0 0
0 0 0
0 0 0
0 0 0
0 0 0
0 0 0
0 0 0
0 0 0
0 0 0
0 0 0
0 0 0
0 0 0
0 0 0
0 0 0
0 0 0
0 0 0
0 0 0
0 0 0
0 0 0
0 0 0
0 0 0
0 0 0
0 0 0
0 0 0
0 0 0
0 0 0
0 0 0
0 0 0
0 0 0
0 0 0
0 0 0
0 0 0
0 0 0
0 0 0
0 0 0
0 0 0
0 0 0
0 0 0
0 0 0
0 0 0
0 0 0
0 0 0
0 0 0
0 0 0
0 0 0
0 0 0
0 0 0
0 0 0
0 0 0
0 0 0
0 0 0
0 0 0
0 0 0
0 0 0
0 0 0
0 0 0
0 0 0
0 0 0
0 0 0
0 0 0
0 0 0
0 0 0
0 0 0
0 0 0
0 0 0
0 0 0
0 0 0
0 0 0
0 0 0
0 0 0
0 0 0
0 0 0
0 0 0
0 0 0
0 0 0
0 0 0
0 0 0
0 0 0
0 0 0
0 0 0
0 0 0
0 0 0
0 0 0
0 0 0
0 0 0
0 0 0
0 0 0
0 0 0
0 0 0
0 0 0
0 0 0
0 0 0
0 0 0
0 0 0
0 0 0
0 0 0
0 0 0
0 0 0
0 0 0
0 0 0
0 0 0
0 0 0
0 0 0
0 0 0
0 0 0
0 0 0
0 0 0
0 0 0
0 0 0
0 0 0
0 0 0
0 0 0
0 0 0
0 0 0
0 0 0
0 0 0
0 0 0
0 0 0
0 0 0
0 0 0
0 0 0
0 0 0
0 0 0
0 0 0
0 0 0
0 0 0
0 0 0
0 0 0
0 0 0
0 0 0
0 0 0
0 0 0
0 0 0
0 0 0
0 0 0
0 0 0
0 0 0
0 0 0
0 0 0
0 0 0
0 0 0
0 0 0
0 0 0
0 0 0
0 0 0
0 0 0
0 0 0
0 0 0
0 0 0
0 0 0
0 0 0
0 0 0
0 0 0
0 0 0
0 0 0
0 0 0
0 0 0
0 0 0
0 0 0
0 0 0
0 0 0
0 0 0
0 0 0
0 0 0
0 0 0
0 0 0
0 0 0
0 0 0
0 0 0
0 0 0
0 0 0
0 0 0
0 0 0
0 0 0
0 0 0
0 0 0
0 0 0
0 0 0
0 0 0
0 0 0
0 0 0
0 0 0
0 0 0
0 0 0
0 0 0
0 0 0
0 0 0
0 0 0
0 0 0
0 0 0
0 0 0
0 0 0
0 0 0
0 0 0
0 0 0
0 0 0
0 0 0
0 0 0
0 0 0
0 0 0
0 0 0
0 0 0
0 0 0
0 0 0
0 0 0
0 0 0
0 0 0
0 0 0
0 0 0
0 0 0
0 0 0
0 0 0
0 0 0
0 0 0
0 0 0
67 67 67
56 56 56
44 44 44
45 45 45
67 67 67
93 93 93
134 134 134
103 103 103
107 107 107
128 128 128
145 145 145
153 153 153
203 203 203
219 219 219
190 190 190
99 99 99
57 57 57
52 52 52
65 65 65
61 61 61
85 85 85
72 72 72
28 28 28
102 102 102
148 148 148
160 160 160
174 174 174
214 214 214
255 255 255
235 235 235
247 247 247
185 185 185
184 184 184
219 219 219
157 157 157
150 150 150
87 87 87
73 73 73
92 92 92
93 93 93
83 83 83
58 58 58
50 50 50
57 57 57
41 41 41
49 49 49
54 54 54
37 37 37
0 0 0
0 0 0
0 0 0
0 0 0
0 0 0
0 0 0
0 0 0
0 0 0
0 0 0
0 0 0
0 0 0
0 0 0
0 0 0
0 0 0
0 0 0
0 0 0
0 0 0
0 0 0
0 0 0
0 0 0
0 0 0
0 0 0
0 0 0
0 0 0
0 0 0
0 0 0
0 0 0
0 0 0
0 0 0
0 0 0
0 0 0
0 0 0
0 0 0
0 0 0
0 0 0
0 0 0
0 0 0
0 0 0
0 0 0
0 0 0
0 0 0
0 0 0
0 0 0
0 0 0
0 0 0
0 0 0
0 0 0
0 0 0
0 0 0
0 0 0
0 0 0
0 0 0
0 0 0
0 0 0
0 0 0
0 0 0
0 0 0
0 0 0
0 0 0
0 0 0
0 0 0
0 0 0
0 0 0
0 0 0
0 0 0
0 0 0
0 0 0
0 0 0
0 0 0
0 0 0
0 0 0
0 0 0
0 0 0
0 0 0
0 0 0
0 0 0
0 0 0
0 0 0
0 0 0
0 0 0
0 0 0
0 0 0
0 0 0
0 0 0
0 0 0
0 0 0
0 0 0
0 0 0
0 0 0
0 0 0
0 0 0
0 0 0
0 0 0
0 0 0
0 0 0
0 0 0
0 0 0
0 0 0
0 0 0
0 0 0
0 0 0
0 0 0
0 0 0
0 0 0
0 0 0
0 0 0
0 0 0
0 0 0
0 0 0
0 0 0
0 0 0
0 0 0
0 0 0
0 0 0
0 0 0
0 0 0
0 0 0
0 0 0
0 0 0
0 0 0
0 0 0
0 0 0
0 0 0
0 0 0
0 0 0
0 0 0
0 0 0
0 0 0
0 0 0
0 0 0
0 0 0
0 0 0
0 0 0
0 0 0
0 0 0
0 0 0
0 0 0
0 0 0
0 0 0
0 0 0
0 0 0
0 0 0
0 0 0
0 0 0
0 0 0
0 0 0
0 0 0
0 0 0
0 0 0
0 0 0
0 0 0
0 0 0
0 0 0
0 0 0
0 0 0
0 0 0
0 0 0
0 0 0
0 0 0
0 0 0
0 0 0
0 0 0
0 0 0
0 0 0
0 0 0
0 0 0
0 0 0
0 0 0
0 0 0
0 0 0
0 0 0
0 0 0
0 0 0
0 0 0
0 0 0
0 0 0
0 0 0
0 0 0
0 0 0
0 0 0
0 0 0
0 0 0
0 0 0
0 0 0
0 0 0
0 0 0
0 0 0
0 0 0
0 0 0
0 0 0
0 0 0
0 0 0
0 0 0
0 0 0
0 0 0
0 0 0
0 0 0
0 0 0
0 0 0
0 0 0
0 0 0
0 0 0
0 0 0
0 0 0
0 0 0
0 0 0
0 0 0
0 0 0
0 0 0
0 0 0
0 0 0
0 0 0
0 0 0
0 0 0
0 0 0
0 0 0
0 0 0
0 0 0
0 0 0
0 0 0
0 0 0
0 0 0
0 0 0
0 0 0
0 0 0
0 0 0
0 0 0
0 0 0
0 0 0
0 0 0
0 0 0
0 0 0
0 0 0
0 0 0
0 0 0
0 0 0
0 0 0
0 0 0
0 0 0
0 0 0
0 0 0
0 0 0
0 0 0
0 0 0
0 0 0
0 0 0
0 0 0
0 0 0
0 0 0
0 0 0
0 0 0
0 0 0
0 0 0
0 0 0
0 0 0
0 0 0
0 0 0
0 0 0
0 0 0
0 0 0
0 0 0
0 0 0
0 0 0
0 0 0
0 0 0
0 0 0
0 0 0
0 0 0
0 0 0
0 0 0
0 0 0
0 0 0
0 0 0
0 0 0
0 0 0
0 0 0
0 0 0
0 0 0
0 0 0
0 0 0
0 0 0
0 0 0
0 0 0
0 0 0
0 0 0
0 0 0
0 0 0
0 0 0
0 0 0
0 0 0
0 0 0
0 0 0
0 0 0
0 0 0
0 0 0
0 0 0
0 0 0
0 0 0
0 0 0
0 0 0
0 0 0
0 0 0
0 0 0
0 0 0
0 0 0
0 0 0
0 0 0
0 0 0
0 0 0
0 0 0
0 0 0
0 0 0
0 0 0
0 0 0
0 0 0
0 0 0
0 0 0
0 0 0
0 0 0
0 0 0
0 0 0
0 0 0
0 0 0
0 0 0
0 0 0
0 0 0
0 0 0
0 0 0
0 0 0
0 0 0
0 0 0
0 0 0
0 0 0
0 0 0
0 0 0
0 0 0
0 0 0
0 0 0
0 0 0
0 0 0
0 0 0
0 0 0
0 0 0
0 0 0
0 0 0
0 0 0
0 0 0
0 0 0
0 0 0
0 0 0
25 25 25
84 84 84
125 125 125
175 175 175
107 107 107
53 53 53
47 47 47
107 107 107
118 118 118
132 132 132
114 114 114
126 126 126
146 146 146
157 157 157
185 185 185
165 165 165
89 89 89
34 34 34
43 43 43
57 57 57
43 43 43
84 84 84
113 113 113
86 86 86
48 48 48
28 28 28
50 50 50
149 149 149
147 147 147
224 224 224
204 204 204
211 211 211
171 171 171
166 166 166
186 186 186
128 128 128
138 138 138
152 152 152
115 115 115
95 95 95
37 37 37
17 17 17
27 27 27
31 31 31
27 27 27
47 47 47
52 52 52
33 33 33
62 62 62
49 49 49
33 33 33
0 0 0
0 0 0
0 0 0
0 0 0
0 0 0
0 0 0
0 0 0
0 0 0
0 0 0
0 0 0
0 0 0
0 0 0
0 0 0
0 0 0
0 0 0
0 0 0
0 0 0
0 0 0
0 0 0
0 0 0
0 0 0
0 0 0
0 0 0
0 0 0
0 0 0
0 0 0
0 0 0
0 0 0
0 0 0
0 0 0
0 0 0
0 0 0
0 0 0
0 0 0
0 0 0
0 0 0
0 0 0
0 0 0
0 0 0
0 0 0
0 0 0
0 0 0
0 0 0
0 0 0
0 0 0
0 0 0
0 0 0
0 0 0
0 0 0
0 0 0
0 0 0
0 0 0
0 0 0
0 0 0
0 0 0
0 0 0
0 0 0
0 0 0
0 0 0
0 0 0
0 0 0
0 0 0
0 0 0
0 0 0
0 0 0
0 0 0
0 0 0
0 0 0
0 0 0
0 0 0
0 0 0
0 0 0
0 0 0
0 0 0
0 0 0
0 0 0
0 0 0
0 0 0
0 0 0
0 0 0
0 0 0
0 0 0
0 0 0
0 0 0
0 0 0
0 0 0
0 0 0
0 0 0
0 0 0
0 0 0
0 0 0
0 0 0
0 0 0
0 0 0
0 0 0
0 0 0
0 0 0
0 0 0
0 0 0
0 0 0
0 0 0
0 0 0
0 0 0
0 0 0
0 0 0
0 0 0
0 0 0
0 0 0
0 0 0
0 0 0
0 0 0
0 0 0
0 0 0
0 0 0
0 0 0
0 0 0
0 0 0
0 0 0
0 0 0
0 0 0
0 0 0
0 0 0
0 0 0
0 0 0
0 0 0
0 0 0
0 0 0
0 0 0
0 0 0
0 0 0
0 0 0
0 0 0
0 0 0
0 0 0
0 0 0
0 0 0
0 0 0
0 0 0
0 0 0
0 0 0
0 0 0
0 0 0
0 0 0
0 0 0
0 0 0
0 0 0
0 0 0
0 0 0
0 0 0
0 0 0
0 0 0
0 0 0
0 0 0
0 0 0
0 0 0
0 0 0
0 0 0
0 0 0
0 0 0
0 0 0
0 0 0
0 0 0
0 0 0
0 0 0
0 0 0
0 0 0
0 0 0
0 0 0
0 0 0
0 0 0
0 0 0
0 0 0
0 0 0
0 0 0
0 0 0
0 0 0
0 0 0
0 0 0
0 0 0
0 0 0
0 0 0
0 0 0
0 0 0
0 0 0
0 0 0
0 0 0
0 0 0
0 0 0
0 0 0
0 0 0
0 0 0
0 0 0
0 0 0
0 0 0
0 0 0
0 0 0
0 0 0
0 0 0
0 0 0
0 0 0
0 0 0
0 0 0
0 0 0
0 0 0
0 0 0
0 0 0
0 0 0
0 0 0
0 0 0
0 0 0
0 0 0
0 0 0
0 0 0
0 0 0
0 0 0
0 0 0
0 0 0
0 0 0
0 0 0
0 0 0
0 0 0
0 0 0
0 0 0
0 0 0
0 0 0
0 0 0
0 0 0
0 0 0
0 0 0
0 0 0
0 0 0
0 0 0
0 0 0
0 0 0
0 0 0
0 0 0
0 0 0
0 0 0
0 0 0
0 0 0
0 0 0
0 0 0
0 0 0
0 0 0
0 0 0
0 0 0
0 0 0
0 0 0
0 0 0
0 0 0
0 0 0
0 0 0
0 0 0
0 0 0
0 0 0
0 0 0
0 0 0
0 0 0
0 0 0
0 0 0
0 0 0
0 0 0
0 0 0
0 0 0
0 0 0
0 0 0
0 0 0
0 0 0
0 0 0
0 0 0
0 0 0
0 0 0
0 0 0
0 0 0
0 0 0
0 0 0
0 0 0
0 0 0
0 0 0
0 0 0
0 0 0
0 0 0
0 0 0
0 0 0
0 0 0
0 0 0
0 0 0
0 0 0
0 0 0
0 0 0
0 0 0
0 0 0
0 0 0
0 0 0
0 0 0
0 0 0
0 0 0
0 0 0
0 0 0
0 0 0
0 0 0
0 0 0
0 0 0
0 0 0
0 0 0
0 0 0
0 0 0
0 0 0
0 0 0
0 0 0
0 0 0
0 0 0
0 0 0
0 0 0
0 0 0
0 0 0
0 0 0
0 0 0
0 0 0
0 0 0
0 0 0
0 0 0
0 0 0
0 0 0
0 0 0
0 0 0
0 0 0
0 0 0
0 0 0
0 0 0
0 0 0
0 0 0
0 0 0
0 0 0
0 0 0
0 0 0
0 0 0
0 0 0
0 0 0
0 0 0
0 0 0
0 0 0
0 0 0
0 0 0
0 0 0
0 0 0
0 0 0
0 0 0
147 147 147
152 152 152
131 131 131
170 170 170
112 112 112
73 73 73
59 59 59
55 55 55
52 52 52
37 37 37
44 44 44
54 54 54
56 56 56
63 63 63
131 131 131
154 154 154
176 176 176
137 137 137
78 78 78
43 43 43
42 42 42
63 63 63
42 42 42
32 32 32
28 28 28
70 70 70
131 131 131
139 139 139
142 142 142
189 189 189
177 177 177
237 237 237
188 188 188
223 223 223
184 184 184
165 165 165
136 136 136
127 127 127
126 126 126
125 125 125
103 103 103
65 65 65
28 28 28
13 13 13
17 17 17
38 38 38
64 64 64
103 103 103
91 91 91
56 56 56
43 43 43
28 28 28
36 36 36
25 25 25
0 0 0
0 0 0
0 0 0
0 0 0
0 0 0
0 0 0
0 0 0
0 0 0
0 0 0
0 0 0
0 0 0
0 0 0
0 0 0
0 0 0
0 0 0
0 0 0
0 0 0
0 0 0
0 0 0
0 0 0
0 0 0
0 0 0
0 0 0
0 0 0
0 0 0
0 0 0
0 0 0
0 0 0
0 0 0
0 0 0
0 0 0
0 0 0
0 0 0
0 0 0
0 0 0
0 0 0
0 0 0
0 0 0
0 0 0
0 0 0
0 0 0
0 0 0
0 0 0
0 0 0
0 0 0
0 0 0
0 0 0
0 0 0
0 0 0
0 0 0
0 0 0
0 0 0
0 0 0
0 0 0
0 0 0
0 0 0
0 0 0
0 0 0
0 0 0
0 0 0
0 0 0
0 0 0
0 0 0
0 0 0
0 0 0
0 0 0
0 0 0
0 0 0
0 0 0
0 0 0
0 0 0
0 0 0
0 0 0
0 0 0
0 0 0
0 0 0
0 0 0
0 0 0
0 0 0
0 0 0
0 0 0
0 0 0
0 0 0
0 0 0
0 0 0
0 0 0
0 0 0
0 0 0
0 0 0
0 0 0
0 0 0
0 0 0
0 0 0
0 0 0
0 0 0
0 0 0
0 0 0
0 0 0
0 0 0
0 0 0
0 0 0
0 0 0
0 0 0
0 0 0
0 0 0
0 0 0
0 0 0
0 0 0
0 0 0
0 0 0
0 0 0
0 0 0
0 0 0
0 0 0
0 0 0
0 0 0
0 0 0
0 0 0
0 0 0
0 0 0
0 0 0
0 0 0
0 0 0
0 0 0
0 0 0
0 0 0
0 0 0
0 0 0
0 0 0
0 0 0
0 0 0
0 0 0
0 0 0
0 0 0
0 0 0
0 0 0
0 0 0
0 0 0
0 0 0
0 0 0
0 0 0
0 0 0
0 0 0
0 0 0
0 0 0
0 0 0
0 0 0
0 0 0
0 0 0
0 0 0
0 0 0
0 0 0
0 0 0
0 0 0
0 0 0
0 0 0
0 0 0
0 0 0
0 0 0
0 0 0
0 0 0
0 0 0
0 0 0
0 0 0
0 0 0
0 0 0
0 0 0
0 0 0
0 0 0
0 0 0
0 0 0
0 0 0
0 0 0
0 0 0
0 0 0
0 0 0
0 0 0
0 0 0
0 0 0
0 0 0
0 0 0
0 0 0
0 0 0
0 0 0
0 0 0
0 0 0
0 0 0
0 0 0
0 0 0
0 0 0
0 0 0
0 0 0
0 0 0
0 0 0
0 0 0
0 0 0
0 0 0
0 0 0
0 0 0
0 0 0
0 0 0
0 0 0
0 0 0
0 0 0
0 0 0
0 0 0
0 0 0
0 0 0
0 0 0
0 0 0
0 0 0
0 0 0
0 0 0
0 0 0
0 0 0
0 0 0
0 0 0
0 0 0
0 0 0
0 0 0
0 0 0
0 0 0
0 0 0
0 0 0
0 0 0
0 0 0
0 0 0
0 0 0
0 0 0
0 0 0
0 0 0
0 0 0
0 0 0
0 0 0
0 0 0
0 0 0
0 0 0
0 0 0
0 0 0
0 0 0
0 0 0
0 0 0
0 0 0
0 0 0
0 0 0
0 0 0
0 0 0
0 0 0
0 0 0
0 0 0
0 0 0
0 0 0
0 0 0
0 0 0
0 0 0
0 0 0
0 0 0
0 0 0
0 0 0
0 0 0
0 0 0
0 0 0
0 0 0
0 0 0
0 0 0
0 0 0
0 0 0
0 0 0
0 0 0
0 0 0
0 0 0
0 0 0
0 0 0
0 0 0
0 0 0
0 0 0
0 0 0
0 0 0
0 0 0
0 0 0
0 0 0
0 0 0
0 0 0
0 0 0
0 0 0
0 0 0
0 0 0
0 0 0
0 0 0
0 0 0
0 0 0
0 0 0
0 0 0
0 0 0
0 0 0
0 0 0
0 0 0
0 0 0
0 0 0
0 0 0
0 0 0
0 0 0
0 0 0
0 0 0
0 0 0
0 0 0
0 0 0
0 0 0
0 0 0
0 0 0
0 0 0
0 0 0
0 0 0
0 0 0
0 0 0
0 0 0
0 0 0
0 0 0
0 0 0
0 0 0
0 0 0
0 0 0
0 0 0
0 0 0
0 0 0
0 0 0
0 0 0
0 0 0
0 0 0
0 0 0
0 0 0
0 0 0
0 0 0
0 0 0
0 0 0
0 0 0
0 0 0
0 0 0
0 0 0
0 0 0
0 0 0
0 0 0
0 0 0
0 0 0
47 47 47
163 163 163
120 120 120
74 74 74
58 58 58
70 70 70
59 59 59
32 32 32
65 65 65
73 73 73
84 84 84
57 57 57
33 33 33
35 35 35
39 39 39
30 30 30
68 68 68
120 120 120
150 150 150
167 167 167
114 114 114
105 105 105
96 96 96
145 145 145
128 128 128
107 107 107
105 105 105
152 152 152
183 183 183
175 175 175
219 219 219
187 187 187
195 195 195
216 216 216
207 207 207
183 183 183
197 197 197
159 159 159
138 138 138
140 140 140
132 132 132
120 120 120
103 103 103
93 93 93
80 80 80
46 46 46
26 26 26
27 27 27
38 38 38
32 32 32
68 68 68
105 105 105
87 87 87
40 40 40
72 72 72
75 75 75
47 47 47
31 31 31
0 0 0
0 0 0
0 0 0
0 0 0
0 0 0
0 0 0
0 0 0
0 0 0
0 0 0
0 0 0
0 0 0
0 0 0
0 0 0
0 0 0
0 0 0
0 0 0
0 0 0
0 0 0
0 0 0
0 0 0
0 0 0
0 0 0
0 0 0
0 0 0
0 0 0
0 0 0
0 0 0
0 0 0
0 0 0
0 0 0
0 0 0
0 0 0
0 0 0
0 0 0
0 0 0
0 0 0
0 0 0
0 0 0
0 0 0
0 0 0
0 0 0
0 0 0
0 0 0
0 0 0
0 0 0
0 0 0
0 0 0
0 0 0
0 0 0
0 0 0
0 0 0
0 0 0
0 0 0
0 0 0
0 0 0
0 0 0
0 0 0
0 0 0
0 0 0
0 0 0
0 0 0
0 0 0
0 0 0
0 0 0
0 0 0
0 0 0
0 0 0
0 0 0
0 0 0
0 0 0
0 0 0
0 0 0
0 0 0
0 0 0
0 0 0
0 0 0
0 0 0
0 0 0
0 0 0
0 0 0
0 0 0
0 0 0
0 0 0
0 0 0
0 0 0
0 0 0
0 0 0
0 0 0
0 0 0
0 0 0
0 0 0
0 0 0
0 0 0
0 0 0
0 0 0
0 0 0
0 0 0
0 0 0
0 0 0
0 0 0
0 0 0
0 0 0
0 0 0
0 0 0
0 0 0
0 0 0
0 0 0
0 0 0
0 0 0
0 0 0
0 0 0
0 0 0
0 0 0
0 0 0
0 0 0
0 0 0
0 0 0
0 0 0
0 0 0
0 0 0
0 0 0
0 0 0
0 0 0
0 0 0
0 0 0
0 0 0
0 0 0
0 0 0
0 0 0
0 0 0
0 0 0
0 0 0
0 0 0
0 0 0
0 0 0
0 0 0
0 0 0
0 0 0
0 0 0
0 0 0
0 0 0
0 0 0
0 0 0
0 0 0
0 0 0
0 0 0
0 0 0
0 0 0
0 0 0
0 0 0
0 0 0
0 0 0
0 0 0
0 0 0
0 0 0
0 0 0
0 0 0
0 0 0
0 0 0
0 0 0
0 0 0
0 0 0
0 0 0
0 0 0
0 0 0
0 0 0
0 0 0
0 0 0
0 0 0
0 0 0
0 0 0
0 0 0
0 0 0
0 0 0
0 0 0
0 0 0
0 0 0
0 0 0
0 0 0
0 0 0
0 0 0
0 0 0
0 0 0
0 0 0
0 0 0
0 0 0
0 0 0
0 0 0
0 0 0
0 0 0
0 0 0
0 0 0
0 0 0
0 0 0
0 0 0
0 0 0
0 0 0
0 0 0
0 0 0
0 0 0
0 0 0
0 0 0
0 0 0
0 0 0
0 0 0
0 0 0
0 0 0
0 0 0
0 0 0
0 0 0
0 0 0
0 0 0
0 0 0
0 0 0
0 0 0
0 0 0
0 0 0
0 0 0
0 0 0
0 0 0
0 0 0
0 0 0
0 0 0
0 0 0
0 0 0
0 0 0
0 0 0
0 0 0
0 0 0
0 0 0
0 0 0
0 0 0
0 0 0
0 0 0
0 0 0
0 0 0
0 0 0
0 0 0
0 0 0
0 0 0
0 0 0
0 0 0
0 0 0
0 0 0
0 0 0
0 0 0
0 0 0
0 0 0
0 0 0
0 0 0
0 0 0
0 0 0
0 0 0
0 0 0
0 0 0
0 0 0
0 0 0
0 0 0
0 0 0
0 0 0
0 0 0
0 0 0
0 0 0
0 0 0
0 0 0
0 0 0
0 0 0
0 0 0
0 0 0
0 0 0
0 0 0
0 0 0
0 0 0
0 0 0
0 0 0
0 0 0
0 0 0
0 0 0
0 0 0
0 0 0
0 0 0
0 0 0
0 0 0
0 0 0
0 0 0
0 0 0
0 0 0
0 0 0
0 0 0
0 0 0
0 0 0
0 0 0
0 0 0
0 0 0
0 0 0
0 0 0
0 0 0
0 0 0
0 0 0
0 0 0
0 0 0
0 0 0
0 0 0
0 0 0
0 0 0
0 0 0
0 0 0
0 0 0
0 0 0
0 0 0
0 0 0
0 0 0
0 0 0
0 0 0
0 0 0
0 0 0
0 0 0
0 0 0
0 0 0
0 0 0
0 0 0
0 0 0
0 0 0
0 0 0
0 0 0
0 0 0
0 0 0
0 0 0
0 0 0
0 0 0
0 0 0
0 0 0
0 0 0
0 0 0
0 0 0
0 0 0
0 0 0
0 0 0
0 0 0
0 0 0
0 0 0
69 69 69
157 157 157
119 119 119
40 40 40
22 22 22
24 24 24
43 43 43
89 89 89
96 96 96
93 93 93
100 100 100
83 83 83
69 69 69
19 19 19
41 41 41
48 48 48
27 27 27
28 28 28
100 100 100
127 127 127
119 119 119
167 167 167
175 175 175
159 159 159
156 156 156
131 131 131
163 163 163
136 136 136
174 174 174
142 142 142
193 193 193
194 194 194
191 191 191
236 236 236
195 195 195
169 169 169
214 214 214
195 195 195
151 151 151
149 149 149
147 147 147
128 128 128
118 118 118
78 78 78
62 62 62
62 62 62
53 53 53
56 56 56
41 41 41
26 26 26
46 46 46
70 70 70
117 117 117
133 133 133
90 90 90
85 85 85
117 117 117
89 89 89
67 67 67
119 119 119
0 0 0
0 0 0
0 0 0
0 0 0
0 0 0
0 0 0
0 0 0
0 0 0
0 0 0
0 0 0
0 0 0
0 0 0
0 0 0
0 0 0
0 0 0
0 0 0
0 0 0
0 0 0
0 0 0
0 0 0
0 0 0
0 0 0
0 0 0
0 0 0
0 0 0
0 0 0
0 0 0
0 0 0
0 0 0
0 0 0
0 0 0
0 0 0
0 0 0
0 0 0
0 0 0
0 0 0
0 0 0
0 0 0
0 0 0
0 0 0
0 0 0
0 0 0
0 0 0
0 0 0
0 0 0
0 0 0
0 0 0
0 0 0
0 0 0
0 0 0
0 0 0
0 0 0
0 0 0
0 0 0
0 0 0
0 0 0
0 0 0
0 0 0
0 0 0
0 0 0
0 0 0
0 0 0
0 0 0
0 0 0
0 0 0
0 0 0
0 0 0
0 0 0
0 0 0
0 0 0
0 0 0
0 0 0
0 0 0
0 0 0
0 0 0
0 0 0
0 0 0
0 0 0
0 0 0
0 0 0
0 0 0
0 0 0
0 0 0
0 0 0
0 0 0
0 0 0
0 0 0
0 0 0
0 0 0
0 0 0
0 0 0
0 0 0
0 0 0
0 0 0
0 0 0
0 0 0
0 0 0
0 0 0
0 0 0
0 0 0
0 0 0
0 0 0
0 0 0
0 0 0
0 0 0
0 0 0
0 0 0
0 0 0
0 0 0
0 0 0
0 0 0
0 0 0
0 0 0
0 0 0
0 0 0
0 0 0
0 0 0
0 0 0
0 0 0
0 0 0
0 0 0
0 0 0
0 0 0
0 0 0
0 0 0
0 0 0
0 0 0
0 0 0
0 0 0
0 0 0
0 0 0
0 0 0
0 0 0
0 0 0
0 0 0
0 0 0
0 0 0
0 0 0
0 0 0
0 0 0
0 0 0
0 0 0
0 0 0
0 0 0
0 0 0
0 0 0
0 0 0
0 0 0
0 0 0
0 0 0
0 0 0
0 0 0
0 0 0
0 0 0
0 0 0
0 0 0
0 0 0
0 0 0
0 0 0
0 0 0
0 0 0
0 0 0
0 0 0
0 0 0
0 0 0
0 0 0
0 0 0
0 0 0
0 0 0
0 0 0
0 0 0
0 0 0
0 0 0
0 0 0
0 0 0
0 0 0
0 0 0
0 0 0
0 0 0
0 0 0
0 0 0
0 0 0
0 0 0
0 0 0
0 0 0
0 0 0
0 0 0
0 0 0
0 0 0
0 0 0
0 0 0
0 0 0
0 0 0
0 0 0
0 0 0
0 0 0
0 0 0
0 0 0
0 0 0
0 0 0
0 0 0
0 0 0
0 0 0
0 0 0
0 0 0
0 0 0
0 0 0
0 0 0
0 0 0
0 0 0
0 0 0
0 0 0
0 0 0
0 0 0
0 0 0
0 0 0
0 0 0
0 0 0
0 0 0
0 0 0
0 0 0
0 0 0
0 0 0
0 0 0
0 0 0
0 0 0
0 0 0
0 0 0
0 0 0
0 0 0
0 0 0
0 0 0
0 0 0
0 0 0
0 0 0
0 0 0
0 0 0
0 0 0
0 0 0
0 0 0
0 0 0
0 0 0
0 0 0
0 0 0
0 0 0
0 0 0
0 0 0
0 0 0
0 0 0
0 0 0
0 0 0
0 0 0
0 0 0
0 0 0
0 0 0
0 0 0
0 0 0
0 0 0
0 0 0
0 0 0
0 0 0
0 0 0
0 0 0
0 0 0
0 0 0
0 0 0
0 0 0
0 0 0
0 0 0
0 0 0
0 0 0
0 0 0
0 0 0
0 0 0
0 0 0
0 0 0
0 0 0
0 0 0
0 0 0
0 0 0
0 0 0
0 0 0
0 0 0
0 0 0
0 0 0
0 0 0
0 0 0
0 0 0
0 0 0
0 0 0
0 0 0
0 0 0
0 0 0
0 0 0
0 0 0
0 0 0
0 0 0
0 0 0
0 0 0
0 0 0
0 0 0
0 0 0
0 0 0
0 0 0
0 0 0
0 0 0
0 0 0
0 0 0
0 0 0
0 0 0
0 0 0
0 0 0
0 0 0
0 0 0
0 0 0
0 0 0
0 0 0
0 0 0
0 0 0
0 0 0
0 0 0
0 0 0
0 0 0
0 0 0
0 0 0
0 0 0
0 0 0
0 0 0
0 0 0
0 0 0
0 0 0
0 0 0
0 0 0
0 0 0
0 0 0
0 0 0
0 0 0
0 0 0
0 0 0
123 123 123
180 180 180
165 165 165
94 94 94
30 30 30
47 47 47
90 90 90
103 103 103
90 90 90
78 78 78
75 75 75
44 44 44
22 22 22
11 11 11
18 18 18
36 36 36
30 30 30
10 10 10
8 8 8
77 77 77
153 153 153
132 132 132
142 142 142
152 152 152
128 128 128
112 112 112
141 141 141
74 74 74
107 107 107
121 121 121
156 156 156
99 99 99
155 155 155
164 164 164
160 160 160
167 167 167
204 204 204
194 194 194
169 169 169
168 168 168
111 111 111
155 155 155
127 127 127
146 146 146
127 127 127
60 60 60
33 33 33
27 27 27
53 53 53
54 54 54
79 79 79
39 39 39
14 14 14
53 53 53
105 105 105
87 87 87
75 75 75
86 86 86
100 100 100
77 77 77
97 97 97
133 133 133
0 0 0
0 0 0
0 0 0
0 0 0
0 0 0
0 0 0
0 0 0
0 0 0
0 0 0
0 0 0
0 0 0
0 0 0
0 0 0
0 0 0
0 0 0
0 0 0
0 0 0
0 0 0
0 0 0
0 0 0
0 0 0
0 0 0
0 0 0
0 0 0
0 0 0
0 0 0
0 0 0
0 0 0
0 0 0
0 0 0
0 0 0
0 0 0
0 0 0
0 0 0
0 0 0
0 0 0
0 0 0
0 0 0
0 0 0
0 0 0
0 0 0
0 0 0
0 0 0
0 0 0
0 0 0
0 0 0
0 0 0
0 0 0
0 0 0
0 0 0
0 0 0
0 0 0
0 0 0
0 0 0
0 0 0
0 0 0
0 0 0
0 0 0
0 0 0
0 0 0
0 0 0
0 0 0
0 0 0
0 0 0
0 0 0
0 0 0
0 0 0
0 0 0
0 0 0
0 0 0
0 0 0
0 0 0
0 0 0
0 0 0
0 0 0
0 0 0
0 0 0
0 0 0
0 0 0
0 0 0
0 0 0
0 0 0
0 0 0
0 0 0
0 0 0
0 0 0
0 0 0
0 0 0
0 0 0
0 0 0
0 0 0
0 0 0
0 0 0
0 0 0
0 0 0
0 0 0
0 0 0
0 0 0
0 0 0
0 0 0
0 0 0
0 0 0
0 0 0
0 0 0
0 0 0
0 0 0
0 0 0
0 0 0
0 0 0
0 0 0
0 0 0
0 0 0
0 0 0
0 0 0
0 0 0
0 0 0
0 0 0
0 0 0
0 0 0
0 0 0
0 0 0
0 0 0
0 0 0
0 0 0
0 0 0
0 0 0
0 0 0
0 0 0
0 0 0
0 0 0
0 0 0
0 0 0
0 0 0
0 0 0
0 0 0
0 0 0
0 0 0
0 0 0
0 0 0
0 0 0
0 0 0
0 0 0
0 0 0
0 0 0
0 0 0
0 0 0
0 0 0
0 0 0
0 0 0
0 0 0
0 0 0
0 0 0
0 0 0
0 0 0
0 0 0
0 0 0
0 0 0
0 0 0
0 0 0
0 0 0
0 0 0
0 0 0
0 0 0
0 0 0
0 0 0
0 0 0
0 0 0
0 0 0
0 0 0
0 0 0
0 0 0
0 0 0
0 0 0
0 0 0
0 0 0
0 0 0
0 0 0
0 0 0
0 0 0
0 0 0
0 0 0
0 0 0
0 0 0
0 0 0
0 0 0
0 0 0
0 0 0
0 0 0
0 0 0
0 0 0
0 0 0
0 0 0
0 0 0
0 0 0
0 0 0
0 0 0
0 0 0
0 0 0
0 0 0
0 0 0
0 0 0
0 0 0
0 0 0
0 0 0
0 0 0
0 0 0
0 0 0
0 0 0
0 0 0
0 0 0
0 0 0
0 0 0
0 0 0
0 0 0
0 0 0
0 0 0
0 0 0
0 0 0
0 0 0
0 0 0
0 0 0
0 0 0
0 0 0
0 0 0
0 0 0
0 0 0
0 0 0
0 0 0
0 0 0
0 0 0
0 0 0
0 0 0
0 0 0
0 0 0
0 0 0
0 0 0
0 0 0
0 0 0
0 0 0
0 0 0
0 0 0
0 0 0
0 0 0
0 0 0
0 0 0
0 0 0
0 0 0
0 0 0
0 0 0
0 0 0
0 0 0
0 0 0
0 0 0
0 0 0
0 0 0
0 0 0
0 0 0
0 0 0
0 0 0
0 0 0
0 0 0
0 0 0
0 0 0
0 0 0
0 0 0
0 0 0
0 0 0
0 0 0
0 0 0
0 0 0
0 0 0
0 0 0
0 0 0
0 0 0
0 0 0
0 0 0
0 0 0
0 0 0
0 0 0
0 0 0
0 0 0
0 0 0
0 0 0
0 0 0
0 0 0
0 0 0
0 0 0
0 0 0
0 0 0
0 0 0
0 0 0
0 0 0
0 0 0
0 0 0
0 0 0
0 0 0
0 0 0
0 0 0
0 0 0
0 0 0
0 0 0
0 0 0
0 0 0
0 0 0
0 0 0
0 0 0
0 0 0
0 0 0
0 0 0
0 0 0
0 0 0
0 0 0
0 0 0
0 0 0
0 0 0
0 0 0
0 0 0
0 0 0
0 0 0
0 0 0
0 0 0
0 0 0
0 0 0
0 0 0
0 0 0
0 0 0
0 0 0
0 0 0
0 0 0
0 0 0
0 0 0
0 0 0
0 0 0
0 0 0
0 0 0
0 0 0
0 0 0
68 68 68
142 142 142
143 143 143
121 121 121
58 58 58
89 89 89
125 125 125
105 105 105
131 131 131
90 90 90
60 60 60
29 29 29
49 49 49
48 48 48
29 29 29
12 12 12
8 8 8
24 24 24
29 29 29
32 32 32
79 79 79
130 130 130
131 131 131
135 135 135
161 161 161
124 124 124
116 116 116
118 118 118
77 77 77
75 75 75
80 80 80
94 94 94
118 118 118
137 137 137
127 127 127
182 182 182
169 169 169
196 196 196
180 180 180
184 184 184
164 164 164
162 162 162
110 110 110
141 141 141
167 167 167
150 150 150
120 120 120
86 86 86
49 49 49
36 36 36
21 21 21
54 54 54
37 37 37
16 16 16
38 38 38
53 53 53
31 31 31
54 54 54
68 68 68
51 51 51
49 49 49
61 61 61
114 114 114
48 48 48
0 0 0
0 0 0
0 0 0
0 0 0
0 0 0
0 0 0
0 0 0
0 0 0
0 0 0
0 0 0
0 0 0
0 0 0
0 0 0
0 0 0
0 0 0
0 0 0
0 0 0
0 0 0
0 0 0
0 0 0
0 0 0
0 0 0
0 0 0
0 0 0
0 0 0
0 0 0
0 0 0
0 0 0
0 0 0
0 0 0
0 0 0
0 0 0
0 0 0
0 0 0
0 0 0
0 0 0
0 0 0
0 0 0
0 0 0
0 0 0
0 0 0
0 0 0
0 0 0
0 0 0
0 0 0
0 0 0
0 0 0
0 0 0
0 0 0
0 0 0
0 0 0
0 0 0
0 0 0
0 0 0
0 0 0
0 0 0
0 0 0
0 0 0
0 0 0
0 0 0
0 0 0
0 0 0
0 0 0
0 0 0
0 0 0
0 0 0
0 0 0
0 0 0
0 0 0
0 0 0
0 0 0
0 0 0
0 0 0
0 0 0
0 0 0
0 0 0
0 0 0
0 0 0
0 0 0
0 0 0
0 0 0
0 0 0
0 0 0
0 0 0
0 0 0
0 0 0
0 0 0
0 0 0
0 0 0
0 0 0
0 0 0
0 0 0
0 0 0
0 0 0
0 0 0
0 0 0
0 0 0
0 0 0
0 0 0
0 0 0
0 0 0
0 0 0
0 0 0
0 0 0
0 0 0
0 0 0
0 0 0
0 0 0
0 0 0
0 0 0
0 0 0
0 0 0
0 0 0
0 0 0
0 0 0
0 0 0
0 0 0
0 0 0
0 0 0
0 0 0
0 0 0
0 0 0
0 0 0
0 0 0
0 0 0
0 0 0
0 0 0
0 0 0
0 0 0
0 0 0
0 0 0
0 0 0
0 0 0
0 0 0
0 0 0
0 0 0
0 0 0
0 0 0
0 0 0
0 0 0
0 0 0
0 0 0
0 0 0
0 0 0
0 0 0
0 0 0
0 0 0
0 0 0
0 0 0
0 0 0
0 0 0
0 0 0
0 0 0
0 0 0
0 0 0
0 0 0
0 0 0
0 0 0
0 0 0
0 0 0
0 0 0
0 0 0
0 0 0
0 0 0
0 0 0
0 0 0
0 0 0
0 0 0
0 0 0
0 0 0
0 0 0
0 0 0
0 0 0
0 0 0
0 0 0
0 0 0
0 0 0
0 0 0
0 0 0
0 0 0
0 0 0
0 0 0
0 0 0
0 0 0
0 0 0
0 0 0
0 0 0
0 0 0
0 0 0
0 0 0
0 0 0
0 0 0
0 0 0
0 0 0
0 0 0
0 0 0
0 0 0
0 0 0
0 0 0
0 0 0
0 0 0
0 0 0
0 0 0
0 0 0
0 0 0
0 0 0
0 0 0
0 0 0
0 0 0
0 0 0
0 0 0
0 0 0
0 0 0
0 0 0
0 0 0
0 0 0
0 0 0
0 0 0
0 0 0
0 0 0
0 0 0
0 0 0
0 0 0
0 0 0
0 0 0
0 0 0
0 0 0
0 0 0
0 0 0
0 0 0
0 0 0
0 0 0
0 0 0
0 0 0
0 0 0
0 0 0
0 0 0
0 0 0
0 0 0
0 0 0
0 0 0
0 0 0
0 0 0
0 0 0
0 0 0
0 0 0
0 0 0
0 0 0
0 0 0
0 0 0
0 0 0
0 0 0
0 0 0
0 0 0
0 0 0
0 0 0
0 0 0
0 0 0
0 0 0
0 0 0
0 0 0
0 0 0
0 0 0
0 0 0
0 0 0
0 0 0
0 0 0
0 0 0
0 0 0
0 0 0
0 0 0
0 0 0
0 0 0
0 0 0
0 0 0
0 0 0
0 0 0
0 0 0
0 0 0
0 0 0
0 0 0
0 0 0
0 0 0
0 0 0
0 0 0
0 0 0
0 0 0
0 0 0
0 0 0
0 0 0
0 0 0
0 0 0
0 0 0
0 0 0
0 0 0
0 0 0
0 0 0
0 0 0
0 0 0
0 0 0
0 0 0
0 0 0
0 0 0
0 0 0
0 0 0
0 0 0
0 0 0
0 0 0
0 0 0
0 0 0
0 0 0
0 0 0
0 0 0
0 0 0
0 0 0
0 0 0
0 0 0
0 0 0
0 0 0
0 0 0
0 0 0
0 0 0
0 0 0
0 0 0
0 0 0
0 0 0
0 0 0
0 0 0
0 0 0
0 0 0
0 0 0
0 0 0
0 0 0
0 0 0
0 0 0
144 144 144
165 165 165
145 145 145
159 159 159
82 82 82
125 125 125
124 124 124
165 165 165
98 98 98
101 101 101
57 57 57
36 36 36
29 29 29
39 39 39
54 54 54
50 50 50
35 35 35
12 12 12
28 28 28
25 25 25
38 38 38
106 106 106
94 94 94
157 157 157
117 117 117
108 108 108
98 98 98
108 108 108
105 105 105
109 109 109
96 96 96
76 76 76
113 113 113
114 114 114
155 155 155
158 158 158
167 167 167
189 189 189
150 150 150
199 199 199
164 164 164
116 116 116
118 118 118
145 145 145
110 110 110
188 188 188
130 130 130
92 92 92
81 81 81
87 87 87
47 47 47
8 8 8
6 6 6
10 10 10
37 37 37
66 66 66
59 59 59
19 19 19
11 11 11
32 32 32
67 67 67
52 52 52
37 37 37
87 87 87
139 139 139
149 149 149
0 0 0
0 0 0
0 0 0
0 0 0
0 0 0
0 0 0
0 0 0
0 0 0
0 0 0
0 0 0
0 0 0
0 0 0
0 0 0
0 0 0
0 0 0
0 0 0
0 0 0
0 0 0
0 0 0
0 0 0
0 0 0
0 0 0
0 0 0
0 0 0
0 0 0
0 0 0
0 0 0
0 0 0
0 0 0
0 0 0
0 0 0
0 0 0
0 0 0
0 0 0
0 0 0
0 0 0
0 0 0
0 0 0
0 0 0
0 0 0
0 0 0
0 0 0
0 0 0
0 0 0
0 0 0
0 0 0
0 0 0
0 0 0
0 0 0
0 0 0
0 0 0
0 0 0
0 0 0
0 0 0
0 0 0
0 0 0
0 0 0
0 0 0
0 0 0
0 0 0
0 0 0
0 0 0
0 0 0
0 0 0
0 0 0
0 0 0
0 0 0
0 0 0
0 0 0
0 0 0
0 0 0
0 0 0
0 0 0
0 0 0
0 0 0
0 0 0
0 0 0
0 0 0
0 0 0
0 0 0
0 0 0
0 0 0
0 0 0
0 0 0
0 0 0
0 0 0
0 0 0
0 0 0
0 0 0
0 0 0
0 0 0
0 0 0
0 0 0
0 0 0
0 0 0
0 0 0
0 0 0
0 0 0
0 0 0
0 0 0
0 0 0
0 0 0
0 0 0
0 0 0
0 0 0
0 0 0
0 0 0
0 0 0
0 0 0
0 0 0
0 0 0
0 0 0
0 0 0
0 0 0
0 0 0
0 0 0
0 0 0
0 0 0
0 0 0
0 0 0
0 0 0
0 0 0
0 0 0
0 0 0
0 0 0
0 0 0
0 0 0
0 0 0
0 0 0
0 0 0
0 0 0
0 0 0
0 0 0
0 0 0
0 0 0
0 0 0
0 0 0
0 0 0
0 0 0
0 0 0
0 0 0
0 0 0
0 0 0
0 0 0
0 0 0
0 0 0
0 0 0
0 0 0
0 0 0
0 0 0
0 0 0
0 0 0
0 0 0
0 0 0
0 0 0
0 0 0
0 0 0
0 0 0
0 0 0
0 0 0
0 0 0
0 0 0
0 0 0
0 0 0
0 0 0
0 0 0
0 0 0
0 0 0
0 0 0
0 0 0
0 0 0
0 0 0
0 0 0
0 0 0
0 0 0
0 0 0
0 0 0
0 0 0
0 0 0
0 0 0
0 0 0
0 0 0
0 0 0
0 0 0
0 0 0
0 0 0
0 0 0
0 0 0
0 0 0
0 0 0
0 0 0
0 0 0
0 0 0
0 0 0
0 0 0
0 0 0
0 0 0
0 0 0
0 0 0
0 0 0
0 0 0
0 0 0
0 0 0
0 0 0
0 0 0
0 0 0
0 0 0
0 0 0
0 0 0
0 0 0
0 0 0
0 0 0
0 0 0
0 0 0
0 0 0
0 0 0
0 0 0
0 0 0
0 0 0
0 0 0
0 0 0
0 0 0
0 0 0
0 0 0
0 0 0
0 0 0
0 0 0
0 0 0
0 0 0
0 0 0
0 0 0
0 0 0
0 0 0
0 0 0
0 0 0
0 0 0
0 0 0
0 0 0
0 0 0
0 0 0
0 0 0
0 0 0
0 0 0
0 0 0
0 0 0
0 0 0
0 0 0
0 0 0
0 0 0
0 0 0
0 0 0
0 0 0
0 0 0
0 0 0
0 0 0
0 0 0
0 0 0
0 0 0
0 0 0
0 0 0
0 0 0
0 0 0
0 0 0
0 0 0
0 0 0
0 0 0
0 0 0
0 0 0
0 0 0
0 0 0
0 0 0
0 0 0
0 0 0
0 0 0
0 0 0
0 0 0
0 0 0
0 0 0
0 0 0
0 0 0
0 0 0
0 0 0
0 0 0
0 0 0
0 0 0
0 0 0
0 0 0
0 0 0
0 0 0
0 0 0
0 0 0
0 0 0
0 0 0
0 0 0
0 0 0
0 0 0
0 0 0
0 0 0
0 0 0
0 0 0
0 0 0
0 0 0
0 0 0
0 0 0
0 0 0
0 0 0
0 0 0
0 0 0
0 0 0
0 0 0
0 0 0
0 0 0
0 0 0
0 0 0
0 0 0
0 0 0
0 0 0
0 0 0
0 0 0
0 0 0
0 0 0
0 0 0
0 0 0
0 0 0
0 0 0
0 0 0
0 0 0
0 0 0
0 0 0
0 0 0
0 0 0
0 0 0
0 0 0
122 122 122
160 160 160
149 149 149
130 130 130
88 88 88
85 85 85
108 108 108
125 125 125
110 110 110
107 107 107
68 68 68
12 12 12
17 17 17
18 18 18
16 16 16
41 41 41
53 53 53
68 68 68
49 49 49
38 38 38
42 42 42
57 57 57
89 89 89
136 136 136
95 95 95
106 106 106
68 68 68
52 52 52
41 41 41
44 44 44
70 70 70
77 77 77
88 88 88
128 128 128
106 106 106
135 135 135
165 165 165
169 169 169
212 212 212
176 176 176
112 112 112
168 168 168
121 121 121
124 124 124
126 126 126
69 69 69
124 124 124
117 117 117
69 69 69
64 64 64
37 37 37
13 13 13
10 10 10
12 12 12
26 26 26
65 65 65
59 59 59
66 66 66
85 85 85
32 32 32
16 16 16
30 30 30
59 59 59
53 53 53
62 62 62
83 83 83
110 110 110
130 130 130
0 0 0
0 0 0
0 0 0
0 0 0
0 0 0
0 0 0
0 0 0
0 0 0
0 0 0
0 0 0
0 0 0
0 0 0
0 0 0
0 0 0
0 0 0
0 0 0
0 0 0
0 0 0
0 0 0
0 0 0
0 0 0
0 0 0
0 0 0
0 0 0
0 0 0
0 0 0
0 0 0
0 0 0
0 0 0
0 0 0
0 0 0
0 0 0
0 0 0
0 0 0
0 0 0
0 0 0
0 0 0
0 0 0
0 0 0
0 0 0
0 0 0
0 0 0
0 0 0
0 0 0
0 0 0
0 0 0
0 0 0
0 0 0
0 0 0
0 0 0
0 0 0
0 0 0
0 0 0
0 0 0
0 0 0
0 0 0
0 0 0
0 0 0
0 0 0
0 0 0
0 0 0
0 0 0
0 0 0
0 0 0
0 0 0
0 0 0
0 0 0
0 0 0
0 0 0
0 0 0
0 0 0
0 0 0
0 0 0
0 0 0
0 0 0
0 0 0
0 0 0
0 0 0
0 0 0
0 0 0
0 0 0
0 0 0
0 0 0
0 0 0
0 0 0
0 0 0
0 0 0
0 0 0
0 0 0
0 0 0
0 0 0
0 0 0
0 0 0
0 0 0
0 0 0
0 0 0
0 0 0
0 0 0
0 0 0
0 0 0
0 0 0
0 0 0
0 0 0
0 0 0
0 0 0
0 0 0
0 0 0
0 0 0
0 0 0
0 0 0
0 0 0
0 0 0
0 0 0
0 0 0
0 0 0
0 0 0
0 0 0
0 0 0
0 0 0
0 0 0
0 0 0
0 0 0
0 0 0
0 0 0
0 0 0
0 0 0
0 0 0
0 0 0
0 0 0
0 0 0
0 0 0
0 0 0
0 0 0
0 0 0
0 0 0
0 0 0
0 0 0
0 0 0
0 0 0
0 0 0
0 0 0
0 0 0
0 0 0
0 0 0
0 0 0
0 0 0
0 0 0
0 0 0
0 0 0
0 0 0
0 0 0
0 0 0
0 0 0
0 0 0
0 0 0
0 0 0
0 0 0
0 0 0
0 0 0
0 0 0
0 0 0
0 0 0
0 0 0
0 0 0
0 0 0
0 0 0
0 0 0
0 0 0
0 0 0
0 0 0
0 0 0
0 0 0
0 0 0
0 0 0
0 0 0
0 0 0
0 0 0
0 0 0
0 0 0
0 0 0
0 0 0
0 0 0
0 0 0
0 0 0
0 0 0
0 0 0
0 0 0
0 0 0
0 0 0
0 0 0
0 0 0
0 0 0
0 0 0
0 0 0
0 0 0
0 0 0
0 0 0
0 0 0
0 0 0
0 0 0
0 0 0
0 0 0
0 0 0
0 0 0
0 0 0
0 0 0
0 0 0
0 0 0
0 0 0
0 0 0
0 0 0
0 0 0
0 0 0
0 0 0
0 0 0
0 0 0
0 0 0
0 0 0
0 0 0
0 0 0
0 0 0
0 0 0
0 0 0
0 0 0
0 0 0
0 0 0
0 0 0
0 0 0
0 0 0
0 0 0
0 0 0
0 0 0
0 0 0
0 0 0
0 0 0
0 0 0
0 0 0
0 0 0
0 0 0
0 0 0
0 0 0
0 0 0
0 0 0
0 0 0
0 0 0
0 0 0
0 0 0
0 0 0
0 0 0
0 0 0
0 0 0
0 0 0
0 0 0
0 0 0
0 0 0
0 0 0
0 0 0
0 0 0
0 0 0
0 0 0
0 0 0
0 0 0
0 0 0
0 0 0
0 0 0
0 0 0
0 0 0
0 0 0
0 0 0
0 0 0
0 0 0
0 0 0
0 0 0
0 0 0
0 0 0
0 0 0
0 0 0
0 0 0
0 0 0
0 0 0
0 0 0
0 0 0
0 0 0
0 0 0
0 0 0
0 0 0
0 0 0
0 0 0
0 0 0
0 0 0
0 0 0
0 0 0
0 0 0
0 0 0
0 0 0
0 0 0
0 0 0
0 0 0
0 0 0
0 0 0
0 0 0
0 0 0
0 0 0
0 0 0
0 0 0
0 0 0
0 0 0
0 0 0
0 0 0
0 0 0
0 0 0
0 0 0
0 0 0
0 0 0
0 0 0
0 0 0
0 0 0
0 0 0
0 0 0
0 0 0
0 0 0
0 0 0
0 0 0
0 0 0
0 0 0
0 0 0
0 0 0
0 0 0
0 0 0
0 0 0
0 0 0
118 118 118
130 130 130
116 116 116
94 94 94
109 109 109
71 71 71
71 71 71
89 89 89
161 161 161
108 108 108
53 53 53
14 14 14
8 8 8
24 24 24
36 36 36
33 33 33
11 11 11
18 18 18
27 27 27
45 45 45
94 94 94
79 79 79
84 84 84
79 79 79
67 67 67
46 46 46
16 16 16
14 14 14
22 22 22
18 18 18
14 14 14
51 51 51
81 81 81
67 67 67
98 98 98
93 93 93
133 133 133
146 146 146
141 141 141
146 146 146
136 136 136
145 145 145
153 153 153
139 139 139
174 174 174
76 76 76
111 111 111
98 98 98
83 83 83
108 108 108
56 56 56
25 25 25
16 16 16
10 10 10
14 14 14
35 35 35
43 43 43
47 47 47
52 52 52
77 77 77
93 93 93
42 42 42
21 21 21
12 12 12
25 25 25
26 26 26
42 42 42
95 95 95
110 110 110
99 99 99
0 0 0
0 0 0
0 0 0
0 0 0
0 0 0
0 0 0
0 0 0
0 0 0
0 0 0
0 0 0
0 0 0
0 0 0
0 0 0
0 0 0
0 0 0
0 0 0
0 0 0
0 0 0
0 0 0
0 0 0
0 0 0
0 0 0
0 0 0
0 0 0
0 0 0
0 0 0
0 0 0
0 0 0
0 0 0
0 0 0
0 0 0
0 0 0
0 0 0
0 0 0
0 0 0
0 0 0
0 0 0
0 0 0
0 0 0
0 0 0
0 0 0
0 0 0
0 0 0
0 0 0
0 0 0
0 0 0
0 0 0
0 0 0
0 0 0
0 0 0
0 0 0
0 0 0
0 0 0
0 0 0
0 0 0
0 0 0
0 0 0
0 0 0
0 0 0
0 0 0
0 0 0
0 0 0
0 0 0
0 0 0
0 0 0
0 0 0
0 0 0
0 0 0
0 0 0
0 0 0
0 0 0
0 0 0
0 0 0
0 0 0
0 0 0
0 0 0
0 0 0
0 0 0
0 0 0
0 0 0
0 0 0
0 0 0
0 0 0
0 0 0
0 0 0
0 0 0
0 0 0
0 0 0
0 0 0
0 0 0
0 0 0
0 0 0
0 0 0
0 0 0
0 0 0
0 0 0
0 0 0
0 0 0
0 0 0
0 0 0
0 0 0
0 0 0
0 0 0
0 0 0
0 0 0
0 0 0
0 0 0
0 0 0
0 0 0
0 0 0
0 0 0
0 0 0
0 0 0
0 0 0
0 0 0
0 0 0
0 0 0
0 0 0
0 0 0
0 0 0
0 0 0
0 0 0
0 0 0
0 0 0
0 0 0
0 0 0
0 0 0
0 0 0
0 0 0
0 0 0
0 0 0
0 0 0
0 0 0
0 0 0
0 0 0
0 0 0
0 0 0
0 0 0
0 0 0
0 0 0
0 0 0
0 0 0
0 0 0
0 0 0
0 0 0
0 0 0
0 0 0
0 0 0
0 0 0
0 0 0
0 0 0
0 0 0
0 0 0
0 0 0
0 0 0
0 0 0
0 0 0
0 0 0
0 0 0
0 0 0
0 0 0
0 0 0
0 0 0
0 0 0
0 0 0
0 0 0
0 0 0
0 0 0
0 0 0
0 0 0
0 0 0
0 0 0
0 0 0
0 0 0
0 0 0
0 0 0
0 0 0
0 0 0
0 0 0
0 0 0
0 0 0
0 0 0
0 0 0
0 0 0
0 0 0
0 0 0
0 0 0
0 0 0
0 0 0
0 0 0
0 0 0
0 0 0
0 0 0
0 0 0
0 0 0
0 0 0
0 0 0
0 0 0
0 0 0
0 0 0
0 0 0
0 0 0
0 0 0
0 0 0
0 0 0
0 0 0
0 0 0
0 0 0
0 0 0
0 0 0
0 0 0
0 0 0
0 0 0
0 0 0
0 0 0
0 0 0
0 0 0
0 0 0
0 0 0
0 0 0
0 0 0
0 0 0
0 0 0
0 0 0
0 0 0
0 0 0
0 0 0
0 0 0
0 0 0
0 0 0
0 0 0
0 0 0
0 0 0
0 0 0
0 0 0
0 0 0
0 0 0
0 0 0
0 0 0
0 0 0
0 0 0
0 0 0
0 0 0
0 0 0
0 0 0
0 0 0
0 0 0
0 0 0
0 0 0
0 0 0
0 0 0
0 0 0
0 0 0
0 0 0
0 0 0
0 0 0
0 0 0
0 0 0
0 0 0
0 0 0
0 0 0
0 0 0
0 0 0
0 0 0
0 0 0
0 0 0
0 0 0
0 0 0
0 0 0
0 0 0
0 0 0
0 0 0
0 0 0
0 0 0
0 0 0
0 0 0
0 0 0
0 0 0
0 0 0
0 0 0
0 0 0
0 0 0
0 0 0
0 0 0
0 0 0
0 0 0
0 0 0
0 0 0
0 0 0
0 0 0
0 0 0
0 0 0
0 0 0
0 0 0
0 0 0
0 0 0
0 0 0
0 0 0
0 0 0
0 0 0
0 0 0
0 0 0
0 0 0
0 0 0
0 0 0
0 0 0
0 0 0
0 0 0
0 0 0
0 0 0
0 0 0
0 0 0
0 0 0
0 0 0
0 0 0
0 0 0
0 0 0
0 0 0
0 0 0
0 0 0
0 0 0
0 0 0
0 0 0
0 0 0
0 0 0
0 0 0
0 0 0
0 0 0
0 0 0
0 0 0
125 125 125
115 115 115
148 148 148
141 141 141
123 123 123
62 62 62
65 65 65
137 137 137
135 135 135
54 54 54
35 35 35
42 42 42
33 33 33
38 38 38
51 51 51
59 59 59
77 77 77
44 44 44
32 32 32
17 17 17
48 48 48
83 83 83
92 92 92
75 75 75
74 74 74
28 28 28
21 21 21
26 26 26
30 30 30
28 28 28
12 12 12
19 19 19
24 24 24
40 40 40
47 47 47
123 123 123
115 115 115
148 148 148
164 164 164
183 183 183
132 132 132
164 164 164
168 168 168
167 167 167
128 128 128
156 156 156
153 153 153
111 111 111
84 84 84
49 49 49
52 52 52
43 43 43
24 24 24
14 14 14
25 25 25
36 36 36
50 50 50
60 60 60
65 65 65
62 62 62
85 85 85
82 82 82
48 48 48
21 21 21
35 35 35
40 40 40
21 21 21
71 71 71
127 127 127
73 73 73
77 77 77
0 0 0
0 0 0
0 0 0
0 0 0
0 0 0
0 0 0
0 0 0
0 0 0
0 0 0
0 0 0
0 0 0
0 0 0
0 0 0
0 0 0
0 0 0
0 0 0
0 0 0
0 0 0
0 0 0
0 0 0
0 0 0
0 0 0
0 0 0
0 0 0
0 0 0
0 0 0
0 0 0
0 0 0
0 0 0
0 0 0
0 0 0
0 0 0
0 0 0
0 0 0
0 0 0
0 0 0
0 0 0
0 0 0
0 0 0
0 0 0
0 0 0
0 0 0
0 0 0
0 0 0
0 0 0
0 0 0
0 0 0
0 0 0
0 0 0
0 0 0
0 0 0
0 0 0
0 0 0
0 0 0
0 0 0
0 0 0
0 0 0
0 0 0
0 0 0
0 0 0
0 0 0
0 0 0
0 0 0
0 0 0
0 0 0
0 0 0
0 0 0
0 0 0
0 0 0
0 0 0
0 0 0
0 0 0
0 0 0
0 0 0
0 0 0
0 0 0
0 0 0
0 0 0
0 0 0
0 0 0
0 0 0
0 0 0
0 0 0
0 0 0
0 0 0
0 0 0
0 0 0
0 0 0
0 0 0
0 0 0
0 0 0
0 0 0
0 0 0
0 0 0
0 0 0
0 0 0
0 0 0
0 0 0
0 0 0
0 0 0
0 0 0
0 0 0
0 0 0
0 0 0
0 0 0
0 0 0
0 0 0
0 0 0
0 0 0
0 0 0
0 0 0
0 0 0
0 0 0
0 0 0
0 0 0
0 0 0
0 0 0
0 0 0
0 0 0
0 0 0
0 0 0
0 0 0
0 0 0
0 0 0
0 0 0
0 0 0
0 0 0
0 0 0
0 0 0
0 0 0
0 0 0
0 0 0
0 0 0
0 0 0
0 0 0
0 0 0
0 0 0
0 0 0
0 0 0
0 0 0
0 0 0
0 0 0
0 0 0
0 0 0
0 0 0
0 0 0
0 0 0
0 0 0
0 0 0
0 0 0
0 0 0
0 0 0
0 0 0
0 0 0
0 0 0
0 0 0
0 0 0
0 0 0
0 0 0
0 0 0
0 0 0
0 0 0
0 0 0
0 0 0
0 0 0
0 0 0
0 0 0
0 0 0
0 0 0
0 0 0
0 0 0
0 0 0
0 0 0
0 0 0
0 0 0
0 0 0
0 0 0
0 0 0
0 0 0
0 0 0
0 0 0
0 0 0
0 0 0
0 0 0
0 0 0
0 0 0
0 0 0
0 0 0
0 0 0
0 0 0
0 0 0
0 0 0
0 0 0
0 0 0
0 0 0
0 0 0
0 0 0
0 0 0
0 0 0
0 0 0
0 0 0
0 0 0
0 0 0
0 0 0
0 0 0
0 0 0
0 0 0
0 0 0
0 0 0
0 0 0
0 0 0
0 0 0
0 0 0
0 0 0
0 0 0
0 0 0
0 0 0
0 0 0
0 0 0
0 0 0
0 0 0
0 0 0
0 0 0
0 0 0
0 0 0
0 0 0
0 0 0
0 0 0
0 0 0
0 0 0
0 0 0
0 0 0
0 0 0
0 0 0
0 0 0
0 0 0
0 0 0
0 0 0
0 0 0
0 0 0
0 0 0
0 0 0
0 0 0
0 0 0
0 0 0
0 0 0
0 0 0
0 0 0
0 0 0
0 0 0
0 0 0
0 0 0
0 0 0
0 0 0
0 0 0
0 0 0
0 0 0
0 0 0
0 0 0
0 0 0
0 0 0
0 0 0
0 0 0
0 0 0
0 0 0
0 0 0
0 0 0
0 0 0
0 0 0
0 0 0
0 0 0
0 0 0
0 0 0
0 0 0
0 0 0
0 0 0
0 0 0
0 0 0
0 0 0
0 0 0
0 0 0
0 0 0
0 0 0
0 0 0
0 0 0
0 0 0
0 0 0
0 0 0
0 0 0
0 0 0
0 0 0
0 0 0
0 0 0
0 0 0
0 0 0
0 0 0
0 0 0
0 0 0
0 0 0
0 0 0
0 0 0
0 0 0
0 0 0
0 0 0
0 0 0
0 0 0
0 0 0
0 0 0
0 0 0
0 0 0
0 0 0
0 0 0
0 0 0
0 0 0
0 0 0
0 0 0
0 0 0
0 0 0
0 0 0
0 0 0
0 0 0
0 0 0
0 0 0
0 0 0
0 0 0
0 0 0
0 0 0
85 85 85
151 151 151
136 136 136
156 156 156
98 98 98
131 131 131
150 150 150
81 81 81
91 91 91
81 81 81
80 80 80
37 37 37
74 74 74
85 85 85
70 70 70
60 60 60
87 87 87
117 117 117
118 118 118
100 100 100
57 57 57
15 15 15
9 9 9
22 22 22
46 46 46
49 49 49
35 35 35
11 11 11
27 27 27
29 29 29
40 40 40
47 47 47
45 45 45
27 27 27
38 38 38
21 21 21
47 47 47
84 84 84
135 135 135
149 149 149
187 187 187
141 141 141
197 197 197
199 199 199
181 181 181
144 144 144
168 168 168
122 122 122
160 160 160
116 116 116
117 117 117
68 68 68
69 69 69
78 78 78
79 79 79
21 21 21
16 16 16
22 22 22
38 38 38
49 49 49
47 47 47
37 37 37
68 68 68
103 103 103
104 104 104
70 70 70
70 70 70
76 76 76
50 50 50
42 42 42
54 54 54
72 72 72
90 90 90
94 94 94
0 0 0
0 0 0
0 0 0
0 0 0
0 0 0
0 0 0
0 0 0
0 0 0
0 0 0
0 0 0
0 0 0
0 0 0
0 0 0
0 0 0
0 0 0
0 0 0
0 0 0
0 0 0
0 0 0
0 0 0
0 0 0
0 0 0
0 0 0
0 0 0
0 0 0
0 0 0
0 0 0
0 0 0
0 0 0
0 0 0
0 0 0
0 0 0
0 0 0
0 0 0
0 0 0
0 0 0
0 0 0
0 0 0
0 0 0
0 0 0
0 0 0
0 0 0
0 0 0
0 0 0
0 0 0
0 0 0
0 0 0
0 0 0
0 0 0
0 0 0
0 0 0
0 0 0
0 0 0
0 0 0
0 0 0
0 0 0
0 0 0
0 0 0
0 0 0
0 0 0
0 0 0
0 0 0
0 0 0
0 0 0
0 0 0
0 0 0
0 0 0
0 0 0
0 0 0
0 0 0
0 0 0
0 0 0
0 0 0
0 0 0
0 0 0
0 0 0
0 0 0
0 0 0
0 0 0
0 0 0
0 0 0
0 0 0
0 0 0
0 0 0
0 0 0
0 0 0
0 0 0
0 0 0
0 0 0
0 0 0
0 0 0
0 0 0
0 0 0
0 0 0
0 0 0
0 0 0
0 0 0
0 0 0
0 0 0
0 0 0
0 0 0
0 0 0
0 0 0
0 0 0
0 0 0
0 0 0
0 0 0
0 0 0
0 0 0
0 0 0
0 0 0
0 0 0
0 0 0
0 0 0
0 0 0
0 0 0
0 0 0
0 0 0
0 0 0
0 0 0
0 0 0
0 0 0
0 0 0
0 0 0
0 0 0
0 0 0
0 0 0
0 0 0
0 0 0
0 0 0
0 0 0
0 0 0
0 0 0
0 0 0
0 0 0
0 0 0
0 0 0
0 0 0
0 0 0
0 0 0
0 0 0
0 0 0
0 0 0
0 0 0
0 0 0
0 0 0
0 0 0
0 0 0
0 0 0
0 0 0
0 0 0
0 0 0
0 0 0
0 0 0
0 0 0
0 0 0
0 0 0
0 0 0
0 0 0
0 0 0
0 0 0
0 0 0
0 0 0
0 0 0
0 0 0
0 0 0
0 0 0
0 0 0
0 0 0
0 0 0
0 0 0
0 0 0
0 0 0
0 0 0
0 0 0
0 0 0
0 0 0
0 0 0
0 0 0
0 0 0
0 0 0
0 0 0
0 0 0
0 0 0
0 0 0
0 0 0
0 0 0
0 0 0
0 0 0
0 0 0
0 0 0
0 0 0
0 0 0
0 0 0
0 0 0
0 0 0
0 0 0
0 0 0
0 0 0
0 0 0
0 0 0
0 0 0
0 0 0
0 0 0
0 0 0
0 0 0
0 0 0
0 0 0
0 0 0
0 0 0
0 0 0
0 0 0
0 0 0
0 0 0
0 0 0
0 0 0
0 0 0
0 0 0
0 0 0
0 0 0
0 0 0
0 0 0
0 0 0
0 0 0
0 0 0
0 0 0
0 0 0
0 0 0
0 0 0
0 0 0
0 0 0
0 0 0
0 0 0
0 0 0
0 0 0
0 0 0
0 0 0
0 0 0
0 0 0
0 0 0
0 0 0
0 0 0
0 0 0
0 0 0
0 0 0
0 0 0
0 0 0
0 0 0
0 0 0
0 0 0
0 0 0
0 0 0
0 0 0
0 0 0
0 0 0
0 0 0
0 0 0
0 0 0
0 0 0
0 0 0
0 0 0
0 0 0
0 0 0
0 0 0
0 0 0
0 0 0
0 0 0
0 0 0
0 0 0
0 0 0
0 0 0
0 0 0
0 0 0
0 0 0
0 0 0
0 0 0
0 0 0
0 0 0
0 0 0
0 0 0
0 0 0
0 0 0
0 0 0
0 0 0
0 0 0
0 0 0
0 0 0
0 0 0
0 0 0
0 0 0
0 0 0
0 0 0
0 0 0
0 0 0
0 0 0
0 0 0
0 0 0
0 0 0
0 0 0
0 0 0
0 0 0
0 0 0
0 0 0
0 0 0
0 0 0
0 0 0
0 0 0
0 0 0
0 0 0
0 0 0
0 0 0
0 0 0
0 0 0
0 0 0
0 0 0
0 0 0
0 0 0
0 0 0
0 0 0
0 0 0
0 0 0
0 0 0
0 0 0
0 0 0
0 0 0
49 49 49
137 137 137
132 132 132
96 96 96
101 101 101
139 139 139
127 127 127
76 76 76
101 101 101
95 95 95
96 96 96
64 64 64
62 62 62
95 95 95
90 90 90
66 66 66
102 102 102
113 113 113
124 124 124
159 159 159
88 88 88
52 52 52
20 20 20
7 7 7
15 15 15
30 30 30
28 28 28
17 17 17
9 9 9
24 24 24
24 24 24
28 28 28
39 39 39
33 33 33
18 18 18
22 22 22
13 13 13
34 34 34
49 49 49
94 94 94
126 126 126
143 143 143
124 124 124
162 162 162
183 183 183
153 153 153
166 166 166
120 120 120
180 180 180
144 144 144
121 121 121
120 120 120
37 37 37
58 58 58
50 50 50
65 65 65
29 29 29
18 18 18
28 28 28
41 41 41
37 37 37
5 5 5
6 6 6
10 10 10
67 67 67
118 118 118
105 105 105
104 104 104
110 110 110
92 92 92
57 57 57
23 23 23
31 31 31
55 55 55
63 63 63
82 82 82
0 0 0
0 0 0
0 0 0
0 0 0
0 0 0
0 0 0
0 0 0
0 0 0
0 0 0
0 0 0
0 0 0
0 0 0
0 0 0
0 0 0
0 0 0
0 0 0
0 0 0
0 0 0
0 0 0
0 0 0
0 0 0
0 0 0
0 0 0
0 0 0
0 0 0
0 0 0
0 0 0
0 0 0
0 0 0
0 0 0
0 0 0
0 0 0
0 0 0
0 0 0
0 0 0
0 0 0
0 0 0
0 0 0
0 0 0
0 0 0
0 0 0
0 0 0
0 0 0
0 0 0
0 0 0
0 0 0
0 0 0
0 0 0
0 0 0
0 0 0
0 0 0
0 0 0
0 0 0
0 0 0
0 0 0
0 0 0
0 0 0
0 0 0
0 0 0
0 0 0
0 0 0
0 0 0
0 0 0
0 0 0
0 0 0
0 0 0
0 0 0
0 0 0
0 0 0
0 0 0
0 0 0
0 0 0
0 0 0
0 0 0
0 0 0
0 0 0
0 0 0
0 0 0
0 0 0
0 0 0
0 0 0
0 0 0
0 0 0
0 0 0
0 0 0
0 0 0
0 0 0
0 0 0
0 0 0
0 0 0
0 0 0
0 0 0
0 0 0
0 0 0
0 0 0
0 0 0
0 0 0
0 0 0
0 0 0
0 0 0
0 0 0
0 0 0
0 0 0
0 0 0
0 0 0
0 0 0
0 0 0
0 0 0
0 0 0
0 0 0
0 0 0
0 0 0
0 0 0
0 0 0
0 0 0
0 0 0
0 0 0
0 0 0
0 0 0
0 0 0
0 0 0
0 0 0
0 0 0
0 0 0
0 0 0
0 0 0
0 0 0
0 0 0
0 0 0
0 0 0
0 0 0
0 0 0
0 0 0
0 0 0
0 0 0
0 0 0
0 0 0
0 0 0
0 0 0
0 0 0
0 0 0
0 0 0
0 0 0
0 0 0
0 0 0
0 0 0
0 0 0
0 0 0
0 0 0
0 0 0
0 0 0
0 0 0
0 0 0
0 0 0
0 0 0
0 0 0
0 0 0
0 0 0
0 0 0
0 0 0
0 0 0
0 0 0
0 0 0
0 0 0
0 0 0
0 0 0
0 0 0
0 0 0
0 0 0
0 0 0
0 0 0
0 0 0
0 0 0
0 0 0
0 0 0
0 0 0
0 0 0
0 0 0
0 0 0
0 0 0
0 0 0
0 0 0
0 0 0
0 0 0
0 0 0
0 0 0
0 0 0
0 0 0
0 0 0
0 0 0
0 0 0
0 0 0
0 0 0
0 0 0
0 0 0
0 0 0
0 0 0
0 0 0
0 0 0
0 0 0
0 0 0
0 0 0
0 0 0
0 0 0
0 0 0
0 0 0
0 0 0
0 0 0
0 0 0
0 0 0
0 0 0
0 0 0
0 0 0
0 0 0
0 0 0
0 0 0
0 0 0
0 0 0
0 0 0
0 0 0
0 0 0
0 0 0
0 0 0
0 0 0
0 0 0
0 0 0
0 0 0
0 0 0
0 0 0
0 0 0
0 0 0
0 0 0
0 0 0
0 0 0
0 0 0
0 0 0
0 0 0
0 0 0
0 0 0
0 0 0
0 0 0
0 0 0
0 0 0
0 0 0
0 0 0
0 0 0
0 0 0
0 0 0
0 0 0
0 0 0
0 0 0
0 0 0
0 0 0
0 0 0
0 0 0
0 0 0
0 0 0
0 0 0
0 0 0
0 0 0
0 0 0
0 0 0
0 0 0
0 0 0
0 0 0
0 0 0
0 0 0
0 0 0
0 0 0
0 0 0
0 0 0
0 0 0
0 0 0
0 0 0
0 0 0
0 0 0
0 0 0
0 0 0
0 0 0
0 0 0
0 0 0
0 0 0
0 0 0
0 0 0
0 0 0
0 0 0
0 0 0
0 0 0
0 0 0
0 0 0
0 0 0
0 0 0
0 0 0
0 0 0
0 0 0
0 0 0
0 0 0
0 0 0
0 0 0
0 0 0
0 0 0
0 0 0
0 0 0
0 0 0
0 0 0
0 0 0
0 0 0
0 0 0
0 0 0
0 0 0
0 0 0
0 0 0
0 0 0
0 0 0
0 0 0
0 0 0
0 0 0
0 0 0
0 0 0
0 0 0
0 0 0
0 0 0
0 0 0
47 47 47
124 124 124
105 105 105
106 106 106
113 113 113
112 112 112
110 110 110
98 98 98
106 106 106
102 102 102
94 94 94
102 102 102
66 66 66
58 58 58
58 58 58
57 57 57
53 53 53
84 84 84
145 145 145
127 127 127
99 99 99
80 80 80
28 28 28
19 19 19
29 29 29
31 31 31
45 45 45
43 43 43
37 37 37
62 62 62
30 30 30
16 16 16
13 13 13
32 32 32
35 35 35
6 6 6
4 4 4
8 8 8
24 24 24
56 56 56
80 80 80
87 87 87
108 108 108
141 141 141
173 173 173
171 171 171
124 124 124
132 132 132
144 144 144
108 108 108
175 175 175
129 129 129
95 95 95
84 84 84
62 62 62
29 29 29
25 25 25
26 26 26
27 27 27
36 36 36
24 24 24
24 24 24
39 39 39
21 21 21
22 22 22
29 29 29
72 72 72
123 123 123
106 106 106
97 97 97
83 83 83
71 71 71
28 28 28
19 19 19
29 29 29
14 14 14
46 46 46
0 0 0
0 0 0
0 0 0
0 0 0
0 0 0
0 0 0
0 0 0
0 0 0
0 0 0
0 0 0
0 0 0
0 0 0
0 0 0
0 0 0
0 0 0
0 0 0
0 0 0
0 0 0
0 0 0
0 0 0
0 0 0
0 0 0
0 0 0
0 0 0
0 0 0
0 0 0
0 0 0
0 0 0
0 0 0
0 0 0
0 0 0
0 0 0
0 0 0
0 0 0
0 0 0
0 0 0
0 0 0
0 0 0
0 0 0
0 0 0
0 0 0
0 0 0
0 0 0
0 0 0
0 0 0
0 0 0
0 0 0
0 0 0
0 0 0
0 0 0
0 0 0
0 0 0
0 0 0
0 0 0
0 0 0
0 0 0
0 0 0
0 0 0
0 0 0
0 0 0
0 0 0
0 0 0
0 0 0
0 0 0
0 0 0
0 0 0
0 0 0
0 0 0
0 0 0
0 0 0
0 0 0
0 0 0
0 0 0
0 0 0
0 0 0
0 0 0
0 0 0
0 0 0
0 0 0
0 0 0
0 0 0
0 0 0
0 0 0
0 0 0
0 0 0
0 0 0
0 0 0
0 0 0
0 0 0
0 0 0
0 0 0
0 0 0
0 0 0
0 0 0
0 0 0
0 0 0
0 0 0
0 0 0
0 0 0
0 0 0
0 0 0
0 0 0
0 0 0
0 0 0
0 0 0
0 0 0
0 0 0
0 0 0
0 0 0
0 0 0
0 0 0
0 0 0
0 0 0
0 0 0
0 0 0
0 0 0
0 0 0
0 0 0
0 0 0
0 0 0
0 0 0
0 0 0
0 0 0
0 0 0
0 0 0
0 0 0
0 0 0
0 0 0
0 0 0
0 0 0
0 0 0
0 0 0
0 0 0
0 0 0
0 0 0
0 0 0
0 0 0
0 0 0
0 0 0
0 0 0
0 0 0
0 0 0
0 0 0
0 0 0
0 0 0
0 0 0
0 0 0
0 0 0
0 0 0
0 0 0
0 0 0
0 0 0
0 0 0
0 0 0
0 0 0
0 0 0
0 0 0
0 0 0
0 0 0
0 0 0
0 0 0
0 0 0
0 0 0
0 0 0
0 0 0
0 0 0
0 0 0
0 0 0
0 0 0
0 0 0
0 0 0
0 0 0
0 0 0
0 0 0
0 0 0
0 0 0
0 0 0
0 0 0
0 0 0
0 0 0
0 0 0
0 0 0
0 0 0
0 0 0
0 0 0
0 0 0
0 0 0
0 0 0
0 0 0
0 0 0
0 0 0
0 0 0
0 0 0
0 0 0
0 0 0
0 0 0
0 0 0
0 0 0
0 0 0
0 0 0
0 0 0
0 0 0
0 0 0
0 0 0
0 0 0
0 0 0
0 0 0
0 0 0
0 0 0
0 0 0
0 0 0
0 0 0
0 0 0
0 0 0
0 0 0
0 0 0
0 0 0
0 0 0
0 0 0
0 0 0
0 0 0
0 0 0
0 0 0
0 0 0
0 0 0
0 0 0
0 0 0
0 0 0
0 0 0
0 0 0
0 0 0
0 0 0
0 0 0
0 0 0
0 0 0
0 0 0
0 0 0
0 0 0
0 0 0
0 0 0
0 0 0
0 0 0
0 0 0
0 0 0
0 0 0
0 0 0
0 0 0
0 0 0
0 0 0
0 0 0
0 0 0
0 0 0
0 0 0
0 0 0
0 0 0
0 0 0
0 0 0
0 0 0
0 0 0
0 0 0
0 0 0
0 0 0
0 0 0
0 0 0
0 0 0
0 0 0
0 0 0
0 0 0
0 0 0
0 0 0
0 0 0
0 0 0
0 0 0
0 0 0
0 0 0
0 0 0
0 0 0
0 0 0
0 0 0
0 0 0
0 0 0
0 0 0
0 0 0
0 0 0
0 0 0
0 0 0
0 0 0
0 0 0
0 0 0
0 0 0
0 0 0
0 0 0
0 0 0
0 0 0
0 0 0
0 0 0
0 0 0
0 0 0
0 0 0
0 0 0
0 0 0
0 0 0
0 0 0
0 0 0
0 0 0
0 0 0
0 0 0
0 0 0
0 0 0
0 0 0
0 0 0
0 0 0
0 0 0
0 0 0
0 0 0
0 0 0
0 0 0
0 0 0
0 0 0
0 0 0
0 0 0
0 0 0
0 0 0
110 110 110
98 98 98
121 121 121
111 111 111
111 111 111
49 49 49
91 91 91
103 103 103
124 124 124
75 75 75
115 115 115
129 129 129
49 49 49
25 25 25
54 54 54
60 60 60
103 103 103
48 48 48
122 122 122
71 71 71
122 122 122
105 105 105
79 79 79
38 38 38
17 17 17
55 55 55
22 22 22
52 52 52
94 94 94
54 54 54
42 42 42
25 25 25
24 24 24
17 17 17
17 17 17
26 26 26
20 20 20
37 37 37
26 26 26
26 26 26
64 64 64
104 104 104
98 98 98
143 143 143
150 150 150
144 144 144
160 160 160
127 127 127
140 140 140
168 168 168
139 139 139
138 138 138
137 137 137
86 86 86
63 63 63
24 24 24
23 23 23
16 16 16
16 16 16
50 50 50
54 54 54
48 48 48
45 45 45
86 86 86
70 70 70
30 30 30
18 18 18
77 77 77
133 133 133
101 101 101
121 121 121
53 53 53
107 107 107
68 68 68
58 58 58
38 38 38
16 16 16
54 54 54
0 0 0
0 0 0
0 0 0
0 0 0
0 0 0
0 0 0
0 0 0
0 0 0
0 0 0
0 0 0
0 0 0
0 0 0
0 0 0
0 0 0
0 0 0
0 0 0
0 0 0
0 0 0
0 0 0
0 0 0
0 0 0
0 0 0
0 0 0
0 0 0
0 0 0
0 0 0
0 0 0
0 0 0
0 0 0
0 0 0
0 0 0
0 0 0
0 0 0
0 0 0
0 0 0
0 0 0
0 0 0
0 0 0
0 0 0
0 0 0
0 0 0
0 0 0
0 0 0
0 0 0
0 0 0
0 0 0
0 0 0
0 0 0
0 0 0
0 0 0
0 0 0
0 0 0
0 0 0
0 0 0
0 0 0
0 0 0
0 0 0
0 0 0
0 0 0
0 0 0
0 0 0
0 0 0
0 0 0
0 0 0
0 0 0
0 0 0
0 0 0
0 0 0
0 0 0
0 0 0
0 0 0
0 0 0
0 0 0
0 0 0
0 0 0
0 0 0
0 0 0
0 0 0
0 0 0
0 0 0
0 0 0
0 0 0
0 0 0
0 0 0
0 0 0
0 0 0
0 0 0
0 0 0
0 0 0
0 0 0
0 0 0
0 0 0
0 0 0
0 0 0
0 0 0
0 0 0
0 0 0
0 0 0
0 0 0
0 0 0
0 0 0
0 0 0
0 0 0
0 0 0
0 0 0
0 0 0
0 0 0
0 0 0
0 0 0
0 0 0
0 0 0
0 0 0
0 0 0
0 0 0
0 0 0
0 0 0
0 0 0
0 0 0
0 0 0
0 0 0
0 0 0
0 0 0
0 0 0
0 0 0
0 0 0
0 0 0
0 0 0
0 0 0
0 0 0
0 0 0
0 0 0
0 0 0
0 0 0
0 0 0
0 0 0
0 0 0
0 0 0
0 0 0
0 0 0
0 0 0
0 0 0
0 0 0
0 0 0
0 0 0
0 0 0
0 0 0
0 0 0
0 0 0
0 0 0
0 0 0
0 0 0
0 0 0
0 0 0
0 0 0
0 0 0
0 0 0
0 0 0
0 0 0
0 0 0
0 0 0
0 0 0
0 0 0
0 0 0
0 0 0
0 0 0
0 0 0
0 0 0
0 0 0
0 0 0
0 0 0
0 0 0
0 0 0
0 0 0
0 0 0
0 0 0
0 0 0
0 0 0
0 0 0
0 0 0
0 0 0
0 0 0
0 0 0
0 0 0
0 0 0
0 0 0
0 0 0
0 0 0
0 0 0
0 0 0
0 0 0
0 0 0
0 0 0
0 0 0
0 0 0
0 0 0
0 0 0
0 0 0
0 0 0
0 0 0
0 0 0
0 0 0
0 0 0
0 0 0
0 0 0
0 0 0
0 0 0
0 0 0
0 0 0
0 0 0
0 0 0
0 0 0
0 0 0
0 0 0
0 0 0
0 0 0
0 0 0
0 0 0
0 0 0
0 0 0
0 0 0
0 0 0
0 0 0
0 0 0
0 0 0
0 0 0
0 0 0
0 0 0
0 0 0
0 0 0
0 0 0
0 0 0
0 0 0
0 0 0
0 0 0
0 0 0
0 0 0
0 0 0
0 0 0
0 0 0
0 0 0
0 0 0
0 0 0
0 0 0
0 0 0
0 0 0
0 0 0
0 0 0
0 0 0
0 0 0
0 0 0
0 0 0
0 0 0
0 0 0
0 0 0
0 0 0
0 0 0
0 0 0
0 0 0
0 0 0
0 0 0
0 0 0
0 0 0
0 0 0
0 0 0
0 0 0
0 0 0
0 0 0
0 0 0
0 0 0
0 0 0
0 0 0
0 0 0
0 0 0
0 0 0
0 0 0
0 0 0
0 0 0
0 0 0
0 0 0
0 0 0
0 0 0
0 0 0
0 0 0
0 0 0
0 0 0
0 0 0
0 0 0
0 0 0
0 0 0
0 0 0
0 0 0
0 0 0
0 0 0
0 0 0
0 0 0
0 0 0
0 0 0
0 0 0
0 0 0
0 0 0
0 0 0
0 0 0
0 0 0
0 0 0
0 0 0
0 0 0
0 0 0
0 0 0
0 0 0
0 0 0
0 0 0
0 0 0
0 0 0
0 0 0
0 0 0
0 0 0
0 0 0
0 0 0
0 0 0
0 0 0
0 0 0
105 105 105
114 114 114
72 72 72
116 116 116
106 106 106
72 72 72
97 97 97
112 112 112
113 113 113
46 46 46
113 113 113
114 114 114
63 63 63
47 47 47
40 40 40
72 72 72
69 69 69
110 110 110
101 101 101
123 123 123
101 101 101
119 119 119
89 89 89
63 63 63
22 22 22
5 5 5
32 32 32
74 74 74
60 60 60
92 92 92
90 90 90
75 75 75
41 41 41
28 28 28
24 24 24
43 43 43
47 47 47
92 92 92
70 70 70
106 106 106
107 107 107
144 144 144
117 117 117
134 134 134
111 111 111
119 119 119
113 113 113
125 125 125
112 112 112
152 152 152
139 139 139
200 200 200
140 140 140
94 94 94
113 113 113
84 84 84
34 34 34
33 33 33
28 28 28
11 11 11
19 19 19
38 38 38
55 55 55
57 57 57
62 62 62
99 99 99
60 60 60
17 17 17
59 59 59
133 133 133
115 115 115
110 110 110
135 135 135
73 73 73
84 84 84
32 32 32
63 63 63
34 34 34
22 22 22
76 76 76
0 0 0
0 0 0
0 0 0
0 0 0
0 0 0
0 0 0
0 0 0
0 0 0
0 0 0
0 0 0
0 0 0
0 0 0
0 0 0
0 0 0
0 0 0
0 0 0
0 0 0
0 0 0
0 0 0
0 0 0
0 0 0
0 0 0
0 0 0
0 0 0
0 0 0
0 0 0
0 0 0
0 0 0
0 0 0
0 0 0
0 0 0
0 0 0
0 0 0
0 0 0
0 0 0
0 0 0
0 0 0
0 0 0
0 0 0
0 0 0
0 0 0
0 0 0
0 0 0
0 0 0
0 0 0
0 0 0
0 0 0
0 0 0
0 0 0
0 0 0
0 0 0
0 0 0
0 0 0
0 0 0
0 0 0
0 0 0
0 0 0
0 0 0
0 0 0
0 0 0
0 0 0
0 0 0
0 0 0
0 0 0
0 0 0
0 0 0
0 0 0
0 0 0
0 0 0
0 0 0
0 0 0
0 0 0
0 0 0
0 0 0
0 0 0
0 0 0
0 0 0
0 0 0
0 0 0
0 0 0
0 0 0
0 0 0
0 0 0
0 0 0
0 0 0
0 0 0
0 0 0
0 0 0
0 0 0
0 0 0
0 0 0
0 0 0
0 0 0
0 0 0
0 0 0
0 0 0
0 0 0
0 0 0
0 0 0
0 0 0
0 0 0
0 0 0
0 0 0
0 0 0
0 0 0
0 0 0
0 0 0
0 0 0
0 0 0
0 0 0
0 0 0
0 0 0
0 0 0
0 0 0
0 0 0
0 0 0
0 0 0
0 0 0
0 0 0
0 0 0
0 0 0
0 0 0
0 0 0
0 0 0
0 0 0
0 0 0
0 0 0
0 0 0
0 0 0
0 0 0
0 0 0
0 0 0
0 0 0
0 0 0
0 0 0
0 0 0
0 0 0
0 0 0
0 0 0
0 0 0
0 0 0
0 0 0
0 0 0
0 0 0
0 0 0
0 0 0
0 0 0
0 0 0
0 0 0
0 0 0
0 0 0
0 0 0
0 0 0
0 0 0
0 0 0
0 0 0
0 0 0
0 0 0
0 0 0
0 0 0
0 0 0
0 0 0
0 0 0
0 0 0
0 0 0
0 0 0
0 0 0
0 0 0
0 0 0
0 0 0
0 0 0
0 0 0
0 0 0
0 0 0
0 0 0
0 0 0
0 0 0
0 0 0
0 0 0
0 0 0
0 0 0
0 0 0
0 0 0
0 0 0
0 0 0
0 0 0
0 0 0
0 0 0
0 0 0
0 0 0
0 0 0
0 0 0
0 0 0
0 0 0
0 0 0
0 0 0
0 0 0
0 0 0
0 0 0
0 0 0
0 0 0
0 0 0
0 0 0
0 0 0
0 0 0
0 0 0
0 0 0
0 0 0
0 0 0
0 0 0
0 0 0
0 0 0
0 0 0
0 0 0
0 0 0
0 0 0
0 0 0
0 0 0
0 0 0
0 0 0
0 0 0
0 0 0
0 0 0
0 0 0
0 0 0
0 0 0
0 0 0
0 0 0
0 0 0
0 0 0
0 0 0
0 0 0
0 0 0
0 0 0
0 0 0
0 0 0
0 0 0
0 0 0
0 0 0
0 0 0
0 0 0
0 0 0
0 0 0
0 0 0
0 0 0
0 0 0
0 0 0
0 0 0
0 0 0
0 0 0
0 0 0
0 0 0
0 0 0
0 0 0
0 0 0
0 0 0
0 0 0
0 0 0
0 0 0
0 0 0
0 0 0
0 0 0
0 0 0
0 0 0
0 0 0
0 0 0
0 0 0
0 0 0
0 0 0
0 0 0
0 0 0
0 0 0
0 0 0
0 0 0
0 0 0
0 0 0
0 0 0
0 0 0
0 0 0
0 0 0
0 0 0
0 0 0
0 0 0
0 0 0
0 0 0
0 0 0
0 0 0
0 0 0
0 0 0
0 0 0
0 0 0
0 0 0
0 0 0
0 0 0
0 0 0
0 0 0
0 0 0
0 0 0
0 0 0
0 0 0
0 0 0
0 0 0
0 0 0
0 0 0
0 0 0
0 0 0
0 0 0
0 0 0
0 0 0
0 0 0
0 0 0
0 0 0
0 0 0
0 0 0
0 0 0
0 0 0
0 0 0
0 0 0
0 0 0
50 50 50
152 152 152
66 66 66
87 87 87
122 122 122
106 106 106
50 50 50
101 101 101
87 87 87
111 111 111
76 76 76
36 36 36
121 121 121
83 83 83
46 46 46
67 67 67
40 40 40
122 122 122
124 124 124
113 113 113
125 125 125
124 124 124
104 104 104
79 79 79
94 94 94
89 89 89
48 48 48
15 15 15
58 58 58
72 72 72
60 60 60
72 72 72
105 105 105
71 71 71
52 52 52
53 53 53
82 82 82
84 84 84
143 143 143
106 106 106
116 116 116
82 82 82
152 152 152
114 114 114
124 124 124
69 69 69
136 136 136
159 159 159
140 140 140
131 131 131
135 135 135
116 116 116
118 118 118
116 116 116
92 92 92
70 70 70
59 59 59
39 39 39
29 29 29
29 29 29
23 23 23
18 18 18
24 24 24
11 11 11
20 20 20
46 46 46
56 56 56
41 41 41
14 14 14
43 43 43
92 92 92
131 131 131
125 125 125
91 91 91
92 92 92
91 91 91
38 38 38
27 27 27
69 69 69
34 34 34
14 14 14
42 42 42
0 0 0
0 0 0
0 0 0
0 0 0
0 0 0
0 0 0
0 0 0
0 0 0
0 0 0
0 0 0
0 0 0
0 0 0
0 0 0
0 0 0
0 0 0
0 0 0
0 0 0
0 0 0
0 0 0
0 0 0
0 0 0
0 0 0
0 0 0
0 0 0
0 0 0
0 0 0
0 0 0
0 0 0
0 0 0
0 0 0
0 0 0
0 0 0
0 0 0
0 0 0
0 0 0
0 0 0
0 0 0
0 0 0
0 0 0
0 0 0
0 0 0
0 0 0
0 0 0
0 0 0
0 0 0
0 0 0
0 0 0
0 0 0
0 0 0
0 0 0
0 0 0
0 0 0
0 0 0
0 0 0
0 0 0
0 0 0
0 0 0
0 0 0
0 0 0
0 0 0
0 0 0
0 0 0
0 0 0
0 0 0
0 0 0
0 0 0
0 0 0
0 0 0
0 0 0
0 0 0
0 0 0
0 0 0
0 0 0
0 0 0
0 0 0
0 0 0
0 0 0
0 0 0
0 0 0
0 0 0
0 0 0
0 0 0
0 0 0
0 0 0
0 0 0
0 0 0
0 0 0
0 0 0
0 0 0
0 0 0
0 0 0
0 0 0
0 0 0
0 0 0
0 0 0
0 0 0
0 0 0
0 0 0
0 0 0
0 0 0
0 0 0
0 0 0
0 0 0
0 0 0
0 0 0
0 0 0
0 0 0
0 0 0
0 0 0
0 0 0
0 0 0
0 0 0
0 0 0
0 0 0
0 0 0
0 0 0
0 0 0
0 0 0
0 0 0
0 0 0
0 0 0
0 0 0
0 0 0
0 0 0
0 0 0
0 0 0
0 0 0
0 0 0
0 0 0
0 0 0
0 0 0
0 0 0
0 0 0
0 0 0
0 0 0
0 0 0
0 0 0
0 0 0
0 0 0
0 0 0
0 0 0
0 0 0
0 0 0
0 0 0
0 0 0
0 0 0
0 0 0
0 0 0
0 0 0
0 0 0
0 0 0
0 0 0
0 0 0
0 0 0
0 0 0
0 0 0
0 0 0
0 0 0
0 0 0
0 0 0
0 0 0
0 0 0
0 0 0
0 0 0
0 0 0
0 0 0
0 0 0
0 0 0
0 0 0
0 0 0
0 0 0
0 0 0
0 0 0
0 0 0
0 0 0
0 0 0
0 0 0
0 0 0
0 0 0
0 0 0
0 0 0
0 0 0
0 0 0
0 0 0
0 0 0
0 0 0
0 0 0
0 0 0
0 0 0
0 0 0
0 0 0
0 0 0
0 0 0
0 0 0
0 0 0
0 0 0
0 0 0
0 0 0
0 0 0
0 0 0
0 0 0
0 0 0
0 0 0
0 0 0
0 0 0
0 0 0
0 0 0
0 0 0
0 0 0
0 0 0
0 0 0
0 0 0
0 0 0
0 0 0
0 0 0
0 0 0
0 0 0
0 0 0
0 0 0
0 0 0
0 0 0
0 0 0
0 0 0
0 0 0
0 0 0
0 0 0
0 0 0
0 0 0
0 0 0
0 0 0
0 0 0
0 0 0
0 0 0
0 0 0
0 0 0
0 0 0
0 0 0
0 0 0
0 0 0
0 0 0
0 0 0
0 0 0
0 0 0
0 0 0
0 0 0
0 0 0
0 0 0
0 0 0
0 0 0
0 0 0
0 0 0
0 0 0
0 0 0
0 0 0
0 0 0
0 0 0
0 0 0
0 0 0
0 0 0
0 0 0
0 0 0
0 0 0
0 0 0
0 0 0
0 0 0
0 0 0
0 0 0
0 0 0
0 0 0
0 0 0
0 0 0
0 0 0
0 0 0
0 0 0
0 0 0
0 0 0
0 0 0
0 0 0
0 0 0
0 0 0
0 0 0
0 0 0
0 0 0
0 0 0
0 0 0
0 0 0
0 0 0
0 0 0
0 0 0
0 0 0
0 0 0
0 0 0
0 0 0
0 0 0
0 0 0
0 0 0
0 0 0
0 0 0
0 0 0
0 0 0
0 0 0
0 0 0
0 0 0
0 0 0
0 0 0
0 0 0
0 0 0
0 0 0
0 0 0
0 0 0
0 0 0
0 0 0
0 0 0
0 0 0
0 0 0
0 0 0
0 0 0
0 0 0
100 100 100
116 116 116
62 62 62
98 98 98
50 50 50
101 101 101
114 114 114
50 50 50
131 131 131
78 78 78
98 98 98
46 46 46
89 89 89
69 69 69
60 60 60
79 79 79
120 120 120
72 72 72
102 102 102
88 88 88
113 113 113
87 87 87
86 86 86
87 87 87
113 113 113
91 91 91
58 58 58
24 24 24
29 29 29
58 58 58
92 92 92
80 80 80
62 62 62
82 82 82
107 107 107
63 63 63
91 91 91
107 107 107
120 120 120
107 107 107
101 101 101
102 102 102
143 143 143
150 150 150
134 134 134
99 99 99
163 163 163
168 168 168
88 88 88
113 113 113
153 153 153
163 163 163
112 112 112
115 115 115
83 83 83
40 40 40
79 79 79
38 38 38
32 32 32
28 28 28
30 30 30
47 47 47
20 20 20
34 34 34
29 29 29
27 27 27
21 21 21
18 18 18
10 10 10
33 33 33
54 54 54
95 95 95
141 141 141
48 48 48
148 148 148
80 80 80
65 65 65
40 40 40
31 31 31
46 46 46
33 33 33
41 41 41
0 0 0
0 0 0
0 0 0
0 0 0
0 0 0
0 0 0
0 0 0
0 0 0
0 0 0
0 0 0
0 0 0
0 0 0
0 0 0
0 0 0
0 0 0
0 0 0
0 0 0
0 0 0
0 0 0
0 0 0
0 0 0
0 0 0
0 0 0
0 0 0
0 0 0
0 0 0
0 0 0
0 0 0
0 0 0
0 0 0
0 0 0
0 0 0
0 0 0
0 0 0
0 0 0
0 0 0
0 0 0
0 0 0
0 0 0
0 0 0
0 0 0
0 0 0
0 0 0
0 0 0
0 0 0
0 0 0
0 0 0
0 0 0
0 0 0
0 0 0
0 0 0
0 0 0
0 0 0
0 0 0
0 0 0
0 0 0
0 0 0
0 0 0
0 0 0
0 0 0
0 0 0
0 0 0
0 0 0
0 0 0
0 0 0
0 0 0
0 0 0
0 0 0
0 0 0
0 0 0
0 0 0
0 0 0
0 0 0
0 0 0
0 0 0
0 0 0
0 0 0
0 0 0
0 0 0
0 0 0
0 0 0
0 0 0
0 0 0
0 0 0
0 0 0
0 0 0
0 0 0
0 0 0
0 0 0
0 0 0
0 0 0
0 0 0
0 0 0
0 0 0
0 0 0
0 0 0
0 0 0
0 0 0
0 0 0
0 0 0
0 0 0
0 0 0
0 0 0
0 0 0
0 0 0
0 0 0
0 0 0
0 0 0
0 0 0
0 0 0
0 0 0
0 0 0
0 0 0
0 0 0
0 0 0
0 0 0
0 0 0
0 0 0
0 0 0
0 0 0
0 0 0
0 0 0
0 0 0
0 0 0
0 0 0
0 0 0
0 0 0
0 0 0
0 0 0
0 0 0
0 0 0
0 0 0
0 0 0
0 0 0
0 0 0
0 0 0
0 0 0
0 0 0
0 0 0
0 0 0
0 0 0
0 0 0
0 0 0
0 0 0
0 0 0
0 0 0
0 0 0
0 0 0
0 0 0
0 0 0
0 0 0
0 0 0
0 0 0
0 0 0
0 0 0
0 0 0
0 0 0
0 0 0
0 0 0
0 0 0
0 0 0
0 0 0
0 0 0
0 0 0
0 0 0
0 0 0
0 0 0
0 0 0
0 0 0
0 0 0
0 0 0
0 0 0
0 0 0
0 0 0
0 0 0
0 0 0
0 0 0
0 0 0
0 0 0
0 0 0
0 0 0
0 0 0
0 0 0
0 0 0
0 0 0
0 0 0
0 0 0
0 0 0
0 0 0
0 0 0
0 0 0
0 0 0
0 0 0
0 0 0
0 0 0
0 0 0
0 0 0
0 0 0
0 0 0
0 0 0
0 0 0
0 0 0
0 0 0
0 0 0
0 0 0
0 0 0
0 0 0
0 0 0
0 0 0
0 0 0
0 0 0
0 0 0
0 0 0
0 0 0
0 0 0
0 0 0
0 0 0
0 0 0
0 0 0
0 0 0
0 0 0
0 0 0
0 0 0
0 0 0
0 0 0
0 0 0
0 0 0
0 0 0
0 0 0
0 0 0
0 0 0
0 0 0
0 0 0
0 0 0
0 0 0
0 0 0
0 0 0
0 0 0
0 0 0
0 0 0
0 0 0
0 0 0
0 0 0
0 0 0
0 0 0
0 0 0
0 0 0
0 0 0
0 0 0
0 0 0
0 0 0
0 0 0
0 0 0
0 0 0
0 0 0
0 0 0
0 0 0
0 0 0
0 0 0
0 0 0
0 0 0
0 0 0
0 0 0
0 0 0
0 0 0
0 0 0
0 0 0
0 0 0
0 0 0
0 0 0
0 0 0
0 0 0
0 0 0
0 0 0
0 0 0
0 0 0
0 0 0
0 0 0
0 0 0
0 0 0
0 0 0
0 0 0
0 0 0
0 0 0
0 0 0
0 0 0
0 0 0
0 0 0
0 0 0
0 0 0
0 0 0
0 0 0
0 0 0
0 0 0
0 0 0
0 0 0
0 0 0
0 0 0
0 0 0
0 0 0
0 0 0
0 0 0
0 0 0
0 0 0
0 0 0
0 0 0
0 0 0
0 0 0
0 0 0
0 0 0
0 0 0
0 0 0
0 0 0
0 0 0
0 0 0
0 0 0
0 0 0
50 50 50
83 83 83
38 38 38
91 91 91
85 85 85
78 78 78
118 118 118
87 87 87
108 108 108
79 79 79
62 62 62
79 79 79
32 32 32
50 50 50
49 49 49
61 61 61
81 81 81
71 71 71
133 133 133
88 88 88
102 102 102
134 134 134
111 111 111
55 55 55
83 83 83
50 50 50
111 111 111
42 42 42
9 9 9
16 16 16
39 39 39
48 48 48
115 115 115
78 78 78
98 98 98
58 58 58
94 94 94
74 74 74
40 40 40
120 120 120
124 124 124
101 101 101
134 134 134
135 135 135
134 134 134
131 131 131
153 153 153
85 85 85
144 144 144
143 143 143
125 125 125
138 138 138
93 93 93
146 146 146
99 99 99
68 68 68
56 56 56
67 67 67
59 59 59
35 35 35
26 26 26
33 33 33
63 63 63
49 49 49
29 29 29
35 35 35
0 0 0
47 47 47
60 60 60
41 41 41
42 42 42
72 72 72
27 27 27
136 136 136
117 117 117
133 133 133
124 124 124
83 83 83
44 44 44
34 34 34
75 75 75
59 59 59
64 64 64
43 43 43
0 0 0
0 0 0
0 0 0
0 0 0
0 0 0
0 0 0
0 0 0
0 0 0
0 0 0
0 0 0
0 0 0
0 0 0
0 0 0
0 0 0
0 0 0
0 0 0
0 0 0
0 0 0
0 0 0
0 0 0
0 0 0
0 0 0
0 0 0
0 0 0
0 0 0
0 0 0
0 0 0
255 255 255
255 255 255
255 255 255
255 255 255
255 255 255
255 255 255
255 255 255
255 255 255
255 255 255
255 255 255
255 255 255
255 255 255
255 255 255
255 255 255
255 255 255
255 255 255
255 255 255
255 255 255
255 255 255
125 125 125
0 0 0
0 0 0
0 0 0
0 0 0
0 0 0
0 0 0
0 0 0
0 0 0
0 0 0
0 0 0
0 0 0
0 0 0
0 0 0
0 0 0
0 0 0
0 0 0
0 0 0
0 0 0
0 0 0
0 0 0
0 0 0
0 0 0
0 0 0
0 0 0
0 0 0
0 0 0
0 0 0
0 0 0
0 0 0
0 0 0
0 0 0
0 0 0
0 0 0
0 0 0
0 0 0
0 0 0
0 0 0
0 0 0
0 0 0
0 0 0
0 0 0
0 0 0
0 0 0
0 0 0
0 0 0
0 0 0
0 0 0
0 0 0
0 0 0
0 0 0
0 0 0
0 0 0
0 0 0
0 0 0
0 0 0
0 0 0
0 0 0
0 0 0
0 0 0
0 0 0
0 0 0
0 0 0
0 0 0
0 0 0
0 0 0
0 0 0
0 0 0
0 0 0
0 0 0
0 0 0
0 0 0
0 0 0
0 0 0
0 0 0
0 0 0
0 0 0
0 0 0
0 0 0
0 0 0
0 0 0
0 0 0
0 0 0
0 0 0
0 0 0
0 0 0
0 0 0
0 0 0
0 0 0
0 0 0
0 0 0
0 0 0
0 0 0
0 0 0
0 0 0
0 0 0
0 0 0
0 0 0
0 0 0
0 0 0
0 0 0
0 0 0
0 0 0
0 0 0
0 0 0
0 0 0
0 0 0
0 0 0
0 0 0
0 0 0
0 0 0
0 0 0
0 0 0
0 0 0
0 0 0
0 0 0
0 0 0
0 0 0
0 0 0
0 0 0
0 0 0
0 0 0
0 0 0
0 0 0
0 0 0
0 0 0
0 0 0
0 0 0
0 0 0
0 0 0
0 0 0
0 0 0
0 0 0
0 0 0
0 0 0
0 0 0
0 0 0
0 0 0
0 0 0
0 0 0
0 0 0
0 0 0
0 0 0
0 0 0
0 0 0
0 0 0
0 0 0
0 0 0
0 0 0
0 0 0
0 0 0
0 0 0
0 0 0
0 0 0
0 0 0
0 0 0
0 0 0
0 0 0
0 0 0
0 0 0
0 0 0
0 0 0
0 0 0
0 0 0
0 0 0
0 0 0
0 0 0
0 0 0
0 0 0
0 0 0
0 0 0
0 0 0
0 0 0
0 0 0
0 0 0
0 0 0
0 0 0
0 0 0
0 0 0
0 0 0
0 0 0
0 0 0
0 0 0
0 0 0
0 0 0
0 0 0
0 0 0
0 0 0
0 0 0
0 0 0
0 0 0
0 0 0
0 0 0
0 0 0
0 0 0
0 0 0
0 0 0
0 0 0
0 0 0
0 0 0
0 0 0
0 0 0
0 0 0
0 0 0
0 0 0
0 0 0
0 0 0
0 0 0
0 0 0
0 0 0
0 0 0
0 0 0
0 0 0
0 0 0
0 0 0
0 0 0
0 0 0
0 0 0
0 0 0
0 0 0
0 0 0
0 0 0
0 0 0
0 0 0
0 0 0
0 0 0
0 0 0
0 0 0
0 0 0
0 0 0
0 0 0
0 0 0
0 0 0
0 0 0
0 0 0
0 0 0
0 0 0
0 0 0
0 0 0
0 0 0
0 0 0
0 0 0
0 0 0
0 0 0
0 0 0
0 0 0
0 0 0
0 0 0
0 0 0
0 0 0
0 0 0
0 0 0
0 0 0
0 0 0
0 0 0
0 0 0
0 0 0
0 0 0
0 0 0
0 0 0
0 0 0
0 0 0
0 0 0
0 0 0
0 0 0
0 0 0
0 0 0
0 0 0
0 0 0
0 0 0
51 51 51
53 53 53
74 74 74
80 80 80
82 82 82
109 109 109
67 67 67
107 107 107
80 80 80
0 0 0
103 103 103
87 87 87
48 48 48
33 33 33
23 23 23
55 55 55
89 89 89
97 97 97
70 70 70
88 88 88
72 72 72
87 87 87
49 49 49
65 65 65
105 105 105
102 102 102
78 78 78
35 35 35
11 11 11
20 20 20
55 55 55
88 88 88
92 92 92
55 55 55
83 83 83
60 60 60
68 68 68
59 59 59
50 50 50
126 126 126
64 64 64
121 121 121
140 140 140
133 133 133
134 134 134
70 70 70
129 129 129
109 109 109
100 100 100
111 111 111
101 101 101
128 128 128
145 145 145
78 78 78
97 97 97
104 104 104
100 100 100
97 97 97
58 58 58
56 56 56
35 35 35
35 35 35
51 51 51
72 72 72
33 33 33
9 9 9
29 29 29
54 54 54
50 50 50
87 87 87
87 87 87
72 72 72
94 94 94
112 112 112
127 127 127
107 107 107
139 139 139
105 105 105
44 44 44
23 23 23
52 52 52
59 59 59
44 44 44
97 97 97
86 86 86
0 0 0
0 0 0
0 0 0
0 0 0
0 0 0
0 0 0
0 0 0
0 0 0
0 0 0
0 0 0
0 0 0
0 0 0
0 0 0
0 0 0
0 0 0
0 0 0
0 0 0
0 0 0
0 0 0
0 0 0
0 0 0
0 0 0
0 0 0
0 0 0
0 0 0
0 0 0
255 255 255
255 255 255
255 255 255
255 255 255
255 255 255
255 255 255
255 255 255
255 255 255
255 255 255
255 255 255
255 255 255
255 255 255
255 255 255
255 255 255
255 255 255
255 255 255
255 255 255
255 255 255
255 255 255
153 153 153
0 0 0
0 0 0
0 0 0
0 0 0
0 0 0
0 0 0
0 0 0
0 0 0
0 0 0
0 0 0
0 0 0
0 0 0
0 0 0
0 0 0
0 0 0
0 0 0
0 0 0
0 0 0
0 0 0
0 0 0
0 0 0
0 0 0
0 0 0
0 0 0
0 0 0
0 0 0
0 0 0
0 0 0
0 0 0
0 0 0
0 0 0
0 0 0
0 0 0
0 0 0
0 0 0
0 0 0
0 0 0
0 0 0
0 0 0
0 0 0
0 0 0
0 0 0
0 0 0
0 0 0
0 0 0
0 0 0
0 0 0
0 0 0
0 0 0
0 0 0
0 0 0
0 0 0
0 0 0
0 0 0
0 0 0
0 0 0
0 0 0
0 0 0
0 0 0
0 0 0
0 0 0
0 0 0
0 0 0
0 0 0
0 0 0
0 0 0
0 0 0
0 0 0
0 0 0
0 0 0
0 0 0
0 0 0
0 0 0
0 0 0
0 0 0
0 0 0
0 0 0
0 0 0
0 0 0
0 0 0
0 0 0
0 0 0
0 0 0
0 0 0
0 0 0
0 0 0
0 0 0
0 0 0
0 0 0
0 0 0
0 0 0
0 0 0
0 0 0
0 0 0
0 0 0
0 0 0
0 0 0
0 0 0
0 0 0
0 0 0
0 0 0
0 0 0
0 0 0
0 0 0
0 0 0
0 0 0
0 0 0
0 0 0
0 0 0
0 0 0
0 0 0
0 0 0
0 0 0
0 0 0
0 0 0
0 0 0
0 0 0
0 0 0
0 0 0
0 0 0
0 0 0
0 0 0
0 0 0
0 0 0
0 0 0
0 0 0
0 0 0
0 0 0
0 0 0
0 0 0
0 0 0
0 0 0
0 0 0
0 0 0
0 0 0
0 0 0
0 0 0
0 0 0
0 0 0
0 0 0
0 0 0
0 0 0
0 0 0
0 0 0
0 0 0
0 0 0
0 0 0
0 0 0
0 0 0
0 0 0
0 0 0
0 0 0
0 0 0
0 0 0
0 0 0
0 0 0
0 0 0
0 0 0
0 0 0
0 0 0
0 0 0
0 0 0
0 0 0
0 0 0
0 0 0
0 0 0
0 0 0
0 0 0
0 0 0
0 0 0
0 0 0
0 0 0
0 0 0
0 0 0
0 0 0
0 0 0
0 0 0
0 0 0
0 0 0
0 0 0
0 0 0
0 0 0
0 0 0
0 0 0
0 0 0
0 0 0
0 0 0
0 0 0
0 0 0
0 0 0
0 0 0
0 0 0
0 0 0
0 0 0
0 0 0
0 0 0
0 0 0
0 0 0
0 0 0
0 0 0
0 0 0
0 0 0
0 0 0
0 0 0
0 0 0
0 0 0
0 0 0
0 0 0
0 0 0
0 0 0
0 0 0
0 0 0
0 0 0
0 0 0
0 0 0
0 0 0
0 0 0
0 0 0
0 0 0
0 0 0
0 0 0
0 0 0
0 0 0
0 0 0
0 0 0
0 0 0
0 0 0
0 0 0
0 0 0
0 0 0
0 0 0
0 0 0
0 0 0
0 0 0
0 0 0
0 0 0
0 0 0
0 0 0
0 0 0
0 0 0
0 0 0
0 0 0
0 0 0
0 0 0
0 0 0
0 0 0
0 0 0
0 0 0
0 0 0
0 0 0
0 0 0
0 0 0
0 0 0
0 0 0
0 0 0
0 0 0
0 0 0
0 0 0
0 0 0
0 0 0
0 0 0
0 0 0
0 0 0
0 0 0
0 0 0
0 0 0
0 0 0
0 0 0
60 60 60
31 31 31
78 78 78
47 47 47
81 81 81
48 48 48
73 73 73
62 62 62
50 50 50
100 100 100
86 86 86
96 96 96
101 101 101
77 77 77
46 46 46
66 66 66
26 26 26
85 85 85
47 47 47
107 107 107
0 0 0
134 134 134
102 102 102
53 53 53
68 68 68
119 119 119
88 88 88
46 46 46
81 81 81
27 27 27
14 14 14
31 31 31
78 78 78
57 57 57
49 49 49
29 29 29
39 39 39
44 44 44
37 37 37
72 72 72
55 55 55
82 82 82
85 85 85
88 88 88
101 101 101
134 134 134
88 88 88
120 120 120
101 101 101
112 112 112
146 146 146
114 114 114
112 112 112
141 141 141
103 103 103
72 72 72
90 90 90
90 90 90
83 83 83
94 94 94
90 90 90
66 66 66
35 35 35
49 49 49
79 79 79
38 38 38
7 7 7
8 8 8
23 23 23
35 35 35
20 20 20
58 58 58
118 118 118
111 111 111
78 78 78
128 128 128
139 139 139
86 86 86
90 90 90
85 85 85
34 34 34
5 5 5
16 16 16
22 22 22
70 70 70
84 84 84
0 0 0
0 0 0
0 0 0
0 0 0
0 0 0
0 0 0
0 0 0
0 0 0
0 0 0
0 0 0
0 0 0
0 0 0
0 0 0
0 0 0
0 0 0
0 0 0
0 0 0
0 0 0
0 0 0
0 0 0
0 0 0
0 0 0
0 0 0
0 0 0
0 0 0
0 0 0
255 255 255
255 255 255
255 255 255
255 255 255
255 255 255
255 255 255
255 255 255
255 255 255
255 255 255
255 255 255
255 255 255
255 255 255
255 255 255
255 255 255
255 255 255
255 255 255
255 255 255
255 255 255
255 255 255
153 153 153
0 0 0
0 0 0
0 0 0
0 0 0
0 0 0
0 0 0
0 0 0
0 0 0
0 0 0
0 0 0
0 0 0
0 0 0
0 0 0
0 0 0
0 0 0
0 0 0
0 0 0
0 0 0
0 0 0
0 0 0
0 0 0
0 0 0
0 0 0
0 0 0
0 0 0
0 0 0
0 0 0
0 0 0
0 0 0
0 0 0
0 0 0
0 0 0
0 0 0
0 0 0
0 0 0
0 0 0
0 0 0
0 0 0
0 0 0
0 0 0
0 0 0
0 0 0
0 0 0
0 0 0
0 0 0
0 0 0
0 0 0
0 0 0
0 0 0
0 0 0
0 0 0
0 0 0
0 0 0
0 0 0
0 0 0
0 0 0
0 0 0
0 0 0
0 0 0
0 0 0
0 0 0
0 0 0
0 0 0
0 0 0
0 0 0
0 0 0
0 0 0
0 0 0
0 0 0
0 0 0
0 0 0
0 0 0
0 0 0
0 0 0
0 0 0
0 0 0
0 0 0
0 0 0
0 0 0
0 0 0
0 0 0
0 0 0
0 0 0
0 0 0
0 0 0
0 0 0
0 0 0
0 0 0
0 0 0
0 0 0
0 0 0
0 0 0
0 0 0
0 0 0
0 0 0
0 0 0
0 0 0
0 0 0
0 0 0
0 0 0
0 0 0
0 0 0
0 0 0
0 0 0
0 0 0
0 0 0
0 0 0
0 0 0
0 0 0
0 0 0
0 0 0
0 0 0
0 0 0
0 0 0
0 0 0
0 0 0
0 0 0
0 0 0
0 0 0
0 0 0
0 0 0
0 0 0
0 0 0
0 0 0
0 0 0
0 0 0
0 0 0
0 0 0
0 0 0
0 0 0
0 0 0
0 0 0
0 0 0
0 0 0
0 0 0
0 0 0
0 0 0
0 0 0
0 0 0
0 0 0
0 0 0
0 0 0
0 0 0
0 0 0
0 0 0
0 0 0
0 0 0
0 0 0
0 0 0
0 0 0
0 0 0
0 0 0
0 0 0
0 0 0
0 0 0
0 0 0
0 0 0
0 0 0
0 0 0
0 0 0
0 0 0
0 0 0
0 0 0
0 0 0
0 0 0
0 0 0
0 0 0
0 0 0
0 0 0
0 0 0
0 0 0
0 0 0
0 0 0
0 0 0
0 0 0
0 0 0
0 0 0
0 0 0
0 0 0
0 0 0
0 0 0
0 0 0
0 0 0
0 0 0
0 0 0
0 0 0
0 0 0
0 0 0
0 0 0
0 0 0
0 0 0
0 0 0
0 0 0
0 0 0
0 0 0
0 0 0
0 0 0
0 0 0
0 0 0
0 0 0
0 0 0
0 0 0
0 0 0
0 0 0
0 0 0
0 0 0
0 0 0
0 0 0
0 0 0
0 0 0
0 0 0
0 0 0
0 0 0
0 0 0
0 0 0
0 0 0
0 0 0
0 0 0
0 0 0
0 0 0
0 0 0
0 0 0
0 0 0
0 0 0
0 0 0
0 0 0
0 0 0
0 0 0
0 0 0
0 0 0
0 0 0
0 0 0
0 0 0
0 0 0
0 0 0
0 0 0
0 0 0
0 0 0
0 0 0
0 0 0
0 0 0
0 0 0
0 0 0
0 0 0
0 0 0
0 0 0
0 0 0
0 0 0
0 0 0
0 0 0
0 0 0
0 0 0
0 0 0
0 0 0
0 0 0
0 0 0
0 0 0
0 0 0
0 0 0
0 0 0
0 0 0
0 0 0
0 0 0
0 0 0
0 0 0
0 0 0
0 0 0
0 0 0
45 45 45
66 66 66
55 55 55
45 45 45
56 56 56
55 55 55
73 73 73
65 65 65
88 88 88
0 0 0
58 58 58
73 73 73
105 105 105
101 101 101
0 0 0
99 99 99
90 90 90
87 87 87
103 103 103
69 69 69
101 101 101
70 70 70
86 86 86
98 98 98
49 49 49
65 65 65
98 98 98
91 91 91
67 67 67
7 7 7
9 9 9
50 50 50
84 84 84
70 70 70
37 37 37
14 14 14
20 20 20
15 15 15
51 51 51
58 58 58
49 49 49
75 75 75
94 94 94
131 131 131
135 135 135
114 114 114
102 102 102
125 125 125
113 113 113
152 152 152
149 149 149
125 125 125
124 124 124
166 166 166
81 81 81
73 73 73
108 108 108
114 114 114
87 87 87
111 111 111
94 94 94
85 85 85
88 88 88
57 57 57
53 53 53
30 30 30
16 16 16
9 9 9
11 11 11
36 36 36
33 33 33
28 28 28
72 72 72
92 92 92
106 106 106
77 77 77
104 104 104
122 122 122
99 99 99
61 61 61
45 45 45
24 24 24
9 9 9
10 10 10
43 43 43
96 96 96
0 0 0
0 0 0
0 0 0
0 0 0
0 0 0
0 0 0
0 0 0
0 0 0
0 0 0
0 0 0
0 0 0
0 0 0
0 0 0
0 0 0
0 0 0
0 0 0
0 0 0
0 0 0
0 0 0
0 0 0
0 0 0
0 0 0
0 0 0
0 0 0
0 0 0
0 0 0
255 255 255
255 255 255
255 255 255
255 255 255
255 255 255
255 255 255
255 255 255
255 255 255
255 255 255
255 255 255
255 255 255
255 255 255
255 255 255
255 255 255
255 255 255
255 255 255
255 255 255
255 255 255
255 255 255
184 184 184
0 0 0
0 0 0
0 0 0
0 0 0
0 0 0
0 0 0
0 0 0
0 0 0
0 0 0
0 0 0
0 0 0
0 0 0
0 0 0
0 0 0
0 0 0
0 0 0
0 0 0
0 0 0
0 0 0
0 0 0
0 0 0
0 0 0
0 0 0
0 0 0
0 0 0
0 0 0
0 0 0
0 0 0
0 0 0
0 0 0
0 0 0
0 0 0
0 0 0
0 0 0
0 0 0
0 0 0
0 0 0
0 0 0
0 0 0
0 0 0
0 0 0
0 0 0
0 0 0
0 0 0
0 0 0
0 0 0
0 0 0
0 0 0
0 0 0
0 0 0
0 0 0
0 0 0
0 0 0
0 0 0
0 0 0
0 0 0
0 0 0
0 0 0
0 0 0
0 0 0
0 0 0
0 0 0
0 0 0
0 0 0
0 0 0
0 0 0
0 0 0
0 0 0
0 0 0
0 0 0
0 0 0
0 0 0
0 0 0
0 0 0
0 0 0
0 0 0
0 0 0
0 0 0
0 0 0
0 0 0
0 0 0
0 0 0
0 0 0
0 0 0
0 0 0
0 0 0
0 0 0
0 0 0
0 0 0
0 0 0
0 0 0
0 0 0
0 0 0
0 0 0
0 0 0
0 0 0
0 0 0
0 0 0
0 0 0
0 0 0
0 0 0
0 0 0
0 0 0
0 0 0
0 0 0
0 0 0
0 0 0
0 0 0
0 0 0
0 0 0
0 0 0
0 0 0
0 0 0
0 0 0
0 0 0
0 0 0
0 0 0
0 0 0
0 0 0
0 0 0
0 0 0
0 0 0
0 0 0
0 0 0
0 0 0
0 0 0
0 0 0
0 0 0
0 0 0
0 0 0
0 0 0
0 0 0
0 0 0
0 0 0
0 0 0
0 0 0
0 0 0
0 0 0
0 0 0
0 0 0
0 0 0
0 0 0
0 0 0
0 0 0
0 0 0
0 0 0
0 0 0
0 0 0
0 0 0
0 0 0
0 0 0
0 0 0
0 0 0
0 0 0
0 0 0
0 0 0
0 0 0
0 0 0
0 0 0
0 0 0
0 0 0
0 0 0
0 0 0
0 0 0
0 0 0
0 0 0
0 0 0
0 0 0
0 0 0
0 0 0
0 0 0
0 0 0
0 0 0
0 0 0
0 0 0
0 0 0
0 0 0
0 0 0
0 0 0
0 0 0
0 0 0
0 0 0
0 0 0
0 0 0
0 0 0
0 0 0
0 0 0
0 0 0
0 0 0
0 0 0
0 0 0
0 0 0
0 0 0
0 0 0
0 0 0
0 0 0
0 0 0
0 0 0
0 0 0
0 0 0
0 0 0
0 0 0
0 0 0
0 0 0
0 0 0
0 0 0
0 0 0
0 0 0
0 0 0
0 0 0
0 0 0
0 0 0
0 0 0
0 0 0
0 0 0
0 0 0
0 0 0
0 0 0
0 0 0
0 0 0
0 0 0
0 0 0
0 0 0
0 0 0
0 0 0
0 0 0
0 0 0
0 0 0
0 0 0
0 0 0
0 0 0
0 0 0
0 0 0
0 0 0
0 0 0
0 0 0
0 0 0
0 0 0
0 0 0
0 0 0
0 0 0
0 0 0
0 0 0
0 0 0
0 0 0
0 0 0
0 0 0
0 0 0
0 0 0
0 0 0
0 0 0
0 0 0
0 0 0
0 0 0
0 0 0
0 0 0
0 0 0
0 0 0
0 0 0
0 0 0
0 0 0
0 0 0
0 0 0
0 0 0
0 0 0
0 0 0
0 0 0
0 0 0
81 81 81
74 74 74
59 59 59
51 51 51
65 65 65
30 30 30
62 62 62
68 68 68
48 48 48
67 67 67
35 35 35
61 61 61
90 90 90
56 56 56
87 87 87
59 59 59
75 75 75
70 70 70
56 56 56
69 69 69
88 88 88
50 50 50
82 82 82
84 84 84
0 0 0
50 50 50
88 88 88
64 64 64
51 51 51
31 31 31
12 12 12
38 38 38
40 40 40
46 46 46
19 19 19
14 14 14
8 8 8
5 5 5
13 13 13
63 63 63
57 57 57
88 88 88
93 93 93
87 87 87
127 127 127
144 144 144
76 76 76
144 144 144
51 51 51
91 91 91
111 111 111
113 113 113
111 111 111
135 135 135
154 154 154
103 103 103
119 119 119
83 83 83
89 89 89
92 92 92
52 52 52
81 81 81
57 57 57
73 73 73
59 59 59
25 25 25
25 25 25
8 8 8
20 20 20
33 33 33
37 37 37
48 48 48
65 65 65
71 71 71
142 142 142
104 104 104
134 134 134
95 95 95
88 88 88
66 66 66
85 85 85
39 39 39
35 35 35
40 40 40
35 35 35
46 46 46
88 88 88
0 0 0
0 0 0
0 0 0
0 0 0
0 0 0
0 0 0
0 0 0
0 0 0
0 0 0
0 0 0
0 0 0
0 0 0
0 0 0
0 0 0
0 0 0
0 0 0
0 0 0
0 0 0
0 0 0
0 0 0
0 0 0
0 0 0
0 0 0
0 0 0
0 0 0
255 255 255
255 255 255
255 255 255
255 255 255
255 255 255
255 255 255
255 255 255
255 255 255
255 255 255
255 255 255
255 255 255
255 255 255
255 255 255
255 255 255
255 255 255
255 255 255
255 255 255
255 255 255
255 255 255
144 144 144
0 0 0
0 0 0
0 0 0
0 0 0
0 0 0
0 0 0
0 0 0
0 0 0
0 0 0
0 0 0
0 0 0
0 0 0
0 0 0
0 0 0
0 0 0
0 0 0
0 0 0
0 0 0
0 0 0
0 0 0
0 0 0
0 0 0
0 0 0
0 0 0
0 0 0
0 0 0
0 0 0
0 0 0
0 0 0
0 0 0
0 0 0
0 0 0
0 0 0
0 0 0
0 0 0
0 0 0
0 0 0
0 0 0
0 0 0
0 0 0
0 0 0
0 0 0
0 0 0
0 0 0
0 0 0
0 0 0
0 0 0
0 0 0
0 0 0
0 0 0
0 0 0
0 0 0
0 0 0
0 0 0
0 0 0
0 0 0
0 0 0
0 0 0
0 0 0
0 0 0
0 0 0
0 0 0
0 0 0
0 0 0
0 0 0
0 0 0
0 0 0
0 0 0
0 0 0
0 0 0
0 0 0
0 0 0
0 0 0
0 0 0
0 0 0
0 0 0
0 0 0
0 0 0
0 0 0
0 0 0
0 0 0
0 0 0
0 0 0
0 0 0
0 0 0
0 0 0
0 0 0
0 0 0
0 0 0
0 0 0
0 0 0
0 0 0
0 0 0
0 0 0
0 0 0
0 0 0
0 0 0
0 0 0
0 0 0
0 0 0
0 0 0
0 0 0
0 0 0
0 0 0
0 0 0
0 0 0
0 0 0
0 0 0
0 0 0
0 0 0
0 0 0
0 0 0
0 0 0
0 0 0
0 0 0
0 0 0
0 0 0
0 0 0
0 0 0
0 0 0
0 0 0
0 0 0
0 0 0
0 0 0
0 0 0
0 0 0
0 0 0
0 0 0
0 0 0
0 0 0
0 0 0
0 0 0
0 0 0
0 0 0
0 0 0
0 0 0
0 0 0
0 0 0
0 0 0
0 0 0
0 0 0
0 0 0
0 0 0
0 0 0
0 0 0
0 0 0
0 0 0
0 0 0
0 0 0
0 0 0
0 0 0
0 0 0
0 0 0
0 0 0
0 0 0
0 0 0
0 0 0
0 0 0
0 0 0
0 0 0
0 0 0
0 0 0
0 0 0
0 0 0
0 0 0
0 0 0
0 0 0
0 0 0
0 0 0
0 0 0
0 0 0
0 0 0
0 0 0
0 0 0
0 0 0
0 0 0
0 0 0
0 0 0
0 0 0
0 0 0
0 0 0
0 0 0
0 0 0
0 0 0
0 0 0
0 0 0
0 0 0
0 0 0
0 0 0
0 0 0
0 0 0
0 0 0
0 0 0
0 0 0
0 0 0
0 0 0
0 0 0
0 0 0
0 0 0
0 0 0
0 0 0
0 0 0
0 0 0
0 0 0
0 0 0
0 0 0
0 0 0
0 0 0
0 0 0
0 0 0
0 0 0
0 0 0
0 0 0
0 0 0
0 0 0
0 0 0
0 0 0
0 0 0
0 0 0
0 0 0
0 0 0
0 0 0
0 0 0
0 0 0
0 0 0
0 0 0
0 0 0
0 0 0
0 0 0
0 0 0
0 0 0
0 0 0
0 0 0
0 0 0
0 0 0
0 0 0
0 0 0
0 0 0
0 0 0
0 0 0
0 0 0
0 0 0
0 0 0
0 0 0
0 0 0
0 0 0
0 0 0
0 0 0
0 0 0
0 0 0
0 0 0
0 0 0
0 0 0
0 0 0
0 0 0
0 0 0
0 0 0
0 0 0
0 0 0
0 0 0
0 0 0
0 0 0
0 0 0
0 0 0
0 0 0
0 0 0
0 0 0
0 0 0
51 51 51
65 65 65
0 0 0
38 38 38
20 20 20
37 37 37
34 34 34
49 49 49
68 68 68
58 58 58
50 50 50
82 82 82
54 54 54
0 0 0
81 81 81
70 70 70
76 76 76
72 72 72
74 74 74
74 74 74
50 50 50
67 67 67
0 0 0
121 121 121
72 72 72
88 88 88
122 122 122
109 109 109
77 77 77
43 43 43
29 29 29
24 24 24
61 61 61
32 32 32
13 13 13
10 10 10
12 12 12
10 10 10
5 5 5
58 58 58
85 85 85
89 89 89
86 86 86
95 95 95
138 138 138
94 94 94
134 134 134
43 43 43
108 108 108
81 81 81
139 139 139
163 163 163
125 125 125
122 122 122
152 152 152
107 107 107
76 76 76
106 106 106
124 124 124
134 134 134
121 121 121
163 163 163
127 127 127
119 119 119
96 96 96
76 76 76
26 26 26
9 9 9
8 8 8
33 33 33
37 37 37
29 29 29
76 76 76
80 80 80
124 124 124
123 123 123
165 165 165
97 97 97
103 103 103
145 145 145
117 117 117
105 105 105
83 83 83
101 101 101
89 89 89
77 77 77
71 71 71
0 0 0
0 0 0
0 0 0
0 0 0
0 0 0
0 0 0
0 0 0
0 0 0
0 0 0
0 0 0
0 0 0
0 0 0
0 0 0
0 0 0
0 0 0
0 0 0
0 0 0
0 0 0
0 0 0
0 0 0
0 0 0
0 0 0
0 0 0
0 0 0
0 0 0
255 255 255
255 255 255
255 255 255
255 255 255
255 255 255
255 255 255
255 255 255
255 255 255
255 255 255
255 255 255
255 255 255
255 255 255
255 255 255
255 255 255
255 255 255
255 255 255
255 255 255
255 255 255
255 255 255
177 177 177
0 0 0
0 0 0
0 0 0
0 0 0
0 0 0
0 0 0
0 0 0
0 0 0
0 0 0
0 0 0
0 0 0
0 0 0
0 0 0
0 0 0
0 0 0
0 0 0
0 0 0
0 0 0
0 0 0
0 0 0
0 0 0
0 0 0
0 0 0
0 0 0
0 0 0
0 0 0
0 0 0
0 0 0
0 0 0
0 0 0
0 0 0
0 0 0
0 0 0
0 0 0
0 0 0
0 0 0
0 0 0
0 0 0
0 0 0
0 0 0
0 0 0
0 0 0
0 0 0
0 0 0
0 0 0
0 0 0
0 0 0
0 0 0
0 0 0
0 0 0
0 0 0
0 0 0
0 0 0
0 0 0
0 0 0
0 0 0
0 0 0
0 0 0
0 0 0
0 0 0
0 0 0
0 0 0
0 0 0
0 0 0
0 0 0
0 0 0
0 0 0
0 0 0
0 0 0
0 0 0
0 0 0
0 0 0
0 0 0
0 0 0
0 0 0
0 0 0
0 0 0
0 0 0
0 0 0
0 0 0
0 0 0
0 0 0
0 0 0
0 0 0
0 0 0
0 0 0
0 0 0
0 0 0
0 0 0
0 0 0
0 0 0
0 0 0
0 0 0
0 0 0
0 0 0
0 0 0
0 0 0
0 0 0
0 0 0
0 0 0
0 0 0
0 0 0
0 0 0
0 0 0
0 0 0
0 0 0
0 0 0
0 0 0
0 0 0
0 0 0
0 0 0
0 0 0
0 0 0
0 0 0
0 0 0
0 0 0
0 0 0
0 0 0
0 0 0
0 0 0
0 0 0
0 0 0
0 0 0
0 0 0
0 0 0
0 0 0
0 0 0
0 0 0
0 0 0
0 0 0
0 0 0
0 0 0
0 0 0
0 0 0
0 0 0
0 0 0
0 0 0
0 0 0
0 0 0
0 0 0
0 0 0
0 0 0
0 0 0
0 0 0
0 0 0
0 0 0
0 0 0
0 0 0
0 0 0
0 0 0
0 0 0
0 0 0
0 0 0
0 0 0
0 0 0
0 0 0
0 0 0
0 0 0
0 0 0
0 0 0
0 0 0
0 0 0
0 0 0
0 0 0
0 0 0
0 0 0
0 0 0
0 0 0
0 0 0
0 0 0
0 0 0
0 0 0
0 0 0
0 0 0
0 0 0
0 0 0
0 0 0
0 0 0
0 0 0
0 0 0
0 0 0
0 0 0
0 0 0
0 0 0
0 0 0
0 0 0
0 0 0
0 0 0
0 0 0
0 0 0
0 0 0
0 0 0
0 0 0
0 0 0
0 0 0
0 0 0
0 0 0
0 0 0
0 0 0
0 0 0
0 0 0
0 0 0
0 0 0
0 0 0
0 0 0
0 0 0
0 0 0
0 0 0
0 0 0
0 0 0
0 0 0
0 0 0
0 0 0
0 0 0
0 0 0
0 0 0
0 0 0
0 0 0
0 0 0
0 0 0
0 0 0
0 0 0
0 0 0
0 0 0
0 0 0
0 0 0
0 0 0
0 0 0
0 0 0
0 0 0
0 0 0
0 0 0
0 0 0
0 0 0
0 0 0
0 0 0
0 0 0
0 0 0
0 0 0
0 0 0
0 0 0
0 0 0
0 0 0
0 0 0
0 0 0
0 0 0
0 0 0
0 0 0
0 0 0
0 0 0
0 0 0
0 0 0
0 0 0
0 0 0
0 0 0
0 0 0
0 0 0
0 0 0
0 0 0
0 0 0
0 0 0
0 0 0
0 0 0
0 0 0
0 0 0
0 0 0
0 0 0
45 45 45
29 29 29
122 122 122
0 0 0
67 67 67
79 79 79
30 30 30
41 41 41
14 14 14
55 55 55
61 61 61
62 62 62
89 89 89
35 35 35
74 74 74
44 44 44
61 61 61
59 59 59
39 39 39
61 61 61
70 70 70
71 71 71
7 7 7
87 87 87
114 114 114
51 51 51
90 90 90
71 71 71
65 65 65
51 51 51
49 49 49
13 13 13
18 18 18
20 20 20
62 62 62
19 19 19
13 13 13
10 10 10
15 15 15
23 23 23
77 77 77
61 61 61
63 63 63
95 95 95
102 102 102
102 102 102
103 103 103
109 109 109
64 64 64
94 94 94
85 85 85
89 89 89
103 103 103
101 101 101
158 158 158
109 109 109
111 111 111
47 47 47
93 93 93
107 107 107
107 107 107
130 130 130
125 125 125
135 135 135
116 116 116
129 129 129
142 142 142
44 44 44
4 4 4
26 26 26
41 41 41
45 45 45
38 38 38
83 83 83
130 130 130
136 136 136
88 88 88
172 172 172
123 123 123
154 154 154
101 101 101
103 103 103
101 101 101
75 75 75
45 45 45
152 152 152
85 85 85
100 100 100
66 66 66
0 0 0
0 0 0
0 0 0
0 0 0
0 0 0
0 0 0
0 0 0
0 0 0
0 0 0
0 0 0
0 0 0
0 0 0
0 0 0
0 0 0
0 0 0
0 0 0
0 0 0
0 0 0
0 0 0
0 0 0
0 0 0
0 0 0
0 0 0
0 0 0
255 255 255
255 255 255
255 255 255
255 255 255
255 255 255
255 255 255
255 255 255
255 255 255
255 255 255
255 255 255
255 255 255
255 255 255
255 255 255
255 255 255
255 255 255
255 255 255
255 255 255
255 255 255
255 255 255
204 204 204
0 0 0
0 0 0
0 0 0
0 0 0
0 0 0
0 0 0
0 0 0
0 0 0
0 0 0
0 0 0
0 0 0
0 0 0
0 0 0
0 0 0
0 0 0
0 0 0
0 0 0
0 0 0
0 0 0
0 0 0
0 0 0
0 0 0
0 0 0
0 0 0
0 0 0
0 0 0
0 0 0
0 0 0
0 0 0
0 0 0
0 0 0
0 0 0
0 0 0
0 0 0
0 0 0
0 0 0
0 0 0
0 0 0
0 0 0
0 0 0
0 0 0
0 0 0
0 0 0
0 0 0
0 0 0
0 0 0
0 0 0
0 0 0
0 0 0
0 0 0
0 0 0
0 0 0
0 0 0
0 0 0
0 0 0
0 0 0
0 0 0
0 0 0
0 0 0
0 0 0
0 0 0
0 0 0
0 0 0
0 0 0
0 0 0
0 0 0
0 0 0
0 0 0
0 0 0
0 0 0
0 0 0
0 0 0
0 0 0
0 0 0
0 0 0
0 0 0
0 0 0
0 0 0
0 0 0
0 0 0
0 0 0
0 0 0
0 0 0
0 0 0
0 0 0
0 0 0
0 0 0
0 0 0
0 0 0
0 0 0
0 0 0
0 0 0
0 0 0
0 0 0
0 0 0
0 0 0
0 0 0
0 0 0
0 0 0
0 0 0
0 0 0
0 0 0
0 0 0
0 0 0
0 0 0
0 0 0
0 0 0
0 0 0
0 0 0
0 0 0
0 0 0
0 0 0
0 0 0
0 0 0
0 0 0
0 0 0
0 0 0
0 0 0
0 0 0
0 0 0
0 0 0
0 0 0
0 0 0
0 0 0
0 0 0
0 0 0
0 0 0
0 0 0
0 0 0
0 0 0
0 0 0
0 0 0
0 0 0
0 0 0
0 0 0
0 0 0
0 0 0
0 0 0
0 0 0
0 0 0
0 0 0
0 0 0
0 0 0
0 0 0
0 0 0
0 0 0
0 0 0
0 0 0
0 0 0
0 0 0
0 0 0
0 0 0
0 0 0
0 0 0
0 0 0
0 0 0
0 0 0
0 0 0
0 0 0
0 0 0
0 0 0
0 0 0
0 0 0
0 0 0
0 0 0
0 0 0
0 0 0
0 0 0
0 0 0
0 0 0
0 0 0
0 0 0
0 0 0
0 0 0
0 0 0
0 0 0
0 0 0
0 0 0
0 0 0
0 0 0
0 0 0
0 0 0
0 0 0
0 0 0
0 0 0
0 0 0
0 0 0
0 0 0
0 0 0
0 0 0
0 0 0
0 0 0
0 0 0
0 0 0
0 0 0
0 0 0
0 0 0
0 0 0
0 0 0
0 0 0
0 0 0
0 0 0
0 0 0
0 0 0
0 0 0
0 0 0
0 0 0
0 0 0
0 0 0
0 0 0
0 0 0
0 0 0
0 0 0
0 0 0
0 0 0
0 0 0
0 0 0
0 0 0
0 0 0
0 0 0
0 0 0
0 0 0
0 0 0
0 0 0
0 0 0
0 0 0
0 0 0
0 0 0
0 0 0
0 0 0
0 0 0
0 0 0
0 0 0
0 0 0
0 0 0
0 0 0
0 0 0
0 0 0
0 0 0
0 0 0
0 0 0
0 0 0
0 0 0
0 0 0
0 0 0
0 0 0
0 0 0
0 0 0
0 0 0
0 0 0
0 0 0
0 0 0
0 0 0
0 0 0
0 0 0
0 0 0
0 0 0
0 0 0
0 0 0
0 0 0
0 0 0
0 0 0
0 0 0
0 0 0
0 0 0
0 0 0
56 56 56
74 74 74
0 0 0
0 0 0
50 50 50
56 56 56
72 72 72
55 55 55
57 57 57
72 72 72
60 60 60
27 27 27
56 56 56
62 62 62
0 0 0
4 4 4
51 51 51
30 30 30
40 40 40
75 75 75
41 41 41
45 45 45
19 19 19
21 21 21
70 70 70
57 57 57
59 59 59
28 28 28
75 75 75
93 93 93
55 55 55
25 25 25
5 5 5
0 0 0
74 74 74
59 59 59
49 49 49
36 36 36
19 19 19
37 37 37
65 65 65
67 67 67
126 126 126
109 109 109
107 107 107
136 136 136
71 71 71
80 80 80
85 85 85
123 123 123
87 87 87
95 95 95
83 83 83
143 143 143
145 145 145
114 114 114
117 117 117
112 112 112
171 171 171
167 167 167
69 69 69
129 129 129
98 98 98
114 114 114
207 207 207
101 101 101
135 135 135
129 129 129
63 63 63
12 12 12
32 32 32
57 57 57
54 54 54
49 49 49
78 78 78
107 107 107
95 95 95
79 79 79
136 136 136
158 158 158
104 104 104
128 128 128
124 124 124
101 101 101
93 93 93
94 94 94
110 110 110
133 133 133
0 0 0
44 44 44
0 0 0
0 0 0
0 0 0
0 0 0
0 0 0
0 0 0
0 0 0
0 0 0
0 0 0
0 0 0
0 0 0
0 0 0
0 0 0
0 0 0
0 0 0
0 0 0
0 0 0
0 0 0
0 0 0
0 0 0
0 0 0
0 0 0
0 0 0
0 0 0
255 255 255
255 255 255
255 255 255
255 255 255
255 255 255
255 255 255
255 255 255
255 255 255
255 255 255
255 255 255
255 255 255
255 255 255
255 255 255
255 255 255
255 255 255
255 255 255
255 255 255
255 255 255
255 255 255
169 169 169
0 0 0
0 0 0
0 0 0
0 0 0
0 0 0
0 0 0
0 0 0
0 0 0
0 0 0
0 0 0
0 0 0
0 0 0
0 0 0
0 0 0
0 0 0
0 0 0
0 0 0
0 0 0
0 0 0
0 0 0
0 0 0
0 0 0
0 0 0
0 0 0
0 0 0
0 0 0
0 0 0
0 0 0
0 0 0
0 0 0
0 0 0
0 0 0
0 0 0
0 0 0
0 0 0
0 0 0
0 0 0
0 0 0
0 0 0
0 0 0
0 0 0
0 0 0
0 0 0
0 0 0
0 0 0
0 0 0
0 0 0
0 0 0
0 0 0
0 0 0
0 0 0
0 0 0
0 0 0
0 0 0
0 0 0
0 0 0
0 0 0
0 0 0
0 0 0
0 0 0
0 0 0
0 0 0
0 0 0
0 0 0
0 0 0
0 0 0
0 0 0
0 0 0
0 0 0
0 0 0
0 0 0
0 0 0
0 0 0
0 0 0
0 0 0
0 0 0
0 0 0
0 0 0
0 0 0
0 0 0
0 0 0
0 0 0
0 0 0
0 0 0
0 0 0
0 0 0
0 0 0
0 0 0
0 0 0
0 0 0
0 0 0
0 0 0
0 0 0
0 0 0
0 0 0
0 0 0
0 0 0
0 0 0
0 0 0
0 0 0
0 0 0
0 0 0
0 0 0
0 0 0
0 0 0
0 0 0
0 0 0
0 0 0
0 0 0
0 0 0
0 0 0
0 0 0
0 0 0
0 0 0
0 0 0
0 0 0
0 0 0
0 0 0
0 0 0
0 0 0
0 0 0
0 0 0
0 0 0
0 0 0
0 0 0
0 0 0
0 0 0
0 0 0
0 0 0
0 0 0
0 0 0
0 0 0
0 0 0
0 0 0
0 0 0
0 0 0
0 0 0
0 0 0
0 0 0
0 0 0
0 0 0
0 0 0
0 0 0
0 0 0
0 0 0
0 0 0
0 0 0
0 0 0
0 0 0
0 0 0
0 0 0
0 0 0
0 0 0
0 0 0
0 0 0
0 0 0
0 0 0
0 0 0
0 0 0
0 0 0
0 0 0
0 0 0
0 0 0
0 0 0
0 0 0
0 0 0
0 0 0
0 0 0
0 0 0
0 0 0
0 0 0
0 0 0
0 0 0
0 0 0
0 0 0
0 0 0
0 0 0
0 0 0
0 0 0
0 0 0
0 0 0
0 0 0
0 0 0
0 0 0
0 0 0
0 0 0
0 0 0
0 0 0
0 0 0
0 0 0
0 0 0
0 0 0
0 0 0
0 0 0
0 0 0
0 0 0
0 0 0
0 0 0
0 0 0
0 0 0
0 0 0
0 0 0
0 0 0
0 0 0
0 0 0
0 0 0
0 0 0
0 0 0
0 0 0
0 0 0
0 0 0
0 0 0
0 0 0
0 0 0
0 0 0
0 0 0
0 0 0
0 0 0
0 0 0
0 0 0
0 0 0
0 0 0
0 0 0
0 0 0
0 0 0
0 0 0
0 0 0
0 0 0
0 0 0
0 0 0
0 0 0
0 0 0
0 0 0
0 0 0
0 0 0
0 0 0
0 0 0
0 0 0
0 0 0
0 0 0
0 0 0
0 0 0
0 0 0
0 0 0
0 0 0
0 0 0
0 0 0
0 0 0
0 0 0
0 0 0
0 0 0
0 0 0
0 0 0
0 0 0
0 0 0
0 0 0
0 0 0
0 0 0
0 0 0
0 0 0
0 0 0
0 0 0
0 0 0
0 0 0
0 0 0
21 21 21
72 72 72
0 0 0
70 70 70
51 51 51
42 42 42
64 64 64
0 0 0
59 59 59
43 43 43
51 51 51
47 47 47
66 66 66
37 37 37
54 54 54
65 65 65
46 46 46
30 30 30
0 0 0
4 4 4
43 43 43
2 2 2
30 30 30
62 62 62
0 0 0
71 71 71
64 64 64
63 63 63
80 80 80
0 0 0
47 47 47
25 25 25
15 15 15
25 25 25
69 69 69
15 15 15
48 48 48
62 62 62
50 50 50
40 40 40
63 63 63
73 73 73
105 105 105
115 115 115
124 124 124
98 98 98
77 77 77
135 135 135
101 101 101
123 123 123
68 68 68
106 106 106
77 77 77
43 43 43
78 78 78
142 142 142
97 97 97
112 112 112
202 202 202
135 135 135
145 145 145
114 114 114
130 130 130
150 150 150
140 140 140
104 104 104
105 105 105
126 126 126
135 135 135
71 71 71
25 25 25
33 33 33
65 65 65
95 95 95
60 60 60
111 111 111
107 107 107
96 96 96
89 89 89
136 136 136
103 103 103
103 103 103
81 81 81
87 87 87
94 94 94
128 128 128
87 87 87
114 114 114
67 67 67
47 47 47
77 77 77
0 0 0
0 0 0
0 0 0
0 0 0
0 0 0
0 0 0
0 0 0
0 0 0
0 0 0
0 0 0
0 0 0
0 0 0
0 0 0
0 0 0
0 0 0
0 0 0
0 0 0
0 0 0
0 0 0
0 0 0
0 0 0
0 0 0
0 0 0
0 0 0
255 255 255
255 255 255
255 255 255
255 255 255
255 255 255
255 255 255
255 255 255
255 255 255
255 255 255
255 255 255
255 255 255
255 255 255
255 255 255
255 255 255
255 255 255
255 255 255
255 255 255
255 255 255
255 255 255
191 191 191
0 0 0
0 0 0
0 0 0
0 0 0
0 0 0
0 0 0
0 0 0
0 0 0
0 0 0
0 0 0
0 0 0
0 0 0
0 0 0
0 0 0
0 0 0
0 0 0
0 0 0
0 0 0
0 0 0
0 0 0
0 0 0
0 0 0
0 0 0
0 0 0
0 0 0
0 0 0
0 0 0
0 0 0
0 0 0
0 0 0
0 0 0
0 0 0
0 0 0
0 0 0
0 0 0
0 0 0
0 0 0
0 0 0
0 0 0
0 0 0
0 0 0
0 0 0
0 0 0
0 0 0
0 0 0
0 0 0
0 0 0
0 0 0
0 0 0
0 0 0
0 0 0
0 0 0
0 0 0
0 0 0
0 0 0
0 0 0
0 0 0
0 0 0
0 0 0
0 0 0
0 0 0
0 0 0
0 0 0
0 0 0
0 0 0
0 0 0
0 0 0
0 0 0
0 0 0
0 0 0
0 0 0
0 0 0
0 0 0
0 0 0
0 0 0
0 0 0
0 0 0
0 0 0
0 0 0
0 0 0
0 0 0
0 0 0
0 0 0
0 0 0
0 0 0
0 0 0
0 0 0
0 0 0
0 0 0
0 0 0
0 0 0
0 0 0
0 0 0
0 0 0
0 0 0
0 0 0
0 0 0
0 0 0
0 0 0
0 0 0
0 0 0
0 0 0
0 0 0
0 0 0
0 0 0
0 0 0
0 0 0
0 0 0
0 0 0
0 0 0
0 0 0
0 0 0
0 0 0
0 0 0
0 0 0
0 0 0
0 0 0
0 0 0
0 0 0
0 0 0
0 0 0
0 0 0
0 0 0
0 0 0
0 0 0
0 0 0
0 0 0
0 0 0
0 0 0
0 0 0
0 0 0
0 0 0
0 0 0
0 0 0
0 0 0
0 0 0
0 0 0
0 0 0
0 0 0
0 0 0
0 0 0
0 0 0
0 0 0
0 0 0
0 0 0
0 0 0
0 0 0
0 0 0
0 0 0
0 0 0
0 0 0
0 0 0
0 0 0
0 0 0
0 0 0
0 0 0
0 0 0
0 0 0
0 0 0
0 0 0
0 0 0
0 0 0
0 0 0
0 0 0
0 0 0
0 0 0
0 0 0
0 0 0
0 0 0
0 0 0
0 0 0
0 0 0
0 0 0
0 0 0
0 0 0
0 0 0
0 0 0
0 0 0
0 0 0
0 0 0
0 0 0
0 0 0
0 0 0
0 0 0
0 0 0
0 0 0
0 0 0
0 0 0
0 0 0
0 0 0
0 0 0
0 0 0
0 0 0
0 0 0
0 0 0
0 0 0
0 0 0
0 0 0
0 0 0
0 0 0
0 0 0
0 0 0
0 0 0
0 0 0
0 0 0
0 0 0
0 0 0
0 0 0
0 0 0
0 0 0
0 0 0
0 0 0
0 0 0
0 0 0
0 0 0
0 0 0
0 0 0
0 0 0
0 0 0
0 0 0
0 0 0
0 0 0
0 0 0
0 0 0
0 0 0
0 0 0
0 0 0
0 0 0
0 0 0
0 0 0
0 0 0
0 0 0
0 0 0
0 0 0
0 0 0
0 0 0
0 0 0
0 0 0
0 0 0
0 0 0
0 0 0
0 0 0
0 0 0
0 0 0
0 0 0
0 0 0
0 0 0
0 0 0
0 0 0
0 0 0
0 0 0
0 0 0
0 0 0
0 0 0
0 0 0
0 0 0
0 0 0
0 0 0
0 0 0
0 0 0
0 0 0
0 0 0
0 0 0
0 0 0
0 0 0
0 0 0
0 0 0
71 71 71
49 49 49
0 0 0
0 0 0
28 28 28
18 18 18
65 65 65
0 0 0
0 0 0
0 0 0
78 78 78
56 56 56
38 38 38
91 91 91
76 76 76
85 85 85
34 34 34
28 28 28
25 25 25
29 29 29
48 48 48
22 22 22
39 39 39
38 38 38
62 62 62
68 68 68
61 61 61
0 0 0
0 0 0
12 12 12
17 17 17
38 38 38
12 12 12
48 48 48
45 45 45
25 25 25
50 50 50
45 45 45
63 63 63
107 107 107
77 77 77
104 104 104
80 80 80
84 84 84
73 73 73
87 87 87
112 112 112
81 81 81
102 102 102
83 83 83
69 69 69
99 99 99
99 99 99
102 102 102
93 93 93
139 139 139
137 137 137
101 101 101
145 145 145
146 146 146
110 110 110
109 109 109
159 159 159
127 127 127
125 125 125
113 113 113
107 107 107
70 70 70
23 23 23
39 39 39
67 67 67
63 63 63
98 98 98
94 94 94
75 75 75
43 43 43
23 23 23
78 78 78
149 149 149
69 69 69
60 60 60
39 39 39
67 67 67
74 74 74
74 74 74
109 109 109
113 113 113
83 83 83
34 34 34
77 77 77
0 0 0
0 0 0
0 0 0
0 0 0
0 0 0
0 0 0
0 0 0
0 0 0
0 0 0
0 0 0
0 0 0
0 0 0
0 0 0
0 0 0
0 0 0
0 0 0
0 0 0
0 0 0
0 0 0
0 0 0
0 0 0
0 0 0
0 0 0
255 255 255
255 255 255
255 255 255
255 255 255
255 255 255
255 255 255
255 255 255
255 255 255
255 255 255
255 255 255
255 255 255
255 255 255
255 255 255
255 255 255
255 255 255
255 255 255
255 255 255
255 255 255
255 255 255
177 177 177
0 0 0
0 0 0
0 0 0
0 0 0
0 0 0
0 0 0
0 0 0
0 0 0
0 0 0
0 0 0
0 0 0
0 0 0
0 0 0
0 0 0
0 0 0
0 0 0
0 0 0
0 0 0
0 0 0
0 0 0
0 0 0
0 0 0
0 0 0
0 0 0
0 0 0
0 0 0
0 0 0
0 0 0
0 0 0
0 0 0
0 0 0
0 0 0
0 0 0
0 0 0
0 0 0
0 0 0
0 0 0
0 0 0
0 0 0
0 0 0
0 0 0
0 0 0
0 0 0
0 0 0
0 0 0
0 0 0
0 0 0
0 0 0
0 0 0
0 0 0
0 0 0
0 0 0
0 0 0
0 0 0
0 0 0
0 0 0
0 0 0
0 0 0
0 0 0
0 0 0
0 0 0
0 0 0
0 0 0
0 0 0
0 0 0
0 0 0
0 0 0
0 0 0
0 0 0
0 0 0
0 0 0
0 0 0
0 0 0
0 0 0
0 0 0
0 0 0
0 0 0
0 0 0
0 0 0
0 0 0
0 0 0
0 0 0
0 0 0
0 0 0
0 0 0
0 0 0
0 0 0
0 0 0
0 0 0
0 0 0
0 0 0
0 0 0
0 0 0
0 0 0
0 0 0
0 0 0
0 0 0
0 0 0
0 0 0
0 0 0
0 0 0
0 0 0
0 0 0
0 0 0
0 0 0
0 0 0
0 0 0
0 0 0
0 0 0
0 0 0
0 0 0
0 0 0
0 0 0
0 0 0
0 0 0
0 0 0
0 0 0
0 0 0
0 0 0
0 0 0
0 0 0
0 0 0
0 0 0
0 0 0
0 0 0
0 0 0
0 0 0
0 0 0
0 0 0
0 0 0
0 0 0
0 0 0
0 0 0
0 0 0
0 0 0
0 0 0
0 0 0
0 0 0
0 0 0
0 0 0
0 0 0
0 0 0
0 0 0
0 0 0
0 0 0
0 0 0
0 0 0
0 0 0
0 0 0
0 0 0
0 0 0
0 0 0
0 0 0
0 0 0
0 0 0
0 0 0
0 0 0
0 0 0
0 0 0
0 0 0
0 0 0
0 0 0
0 0 0
0 0 0
0 0 0
0 0 0
0 0 0
0 0 0
0 0 0
0 0 0
0 0 0
0 0 0
0 0 0
0 0 0
0 0 0
0 0 0
0 0 0
0 0 0
0 0 0
0 0 0
0 0 0
0 0 0
0 0 0
0 0 0
0 0 0
0 0 0
0 0 0
0 0 0
0 0 0
0 0 0
0 0 0
0 0 0
0 0 0
0 0 0
0 0 0
0 0 0
0 0 0
0 0 0
0 0 0
0 0 0
0 0 0
0 0 0
0 0 0
0 0 0
0 0 0
0 0 0
0 0 0
0 0 0
0 0 0
0 0 0
0 0 0
0 0 0
0 0 0
0 0 0
0 0 0
0 0 0
0 0 0
0 0 0
0 0 0
0 0 0
0 0 0
0 0 0
0 0 0
0 0 0
0 0 0
0 0 0
0 0 0
0 0 0
0 0 0
0 0 0
0 0 0
0 0 0
0 0 0
0 0 0
0 0 0
0 0 0
0 0 0
0 0 0
0 0 0
0 0 0
0 0 0
0 0 0
0 0 0
0 0 0
0 0 0
0 0 0
0 0 0
0 0 0
0 0 0
0 0 0
0 0 0
0 0 0
0 0 0
0 0 0
0 0 0
0 0 0
0 0 0
0 0 0
0 0 0
0 0 0
0 0 0
0 0 0
0 0 0
0 0 0
0 0 0
61 61 61
72 72 72
41 41 41
71 71 71
0 0 0
66 66 66
29 29 29
42 42 42
27 27 27
38 38 38
35 35 35
58 58 58
79 79 79
84 84 84
19 19 19
53 53 53
46 46 46
31 31 31
23 23 23
36 36 36
30 30 30
30 30 30
25 25 25
28 28 28
0 0 0
21 21 21
34 34 34
40 40 40
64 64 64
22 22 22
10 10 10
19 19 19
8 8 8
18 18 18
23 23 23
38 38 38
14 14 14
31 31 31
64 64 64
102 102 102
70 70 70
86 86 86
55 55 55
51 51 51
82 82 82
80 80 80
66 66 66
86 86 86
40 40 40
85 85 85
115 115 115
76 76 76
55 55 55
63 63 63
96 96 96
80 80 80
91 91 91
82 82 82
64 64 64
147 147 147
150 150 150
169 169 169
116 116 116
158 158 158
121 121 121
126 126 126
126 126 126
121 121 121
124 124 124
56 56 56
26 26 26
42 42 42
71 71 71
74 74 74
48 48 48
58 58 58
26 26 26
24 24 24
15 15 15
34 34 34
85 85 85
88 88 88
40 40 40
20 20 20
80 80 80
64 64 64
99 99 99
87 87 87
37 37 37
114 114 114
47 47 47
63 63 63
0 0 0
0 0 0
0 0 0
0 0 0
0 0 0
0 0 0
0 0 0
0 0 0
0 0 0
0 0 0
0 0 0
0 0 0
0 0 0
0 0 0
0 0 0
0 0 0
0 0 0
0 0 0
0 0 0
0 0 0
0 0 0
0 0 0
0 0 0
255 255 255
255 255 255
255 255 255
255 255 255
255 255 255
255 255 255
255 255 255
255 255 255
255 255 255
255 255 255
255 255 255
255 255 255
255 255 255
255 255 255
255 255 255
255 255 255
255 255 255
255 255 255
255 255 255
153 153 153
0 0 0
0 0 0
0 0 0
0 0 0
0 0 0
0 0 0
0 0 0
0 0 0
0 0 0
0 0 0
0 0 0
0 0 0
0 0 0
0 0 0
0 0 0
0 0 0
0 0 0
0 0 0
0 0 0
0 0 0
0 0 0
0 0 0
0 0 0
0 0 0
0 0 0
0 0 0
0 0 0
0 0 0
0 0 0
0 0 0
0 0 0
0 0 0
0 0 0
0 0 0
0 0 0
0 0 0
0 0 0
0 0 0
0 0 0
0 0 0
0 0 0
0 0 0
0 0 0
0 0 0
0 0 0
0 0 0
0 0 0
0 0 0
0 0 0
0 0 0
0 0 0
0 0 0
0 0 0
0 0 0
0 0 0
0 0 0
0 0 0
0 0 0
0 0 0
0 0 0
0 0 0
0 0 0
0 0 0
0 0 0
0 0 0
0 0 0
0 0 0
0 0 0
0 0 0
0 0 0
0 0 0
0 0 0
0 0 0
0 0 0
0 0 0
0 0 0
0 0 0
0 0 0
0 0 0
0 0 0
0 0 0
0 0 0
0 0 0
0 0 0
0 0 0
0 0 0
0 0 0
0 0 0
0 0 0
0 0 0
0 0 0
0 0 0
0 0 0
0 0 0
0 0 0
0 0 0
0 0 0
0 0 0
0 0 0
0 0 0
0 0 0
0 0 0
0 0 0
0 0 0
0 0 0
0 0 0
0 0 0
0 0 0
0 0 0
0 0 0
0 0 0
0 0 0
0 0 0
0 0 0
0 0 0
0 0 0
0 0 0
0 0 0
0 0 0
0 0 0
0 0 0
0 0 0
0 0 0
0 0 0
0 0 0
0 0 0
0 0 0
0 0 0
0 0 0
0 0 0
0 0 0
0 0 0
0 0 0
0 0 0
0 0 0
0 0 0
0 0 0
0 0 0
0 0 0
0 0 0
0 0 0
0 0 0
0 0 0
0 0 0
0 0 0
0 0 0
0 0 0
0 0 0
0 0 0
0 0 0
0 0 0
0 0 0
0 0 0
0 0 0
0 0 0
0 0 0
0 0 0
0 0 0
0 0 0
0 0 0
0 0 0
0 0 0
0 0 0
0 0 0
0 0 0
0 0 0
0 0 0
0 0 0
0 0 0
0 0 0
0 0 0
0 0 0
0 0 0
0 0 0
0 0 0
0 0 0
0 0 0
0 0 0
0 0 0
0 0 0
0 0 0
0 0 0
0 0 0
0 0 0
0 0 0
0 0 0
0 0 0
0 0 0
0 0 0
0 0 0
0 0 0
0 0 0
0 0 0
0 0 0
0 0 0
0 0 0
0 0 0
0 0 0
0 0 0
0 0 0
0 0 0
0 0 0
0 0 0
0 0 0
0 0 0
0 0 0
0 0 0
0 0 0
0 0 0
0 0 0
0 0 0
0 0 0
0 0 0
0 0 0
0 0 0
0 0 0
0 0 0
0 0 0
0 0 0
0 0 0
0 0 0
0 0 0
0 0 0
0 0 0
0 0 0
0 0 0
0 0 0
0 0 0
0 0 0
0 0 0
0 0 0
0 0 0
0 0 0
0 0 0
0 0 0
0 0 0
0 0 0
0 0 0
0 0 0
0 0 0
0 0 0
0 0 0
0 0 0
0 0 0
0 0 0
0 0 0
0 0 0
0 0 0
0 0 0
0 0 0
0 0 0
0 0 0
0 0 0
0 0 0
0 0 0
0 0 0
0 0 0
0 0 0
0 0 0
0 0 0
0 0 0
0 0 0
0 0 0
0 0 0
0 0 0
50 50 50
72 72 72
50 50 50
80 80 80
68 68 68
77 77 77
38 38 38
54 54 54
3 3 3
33 33 33
80 80 80
70 70 70
50 50 50
0 0 0
71 71 71
1 1 1
0 0 0
0 0 0
0 0 0
0 0 0
16 16 16
25 25 25
26 26 26
3 3 3
0 0 0
0 0 0
9 9 9
46 46 46
12 12 12
9 9 9
5 5 5
4 4 4
29 29 29
25 25 25
20 20 20
15 15 15
25 25 25
44 44 44
32 32 32
55 55 55
83 83 83
79 79 79
23 23 23
30 30 30
56 56 56
96 96 96
67 67 67
61 61 61
112 112 112
61 61 61
98 98 98
99 99 99
71 71 71
36 36 36
52 52 52
64 64 64
35 35 35
82 82 82
105 105 105
102 102 102
145 145 145
149 149 149
148 148 148
160 160 160
132 132 132
118 118 118
148 148 148
154 154 154
58 58 58
24 24 24
37 37 37
48 48 48
21 21 21
40 40 40
27 27 27
30 30 30
43 43 43
31 31 31
42 42 42
24 24 24
43 43 43
34 34 34
10 10 10
10 10 10
65 65 65
47 47 47
73 73 73
97 97 97
67 67 67
21 21 21
90 90 90
0 0 0
25 25 25
0 0 0
0 0 0
0 0 0
0 0 0
0 0 0
0 0 0
0 0 0
0 0 0
0 0 0
0 0 0
0 0 0
0 0 0
0 0 0
0 0 0
0 0 0
0 0 0
0 0 0
0 0 0
0 0 0
0 0 0
0 0 0
0 0 0
255 255 255
255 255 255
255 255 255
255 255 255
255 255 255
255 255 255
255 255 255
255 255 255
255 255 255
255 255 255
255 255 255
255 255 255
255 255 255
255 255 255
255 255 255
255 255 255
255 255 255
255 255 255
255 255 255
184 184 184
0 0 0
0 0 0
0 0 0
0 0 0
0 0 0
0 0 0
0 0 0
0 0 0
0 0 0
0 0 0
0 0 0
0 0 0
0 0 0
0 0 0
0 0 0
0 0 0
0 0 0
0 0 0
0 0 0
0 0 0
0 0 0
0 0 0
0 0 0
0 0 0
0 0 0
0 0 0
0 0 0
0 0 0
0 0 0
0 0 0
0 0 0
0 0 0
0 0 0
0 0 0
0 0 0
0 0 0
0 0 0
0 0 0
0 0 0
0 0 0
0 0 0
0 0 0
0 0 0
0 0 0
0 0 0
0 0 0
0 0 0
0 0 0
0 0 0
0 0 0
0 0 0
0 0 0
0 0 0
0 0 0
0 0 0
0 0 0
0 0 0
0 0 0
0 0 0
0 0 0
0 0 0
0 0 0
0 0 0
0 0 0
0 0 0
0 0 0
0 0 0
0 0 0
0 0 0
0 0 0
0 0 0
0 0 0
0 0 0
0 0 0
0 0 0
0 0 0
0 0 0
0 0 0
0 0 0
0 0 0
0 0 0
0 0 0
0 0 0
0 0 0
0 0 0
0 0 0
0 0 0
0 0 0
0 0 0
0 0 0
0 0 0
0 0 0
0 0 0
0 0 0
0 0 0
0 0 0
0 0 0
0 0 0
0 0 0
0 0 0
0 0 0
0 0 0
0 0 0
0 0 0
0 0 0
0 0 0
0 0 0
0 0 0
0 0 0
0 0 0
0 0 0
0 0 0
0 0 0
0 0 0
0 0 0
0 0 0
0 0 0
0 0 0
0 0 0
0 0 0
0 0 0
0 0 0
0 0 0
0 0 0
0 0 0
0 0 0
0 0 0
0 0 0
0 0 0
0 0 0
0 0 0
0 0 0
0 0 0
0 0 0
0 0 0
0 0 0
0 0 0
0 0 0
0 0 0
0 0 0
0 0 0
0 0 0
0 0 0
0 0 0
0 0 0
0 0 0
0 0 0
0 0 0
0 0 0
0 0 0
0 0 0
0 0 0
0 0 0
0 0 0
0 0 0
0 0 0
0 0 0
0 0 0
0 0 0
0 0 0
0 0 0
0 0 0
0 0 0
0 0 0
0 0 0
0 0 0
0 0 0
0 0 0
0 0 0
0 0 0
0 0 0
0 0 0
0 0 0
0 0 0
0 0 0
0 0 0
0 0 0
0 0 0
0 0 0
0 0 0
0 0 0
0 0 0
0 0 0
0 0 0
0 0 0
0 0 0
0 0 0
0 0 0
0 0 0
0 0 0
0 0 0
0 0 0
0 0 0
0 0 0
0 0 0
0 0 0
0 0 0
0 0 0
0 0 0
0 0 0
0 0 0
0 0 0
0 0 0
0 0 0
0 0 0
0 0 0
0 0 0
0 0 0
0 0 0
0 0 0
0 0 0
0 0 0
0 0 0
0 0 0
0 0 0
0 0 0
0 0 0
0 0 0
0 0 0
0 0 0
0 0 0
0 0 0
0 0 0
0 0 0
0 0 0
0 0 0
0 0 0
0 0 0
0 0 0
0 0 0
0 0 0
0 0 0
0 0 0
0 0 0
0 0 0
0 0 0
0 0 0
0 0 0
0 0 0
0 0 0
0 0 0
0 0 0
0 0 0
0 0 0
0 0 0
0 0 0
0 0 0
0 0 0
0 0 0
0 0 0
0 0 0
0 0 0
0 0 0
0 0 0
0 0 0
0 0 0
0 0 0
0 0 0
0 0 0
0 0 0
0 0 0
0 0 0
0 0 0
0 0 0
23 23 23
29 29 29
36 36 36
11 11 11
85 85 85
71 71 71
40 40 40
0 0 0
22 22 22
25 25 25
34 34 34
72 72 72
47 47 47
0 0 0
63 63 63
50 50 50
51 51 51
36 36 36
35 35 35
38 38 38
0 0 0
9 9 9
3 3 3
0 0 0
16 16 16
8 8 8
0 0 0
7 7 7
1 1 1
1 1 1
9 9 9
9 9 9
17 17 17
18 18 18
17 17 17
0 0 0
5 5 5
3 3 3
40 40 40
57 57 57
69 69 69
78 78 78
56 56 56
0 0 0
31 31 31
27 27 27
59 59 59
70 70 70
91 91 91
58 58 58
84 84 84
71 71 71
76 76 76
79 79 79
49 49 49
16 16 16
5 5 5
12 12 12
35 35 35
86 86 86
83 83 83
134 134 134
195 195 195
113 113 113
81 81 81
187 187 187
172 172 172
171 171 171
97 97 97
65 65 65
27 27 27
36 36 36
37 37 37
21 21 21
21 21 21
25 25 25
36 36 36
64 64 64
37 37 37
61 61 61
35 35 35
25 25 25
13 13 13
4 4 4
6 6 6
43 43 43
55 55 55
54 54 54
120 120 120
69 69 69
80 80 80
75 75 75
27 27 27
0 0 0
0 0 0
0 0 0
0 0 0
0 0 0
0 0 0
0 0 0
0 0 0
0 0 0
0 0 0
0 0 0
0 0 0
0 0 0
0 0 0
0 0 0
0 0 0
0 0 0
0 0 0
0 0 0
0 0 0
0 0 0
0 0 0
0 0 0
255 255 255
255 255 255
255 255 255
255 255 255
255 255 255
255 255 255
255 255 255
255 255 255
255 255 255
255 255 255
255 255 255
255 255 255
255 255 255
255 255 255
255 255 255
255 255 255
255 255 255
255 255 255
255 255 255
102 102 102
0 0 0
0 0 0
0 0 0
0 0 0
0 0 0
0 0 0
0 0 0
0 0 0
0 0 0
0 0 0
0 0 0
0 0 0
0 0 0
0 0 0
0 0 0
0 0 0
0 0 0
0 0 0
0 0 0
0 0 0
0 0 0
0 0 0
0 0 0
0 0 0
0 0 0
0 0 0
0 0 0
0 0 0
0 0 0
0 0 0
0 0 0
0 0 0
0 0 0
0 0 0
0 0 0
0 0 0
0 0 0
0 0 0
0 0 0
0 0 0
0 0 0
0 0 0
0 0 0
0 0 0
0 0 0
0 0 0
0 0 0
0 0 0
0 0 0
0 0 0
0 0 0
0 0 0
0 0 0
0 0 0
0 0 0
0 0 0
0 0 0
0 0 0
0 0 0
0 0 0
0 0 0
0 0 0
0 0 0
0 0 0
0 0 0
0 0 0
0 0 0
0 0 0
0 0 0
0 0 0
0 0 0
0 0 0
0 0 0
0 0 0
0 0 0
0 0 0
0 0 0
0 0 0
0 0 0
0 0 0
0 0 0
0 0 0
0 0 0
0 0 0
0 0 0
0 0 0
0 0 0
0 0 0
0 0 0
0 0 0
0 0 0
0 0 0
0 0 0
0 0 0
0 0 0
0 0 0
0 0 0
0 0 0
0 0 0
0 0 0
0 0 0
0 0 0
0 0 0
0 0 0
0 0 0
0 0 0
0 0 0
0 0 0
0 0 0
0 0 0
0 0 0
0 0 0
0 0 0
0 0 0
0 0 0
0 0 0
0 0 0
0 0 0
0 0 0
0 0 0
0 0 0
0 0 0
0 0 0
0 0 0
0 0 0
0 0 0
0 0 0
0 0 0
0 0 0
0 0 0
0 0 0
0 0 0
0 0 0
0 0 0
0 0 0
0 0 0
0 0 0
0 0 0
0 0 0
0 0 0
0 0 0
0 0 0
0 0 0
0 0 0
0 0 0
0 0 0
0 0 0
0 0 0
0 0 0
0 0 0
0 0 0
0 0 0
0 0 0
0 0 0
0 0 0
0 0 0
0 0 0
0 0 0
0 0 0
0 0 0
0 0 0
0 0 0
0 0 0
0 0 0
0 0 0
0 0 0
0 0 0
0 0 0
0 0 0
0 0 0
0 0 0
0 0 0
0 0 0
0 0 0
0 0 0
0 0 0
0 0 0
0 0 0
0 0 0
0 0 0
0 0 0
0 0 0
0 0 0
0 0 0
0 0 0
0 0 0
0 0 0
0 0 0
0 0 0
0 0 0
0 0 0
0 0 0
0 0 0
0 0 0
0 0 0
0 0 0
0 0 0
0 0 0
0 0 0
0 0 0
0 0 0
0 0 0
0 0 0
0 0 0
0 0 0
0 0 0
0 0 0
0 0 0
0 0 0
0 0 0
0 0 0
0 0 0
0 0 0
0 0 0
0 0 0
0 0 0
0 0 0
0 0 0
0 0 0
0 0 0
0 0 0
0 0 0
0 0 0
0 0 0
0 0 0
0 0 0
0 0 0
0 0 0
0 0 0
0 0 0
0 0 0
0 0 0
0 0 0
0 0 0
0 0 0
0 0 0
0 0 0
0 0 0
0 0 0
0 0 0
0 0 0
0 0 0
0 0 0
0 0 0
0 0 0
0 0 0
0 0 0
0 0 0
0 0 0
0 0 0
0 0 0
0 0 0
0 0 0
0 0 0
0 0 0
0 0 0
0 0 0
0 0 0
0 0 0
0 0 0
0 0 0
0 0 0
0 0 0
0 0 0
0 0 0
51 51 51
72 72 72
0 0 0
0 0 0
0 0 0
0 0 0
29 29 29
0 0 0
37 37 37
0 0 0
46 46 46
0 0 0
0 0 0
48 48 48
0 0 0
50 50 50
43 43 43
31 31 31
19 19 19
35 35 35
0 0 0
25 25 25
22 22 22
0 0 0
6 6 6
5 5 5
0 0 0
14 14 14
13 13 13
1 1 1
34 34 34
19 19 19
16 16 16
1 1 1
9 9 9
7 7 7
21 21 21
20 20 20
78 78 78
54 54 54
52 52 52
32 32 32
24 24 24
33 33 33
64 64 64
97 97 97
114 114 114
83 83 83
102 102 102
69 69 69
102 102 102
109 109 109
106 106 106
74 74 74
20 20 20
10 10 10
14 14 14
57 57 57
83 83 83
144 144 144
139 139 139
146 146 146
161 161 161
157 157 157
175 175 175
165 165 165
137 137 137
116 116 116
39 39 39
29 29 29
25 25 25
13 13 13
10 10 10
40 40 40
67 67 67
61 61 61
118 118 118
105 105 105
113 113 113
74 74 74
27 27 27
4 4 4
34 34 34
33 33 33
33 33 33
48 48 48
100 100 100
140 140 140
113 113 113
68 68 68
64 64 64
73 73 73
29 29 29
0 0 0
0 0 0
0 0 0
0 0 0
0 0 0
0 0 0
0 0 0
0 0 0
0 0 0
0 0 0
0 0 0
0 0 0
0 0 0
0 0 0
0 0 0
0 0 0
0 0 0
0 0 0
0 0 0
0 0 0
0 0 0
0 0 0
255 255 255
255 255 255
255 255 255
255 255 255
255 255 255
255 255 255
255 255 255
255 255 255
255 255 255
255 255 255
255 255 255
255 255 255
255 255 255
255 255 255
255 255 255
255 255 255
255 255 255
255 255 255
255 255 255
88 88 88
0 0 0
0 0 0
0 0 0
0 0 0
0 0 0
0 0 0
0 0 0
0 0 0
0 0 0
0 0 0
0 0 0
0 0 0
0 0 0
0 0 0
0 0 0
0 0 0
0 0 0
0 0 0
0 0 0
0 0 0
0 0 0
0 0 0
0 0 0
0 0 0
0 0 0
0 0 0
0 0 0
0 0 0
0 0 0
0 0 0
0 0 0
0 0 0
0 0 0
0 0 0
0 0 0
0 0 0
0 0 0
0 0 0
0 0 0
0 0 0
0 0 0
0 0 0
0 0 0
0 0 0
0 0 0
0 0 0
0 0 0
0 0 0
0 0 0
0 0 0
0 0 0
0 0 0
0 0 0
0 0 0
0 0 0
0 0 0
0 0 0
0 0 0
0 0 0
0 0 0
0 0 0
0 0 0
0 0 0
0 0 0
0 0 0
0 0 0
0 0 0
0 0 0
0 0 0
0 0 0
0 0 0
0 0 0
0 0 0
0 0 0
0 0 0
0 0 0
0 0 0
0 0 0
0 0 0
0 0 0
0 0 0
0 0 0
0 0 0
0 0 0
0 0 0
0 0 0
0 0 0
0 0 0
0 0 0
0 0 0
0 0 0
0 0 0
0 0 0
0 0 0
0 0 0
0 0 0
0 0 0
0 0 0
0 0 0
0 0 0
0 0 0
0 0 0
0 0 0
0 0 0
0 0 0
0 0 0
0 0 0
0 0 0
0 0 0
0 0 0
0 0 0
0 0 0
0 0 0
0 0 0
0 0 0
0 0 0
0 0 0
0 0 0
0 0 0
0 0 0
0 0 0
0 0 0
0 0 0
0 0 0
0 0 0
0 0 0
0 0 0
0 0 0
0 0 0
0 0 0
0 0 0
0 0 0
0 0 0
0 0 0
0 0 0
0 0 0
0 0 0
0 0 0
0 0 0
0 0 0
0 0 0
0 0 0
0 0 0
0 0 0
0 0 0
0 0 0
0 0 0
0 0 0
0 0 0
0 0 0
0 0 0
0 0 0
0 0 0
0 0 0
0 0 0
0 0 0
0 0 0
0 0 0
0 0 0
0 0 0
0 0 0
0 0 0
0 0 0
0 0 0
0 0 0
0 0 0
0 0 0
0 0 0
0 0 0
0 0 0
0 0 0
0 0 0
0 0 0
0 0 0
0 0 0
0 0 0
0 0 0
0 0 0
0 0 0
0 0 0
0 0 0
0 0 0
0 0 0
0 0 0
0 0 0
0 0 0
0 0 0
0 0 0
0 0 0
0 0 0
0 0 0
0 0 0
0 0 0
0 0 0
0 0 0
0 0 0
0 0 0
0 0 0
0 0 0
0 0 0
0 0 0
0 0 0
0 0 0
0 0 0
0 0 0
0 0 0
0 0 0
0 0 0
0 0 0
0 0 0
0 0 0
0 0 0
0 0 0
0 0 0
0 0 0
0 0 0
0 0 0
0 0 0
0 0 0
0 0 0
0 0 0
0 0 0
0 0 0
0 0 0
0 0 0
0 0 0
0 0 0
0 0 0
0 0 0
0 0 0
0 0 0
0 0 0
0 0 0
0 0 0
0 0 0
0 0 0
0 0 0
0 0 0
0 0 0
0 0 0
0 0 0
0 0 0
0 0 0
0 0 0
0 0 0
0 0 0
0 0 0
0 0 0
0 0 0
0 0 0
0 0 0
0 0 0
0 0 0
0 0 0
0 0 0
0 0 0
0 0 0
0 0 0
0 0 0
0 0 0
0 0 0
0 0 0
0 0 0
0 0 0
0 0 0
0 0 0
29 29 29
71 71 71
0 0 0
0 0 0
0 0 0
1 1 1
33 33 33
10 10 10
39 39 39
49 49 49
45 45 45
29 29 29
0 0 0
0 0 0
62 62 62
0 0 0
46 46 46
50 50 50
71 71 71
30 30 30
38 38 38
16 16 16
16 16 16
9 9 9
11 11 11
7 7 7
11 11 11
33 33 33
25 25 25
30 30 30
52 52 52
14 14 14
4 4 4
9 9 9
7 7 7
30 30 30
36 36 36
57 57 57
33 33 33
51 51 51
43 43 43
44 44 44
66 66 66
81 81 81
116 116 116
90 90 90
75 75 75
98 98 98
107 107 107
79 79 79
99 99 99
91 91 91
54 54 54
34 34 34
24 24 24
23 23 23
55 55 55
69 69 69
149 149 149
144 144 144
172 172 172
196 196 196
154 154 154
135 135 135
148 148 148
131 131 131
81 81 81
35 35 35
16 16 16
7 7 7
25 25 25
26 26 26
46 46 46
61 61 61
111 111 111
95 95 95
87 87 87
112 112 112
93 93 93
95 95 95
54 54 54
45 45 45
24 24 24
13 13 13
48 48 48
79 79 79
39 39 39
119 119 119
100 100 100
82 82 82
57 57 57
44 44 44
0 0 0
0 0 0
0 0 0
0 0 0
0 0 0
0 0 0
0 0 0
0 0 0
0 0 0
0 0 0
0 0 0
0 0 0
0 0 0
0 0 0
0 0 0
0 0 0
0 0 0
0 0 0
0 0 0
0 0 0
0 0 0
0 0 0
255 255 255
255 255 255
255 255 255
255 255 255
255 255 255
255 255 255
255 255 255
255 255 255
255 255 255
255 255 255
255 255 255
255 255 255
255 255 255
255 255 255
255 255 255
255 255 255
255 255 255
255 255 255
255 255 255
144 144 144
0 0 0
0 0 0
0 0 0
0 0 0
0 0 0
0 0 0
0 0 0
0 0 0
0 0 0
0 0 0
0 0 0
0 0 0
0 0 0
0 0 0
0 0 0
0 0 0
0 0 0
0 0 0
0 0 0
0 0 0
0 0 0
0 0 0
0 0 0
0 0 0
0 0 0
0 0 0
0 0 0
0 0 0
0 0 0
0 0 0
0 0 0
0 0 0
0 0 0
0 0 0
0 0 0
0 0 0
0 0 0
0 0 0
0 0 0
0 0 0
0 0 0
0 0 0
0 0 0
0 0 0
0 0 0
0 0 0
0 0 0
0 0 0
0 0 0
0 0 0
0 0 0
0 0 0
0 0 0
0 0 0
0 0 0
0 0 0
0 0 0
0 0 0
0 0 0
0 0 0
0 0 0
0 0 0
0 0 0
0 0 0
0 0 0
0 0 0
0 0 0
0 0 0
0 0 0
0 0 0
0 0 0
0 0 0
0 0 0
0 0 0
0 0 0
0 0 0
0 0 0
0 0 0
0 0 0
0 0 0
0 0 0
0 0 0
0 0 0
0 0 0
0 0 0
0 0 0
0 0 0
0 0 0
0 0 0
0 0 0
0 0 0
0 0 0
0 0 0
0 0 0
0 0 0
0 0 0
0 0 0
0 0 0
0 0 0
0 0 0
0 0 0
0 0 0
0 0 0
0 0 0
0 0 0
0 0 0
0 0 0
0 0 0
0 0 0
0 0 0
0 0 0
0 0 0
0 0 0
0 0 0
0 0 0
0 0 0
0 0 0
0 0 0
0 0 0
0 0 0
0 0 0
0 0 0
0 0 0
0 0 0
0 0 0
0 0 0
0 0 0
0 0 0
0 0 0
0 0 0
0 0 0
0 0 0
0 0 0
0 0 0
0 0 0
0 0 0
0 0 0
0 0 0
0 0 0
0 0 0
0 0 0
0 0 0
0 0 0
0 0 0
0 0 0
0 0 0
0 0 0
0 0 0
0 0 0
0 0 0
0 0 0
0 0 0
0 0 0
0 0 0
0 0 0
0 0 0
0 0 0
0 0 0
0 0 0
0 0 0
0 0 0
0 0 0
0 0 0
0 0 0
0 0 0
0 0 0
0 0 0
0 0 0
0 0 0
0 0 0
0 0 0
0 0 0
0 0 0
0 0 0
0 0 0
0 0 0
0 0 0
0 0 0
0 0 0
0 0 0
0 0 0
0 0 0
0 0 0
0 0 0
0 0 0
0 0 0
0 0 0
0 0 0
0 0 0
0 0 0
0 0 0
0 0 0
0 0 0
0 0 0
0 0 0
0 0 0
0 0 0
0 0 0
0 0 0
0 0 0
0 0 0
0 0 0
0 0 0
0 0 0
0 0 0
0 0 0
0 0 0
0 0 0
0 0 0
0 0 0
0 0 0
0 0 0
0 0 0
0 0 0
0 0 0
0 0 0
0 0 0
0 0 0
0 0 0
0 0 0
0 0 0
0 0 0
0 0 0
0 0 0
0 0 0
0 0 0
0 0 0
0 0 0
0 0 0
0 0 0
0 0 0
0 0 0
0 0 0
0 0 0
0 0 0
0 0 0
0 0 0
0 0 0
0 0 0
0 0 0
0 0 0
0 0 0
0 0 0
0 0 0
0 0 0
0 0 0
0 0 0
0 0 0
0 0 0
0 0 0
0 0 0
0 0 0
0 0 0
0 0 0
0 0 0
0 0 0
0 0 0
0 0 0
0 0 0
0 0 0
0 0 0
0 0 0
0 0 0
0 0 0
0 0 0
24 24 24
12 12 12
63 63 63
28 28 28
55 55 55
37 37 37
24 24 24
7 7 7
0 0 0
25 25 25
25 25 25
60 60 60
0 0 0
58 58 58
0 0 0
48 48 48
0 0 0
25 25 25
0 0 0
0 0 0
58 58 58
0 0 0
0 0 0
9 9 9
21 21 21
27 27 27
20 20 20
11 11 11
23 23 23
27 27 27
30 30 30
21 21 21
35 35 35
13 13 13
5 5 5
5 5 5
25 25 25
67 67 67
79 79 79
33 33 33
67 67 67
56 56 56
54 54 54
78 78 78
91 91 91
103 103 103
34 34 34
102 102 102
91 91 91
62 62 62
62 62 62
69 69 69
80 80 80
56 56 56
37 37 37
48 48 48
32 32 32
82 82 82
97 97 97
120 120 120
149 149 149
136 136 136
131 131 131
163 163 163
174 174 174
162 162 162
133 133 133
96 96 96
11 11 11
24 24 24
29 29 29
43 43 43
54 54 54
81 81 81
64 64 64
125 125 125
103 103 103
119 119 119
101 101 101
110 110 110
78 78 78
106 106 106
102 102 102
48 48 48
25 25 25
19 19 19
71 71 71
53 53 53
93 93 93
78 78 78
80 80 80
63 63 63
46 46 46
0 0 0
0 0 0
0 0 0
0 0 0
0 0 0
0 0 0
0 0 0
0 0 0
0 0 0
0 0 0
0 0 0
0 0 0
0 0 0
0 0 0
0 0 0
0 0 0
0 0 0
0 0 0
0 0 0
0 0 0
0 0 0
0 0 0
255 255 255
255 255 255
255 255 255
255 255 255
255 255 255
255 255 255
255 255 255
255 255 255
255 255 255
255 255 255
255 255 255
255 255 255
255 255 255
255 255 255
255 255 255
255 255 255
255 255 255
255 255 255
255 255 255
144 144 144
0 0 0
0 0 0
0 0 0
0 0 0
0 0 0
0 0 0
0 0 0
0 0 0
0 0 0
0 0 0
0 0 0
0 0 0
0 0 0
0 0 0
0 0 0
0 0 0
0 0 0
0 0 0
0 0 0
0 0 0
0 0 0
0 0 0
0 0 0
0 0 0
0 0 0
0 0 0
0 0 0
0 0 0
0 0 0
0 0 0
0 0 0
0 0 0
0 0 0
0 0 0
0 0 0
0 0 0
0 0 0
0 0 0
0 0 0
0 0 0
0 0 0
0 0 0
0 0 0
0 0 0
0 0 0
0 0 0
0 0 0
0 0 0
0 0 0
0 0 0
0 0 0
0 0 0
0 0 0
0 0 0
0 0 0
0 0 0
0 0 0
0 0 0
0 0 0
0 0 0
0 0 0
0 0 0
0 0 0
0 0 0
0 0 0
0 0 0
0 0 0
0 0 0
0 0 0
0 0 0
0 0 0
0 0 0
0 0 0
0 0 0
0 0 0
0 0 0
0 0 0
0 0 0
0 0 0
0 0 0
0 0 0
0 0 0
0 0 0
0 0 0
0 0 0
0 0 0
0 0 0
0 0 0
0 0 0
0 0 0
0 0 0
0 0 0
0 0 0
0 0 0
0 0 0
0 0 0
0 0 0
0 0 0
0 0 0
0 0 0
0 0 0
0 0 0
0 0 0
0 0 0
0 0 0
0 0 0
0 0 0
0 0 0
0 0 0
0 0 0
0 0 0
0 0 0
0 0 0
0 0 0
0 0 0
0 0 0
0 0 0
0 0 0
0 0 0
0 0 0
0 0 0
0 0 0
0 0 0
0 0 0
0 0 0
0 0 0
0 0 0
0 0 0
0 0 0
0 0 0
0 0 0
0 0 0
0 0 0
0 0 0
0 0 0
0 0 0
0 0 0
0 0 0
0 0 0
0 0 0
0 0 0
0 0 0
0 0 0
0 0 0
0 0 0
0 0 0
0 0 0
0 0 0
0 0 0
0 0 0
0 0 0
0 0 0
0 0 0
0 0 0
0 0 0
0 0 0
0 0 0
0 0 0
0 0 0
0 0 0
0 0 0
0 0 0
0 0 0
0 0 0
0 0 0
0 0 0
0 0 0
0 0 0
0 0 0
0 0 0
0 0 0
0 0 0
0 0 0
0 0 0
0 0 0
0 0 0
0 0 0
0 0 0
0 0 0
0 0 0
0 0 0
0 0 0
0 0 0
0 0 0
0 0 0
0 0 0
0 0 0
0 0 0
0 0 0
0 0 0
0 0 0
0 0 0
0 0 0
0 0 0
0 0 0
0 0 0
0 0 0
0 0 0
0 0 0
0 0 0
0 0 0
0 0 0
0 0 0
0 0 0
0 0 0
0 0 0
0 0 0
0 0 0
0 0 0
0 0 0
0 0 0
0 0 0
0 0 0
0 0 0
0 0 0
0 0 0
0 0 0
0 0 0
0 0 0
0 0 0
0 0 0
0 0 0
0 0 0
0 0 0
0 0 0
0 0 0
0 0 0
0 0 0
0 0 0
0 0 0
0 0 0
0 0 0
0 0 0
0 0 0
0 0 0
0 0 0
0 0 0
0 0 0
0 0 0
0 0 0
0 0 0
0 0 0
0 0 0
0 0 0
0 0 0
0 0 0
0 0 0
0 0 0
0 0 0
0 0 0
0 0 0
0 0 0
0 0 0
0 0 0
0 0 0
0 0 0
0 0 0
0 0 0
0 0 0
0 0 0
0 0 0
0 0 0
0 0 0
36 36 36
9 9 9
35 35 35
12 12 12
3 3 3
68 68 68
52 52 52
7 7 7
0 0 0
42 42 42
5 5 5
33 33 33
9 9 9
25 25 25
81 81 81
38 38 38
13 13 13
34 34 34
17 17 17
60 60 60
0 0 0
54 54 54
0 0 0
68 68 68
31 31 31
0 0 0
0 0 0
19 19 19
20 20 20
12 12 12
9 9 9
37 37 37
37 37 37
69 69 69
37 37 37
42 42 42
7 7 7
9 9 9
34 34 34
24 24 24
59 59 59
34 34 34
66 66 66
61 61 61
68 68 68
115 115 115
74 74 74
106 106 106
98 98 98
61 61 61
58 58 58
67 67 67
74 74 74
68 68 68
18 18 18
27 27 27
52 52 52
67 67 67
57 57 57
116 116 116
93 93 93
149 149 149
150 150 150
170 170 170
144 144 144
165 165 165
109 109 109
100 100 100
118 118 118
60 60 60
23 23 23
45 45 45
61 61 61
68 68 68
82 82 82
95 95 95
109 109 109
75 75 75
50 50 50
76 76 76
101 101 101
141 141 141
97 97 97
83 83 83
76 76 76
59 59 59
41 41 41
16 16 16
45 45 45
69 69 69
104 104 104
114 114 114
39 39 39
85 85 85
40 40 40
0 0 0
0 0 0
0 0 0
0 0 0
0 0 0
0 0 0
0 0 0
0 0 0
0 0 0
0 0 0
0 0 0
0 0 0
0 0 0
0 0 0
0 0 0
0 0 0
0 0 0
0 0 0
0 0 0
0 0 0
0 0 0
0 0 0
255 255 255
255 255 255
255 255 255
255 255 255
255 255 255
255 255 255
255 255 255
255 255 255
255 255 255
255 255 255
255 255 255
255 255 255
255 255 255
255 255 255
255 255 255
255 255 255
255 255 255
255 255 255
255 255 255
144 144 144
0 0 0
0 0 0
0 0 0
0 0 0
0 0 0
0 0 0
0 0 0
0 0 0
0 0 0
0 0 0
0 0 0
0 0 0
0 0 0
0 0 0
0 0 0
0 0 0
0 0 0
0 0 0
0 0 0
0 0 0
0 0 0
0 0 0
0 0 0
0 0 0
0 0 0
0 0 0
0 0 0
0 0 0
0 0 0
0 0 0
0 0 0
0 0 0
0 0 0
0 0 0
0 0 0
0 0 0
0 0 0
0 0 0
0 0 0
0 0 0
0 0 0
0 0 0
0 0 0
0 0 0
0 0 0
0 0 0
0 0 0
0 0 0
0 0 0
0 0 0
0 0 0
0 0 0
0 0 0
0 0 0
0 0 0
0 0 0
0 0 0
0 0 0
0 0 0
0 0 0
0 0 0
0 0 0
0 0 0
0 0 0
0 0 0
0 0 0
0 0 0
0 0 0
0 0 0
0 0 0
0 0 0
0 0 0
0 0 0
0 0 0
0 0 0
0 0 0
0 0 0
0 0 0
0 0 0
0 0 0
0 0 0
0 0 0
0 0 0
0 0 0
0 0 0
0 0 0
0 0 0
0 0 0
0 0 0
0 0 0
0 0 0
0 0 0
0 0 0
0 0 0
0 0 0
0 0 0
0 0 0
0 0 0
0 0 0
0 0 0
0 0 0
0 0 0
0 0 0
0 0 0
0 0 0
0 0 0
0 0 0
0 0 0
0 0 0
0 0 0
0 0 0
0 0 0
0 0 0
0 0 0
0 0 0
0 0 0
0 0 0
0 0 0
0 0 0
0 0 0
0 0 0
0 0 0
0 0 0
0 0 0
0 0 0
0 0 0
0 0 0
0 0 0
0 0 0
0 0 0
0 0 0
0 0 0
0 0 0
0 0 0
0 0 0
0 0 0
0 0 0
0 0 0
0 0 0
0 0 0
0 0 0
0 0 0
0 0 0
0 0 0
0 0 0
0 0 0
0 0 0
0 0 0
0 0 0
0 0 0
0 0 0
0 0 0
0 0 0
0 0 0
0 0 0
0 0 0
0 0 0
0 0 0
0 0 0
0 0 0
0 0 0
0 0 0
0 0 0
0 0 0
0 0 0
0 0 0
0 0 0
0 0 0
0 0 0
0 0 0
0 0 0
0 0 0
0 0 0
0 0 0
0 0 0
0 0 0
0 0 0
0 0 0
0 0 0
0 0 0
0 0 0
0 0 0
0 0 0
0 0 0
0 0 0
0 0 0
0 0 0
0 0 0
0 0 0
0 0 0
0 0 0
0 0 0
0 0 0
0 0 0
0 0 0
0 0 0
0 0 0
0 0 0
0 0 0
0 0 0
0 0 0
0 0 0
0 0 0
0 0 0
0 0 0
0 0 0
0 0 0
0 0 0
0 0 0
0 0 0
0 0 0
0 0 0
0 0 0
0 0 0
0 0 0
0 0 0
0 0 0
0 0 0
0 0 0
0 0 0
0 0 0
0 0 0
0 0 0
0 0 0
0 0 0
0 0 0
0 0 0
0 0 0
0 0 0
0 0 0
0 0 0
0 0 0
0 0 0
0 0 0
0 0 0
0 0 0
0 0 0
0 0 0
0 0 0
0 0 0
0 0 0
0 0 0
0 0 0
0 0 0
0 0 0
0 0 0
0 0 0
0 0 0
0 0 0
0 0 0
0 0 0
0 0 0
0 0 0
0 0 0
0 0 0
0 0 0
0 0 0
0 0 0
0 0 0
0 0 0
0 0 0
0 0 0
0 0 0
0 0 0
4 4 4
36 36 36
0 0 0
55 55 55
10 10 10
29 29 29
0 0 0
0 0 0
47 47 47
34 34 34
0 0 0
0 0 0
50 50 50
29 29 29
62 62 62
84 84 84
52 52 52
3 3 3
19 19 19
0 0 0
0 0 0
0 0 0
94 94 94
62 62 62
26 26 26
14 14 14
0 0 0
0 0 0
37 37 37
5 5 5
29 29 29
47 47 47
36 36 36
70 70 70
35 35 35
32 32 32
0 0 0
31 31 31
47 47 47
56 56 56
55 55 55
31 31 31
55 55 55
78 78 78
0 0 0
98 98 98
89 89 89
160 160 160
74 74 74
78 78 78
34 34 34
21 21 21
34 34 34
48 48 48
61 61 61
48 48 48
73 73 73
53 53 53
68 68 68
98 98 98
146 146 146
129 129 129
124 124 124
126 126 126
142 142 142
148 148 148
82 82 82
29 29 29
32 32 32
65 65 65
86 86 86
136 136 136
139 139 139
96 96 96
109 109 109
55 55 55
86 86 86
39 39 39
29 29 29
71 71 71
111 111 111
126 126 126
103 103 103
93 93 93
70 70 70
45 45 45
26 26 26
8 8 8
26 26 26
83 83 83
74 74 74
94 94 94
67 67 67
67 67 67
0 0 0
0 0 0
0 0 0
0 0 0
0 0 0
0 0 0
0 0 0
0 0 0
0 0 0
0 0 0
0 0 0
0 0 0
0 0 0
0 0 0
0 0 0
0 0 0
0 0 0
0 0 0
0 0 0
0 0 0
0 0 0
0 0 0
255 255 255
255 255 255
255 255 255
255 255 255
255 255 255
255 255 255
255 255 255
255 255 255
255 255 255
255 255 255
255 255 255
255 255 255
255 255 255
255 255 255
255 255 255
255 255 255
255 255 255
255 255 255
255 255 255
102 102 102
0 0 0
0 0 0
0 0 0
0 0 0
0 0 0
0 0 0
0 0 0
0 0 0
0 0 0
0 0 0
0 0 0
0 0 0
0 0 0
0 0 0
0 0 0
0 0 0
0 0 0
0 0 0
0 0 0
0 0 0
0 0 0
0 0 0
0 0 0
0 0 0
0 0 0
0 0 0
0 0 0
0 0 0
0 0 0
0 0 0
0 0 0
0 0 0
0 0 0
0 0 0
0 0 0
0 0 0
0 0 0
0 0 0
0 0 0
0 0 0
0 0 0
0 0 0
0 0 0
0 0 0
0 0 0
0 0 0
0 0 0
0 0 0
0 0 0
0 0 0
0 0 0
0 0 0
0 0 0
0 0 0
0 0 0
0 0 0
0 0 0
0 0 0
0 0 0
0 0 0
0 0 0
0 0 0
0 0 0
0 0 0
0 0 0
0 0 0
0 0 0
0 0 0
0 0 0
0 0 0
0 0 0
0 0 0
0 0 0
0 0 0
0 0 0
0 0 0
0 0 0
0 0 0
0 0 0
0 0 0
0 0 0
0 0 0
0 0 0
0 0 0
0 0 0
0 0 0
0 0 0
0 0 0
0 0 0
0 0 0
0 0 0
0 0 0
0 0 0
0 0 0
0 0 0
0 0 0
0 0 0
0 0 0
0 0 0
0 0 0
0 0 0
0 0 0
0 0 0
0 0 0
0 0 0
0 0 0
0 0 0
0 0 0
0 0 0
0 0 0
0 0 0
0 0 0
0 0 0
0 0 0
0 0 0
0 0 0
0 0 0
0 0 0
0 0 0
0 0 0
0 0 0
0 0 0
0 0 0
0 0 0
0 0 0
0 0 0
0 0 0
0 0 0
0 0 0
0 0 0
0 0 0
0 0 0
0 0 0
0 0 0
0 0 0
0 0 0
0 0 0
0 0 0
0 0 0
0 0 0
0 0 0
0 0 0
0 0 0
0 0 0
0 0 0
0 0 0
0 0 0
0 0 0
0 0 0
0 0 0
0 0 0
0 0 0
0 0 0
0 0 0
0 0 0
0 0 0
0 0 0
0 0 0
0 0 0
0 0 0
0 0 0
0 0 0
0 0 0
0 0 0
0 0 0
0 0 0
0 0 0
0 0 0
0 0 0
0 0 0
0 0 0
0 0 0
0 0 0
0 0 0
0 0 0
0 0 0
0 0 0
0 0 0
0 0 0
0 0 0
0 0 0
0 0 0
0 0 0
0 0 0
0 0 0
0 0 0
0 0 0
0 0 0
0 0 0
0 0 0
0 0 0
0 0 0
0 0 0
0 0 0
0 0 0
0 0 0
0 0 0
0 0 0
0 0 0
0 0 0
0 0 0
0 0 0
0 0 0
0 0 0
0 0 0
0 0 0
0 0 0
0 0 0
0 0 0
0 0 0
0 0 0
0 0 0
0 0 0
0 0 0
0 0 0
0 0 0
0 0 0
0 0 0
0 0 0
0 0 0
0 0 0
0 0 0
0 0 0
0 0 0
0 0 0
0 0 0
0 0 0
0 0 0
0 0 0
0 0 0
0 0 0
0 0 0
0 0 0
0 0 0
0 0 0
0 0 0
0 0 0
0 0 0
0 0 0
0 0 0
0 0 0
0 0 0
0 0 0
0 0 0
0 0 0
0 0 0
0 0 0
0 0 0
0 0 0
0 0 0
0 0 0
0 0 0
0 0 0
0 0 0
0 0 0
0 0 0
0 0 0
0 0 0
0 0 0
0 0 0
0 0 0
0 0 0
0 0 0
41 41 41
24 24 24
6 6 6
26 26 26
16 16 16
25 25 25
22 22 22
20 20 20
33 33 33
0 0 0
38 38 38
5 5 5
27 27 27
64 64 64
0 0 0
0 0 0
40 40 40
53 53 53
46 46 46
39 39 39
25 25 25
45 45 45
0 0 0
60 60 60
51 51 51
16 16 16
0 0 0
11 11 11
8 8 8
21 21 21
15 15 15
28 28 28
46 46 46
35 35 35
47 47 47
51 51 51
25 25 25
16 16 16
30 30 30
60 60 60
55 55 55
76 76 76
55 55 55
74 74 74
122 122 122
72 72 72
101 101 101
108 108 108
105 105 105
116 116 116
102 102 102
46 46 46
37 37 37
26 26 26
68 68 68
31 31 31
40 40 40
35 35 35
61 61 61
35 35 35
113 113 113
127 127 127
152 152 152
181 181 181
158 158 158
133 133 133
111 111 111
43 43 43
45 45 45
62 62 62
75 75 75
132 132 132
99 99 99
172 172 172
91 91 91
99 99 99
58 58 58
48 48 48
22 22 22
22 22 22
23 23 23
69 69 69
105 105 105
113 113 113
84 84 84
103 103 103
62 62 62
49 49 49
45 45 45
24 24 24
17 17 17
37 37 37
51 51 51
110 110 110
77 77 77
0 0 0
0 0 0
0 0 0
0 0 0
0 0 0
0 0 0
0 0 0
0 0 0
0 0 0
0 0 0
0 0 0
0 0 0
0 0 0
0 0 0
0 0 0
0 0 0
0 0 0
0 0 0
0 0 0
0 0 0
0 0 0
0 0 0
255 255 255
255 255 255
255 255 255
255 255 255
255 255 255
255 255 255
255 255 255
255 255 255
255 255 255
255 255 255
255 255 255
255 255 255
255 255 255
255 255 255
255 255 255
255 255 255
255 255 255
255 255 255
255 255 255
125 125 125
0 0 0
0 0 0
0 0 0
0 0 0
0 0 0
0 0 0
0 0 0
0 0 0
0 0 0
0 0 0
0 0 0
0 0 0
0 0 0
0 0 0
0 0 0
0 0 0
0 0 0
0 0 0
0 0 0
0 0 0
0 0 0
0 0 0
0 0 0
0 0 0
0 0 0
0 0 0
0 0 0
0 0 0
0 0 0
0 0 0
0 0 0
0 0 0
0 0 0
0 0 0
0 0 0
0 0 0
0 0 0
0 0 0
0 0 0
0 0 0
0 0 0
0 0 0
0 0 0
0 0 0
0 0 0
0 0 0
0 0 0
0 0 0
0 0 0
0 0 0
0 0 0
0 0 0
0 0 0
0 0 0
0 0 0
0 0 0
0 0 0
0 0 0
0 0 0
0 0 0
0 0 0
0 0 0
0 0 0
0 0 0
0 0 0
0 0 0
0 0 0
0 0 0
0 0 0
0 0 0
0 0 0
0 0 0
0 0 0
0 0 0
0 0 0
0 0 0
0 0 0
0 0 0
0 0 0
0 0 0
0 0 0
0 0 0
0 0 0
0 0 0
0 0 0
0 0 0
0 0 0
0 0 0
0 0 0
0 0 0
0 0 0
0 0 0
0 0 0
0 0 0
0 0 0
0 0 0
0 0 0
0 0 0
0 0 0
0 0 0
0 0 0
0 0 0
0 0 0
0 0 0
0 0 0
0 0 0
0 0 0
0 0 0
0 0 0
0 0 0
0 0 0
0 0 0
0 0 0
0 0 0
0 0 0
0 0 0
0 0 0
0 0 0
0 0 0
0 0 0
0 0 0
0 0 0
0 0 0
0 0 0
0 0 0
0 0 0
0 0 0
0 0 0
0 0 0
0 0 0
0 0 0
0 0 0
0 0 0
0 0 0
0 0 0
0 0 0
0 0 0
0 0 0
0 0 0
0 0 0
0 0 0
0 0 0
0 0 0
0 0 0
0 0 0
0 0 0
0 0 0
0 0 0
0 0 0
0 0 0
0 0 0
0 0 0
0 0 0
0 0 0
0 0 0
0 0 0
0 0 0
0 0 0
0 0 0
0 0 0
0 0 0
0 0 0
0 0 0
0 0 0
0 0 0
0 0 0
0 0 0
0 0 0
0 0 0
0 0 0
0 0 0
0 0 0
0 0 0
0 0 0
0 0 0
0 0 0
0 0 0
0 0 0
0 0 0
0 0 0
0 0 0
0 0 0
0 0 0
0 0 0
0 0 0
0 0 0
0 0 0
0 0 0
0 0 0
0 0 0
0 0 0
0 0 0
0 0 0
0 0 0
0 0 0
0 0 0
0 0 0
0 0 0
0 0 0
0 0 0
0 0 0
0 0 0
0 0 0
0 0 0
0 0 0
0 0 0
0 0 0
0 0 0
0 0 0
0 0 0
0 0 0
0 0 0
0 0 0
0 0 0
0 0 0
0 0 0
0 0 0
0 0 0
0 0 0
0 0 0
0 0 0
0 0 0
0 0 0
0 0 0
0 0 0
0 0 0
0 0 0
0 0 0
0 0 0
0 0 0
0 0 0
0 0 0
0 0 0
0 0 0
0 0 0
0 0 0
0 0 0
0 0 0
0 0 0
0 0 0
0 0 0
0 0 0
0 0 0
0 0 0
0 0 0
0 0 0
0 0 0
0 0 0
0 0 0
0 0 0
0 0 0
0 0 0
0 0 0
0 0 0
0 0 0
0 0 0
0 0 0
0 0 0
0 0 0
0 0 0
0 0 0
0 0 0
0 0 0
0 0 0
32 32 32
0 0 0
0 0 0
37 37 37
0 0 0
29 29 29
25 25 25
46 46 46
51 51 51
0 0 0
0 0 0
32 32 32
27 27 27
22 22 22
68 68 68
26 26 26
0 0 0
0 0 0
68 68 68
56 56 56
63 63 63
48 48 48
64 64 64
13 13 13
31 31 31
18 18 18
7 7 7
32 32 32
25 25 25
22 22 22
25 25 25
42 42 42
63 63 63
13 13 13
24 24 24
15 15 15
4 4 4
35 35 35
61 61 61
54 54 54
54 54 54
80 80 80
49 49 49
64 64 64
0 0 0
62 62 62
96 96 96
103 103 103
99 99 99
68 68 68
48 48 48
37 37 37
26 26 26
54 54 54
65 65 65
72 72 72
44 44 44
32 32 32
87 87 87
116 116 116
187 187 187
150 150 150
190 190 190
153 153 153
116 116 116
62 62 62
30 30 30
65 65 65
80 80 80
114 114 114
142 142 142
136 136 136
112 112 112
118 118 118
66 66 66
33 33 33
13 13 13
61 61 61
53 53 53
35 35 35
18 18 18
99 99 99
117 117 117
101 101 101
66 66 66
45 45 45
46 46 46
60 60 60
43 43 43
5 5 5
23 23 23
41 41 41
70 70 70
73 73 73
71 71 71
0 0 0
0 0 0
0 0 0
0 0 0
0 0 0
0 0 0
0 0 0
0 0 0
0 0 0
0 0 0
0 0 0
0 0 0
0 0 0
0 0 0
0 0 0
0 0 0
0 0 0
0 0 0
0 0 0
0 0 0
0 0 0
255 255 255
255 255 255
255 255 255
255 255 255
255 255 255
255 255 255
255 255 255
255 255 255
255 255 255
255 255 255
255 255 255
255 255 255
255 255 255
255 255 255
255 255 255
255 255 255
255 255 255
255 255 255
255 255 255
125 125 125
0 0 0
0 0 0
0 0 0
0 0 0
0 0 0
0 0 0
0 0 0
0 0 0
0 0 0
0 0 0
0 0 0
0 0 0
0 0 0
0 0 0
0 0 0
0 0 0
0 0 0
0 0 0
0 0 0
0 0 0
0 0 0
0 0 0
0 0 0
0 0 0
0 0 0
0 0 0
0 0 0
0 0 0
0 0 0
0 0 0
0 0 0
0 0 0
0 0 0
0 0 0
0 0 0
0 0 0
0 0 0
0 0 0
0 0 0
0 0 0
0 0 0
0 0 0
0 0 0
0 0 0
0 0 0
0 0 0
0 0 0
0 0 0
0 0 0
0 0 0
0 0 0
0 0 0
0 0 0
0 0 0
0 0 0
0 0 0
0 0 0
0 0 0
0 0 0
0 0 0
0 0 0
0 0 0
0 0 0
0 0 0
0 0 0
0 0 0
0 0 0
0 0 0
0 0 0
0 0 0
0 0 0
0 0 0
0 0 0
0 0 0
0 0 0
0 0 0
0 0 0
0 0 0
0 0 0
0 0 0
0 0 0
0 0 0
0 0 0
0 0 0
0 0 0
0 0 0
0 0 0
0 0 0
0 0 0
0 0 0
0 0 0
0 0 0
0 0 0
0 0 0
0 0 0
0 0 0
0 0 0
0 0 0
0 0 0
0 0 0
0 0 0
0 0 0
0 0 0
0 0 0
0 0 0
0 0 0
0 0 0
0 0 0
0 0 0
0 0 0
0 0 0
0 0 0
0 0 0
0 0 0
0 0 0
0 0 0
0 0 0
0 0 0
0 0 0
0 0 0
0 0 0
0 0 0
0 0 0
0 0 0
0 0 0
0 0 0
0 0 0
0 0 0
0 0 0
0 0 0
0 0 0
0 0 0
0 0 0
0 0 0
0 0 0
0 0 0
0 0 0
0 0 0
0 0 0
0 0 0
0 0 0
0 0 0
0 0 0
0 0 0
0 0 0
0 0 0
0 0 0
0 0 0
0 0 0
0 0 0
0 0 0
0 0 0
0 0 0
0 0 0
0 0 0
0 0 0
0 0 0
0 0 0
0 0 0
0 0 0
0 0 0
0 0 0
0 0 0
0 0 0
0 0 0
0 0 0
0 0 0
0 0 0
0 0 0
0 0 0
0 0 0
0 0 0
0 0 0
0 0 0
0 0 0
0 0 0
0 0 0
0 0 0
0 0 0
0 0 0
0 0 0
0 0 0
0 0 0
0 0 0
0 0 0
0 0 0
0 0 0
0 0 0
0 0 0
0 0 0
0 0 0
0 0 0
0 0 0
0 0 0
0 0 0
0 0 0
0 0 0
0 0 0
0 0 0
0 0 0
0 0 0
0 0 0
0 0 0
0 0 0
0 0 0
0 0 0
0 0 0
0 0 0
0 0 0
0 0 0
0 0 0
0 0 0
0 0 0
0 0 0
0 0 0
0 0 0
0 0 0
0 0 0
0 0 0
0 0 0
0 0 0
0 0 0
0 0 0
0 0 0
0 0 0
0 0 0
0 0 0
0 0 0
0 0 0
0 0 0
0 0 0
0 0 0
0 0 0
0 0 0
0 0 0
0 0 0
0 0 0
0 0 0
0 0 0
0 0 0
0 0 0
0 0 0
0 0 0
0 0 0
0 0 0
0 0 0
0 0 0
0 0 0
0 0 0
0 0 0
0 0 0
0 0 0
0 0 0
0 0 0
0 0 0
0 0 0
0 0 0
0 0 0
0 0 0
0 0 0
0 0 0
0 0 0
0 0 0
23 23 23
27 27 27
71 71 71
45 45 45
68 68 68
41 41 41
0 0 0
0 0 0
0 0 0
0 0 0
67 67 67
42 42 42
0 0 0
17 17 17
19 19 19
66 66 66
72 72 72
61 61 61
50 50 50
51 51 51
0 0 0
43 43 43
72 72 72
50 50 50
75 75 75
0 0 0
0 0 0
8 8 8
0 0 0
13 13 13
25 25 25
24 24 24
17 17 17
23 23 23
31 31 31
40 40 40
10 10 10
17 17 17
64 64 64
57 57 57
50 50 50
52 52 52
51 51 51
43 43 43
75 75 75
23 23 23
107 107 107
82 82 82
101 101 101
76 76 76
66 66 66
73 73 73
31 31 31
62 62 62
44 44 44
51 51 51
77 77 77
70 70 70
67 67 67
84 84 84
159 159 159
136 136 136
156 156 156
165 165 165
158 158 158
66 66 66
68 68 68
68 68 68
74 74 74
89 89 89
100 100 100
136 136 136
136 136 136
83 83 83
69 69 69
42 42 42
24 24 24
27 27 27
77 77 77
89 89 89
56 56 56
47 47 47
33 33 33
73 73 73
76 76 76
39 39 39
38 38 38
38 38 38
42 42 42
60 60 60
28 28 28
35 35 35
15 15 15
77 77 77
67 67 67
48 48 48
0 0 0
0 0 0
0 0 0
0 0 0
0 0 0
0 0 0
0 0 0
0 0 0
0 0 0
0 0 0
0 0 0
0 0 0
0 0 0
0 0 0
0 0 0
0 0 0
0 0 0
0 0 0
0 0 0
0 0 0
0 0 0
255 255 255
255 255 255
255 255 255
255 255 255
255 255 255
255 255 255
255 255 255
255 255 255
255 255 255
255 255 255
255 255 255
255 255 255
255 255 255
255 255 255
255 255 255
255 255 255
255 255 255
255 255 255
255 255 255
114 114 114
0 0 0
0 0 0
0 0 0
0 0 0
0 0 0
0 0 0
0 0 0
0 0 0
0 0 0
0 0 0
0 0 0
0 0 0
0 0 0
0 0 0
0 0 0
0 0 0
0 0 0
0 0 0
0 0 0
0 0 0
0 0 0
0 0 0
0 0 0
0 0 0
0 0 0
0 0 0
0 0 0
0 0 0
0 0 0
0 0 0
0 0 0
0 0 0
0 0 0
0 0 0
0 0 0
0 0 0
0 0 0
0 0 0
0 0 0
0 0 0
0 0 0
0 0 0
0 0 0
0 0 0
0 0 0
0 0 0
0 0 0
0 0 0
0 0 0
0 0 0
0 0 0
0 0 0
0 0 0
0 0 0
0 0 0
0 0 0
0 0 0
0 0 0
0 0 0
0 0 0
0 0 0
0 0 0
0 0 0
0 0 0
0 0 0
0 0 0
0 0 0
0 0 0
0 0 0
0 0 0
0 0 0
0 0 0
0 0 0
0 0 0
0 0 0
0 0 0
0 0 0
0 0 0
0 0 0
0 0 0
0 0 0
0 0 0
0 0 0
0 0 0
0 0 0
0 0 0
0 0 0
0 0 0
0 0 0
0 0 0
0 0 0
0 0 0
0 0 0
0 0 0
0 0 0
0 0 0
0 0 0
0 0 0
0 0 0
0 0 0
0 0 0
0 0 0
0 0 0
0 0 0
0 0 0
0 0 0
0 0 0
0 0 0
0 0 0
0 0 0
0 0 0
0 0 0
0 0 0
0 0 0
0 0 0
0 0 0
0 0 0
0 0 0
0 0 0
0 0 0
0 0 0
0 0 0
0 0 0
0 0 0
0 0 0
0 0 0
0 0 0
0 0 0
0 0 0
0 0 0
0 0 0
0 0 0
0 0 0
0 0 0
0 0 0
0 0 0
0 0 0
0 0 0
0 0 0
0 0 0
0 0 0
0 0 0
0 0 0
0 0 0
0 0 0
0 0 0
0 0 0
0 0 0
0 0 0
0 0 0
0 0 0
0 0 0
0 0 0
0 0 0
0 0 0
0 0 0
0 0 0
0 0 0
0 0 0
0 0 0
0 0 0
0 0 0
0 0 0
0 0 0
0 0 0
0 0 0
0 0 0
0 0 0
0 0 0
0 0 0
0 0 0
0 0 0
0 0 0
0 0 0
0 0 0
0 0 0
0 0 0
0 0 0
0 0 0
0 0 0
0 0 0
0 0 0
0 0 0
0 0 0
0 0 0
0 0 0
0 0 0
0 0 0
0 0 0
0 0 0
0 0 0
0 0 0
0 0 0
0 0 0
0 0 0
0 0 0
0 0 0
0 0 0
0 0 0
0 0 0
0 0 0
0 0 0
0 0 0
0 0 0
0 0 0
0 0 0
0 0 0
0 0 0
0 0 0
0 0 0
0 0 0
0 0 0
0 0 0
0 0 0
0 0 0
0 0 0
0 0 0
0 0 0
0 0 0
0 0 0
0 0 0
0 0 0
0 0 0
0 0 0
0 0 0
0 0 0
0 0 0
0 0 0
0 0 0
0 0 0
0 0 0
0 0 0
0 0 0
0 0 0
0 0 0
0 0 0
0 0 0
0 0 0
0 0 0
0 0 0
0 0 0
0 0 0
0 0 0
0 0 0
0 0 0
0 0 0
0 0 0
0 0 0
0 0 0
0 0 0
0 0 0
0 0 0
0 0 0
0 0 0
0 0 0
0 0 0
0 0 0
0 0 0
0 0 0
0 0 0
0 0 0
0 0 0
0 0 0
2 2 2
39 39 39
13 13 13
66 66 66
20 20 20
69 69 69
68 68 68
61 61 61
0 0 0
20 20 20
68 68 68
46 46 46
84 84 84
37 37 37
53 53 53
63 63 63
35 35 35
39 39 39
82 82 82
58 58 58
72 72 72
53 53 53
16 16 16
30 30 30
81 81 81
48 48 48
18 18 18
15 15 15
9 9 9
21 21 21
8 8 8
10 10 10
4 4 4
8 8 8
13 13 13
1 1 1
7 7 7
34 34 34
62 62 62
0 0 0
43 43 43
44 44 44
45 45 45
29 29 29
68 68 68
55 55 55
49 49 49
113 113 113
108 108 108
100 100 100
85 85 85
87 87 87
71 71 71
64 64 64
91 91 91
82 82 82
60 60 60
68 68 68
95 95 95
128 128 128
93 93 93
149 149 149
150 150 150
122 122 122
96 96 96
72 72 72
128 128 128
89 89 89
45 45 45
74 74 74
88 88 88
89 89 89
101 101 101
70 70 70
38 38 38
14 14 14
13 13 13
46 46 46
90 90 90
99 99 99
70 70 70
71 71 71
40 40 40
36 36 36
59 59 59
69 69 69
54 54 54
19 19 19
46 46 46
76 76 76
38 38 38
76 76 76
51 51 51
22 22 22
42 42 42
69 69 69
0 0 0
0 0 0
0 0 0
0 0 0
0 0 0
0 0 0
0 0 0
0 0 0
0 0 0
0 0 0
0 0 0
0 0 0
0 0 0
0 0 0
0 0 0
0 0 0
0 0 0
0 0 0
0 0 0
0 0 0
0 0 0
255 255 255
255 255 255
255 255 255
255 255 255
255 255 255
255 255 255
255 255 255
255 255 255
255 255 255
255 255 255
255 255 255
255 255 255
255 255 255
255 255 255
255 255 255
255 255 255
255 255 255
255 255 255
255 255 255
88 88 88
0 0 0
0 0 0
0 0 0
0 0 0
0 0 0
0 0 0
0 0 0
0 0 0
0 0 0
0 0 0
0 0 0
0 0 0
0 0 0
0 0 0
0 0 0
0 0 0
0 0 0
0 0 0
0 0 0
0 0 0
0 0 0
0 0 0
0 0 0
0 0 0
0 0 0
0 0 0
0 0 0
0 0 0
0 0 0
0 0 0
0 0 0
0 0 0
0 0 0
0 0 0
0 0 0
0 0 0
0 0 0
0 0 0
0 0 0
0 0 0
0 0 0
0 0 0
0 0 0
0 0 0
0 0 0
0 0 0
0 0 0
0 0 0
0 0 0
0 0 0
0 0 0
0 0 0
0 0 0
0 0 0
0 0 0
0 0 0
0 0 0
0 0 0
0 0 0
0 0 0
0 0 0
0 0 0
0 0 0
0 0 0
0 0 0
0 0 0
0 0 0
0 0 0
0 0 0
0 0 0
0 0 0
0 0 0
0 0 0
0 0 0
0 0 0
0 0 0
0 0 0
0 0 0
0 0 0
0 0 0
0 0 0
0 0 0
0 0 0
0 0 0
0 0 0
0 0 0
0 0 0
0 0 0
0 0 0
0 0 0
0 0 0
0 0 0
0 0 0
0 0 0
0 0 0
0 0 0
0 0 0
0 0 0
0 0 0
0 0 0
0 0 0
0 0 0
0 0 0
0 0 0
0 0 0
0 0 0
0 0 0
0 0 0
0 0 0
0 0 0
0 0 0
0 0 0
0 0 0
0 0 0
0 0 0
0 0 0
0 0 0
0 0 0
0 0 0
0 0 0
0 0 0
0 0 0
0 0 0
0 0 0
0 0 0
0 0 0
0 0 0
0 0 0
0 0 0
0 0 0
0 0 0
0 0 0
0 0 0
0 0 0
0 0 0
0 0 0
0 0 0
0 0 0
0 0 0
0 0 0
0 0 0
0 0 0
0 0 0
0 0 0
0 0 0
0 0 0
0 0 0
0 0 0
0 0 0
0 0 0
0 0 0
0 0 0
0 0 0
0 0 0
0 0 0
0 0 0
0 0 0
0 0 0
0 0 0
0 0 0
0 0 0
0 0 0
0 0 0
0 0 0
0 0 0
0 0 0
0 0 0
0 0 0
0 0 0
0 0 0
0 0 0
0 0 0
0 0 0
0 0 0
0 0 0
0 0 0
0 0 0
0 0 0
0 0 0
0 0 0
0 0 0
0 0 0
0 0 0
0 0 0
0 0 0
0 0 0
0 0 0
0 0 0
0 0 0
0 0 0
0 0 0
0 0 0
0 0 0
0 0 0
0 0 0
0 0 0
0 0 0
0 0 0
0 0 0
0 0 0
0 0 0
0 0 0
0 0 0
0 0 0
0 0 0
0 0 0
0 0 0
0 0 0
0 0 0
0 0 0
0 0 0
0 0 0
0 0 0
0 0 0
0 0 0
0 0 0
0 0 0
0 0 0
0 0 0
0 0 0
0 0 0
0 0 0
0 0 0
0 0 0
0 0 0
0 0 0
0 0 0
0 0 0
0 0 0
0 0 0
0 0 0
0 0 0
0 0 0
0 0 0
0 0 0
0 0 0
0 0 0
0 0 0
0 0 0
0 0 0
0 0 0
0 0 0
0 0 0
0 0 0
0 0 0
0 0 0
0 0 0
0 0 0
0 0 0
0 0 0
0 0 0
0 0 0
0 0 0
0 0 0
0 0 0
0 0 0
0 0 0
0 0 0
0 0 0
0 0 0
0 0 0
0 0 0
0 0 0
0 0 0
36 36 36
26 26 26
15 15 15
63 63 63
12 12 12
50 50 50
0 0 0
78 78 78
32 32 32
12 12 12
67 67 67
11 11 11
41 41 41
11 11 11
0 0 0
30 30 30
29 29 29
0 0 0
0 0 0
47 47 47
21 21 21
0 0 0
0 0 0
66 66 66
51 51 51
38 38 38
24 24 24
0 0 0
2 2 2
11 11 11
4 4 4
13 13 13
0 0 0
24 24 24
13 13 13
33 33 33
50 50 50
28 28 28
27 27 27
37 37 37
0 0 0
25 25 25
31 31 31
71 71 71
67 67 67
77 77 77
58 58 58
115 115 115
115 115 115
100 100 100
95 95 95
83 83 83
75 75 75
115 115 115
93 93 93
96 96 96
51 51 51
101 101 101
127 127 127
129 129 129
125 125 125
149 149 149
79 79 79
92 92 92
104 104 104
91 91 91
124 124 124
89 89 89
67 67 67
76 76 76
80 80 80
89 89 89
60 60 60
34 34 34
17 17 17
32 32 32
78 78 78
87 87 87
115 115 115
111 111 111
50 50 50
40 40 40
22 22 22
31 31 31
47 47 47
60 60 60
15 15 15
37 37 37
58 58 58
56 56 56
69 69 69
43 43 43
24 24 24
7 7 7
48 48 48
0 0 0
0 0 0
0 0 0
0 0 0
0 0 0
0 0 0
0 0 0
0 0 0
0 0 0
0 0 0
0 0 0
0 0 0
0 0 0
0 0 0
0 0 0
0 0 0
0 0 0
0 0 0
0 0 0
0 0 0
0 0 0
255 255 255
255 255 255
255 255 255
255 255 255
255 255 255
255 255 255
255 255 255
255 255 255
255 255 255
255 255 255
255 255 255
255 255 255
255 255 255
255 255 255
255 255 255
255 255 255
255 255 255
255 255 255
255 255 255
72 72 72
0 0 0
0 0 0
0 0 0
0 0 0
0 0 0
0 0 0
0 0 0
0 0 0
0 0 0
0 0 0
0 0 0
0 0 0
0 0 0
0 0 0
0 0 0
0 0 0
0 0 0
0 0 0
0 0 0
0 0 0
0 0 0
0 0 0
0 0 0
0 0 0
0 0 0
0 0 0
0 0 0
0 0 0
0 0 0
0 0 0
0 0 0
0 0 0
0 0 0
0 0 0
0 0 0
0 0 0
0 0 0
0 0 0
0 0 0
0 0 0
0 0 0
0 0 0
0 0 0
0 0 0
0 0 0
0 0 0
0 0 0
0 0 0
0 0 0
0 0 0
0 0 0
0 0 0
0 0 0
0 0 0
0 0 0
0 0 0
0 0 0
0 0 0
0 0 0
0 0 0
0 0 0
0 0 0
0 0 0
0 0 0
0 0 0
0 0 0
0 0 0
0 0 0
0 0 0
0 0 0
0 0 0
0 0 0
0 0 0
0 0 0
0 0 0
0 0 0
0 0 0
0 0 0
0 0 0
0 0 0
0 0 0
0 0 0
0 0 0
0 0 0
0 0 0
0 0 0
0 0 0
0 0 0
0 0 0
0 0 0
0 0 0
0 0 0
0 0 0
0 0 0
0 0 0
0 0 0
0 0 0
0 0 0
0 0 0
0 0 0
0 0 0
0 0 0
0 0 0
0 0 0
0 0 0
0 0 0
0 0 0
0 0 0
0 0 0
0 0 0
0 0 0
0 0 0
0 0 0
0 0 0
0 0 0
0 0 0
0 0 0
0 0 0
0 0 0
0 0 0
0 0 0
0 0 0
0 0 0
0 0 0
0 0 0
0 0 0
0 0 0
0 0 0
0 0 0
0 0 0
0 0 0
0 0 0
0 0 0
0 0 0
0 0 0
0 0 0
0 0 0
0 0 0
0 0 0
0 0 0
0 0 0
0 0 0
0 0 0
0 0 0
0 0 0
0 0 0
0 0 0
0 0 0
0 0 0
0 0 0
0 0 0
0 0 0
0 0 0
0 0 0
0 0 0
0 0 0
0 0 0
0 0 0
0 0 0
0 0 0
0 0 0
0 0 0
0 0 0
0 0 0
0 0 0
0 0 0
0 0 0
0 0 0
0 0 0
0 0 0
0 0 0
0 0 0
0 0 0
0 0 0
0 0 0
0 0 0
0 0 0
0 0 0
0 0 0
0 0 0
0 0 0
0 0 0
0 0 0
0 0 0
0 0 0
0 0 0
0 0 0
0 0 0
0 0 0
0 0 0
0 0 0
0 0 0
0 0 0
0 0 0
0 0 0
0 0 0
0 0 0
0 0 0
0 0 0
0 0 0
0 0 0
0 0 0
0 0 0
0 0 0
0 0 0
0 0 0
0 0 0
0 0 0
0 0 0
0 0 0
0 0 0
0 0 0
0 0 0
0 0 0
0 0 0
0 0 0
0 0 0
0 0 0
0 0 0
0 0 0
0 0 0
0 0 0
0 0 0
0 0 0
0 0 0
0 0 0
0 0 0
0 0 0
0 0 0
0 0 0
0 0 0
0 0 0
0 0 0
0 0 0
0 0 0
0 0 0
0 0 0
0 0 0
0 0 0
0 0 0
0 0 0
0 0 0
0 0 0
0 0 0
0 0 0
0 0 0
0 0 0
0 0 0
0 0 0
0 0 0
0 0 0
0 0 0
0 0 0
0 0 0
0 0 0
0 0 0
0 0 0
0 0 0
0 0 0
0 0 0
0 0 0
0 0 0
0 0 0
0 0 0
77 77 77
45 45 45
21 21 21
50 50 50
26 26 26
53 53 53
67 67 67
18 18 18
0 0 0
45 45 45
39 39 39
49 49 49
0 0 0
64 64 64
51 51 51
44 44 44
47 47 47
75 75 75
0 0 0
18 18 18
1 1 1
30 30 30
47 47 47
57 57 57
1 1 1
45 45 45
31 31 31
8 8 8
2 2 2
2 2 2
7 7 7
7 7 7
18 18 18
27 27 27
8 8 8
31 31 31
39 39 39
22 22 22
17 17 17
20 20 20
23 23 23
29 29 29
38 38 38
39 39 39
33 33 33
41 41 41
54 54 54
75 75 75
90 90 90
83 83 83
78 78 78
91 91 91
99 99 99
106 106 106
85 85 85
58 58 58
116 116 116
145 145 145
132 132 132
164 164 164
152 152 152
124 124 124
66 66 66
110 110 110
121 121 121
99 99 99
152 152 152
84 84 84
77 77 77
83 83 83
53 53 53
42 42 42
56 56 56
40 40 40
16 16 16
82 82 82
82 82 82
71 71 71
127 127 127
104 104 104
63 63 63
25 25 25
18 18 18
22 22 22
31 31 31
59 59 59
35 35 35
21 21 21
31 31 31
72 72 72
78 78 78
40 40 40
25 25 25
56 56 56
26 26 26
0 0 0
0 0 0
0 0 0
0 0 0
0 0 0
0 0 0
0 0 0
0 0 0
0 0 0
0 0 0
0 0 0
0 0 0
0 0 0
0 0 0
0 0 0
0 0 0
0 0 0
0 0 0
0 0 0
0 0 0
0 0 0
255 255 255
255 255 255
255 255 255
255 255 255
255 255 255
255 255 255
255 255 255
255 255 255
255 255 255
255 255 255
255 255 255
255 255 255
255 255 255
255 255 255
255 255 255
255 255 255
255 255 255
255 255 255
255 255 255
102 102 102
0 0 0
0 0 0
0 0 0
0 0 0
0 0 0
0 0 0
0 0 0
0 0 0
0 0 0
0 0 0
0 0 0
0 0 0
0 0 0
0 0 0
0 0 0
0 0 0
0 0 0
0 0 0
0 0 0
0 0 0
0 0 0
0 0 0
0 0 0
0 0 0
0 0 0
0 0 0
0 0 0
0 0 0
0 0 0
0 0 0
0 0 0
0 0 0
0 0 0
0 0 0
0 0 0
0 0 0
0 0 0
0 0 0
0 0 0
0 0 0
0 0 0
0 0 0
0 0 0
0 0 0
0 0 0
0 0 0
0 0 0
0 0 0
0 0 0
0 0 0
0 0 0
0 0 0
0 0 0
0 0 0
0 0 0
0 0 0
0 0 0
0 0 0
0 0 0
0 0 0
0 0 0
0 0 0
0 0 0
0 0 0
0 0 0
0 0 0
0 0 0
0 0 0
0 0 0
0 0 0
0 0 0
0 0 0
0 0 0
0 0 0
0 0 0
0 0 0
0 0 0
0 0 0
0 0 0
0 0 0
0 0 0
0 0 0
0 0 0
0 0 0
0 0 0
0 0 0
0 0 0
0 0 0
0 0 0
0 0 0
0 0 0
0 0 0
0 0 0
0 0 0
0 0 0
0 0 0
0 0 0
0 0 0
0 0 0
0 0 0
0 0 0
0 0 0
0 0 0
0 0 0
0 0 0
0 0 0
0 0 0
0 0 0
0 0 0
0 0 0
0 0 0
0 0 0
0 0 0
0 0 0
0 0 0
0 0 0
0 0 0
0 0 0
0 0 0
0 0 0
0 0 0
0 0 0
0 0 0
0 0 0
0 0 0
0 0 0
0 0 0
0 0 0
0 0 0
0 0 0
0 0 0
0 0 0
0 0 0
0 0 0
0 0 0
0 0 0
0 0 0
0 0 0
0 0 0
0 0 0
0 0 0
0 0 0
0 0 0
0 0 0
0 0 0
0 0 0
0 0 0
0 0 0
0 0 0
0 0 0
0 0 0
0 0 0
0 0 0
0 0 0
0 0 0
0 0 0
0 0 0
0 0 0
0 0 0
0 0 0
0 0 0
0 0 0
0 0 0
0 0 0
0 0 0
0 0 0
0 0 0
0 0 0
0 0 0
0 0 0
0 0 0
0 0 0
0 0 0
0 0 0
0 0 0
0 0 0
0 0 0
0 0 0
0 0 0
0 0 0
0 0 0
0 0 0
0 0 0
0 0 0
0 0 0
0 0 0
0 0 0
0 0 0
0 0 0
0 0 0
0 0 0
0 0 0
0 0 0
0 0 0
0 0 0
0 0 0
0 0 0
0 0 0
0 0 0
0 0 0
0 0 0
0 0 0
0 0 0
0 0 0
0 0 0
0 0 0
0 0 0
0 0 0
0 0 0
0 0 0
0 0 0
0 0 0
0 0 0
0 0 0
0 0 0
0 0 0
0 0 0
0 0 0
0 0 0
0 0 0
0 0 0
0 0 0
0 0 0
0 0 0
0 0 0
0 0 0
0 0 0
0 0 0
0 0 0
0 0 0
0 0 0
0 0 0
0 0 0
0 0 0
0 0 0
0 0 0
0 0 0
0 0 0
0 0 0
0 0 0
0 0 0
0 0 0
0 0 0
0 0 0
0 0 0
0 0 0
0 0 0
0 0 0
0 0 0
0 0 0
0 0 0
0 0 0
0 0 0
0 0 0
0 0 0
0 0 0
0 0 0
0 0 0
0 0 0
0 0 0
0 0 0
0 0 0
0 0 0
0 0 0
58 58 58
0 0 0
35 35 35
42 42 42
20 20 20
54 54 54
0 0 0
55 55 55
53 53 53
48 48 48
50 50 50
76 76 76
10 10 10
0 0 0
11 11 11
77 77 77
26 26 26
78 78 78
18 18 18
13 13 13
24 24 24
0 0 0
0 0 0
40 40 40
65 65 65
28 28 28
0 0 0
27 27 27
18 18 18
5 5 5
14 14 14
4 4 4
5 5 5
12 12 12
24 24 24
47 47 47
25 25 25
41 41 41
16 16 16
23 23 23
27 27 27
21 21 21
17 17 17
14 14 14
10 10 10
5 5 5
1 1 1
40 40 40
50 50 50
73 73 73
89 89 89
75 75 75
97 97 97
67 67 67
114 114 114
113 113 113
124 124 124
111 111 111
170 170 170
158 158 158
131 131 131
94 94 94
149 149 149
114 114 114
97 97 97
113 113 113
102 102 102
77 77 77
67 67 67
48 48 48
22 22 22
65 65 65
34 34 34
25 25 25
26 26 26
114 114 114
92 92 92
111 111 111
116 116 116
98 98 98
45 45 45
27 27 27
44 44 44
10 10 10
46 46 46
62 62 62
78 78 78
17 17 17
26 26 26
43 43 43
61 61 61
11 11 11
14 14 14
63 63 63
50 50 50
0 0 0
0 0 0
0 0 0
0 0 0
0 0 0
0 0 0
0 0 0
0 0 0
0 0 0
0 0 0
0 0 0
0 0 0
0 0 0
0 0 0
0 0 0
0 0 0
0 0 0
0 0 0
0 0 0
0 0 0
0 0 0
255 255 255
255 255 255
255 255 255
255 255 255
255 255 255
255 255 255
255 255 255
255 255 255
255 255 255
255 255 255
255 255 255
255 255 255
255 255 255
255 255 255
255 255 255
255 255 255
255 255 255
255 255 255
255 255 255
51 51 51
0 0 0
0 0 0
0 0 0
0 0 0
0 0 0
0 0 0
0 0 0
0 0 0
0 0 0
0 0 0
0 0 0
0 0 0
0 0 0
0 0 0
0 0 0
0 0 0
0 0 0
0 0 0
0 0 0
0 0 0
0 0 0
0 0 0
0 0 0
0 0 0
0 0 0
0 0 0
0 0 0
0 0 0
0 0 0
0 0 0
0 0 0
0 0 0
0 0 0
0 0 0
0 0 0
0 0 0
0 0 0
0 0 0
0 0 0
0 0 0
0 0 0
0 0 0
0 0 0
0 0 0
0 0 0
0 0 0
0 0 0
0 0 0
0 0 0
0 0 0
0 0 0
0 0 0
0 0 0
0 0 0
0 0 0
0 0 0
0 0 0
0 0 0
0 0 0
0 0 0
0 0 0
0 0 0
0 0 0
0 0 0
0 0 0
0 0 0
0 0 0
0 0 0
0 0 0
0 0 0
0 0 0
0 0 0
0 0 0
0 0 0
0 0 0
0 0 0
0 0 0
0 0 0
0 0 0
0 0 0
0 0 0
0 0 0
0 0 0
0 0 0
0 0 0
0 0 0
0 0 0
0 0 0
0 0 0
0 0 0
0 0 0
0 0 0
0 0 0
0 0 0
0 0 0
0 0 0
0 0 0
0 0 0
0 0 0
0 0 0
0 0 0
0 0 0
0 0 0
0 0 0
0 0 0
0 0 0
0 0 0
0 0 0
0 0 0
0 0 0
0 0 0
0 0 0
0 0 0
0 0 0
0 0 0
0 0 0
0 0 0
0 0 0
0 0 0
0 0 0
0 0 0
0 0 0
0 0 0
0 0 0
0 0 0
0 0 0
0 0 0
0 0 0
0 0 0
0 0 0
0 0 0
0 0 0
0 0 0
0 0 0
0 0 0
0 0 0
0 0 0
0 0 0
0 0 0
0 0 0
0 0 0
0 0 0
0 0 0
0 0 0
0 0 0
0 0 0
0 0 0
0 0 0
0 0 0
0 0 0
0 0 0
0 0 0
0 0 0
0 0 0
0 0 0
0 0 0
0 0 0
0 0 0
0 0 0
0 0 0
0 0 0
0 0 0
0 0 0
0 0 0
0 0 0
0 0 0
0 0 0
0 0 0
0 0 0
0 0 0
0 0 0
0 0 0
0 0 0
0 0 0
0 0 0
0 0 0
0 0 0
0 0 0
0 0 0
0 0 0
0 0 0
0 0 0
0 0 0
0 0 0
0 0 0
0 0 0
0 0 0
0 0 0
0 0 0
0 0 0
0 0 0
0 0 0
0 0 0
0 0 0
0 0 0
0 0 0
0 0 0
0 0 0
0 0 0
0 0 0
0 0 0
0 0 0
0 0 0
0 0 0
0 0 0
0 0 0
0 0 0
0 0 0
0 0 0
0 0 0
0 0 0
0 0 0
0 0 0
0 0 0
0 0 0
0 0 0
0 0 0
0 0 0
0 0 0
0 0 0
0 0 0
0 0 0
0 0 0
0 0 0
0 0 0
0 0 0
0 0 0
0 0 0
0 0 0
0 0 0
0 0 0
0 0 0
0 0 0
0 0 0
0 0 0
0 0 0
0 0 0
0 0 0
0 0 0
0 0 0
0 0 0
0 0 0
0 0 0
0 0 0
0 0 0
0 0 0
0 0 0
0 0 0
0 0 0
0 0 0
0 0 0
0 0 0
0 0 0
0 0 0
0 0 0
0 0 0
0 0 0
0 0 0
0 0 0
0 0 0
0 0 0
0 0 0
0 0 0
0 0 0
32 32 32
53 53 53
64 64 64
8 8 8
85 85 85
0 0 0
45 45 45
67 67 67
54 54 54
59 59 59
29 29 29
35 35 35
51 51 51
64 64 64
0 0 0
41 41 41
42 42 42
10 10 10
36 36 36
46 46 46
45 45 45
89 89 89
45 45 45
62 62 62
21 21 21
34 34 34
19 19 19
44 44 44
11 11 11
28 28 28
3 3 3
10 10 10
3 3 3
5 5 5
12 12 12
15 15 15
18 18 18
21 21 21
32 32 32
32 32 32
13 13 13
12 12 12
3 3 3
23 23 23
25 25 25
30 30 30
10 10 10
19 19 19
14 14 14
92 92 92
70 70 70
77 77 77
78 78 78
101 101 101
45 45 45
101 101 101
137 137 137
113 113 113
167 167 167
112 112 112
117 117 117
147 147 147
106 106 106
106 106 106
93 93 93
66 66 66
116 116 116
82 82 82
27 27 27
16 16 16
32 32 32
31 31 31
12 12 12
9 9 9
57 57 57
87 87 87
96 96 96
127 127 127
134 134 134
136 136 136
63 63 63
82 82 82
79 79 79
43 43 43
22 22 22
73 73 73
101 101 101
24 24 24
21 21 21
50 50 50
29 29 29
40 40 40
35 35 35
57 57 57
54 54 54
0 0 0
0 0 0
0 0 0
0 0 0
0 0 0
0 0 0
0 0 0
0 0 0
0 0 0
0 0 0
0 0 0
0 0 0
0 0 0
0 0 0
0 0 0
0 0 0
0 0 0
0 0 0
0 0 0
0 0 0
0 0 0
255 255 255
255 255 255
255 255 255
255 255 255
255 255 255
255 255 255
255 255 255
255 255 255
255 255 255
255 255 255
255 255 255
255 255 255
255 255 255
255 255 255
255 255 255
255 255 255
255 255 255
255 255 255
255 255 255
51 51 51
0 0 0
0 0 0
0 0 0
0 0 0
0 0 0
0 0 0
0 0 0
0 0 0
0 0 0
0 0 0
0 0 0
0 0 0
0 0 0
0 0 0
0 0 0
0 0 0
0 0 0
0 0 0
0 0 0
0 0 0
0 0 0
0 0 0
0 0 0
0 0 0
0 0 0
0 0 0
0 0 0
0 0 0
0 0 0
0 0 0
0 0 0
0 0 0
0 0 0
0 0 0
0 0 0
0 0 0
0 0 0
0 0 0
0 0 0
0 0 0
0 0 0
0 0 0
0 0 0
0 0 0
0 0 0
0 0 0
0 0 0
0 0 0
0 0 0
0 0 0
0 0 0
0 0 0
0 0 0
0 0 0
0 0 0
0 0 0
0 0 0
0 0 0
0 0 0
0 0 0
0 0 0
0 0 0
0 0 0
0 0 0
0 0 0
0 0 0
0 0 0
0 0 0
0 0 0
0 0 0
0 0 0
0 0 0
0 0 0
0 0 0
0 0 0
0 0 0
0 0 0
0 0 0
0 0 0
0 0 0
0 0 0
0 0 0
0 0 0
0 0 0
0 0 0
0 0 0
0 0 0
0 0 0
0 0 0
0 0 0
0 0 0
0 0 0
0 0 0
0 0 0
0 0 0
0 0 0
0 0 0
0 0 0
0 0 0
0 0 0
0 0 0
0 0 0
0 0 0
0 0 0
0 0 0
0 0 0
0 0 0
0 0 0
0 0 0
0 0 0
0 0 0
0 0 0
0 0 0
0 0 0
0 0 0
0 0 0
0 0 0
0 0 0
0 0 0
0 0 0
0 0 0
0 0 0
0 0 0
0 0 0
0 0 0
0 0 0
0 0 0
0 0 0
0 0 0
0 0 0
0 0 0
0 0 0
0 0 0
0 0 0
0 0 0
0 0 0
0 0 0
0 0 0
0 0 0
0 0 0
0 0 0
0 0 0
0 0 0
0 0 0
0 0 0
0 0 0
0 0 0
0 0 0
0 0 0
0 0 0
0 0 0
0 0 0
0 0 0
0 0 0
0 0 0
0 0 0
0 0 0
0 0 0
0 0 0
0 0 0
0 0 0
0 0 0
0 0 0
0 0 0
0 0 0
0 0 0
0 0 0
0 0 0
0 0 0
0 0 0
0 0 0
0 0 0
0 0 0
0 0 0
0 0 0
0 0 0
0 0 0
0 0 0
0 0 0
0 0 0
0 0 0
0 0 0
0 0 0
0 0 0
0 0 0
0 0 0
0 0 0
0 0 0
0 0 0
0 0 0
0 0 0
0 0 0
0 0 0
0 0 0
0 0 0
0 0 0
0 0 0
0 0 0
0 0 0
0 0 0
0 0 0
0 0 0
0 0 0
0 0 0
0 0 0
0 0 0
0 0 0
0 0 0
0 0 0
0 0 0
0 0 0
0 0 0
0 0 0
0 0 0
0 0 0
0 0 0
0 0 0
0 0 0
0 0 0
0 0 0
0 0 0
0 0 0
0 0 0
0 0 0
0 0 0
0 0 0
0 0 0
0 0 0
0 0 0
0 0 0
0 0 0
0 0 0
0 0 0
0 0 0
0 0 0
0 0 0
0 0 0
0 0 0
0 0 0
0 0 0
0 0 0
0 0 0
0 0 0
0 0 0
0 0 0
0 0 0
0 0 0
0 0 0
0 0 0
0 0 0
0 0 0
0 0 0
0 0 0
0 0 0
0 0 0
0 0 0
0 0 0
0 0 0
0 0 0
0 0 0
0 0 0
0 0 0
0 0 0
0 0 0
45 45 45
35 35 35
62 62 62
58 58 58
58 58 58
61 61 61
36 36 36
48 48 48
0 0 0
45 45 45
67 67 67
44 44 44
0 0 0
0 0 0
74 74 74
0 0 0
0 0 0
20 20 20
62 62 62
25 25 25
66 66 66
41 41 41
47 47 47
0 0 0
31 31 31
17 17 17
22 22 22
31 31 31
25 25 25
35 35 35
34 34 34
12 12 12
4 4 4
22 22 22
10 10 10
1 1 1
30 30 30
24 24 24
34 34 34
69 69 69
56 56 56
33 33 33
6 6 6
54 54 54
64 64 64
39 39 39
7 7 7
22 22 22
55 55 55
75 75 75
75 75 75
68 68 68
109 109 109
131 131 131
119 119 119
122 122 122
88 88 88
153 153 153
148 148 148
146 146 146
131 131 131
92 92 92
147 147 147
77 77 77
119 119 119
114 114 114
108 108 108
76 76 76
10 10 10
9 9 9
14 14 14
19 19 19
10 10 10
20 20 20
39 39 39
92 92 92
108 108 108
109 109 109
158 158 158
101 101 101
110 110 110
91 91 91
87 87 87
55 55 55
26 26 26
37 37 37
69 69 69
18 18 18
25 25 25
12 12 12
6 6 6
20 20 20
51 51 51
68 68 68
30 30 30
0 0 0
0 0 0
0 0 0
0 0 0
0 0 0
0 0 0
0 0 0
0 0 0
0 0 0
0 0 0
0 0 0
0 0 0
0 0 0
0 0 0
0 0 0
0 0 0
0 0 0
0 0 0
0 0 0
0 0 0
0 0 0
255 255 255
255 255 255
255 255 255
255 255 255
255 255 255
255 255 255
255 255 255
255 255 255
255 255 255
255 255 255
255 255 255
255 255 255
255 255 255
255 255 255
255 255 255
255 255 255
255 255 255
255 255 255
255 255 255
51 51 51
0 0 0
0 0 0
0 0 0
0 0 0
0 0 0
0 0 0
0 0 0
0 0 0
0 0 0
0 0 0
0 0 0
0 0 0
0 0 0
0 0 0
0 0 0
0 0 0
0 0 0
0 0 0
0 0 0
0 0 0
0 0 0
0 0 0
0 0 0
0 0 0
0 0 0
0 0 0
0 0 0
0 0 0
0 0 0
0 0 0
0 0 0
0 0 0
0 0 0
0 0 0
0 0 0
0 0 0
0 0 0
0 0 0
0 0 0
0 0 0
0 0 0
0 0 0
0 0 0
0 0 0
0 0 0
0 0 0
0 0 0
0 0 0
0 0 0
0 0 0
0 0 0
0 0 0
0 0 0
0 0 0
0 0 0
0 0 0
0 0 0
0 0 0
0 0 0
0 0 0
0 0 0
0 0 0
0 0 0
0 0 0
0 0 0
0 0 0
0 0 0
0 0 0
0 0 0
0 0 0
0 0 0
0 0 0
0 0 0
0 0 0
0 0 0
0 0 0
0 0 0
0 0 0
0 0 0
0 0 0
0 0 0
0 0 0
0 0 0
0 0 0
0 0 0
0 0 0
0 0 0
0 0 0
0 0 0
0 0 0
0 0 0
0 0 0
0 0 0
0 0 0
0 0 0
0 0 0
0 0 0
0 0 0
0 0 0
0 0 0
0 0 0
0 0 0
0 0 0
0 0 0
0 0 0
0 0 0
0 0 0
0 0 0
0 0 0
0 0 0
0 0 0
0 0 0
0 0 0
0 0 0
0 0 0
0 0 0
0 0 0
0 0 0
0 0 0
0 0 0
0 0 0
0 0 0
0 0 0
0 0 0
0 0 0
0 0 0
0 0 0
0 0 0
0 0 0
0 0 0
0 0 0
0 0 0
0 0 0
0 0 0
0 0 0
0 0 0
0 0 0
0 0 0
0 0 0
0 0 0
0 0 0
0 0 0
0 0 0
0 0 0
0 0 0
0 0 0
0 0 0
0 0 0
0 0 0
0 0 0
0 0 0
0 0 0
0 0 0
0 0 0
0 0 0
0 0 0
0 0 0
0 0 0
0 0 0
0 0 0
0 0 0
0 0 0
0 0 0
0 0 0
0 0 0
0 0 0
0 0 0
0 0 0
0 0 0
0 0 0
0 0 0
0 0 0
0 0 0
0 0 0
0 0 0
0 0 0
0 0 0
0 0 0
0 0 0
0 0 0
0 0 0
0 0 0
0 0 0
0 0 0
0 0 0
0 0 0
0 0 0
0 0 0
0 0 0
0 0 0
0 0 0
0 0 0
0 0 0
0 0 0
0 0 0
0 0 0
0 0 0
0 0 0
0 0 0
0 0 0
0 0 0
0 0 0
0 0 0
0 0 0
0 0 0
0 0 0
0 0 0
0 0 0
0 0 0
0 0 0
0 0 0
0 0 0
0 0 0
0 0 0
0 0 0
0 0 0
0 0 0
0 0 0
0 0 0
0 0 0
0 0 0
0 0 0
0 0 0
0 0 0
0 0 0
0 0 0
0 0 0
0 0 0
0 0 0
0 0 0
0 0 0
0 0 0
0 0 0
0 0 0
0 0 0
0 0 0
0 0 0
0 0 0
0 0 0
0 0 0
0 0 0
0 0 0
0 0 0
0 0 0
0 0 0
0 0 0
0 0 0
0 0 0
0 0 0
0 0 0
0 0 0
0 0 0
0 0 0
0 0 0
0 0 0
0 0 0
0 0 0
0 0 0
0 0 0
0 0 0
0 0 0
0 0 0
0 0 0
29 29 29
29 29 29
43 43 43
42 42 42
34 34 34
0 0 0
40 40 40
0 0 0
47 47 47
27 27 27
29 29 29
45 45 45
0 0 0
31 31 31
75 75 75
40 40 40
35 35 35
50 50 50
34 34 34
25 25 25
49 49 49
53 53 53
45 45 45
21 21 21
42 42 42
33 33 33
0 0 0
32 32 32
0 0 0
49 49 49
18 18 18
22 22 22
1 1 1
3 3 3
7 7 7
9 9 9
13 13 13
33 33 33
25 25 25
61 61 61
48 48 48
64 64 64
34 34 34
12 12 12
16 16 16
32 32 32
26 26 26
13 13 13
30 30 30
44 44 44
64 64 64
53 53 53
76 76 76
69 69 69
121 121 121
155 155 155
139 139 139
141 141 141
116 116 116
103 103 103
130 130 130
105 105 105
98 98 98
143 143 143
138 138 138
118 118 118
104 104 104
95 95 95
44 44 44
10 10 10
11 11 11
9 9 9
8 8 8
15 15 15
26 26 26
68 68 68
101 101 101
116 116 116
99 99 99
107 107 107
157 157 157
160 160 160
128 128 128
76 76 76
73 73 73
31 31 31
38 38 38
33 33 33
13 13 13
27 27 27
44 44 44
31 31 31
53 53 53
55 55 55
78 78 78
28 28 28
0 0 0
0 0 0
0 0 0
0 0 0
0 0 0
0 0 0
0 0 0
0 0 0
0 0 0
0 0 0
0 0 0
0 0 0
0 0 0
0 0 0
0 0 0
0 0 0
0 0 0
0 0 0
0 0 0
0 0 0
0 0 0
255 255 255
255 255 255
255 255 255
255 255 255
255 255 255
255 255 255
255 255 255
255 255 255
255 255 255
255 255 255
255 255 255
255 255 255
255 255 255
255 255 255
255 255 255
255 255 255
255 255 255
255 255 255
255 255 255
0 0 0
0 0 0
0 0 0
0 0 0
0 0 0
0 0 0
0 0 0
0 0 0
0 0 0
0 0 0
0 0 0
0 0 0
0 0 0
0 0 0
0 0 0
0 0 0
0 0 0
0 0 0
0 0 0
0 0 0
0 0 0
0 0 0
0 0 0
0 0 0
0 0 0
0 0 0
0 0 0
0 0 0
0 0 0
0 0 0
0 0 0
0 0 0
0 0 0
0 0 0
0 0 0
0 0 0
0 0 0
0 0 0
0 0 0
0 0 0
0 0 0
0 0 0
0 0 0
0 0 0
0 0 0
0 0 0
0 0 0
0 0 0
0 0 0
0 0 0
0 0 0
0 0 0
0 0 0
0 0 0
0 0 0
0 0 0
0 0 0
0 0 0
0 0 0
0 0 0
0 0 0
0 0 0
0 0 0
0 0 0
0 0 0
0 0 0
0 0 0
0 0 0
0 0 0
0 0 0
0 0 0
0 0 0
0 0 0
0 0 0
0 0 0
0 0 0
0 0 0
0 0 0
0 0 0
0 0 0
0 0 0
0 0 0
0 0 0
0 0 0
0 0 0
0 0 0
0 0 0
0 0 0
0 0 0
0 0 0
0 0 0
0 0 0
0 0 0
0 0 0
0 0 0
0 0 0
0 0 0
0 0 0
0 0 0
0 0 0
0 0 0
0 0 0
0 0 0
0 0 0
0 0 0
0 0 0
0 0 0
0 0 0
0 0 0
0 0 0
0 0 0
0 0 0
0 0 0
0 0 0
0 0 0
0 0 0
0 0 0
0 0 0
0 0 0
0 0 0
0 0 0
0 0 0
0 0 0
0 0 0
0 0 0
0 0 0
0 0 0
0 0 0
0 0 0
0 0 0
0 0 0
0 0 0
0 0 0
0 0 0
0 0 0
0 0 0
0 0 0
0 0 0
0 0 0
0 0 0
0 0 0
0 0 0
0 0 0
0 0 0
0 0 0
0 0 0
0 0 0
0 0 0
0 0 0
0 0 0
0 0 0
0 0 0
0 0 0
0 0 0
0 0 0
0 0 0
0 0 0
0 0 0
0 0 0
0 0 0
0 0 0
0 0 0
0 0 0
0 0 0
0 0 0
0 0 0
0 0 0
0 0 0
0 0 0
0 0 0
0 0 0
0 0 0
0 0 0
0 0 0
0 0 0
0 0 0
0 0 0
0 0 0
0 0 0
0 0 0
0 0 0
0 0 0
0 0 0
0 0 0
0 0 0
0 0 0
0 0 0
0 0 0
0 0 0
0 0 0
0 0 0
0 0 0
0 0 0
0 0 0
0 0 0
0 0 0
0 0 0
0 0 0
0 0 0
0 0 0
0 0 0
0 0 0
0 0 0
0 0 0
0 0 0
0 0 0
0 0 0
0 0 0
0 0 0
0 0 0
0 0 0
0 0 0
0 0 0
0 0 0
0 0 0
0 0 0
0 0 0
0 0 0
0 0 0
0 0 0
0 0 0
0 0 0
0 0 0
0 0 0
0 0 0
0 0 0
0 0 0
0 0 0
0 0 0
0 0 0
0 0 0
0 0 0
0 0 0
0 0 0
0 0 0
0 0 0
0 0 0
0 0 0
0 0 0
0 0 0
0 0 0
0 0 0
0 0 0
0 0 0
0 0 0
0 0 0
0 0 0
0 0 0
0 0 0
0 0 0
0 0 0
0 0 0
0 0 0
0 0 0
0 0 0
0 0 0
0 0 0
0 0 0
0 0 0
0 0 0
0 0 0
0 0 0
0 0 0
0 0 0
0 0 0
61 61 61
46 46 46
53 53 53
48 48 48
53 53 53
45 45 45
0 0 0
0 0 0
41 41 41
49 49 49
0 0 0
47 47 47
30 30 30
0 0 0
57 57 57
27 27 27
0 0 0
39 39 39
36 36 36
32 32 32
31 31 31
0 0 0
35 35 35
39 39 39
21 21 21
46 46 46
59 59 59
2 2 2
28 28 28
63 63 63
0 0 0
23 23 23
5 5 5
8 8 8
4 4 4
8 8 8
13 13 13
11 11 11
24 24 24
22 22 22
22 22 22
2 2 2
11 11 11
3 3 3
12 12 12
32 32 32
24 24 24
63 63 63
67 67 67
68 68 68
74 74 74
93 93 93
82 82 82
91 91 91
128 128 128
162 162 162
138 138 138
135 135 135
135 135 135
117 117 117
113 113 113
149 149 149
145 145 145
124 124 124
94 94 94
85 85 85
48 48 48
25 25 25
25 25 25
16 16 16
29 29 29
22 22 22
35 35 35
67 67 67
80 80 80
86 86 86
98 98 98
43 43 43
79 79 79
124 124 124
165 165 165
113 113 113
54 54 54
56 56 56
25 25 25
50 50 50
75 75 75
29 29 29
15 15 15
48 48 48
39 39 39
63 63 63
58 58 58
85 85 85
66 66 66
0 0 0
0 0 0
0 0 0
0 0 0
0 0 0
0 0 0
0 0 0
0 0 0
0 0 0
0 0 0
0 0 0
0 0 0
0 0 0
0 0 0
0 0 0
0 0 0
0 0 0
0 0 0
0 0 0
0 0 0
0 0 0
255 255 255
255 255 255
255 255 255
255 255 255
255 255 255
255 255 255
255 255 255
255 255 255
255 255 255
255 255 255
255 255 255
255 255 255
255 255 255
255 255 255
255 255 255
255 255 255
255 255 255
255 255 255
255 255 255
0 0 0
0 0 0
0 0 0
0 0 0
0 0 0
0 0 0
0 0 0
0 0 0
0 0 0
0 0 0
0 0 0
0 0 0
0 0 0
0 0 0
0 0 0
0 0 0
0 0 0
0 0 0
0 0 0
0 0 0
0 0 0
0 0 0
0 0 0
0 0 0
0 0 0
0 0 0
0 0 0
0 0 0
0 0 0
0 0 0
0 0 0
0 0 0
0 0 0
0 0 0
0 0 0
0 0 0
0 0 0
0 0 0
0 0 0
0 0 0
0 0 0
0 0 0
0 0 0
0 0 0
0 0 0
0 0 0
0 0 0
0 0 0
0 0 0
0 0 0
0 0 0
0 0 0
0 0 0
0 0 0
0 0 0
0 0 0
0 0 0
0 0 0
0 0 0
0 0 0
0 0 0
0 0 0
0 0 0
0 0 0
0 0 0
0 0 0
0 0 0
0 0 0
0 0 0
0 0 0
0 0 0
0 0 0
0 0 0
0 0 0
0 0 0
0 0 0
0 0 0
0 0 0
0 0 0
0 0 0
0 0 0
0 0 0
0 0 0
0 0 0
0 0 0
0 0 0
0 0 0
0 0 0
0 0 0
0 0 0
0 0 0
0 0 0
0 0 0
0 0 0
0 0 0
0 0 0
0 0 0
0 0 0
0 0 0
0 0 0
0 0 0
0 0 0
0 0 0
0 0 0
0 0 0
0 0 0
0 0 0
0 0 0
0 0 0
0 0 0
0 0 0
0 0 0
0 0 0
0 0 0
0 0 0
0 0 0
0 0 0
0 0 0
0 0 0
0 0 0
0 0 0
0 0 0
0 0 0
0 0 0
0 0 0
0 0 0
0 0 0
0 0 0
0 0 0
0 0 0
0 0 0
0 0 0
0 0 0
0 0 0
0 0 0
0 0 0
0 0 0
0 0 0
0 0 0
0 0 0
0 0 0
0 0 0
0 0 0
0 0 0
0 0 0
0 0 0
0 0 0
0 0 0
0 0 0
0 0 0
0 0 0
0 0 0
0 0 0
0 0 0
0 0 0
0 0 0
0 0 0
0 0 0
0 0 0
0 0 0
0 0 0
0 0 0
0 0 0
0 0 0
0 0 0
0 0 0
0 0 0
0 0 0
0 0 0
0 0 0
0 0 0
0 0 0
0 0 0
0 0 0
0 0 0
0 0 0
0 0 0
0 0 0
0 0 0
0 0 0
0 0 0
0 0 0
0 0 0
0 0 0
0 0 0
0 0 0
0 0 0
0 0 0
0 0 0
0 0 0
0 0 0
0 0 0
0 0 0
0 0 0
0 0 0
0 0 0
0 0 0
0 0 0
0 0 0
0 0 0
0 0 0
0 0 0
0 0 0
0 0 0
0 0 0
0 0 0
0 0 0
0 0 0
0 0 0
0 0 0
0 0 0
0 0 0
0 0 0
0 0 0
0 0 0
0 0 0
0 0 0
0 0 0
0 0 0
0 0 0
0 0 0
0 0 0
0 0 0
0 0 0
0 0 0
0 0 0
0 0 0
0 0 0
0 0 0
0 0 0
0 0 0
0 0 0
0 0 0
0 0 0
0 0 0
0 0 0
0 0 0
0 0 0
0 0 0
0 0 0
0 0 0
0 0 0
0 0 0
0 0 0
0 0 0
0 0 0
0 0 0
0 0 0
0 0 0
0 0 0
0 0 0
0 0 0
0 0 0
0 0 0
0 0 0
0 0 0
0 0 0
0 0 0
0 0 0
0 0 0
0 0 0
0 0 0
0 0 0
0 0 0
8 8 8
31 31 31
48 48 48
70 70 70
61 61 61
0 0 0
51 51 51
36 36 36
30 30 30
37 37 37
26 26 26
70 70 70
19 19 19
19 19 19
43 43 43
0 0 0
31 31 31
45 45 45
27 27 27
0 0 0
8 8 8
10 10 10
34 34 34
8 8 8
71 71 71
40 40 40
59 59 59
13 13 13
44 44 44
61 61 61
27 27 27
35 35 35
30 30 30
7 7 7
10 10 10
16 16 16
9 9 9
7 7 7
10 10 10
15 15 15
3 3 3
7 7 7
18 18 18
21 21 21
4 4 4
11 11 11
53 53 53
39 39 39
51 51 51
88 88 88
79 79 79
70 70 70
94 94 94
142 142 142
141 141 141
130 130 130
121 121 121
158 158 158
143 143 143
134 134 134
102 102 102
171 171 171
184 184 184
146 146 146
93 93 93
56 56 56
48 48 48
53 53 53
49 49 49
35 35 35
29 29 29
20 20 20
29 29 29
51 51 51
70 70 70
56 56 56
45 45 45
55 55 55
37 37 37
55 55 55
103 103 103
158 158 158
126 126 126
69 69 69
47 47 47
29 29 29
18 18 18
58 58 58
60 60 60
14 14 14
36 36 36
65 65 65
36 36 36
72 72 72
53 53 53
9 9 9
0 0 0
0 0 0
0 0 0
0 0 0
0 0 0
0 0 0
0 0 0
0 0 0
0 0 0
0 0 0
0 0 0
0 0 0
0 0 0
0 0 0
0 0 0
0 0 0
0 0 0
0 0 0
0 0 0
0 0 0
0 0 0
255 255 255
255 255 255
255 255 255
255 255 255
255 255 255
255 255 255
255 255 255
255 255 255
255 255 255
255 255 255
255 255 255
255 255 255
255 255 255
255 255 255
255 255 255
255 255 255
255 255 255
255 255 255
255 255 255
0 0 0
0 0 0
0 0 0
0 0 0
0 0 0
0 0 0
0 0 0
0 0 0
0 0 0
0 0 0
0 0 0
0 0 0
0 0 0
0 0 0
0 0 0
0 0 0
0 0 0
0 0 0
0 0 0
0 0 0
0 0 0
0 0 0
0 0 0
0 0 0
0 0 0
0 0 0
0 0 0
0 0 0
0 0 0
0 0 0
0 0 0
0 0 0
0 0 0
0 0 0
0 0 0
0 0 0
0 0 0
0 0 0
0 0 0
0 0 0
0 0 0
0 0 0
0 0 0
0 0 0
0 0 0
0 0 0
0 0 0
0 0 0
0 0 0
0 0 0
0 0 0
0 0 0
0 0 0
0 0 0
0 0 0
0 0 0
0 0 0
0 0 0
0 0 0
0 0 0
0 0 0
0 0 0
0 0 0
0 0 0
0 0 0
0 0 0
0 0 0
0 0 0
0 0 0
0 0 0
0 0 0
0 0 0
0 0 0
0 0 0
0 0 0
0 0 0
0 0 0
0 0 0
0 0 0
0 0 0
0 0 0
0 0 0
0 0 0
0 0 0
0 0 0
0 0 0
0 0 0
0 0 0
0 0 0
0 0 0
0 0 0
0 0 0
0 0 0
0 0 0
0 0 0
0 0 0
0 0 0
0 0 0
0 0 0
0 0 0
0 0 0
0 0 0
0 0 0
0 0 0
0 0 0
0 0 0
0 0 0
0 0 0
0 0 0
0 0 0
0 0 0
0 0 0
0 0 0
0 0 0
0 0 0
0 0 0
0 0 0
0 0 0
0 0 0
0 0 0
0 0 0
0 0 0
0 0 0
0 0 0
0 0 0
0 0 0
0 0 0
0 0 0
0 0 0
0 0 0
0 0 0
0 0 0
0 0 0
0 0 0
0 0 0
0 0 0
0 0 0
0 0 0
0 0 0
0 0 0
0 0 0
0 0 0
0 0 0
0 0 0
0 0 0
0 0 0
0 0 0
0 0 0
0 0 0
0 0 0
0 0 0
0 0 0
0 0 0
0 0 0
0 0 0
0 0 0
0 0 0
0 0 0
0 0 0
0 0 0
0 0 0
0 0 0
0 0 0
0 0 0
0 0 0
0 0 0
0 0 0
0 0 0
0 0 0
0 0 0
0 0 0
0 0 0
0 0 0
0 0 0
0 0 0
0 0 0
0 0 0
0 0 0
0 0 0
0 0 0
0 0 0
0 0 0
0 0 0
0 0 0
0 0 0
0 0 0
0 0 0
0 0 0
0 0 0
0 0 0
0 0 0
0 0 0
0 0 0
0 0 0
0 0 0
0 0 0
0 0 0
0 0 0
0 0 0
0 0 0
0 0 0
0 0 0
0 0 0
0 0 0
0 0 0
0 0 0
0 0 0
0 0 0
0 0 0
0 0 0
0 0 0
0 0 0
0 0 0
0 0 0
0 0 0
0 0 0
0 0 0
0 0 0
0 0 0
0 0 0
0 0 0
0 0 0
0 0 0
0 0 0
0 0 0
0 0 0
0 0 0
0 0 0
0 0 0
0 0 0
0 0 0
0 0 0
0 0 0
0 0 0
0 0 0
0 0 0
0 0 0
0 0 0
0 0 0
0 0 0
0 0 0
0 0 0
0 0 0
0 0 0
0 0 0
0 0 0
0 0 0
0 0 0
0 0 0
0 0 0
0 0 0
0 0 0
0 0 0
0 0 0
0 0 0
0 0 0
0 0 0
0 0 0
0 0 0
0 0 0
0 0 0
0 0 0
0 0 0
0 0 0
52 52 52
23 23 23
37 37 37
0 0 0
38 38 38
1 1 1
20 20 20
24 24 24
9 9 9
27 27 27
0 0 0
70 70 70
66 66 66
14 14 14
47 47 47
45 45 45
25 25 25
54 54 54
34 34 34
54 54 54
30 30 30
0 0 0
28 28 28
19 19 19
57 57 57
1 1 1
70 70 70
54 54 54
31 31 31
46 46 46
47 47 47
77 77 77
36 36 36
7 7 7
55 55 55
46 46 46
36 36 36
36 36 36
34 34 34
23 23 23
31 31 31
22 22 22
37 37 37
35 35 35
17 17 17
10 10 10
43 43 43
65 65 65
107 107 107
76 76 76
71 71 71
83 83 83
112 112 112
158 158 158
142 142 142
154 154 154
139 139 139
144 144 144
131 131 131
166 166 166
128 128 128
99 99 99
145 145 145
118 118 118
115 115 115
65 65 65
64 64 64
31 31 31
49 49 49
55 55 55
45 45 45
38 38 38
33 33 33
12 12 12
32 32 32
46 46 46
49 49 49
50 50 50
40 40 40
32 32 32
81 81 81
108 108 108
106 106 106
87 87 87
21 21 21
28 28 28
20 20 20
43 43 43
58 58 58
20 20 20
53 53 53
56 56 56
38 38 38
75 75 75
31 31 31
29 29 29
0 0 0
0 0 0
0 0 0
0 0 0
0 0 0
0 0 0
0 0 0
0 0 0
0 0 0
0 0 0
0 0 0
0 0 0
0 0 0
0 0 0
0 0 0
0 0 0
0 0 0
0 0 0
0 0 0
0 0 0
0 0 0
255 255 255
255 255 255
255 255 255
255 255 255
255 255 255
255 255 255
255 255 255
255 255 255
255 255 255
255 255 255
255 255 255
255 255 255
255 255 255
255 255 255
255 255 255
255 255 255
255 255 255
255 255 255
255 255 255
0 0 0
0 0 0
0 0 0
0 0 0
0 0 0
0 0 0
0 0 0
0 0 0
0 0 0
0 0 0
0 0 0
0 0 0
0 0 0
0 0 0
0 0 0
0 0 0
0 0 0
0 0 0
0 0 0
0 0 0
0 0 0
0 0 0
0 0 0
0 0 0
0 0 0
0 0 0
0 0 0
0 0 0
0 0 0
0 0 0
0 0 0
0 0 0
0 0 0
0 0 0
0 0 0
0 0 0
0 0 0
0 0 0
0 0 0
0 0 0
0 0 0
0 0 0
0 0 0
0 0 0
0 0 0
0 0 0
0 0 0
0 0 0
0 0 0
0 0 0
0 0 0
0 0 0
0 0 0
0 0 0
0 0 0
0 0 0
0 0 0
0 0 0
0 0 0
0 0 0
0 0 0
0 0 0
0 0 0
0 0 0
0 0 0
0 0 0
0 0 0
0 0 0
0 0 0
0 0 0
0 0 0
0 0 0
0 0 0
0 0 0
0 0 0
0 0 0
0 0 0
0 0 0
0 0 0
0 0 0
0 0 0
0 0 0
0 0 0
0 0 0
0 0 0
0 0 0
0 0 0
0 0 0
0 0 0
0 0 0
0 0 0
0 0 0
0 0 0
0 0 0
0 0 0
0 0 0
0 0 0
0 0 0
0 0 0
0 0 0
0 0 0
0 0 0
0 0 0
0 0 0
0 0 0
0 0 0
0 0 0
0 0 0
0 0 0
0 0 0
0 0 0
0 0 0
0 0 0
0 0 0
0 0 0
0 0 0
0 0 0
0 0 0
0 0 0
0 0 0
0 0 0
0 0 0
0 0 0
0 0 0
0 0 0
0 0 0
0 0 0
0 0 0
0 0 0
0 0 0
0 0 0
0 0 0
0 0 0
0 0 0
0 0 0
0 0 0
0 0 0
0 0 0
0 0 0
0 0 0
0 0 0
0 0 0
0 0 0
0 0 0
0 0 0
0 0 0
0 0 0
0 0 0
0 0 0
0 0 0
0 0 0
0 0 0
0 0 0
0 0 0
0 0 0
0 0 0
0 0 0
0 0 0
0 0 0
0 0 0
0 0 0
0 0 0
0 0 0
0 0 0
0 0 0
0 0 0
0 0 0
0 0 0
0 0 0
0 0 0
0 0 0
0 0 0
0 0 0
0 0 0
0 0 0
0 0 0
0 0 0
0 0 0
0 0 0
0 0 0
0 0 0
0 0 0
0 0 0
0 0 0
0 0 0
0 0 0
0 0 0
0 0 0
0 0 0
0 0 0
0 0 0
0 0 0
0 0 0
0 0 0
0 0 0
0 0 0
0 0 0
0 0 0
0 0 0
0 0 0
0 0 0
0 0 0
0 0 0
0 0 0
0 0 0
0 0 0
0 0 0
0 0 0
0 0 0
0 0 0
0 0 0
0 0 0
0 0 0
0 0 0
0 0 0
0 0 0
0 0 0
0 0 0
0 0 0
0 0 0
0 0 0
0 0 0
0 0 0
0 0 0
0 0 0
0 0 0
0 0 0
0 0 0
0 0 0
0 0 0
0 0 0
0 0 0
0 0 0
0 0 0
0 0 0
0 0 0
0 0 0
0 0 0
0 0 0
0 0 0
0 0 0
0 0 0
0 0 0
0 0 0
0 0 0
0 0 0
0 0 0
0 0 0
0 0 0
0 0 0
0 0 0
0 0 0
0 0 0
0 0 0
0 0 0
0 0 0
0 0 0
0 0 0
0 0 0
0 0 0
0 0 0
0 0 0
0 0 0
0 0 0
42 42 42
21 21 21
0 0 0
45 45 45
20 20 20
1 1 1
3 3 3
13 13 13
10 10 10
0 0 0
19 19 19
52 52 52
66 66 66
0 0 0
18 18 18
48 48 48
17 17 17
47 47 47
26 26 26
60 60 60
43 43 43
29 29 29
15 15 15
37 37 37
18 18 18
68 68 68
58 58 58
61 61 61
86 86 86
71 71 71
0 0 0
76 76 76
56 56 56
57 57 57
58 58 58
46 46 46
43 43 43
53 53 53
83 83 83
57 57 57
12 12 12
39 39 39
21 21 21
42 42 42
12 12 12
38 38 38
44 44 44
58 58 58
54 54 54
57 57 57
82 82 82
98 98 98
104 104 104
138 138 138
124 124 124
146 146 146
114 114 114
134 134 134
110 110 110
130 130 130
122 122 122
90 90 90
116 116 116
151 151 151
140 140 140
86 86 86
53 53 53
32 32 32
35 35 35
60 60 60
58 58 58
93 93 93
97 97 97
67 67 67
20 20 20
52 52 52
39 39 39
28 28 28
11 11 11
16 16 16
57 57 57
115 115 115
119 119 119
53 53 53
92 92 92
34 34 34
42 42 42
18 18 18
40 40 40
33 33 33
23 23 23
60 60 60
38 38 38
102 102 102
68 68 68
27 27 27
0 0 0
0 0 0
0 0 0
0 0 0
0 0 0
0 0 0
0 0 0
0 0 0
0 0 0
0 0 0
0 0 0
0 0 0
0 0 0
0 0 0
0 0 0
0 0 0
0 0 0
0 0 0
0 0 0
0 0 0
0 0 0
255 255 255
255 255 255
255 255 255
255 255 255
255 255 255
255 255 255
255 255 255
255 255 255
255 255 255
255 255 255
255 255 255
255 255 255
255 255 255
255 255 255
255 255 255
255 255 255
255 255 255
255 255 255
255 255 255
0 0 0
0 0 0
0 0 0
0 0 0
0 0 0
0 0 0
0 0 0
0 0 0
0 0 0
0 0 0
0 0 0
0 0 0
0 0 0
0 0 0
0 0 0
0 0 0
0 0 0
0 0 0
0 0 0
0 0 0
0 0 0
0 0 0
0 0 0
0 0 0
0 0 0
0 0 0
0 0 0
0 0 0
0 0 0
0 0 0
0 0 0
0 0 0
0 0 0
0 0 0
0 0 0
0 0 0
0 0 0
0 0 0
0 0 0
0 0 0
0 0 0
0 0 0
0 0 0
0 0 0
0 0 0
0 0 0
0 0 0
0 0 0
0 0 0
0 0 0
0 0 0
0 0 0
0 0 0
0 0 0
0 0 0
0 0 0
0 0 0
0 0 0
0 0 0
0 0 0
0 0 0
0 0 0
0 0 0
0 0 0
0 0 0
0 0 0
0 0 0
0 0 0
0 0 0
0 0 0
0 0 0
0 0 0
0 0 0
0 0 0
0 0 0
0 0 0
0 0 0
0 0 0
0 0 0
0 0 0
0 0 0
0 0 0
0 0 0
0 0 0
0 0 0
0 0 0
0 0 0
0 0 0
0 0 0
0 0 0
0 0 0
0 0 0
0 0 0
0 0 0
0 0 0
0 0 0
0 0 0
0 0 0
0 0 0
0 0 0
0 0 0
0 0 0
0 0 0
0 0 0
0 0 0
0 0 0
0 0 0
0 0 0
0 0 0
0 0 0
0 0 0
0 0 0
0 0 0
0 0 0
0 0 0
0 0 0
0 0 0
0 0 0
0 0 0
0 0 0
0 0 0
0 0 0
0 0 0
0 0 0
0 0 0
0 0 0
0 0 0
0 0 0
0 0 0
0 0 0
0 0 0
0 0 0
0 0 0
0 0 0
0 0 0
0 0 0
0 0 0
0 0 0
0 0 0
0 0 0
0 0 0
0 0 0
0 0 0
0 0 0
0 0 0
0 0 0
0 0 0
0 0 0
0 0 0
0 0 0
0 0 0
0 0 0
0 0 0
0 0 0
0 0 0
0 0 0
0 0 0
0 0 0
0 0 0
0 0 0
0 0 0
0 0 0
0 0 0
0 0 0
0 0 0
0 0 0
0 0 0
0 0 0
0 0 0
0 0 0
0 0 0
0 0 0
0 0 0
0 0 0
0 0 0
0 0 0
0 0 0
0 0 0
0 0 0
0 0 0
0 0 0
0 0 0
0 0 0
0 0 0
0 0 0
0 0 0
0 0 0
0 0 0
0 0 0
0 0 0
0 0 0
0 0 0
0 0 0
0 0 0
0 0 0
0 0 0
0 0 0
0 0 0
0 0 0
0 0 0
0 0 0
0 0 0
0 0 0
0 0 0
0 0 0
0 0 0
0 0 0
0 0 0
0 0 0
0 0 0
0 0 0
0 0 0
0 0 0
0 0 0
0 0 0
0 0 0
0 0 0
0 0 0
0 0 0
0 0 0
0 0 0
0 0 0
0 0 0
0 0 0
0 0 0
0 0 0
0 0 0
0 0 0
0 0 0
0 0 0
0 0 0
0 0 0
0 0 0
0 0 0
0 0 0
0 0 0
0 0 0
0 0 0
0 0 0
0 0 0
0 0 0
0 0 0
0 0 0
0 0 0
0 0 0
0 0 0
0 0 0
0 0 0
0 0 0
0 0 0
0 0 0
0 0 0
0 0 0
0 0 0
0 0 0
0 0 0
0 0 0
0 0 0
0 0 0
0 0 0
0 0 0
0 0 0
0 0 0
0 0 0
42 42 42
1 1 1
0 0 0
0 0 0
0 0 0
3 3 3
14 14 14
4 4 4
3 3 3
10 10 10
36 36 36
57 57 57
49 49 49
4 4 4
44 44 44
30 30 30
38 38 38
33 33 33
4 4 4
53 53 53
40 40 40
27 27 27
16 16 16
62 62 62
44 44 44
39 39 39
59 59 59
51 51 51
77 77 77
95 95 95
79 79 79
48 48 48
32 32 32
38 38 38
80 80 80
23 23 23
57 57 57
41 41 41
8 8 8
0 0 0
36 36 36
50 50 50
49 49 49
25 25 25
12 12 12
12 12 12
37 37 37
46 46 46
36 36 36
84 84 84
92 92 92
81 81 81
132 132 132
117 117 117
146 146 146
115 115 115
139 139 139
70 70 70
157 157 157
149 149 149
106 106 106
87 87 87
125 125 125
181 181 181
163 163 163
82 82 82
88 88 88
31 31 31
31 31 31
44 44 44
74 74 74
129 129 129
127 127 127
95 95 95
18 18 18
24 24 24
38 38 38
13 13 13
30 30 30
39 39 39
47 47 47
110 110 110
140 140 140
104 104 104
112 112 112
85 85 85
64 64 64
30 30 30
4 4 4
12 12 12
21 21 21
47 47 47
84 84 84
80 80 80
80 80 80
0 0 0
0 0 0
0 0 0
0 0 0
0 0 0
0 0 0
0 0 0
0 0 0
0 0 0
0 0 0
0 0 0
0 0 0
0 0 0
0 0 0
0 0 0
0 0 0
0 0 0
0 0 0
0 0 0
0 0 0
0 0 0
0 0 0
255 255 255
255 255 255
255 255 255
255 255 255
255 255 255
255 255 255
255 255 255
255 255 255
255 255 255
255 255 255
255 255 255
255 255 255
255 255 255
255 255 255
255 255 255
255 255 255
255 255 255
255 255 255
255 255 255
0 0 0
0 0 0
0 0 0
0 0 0
0 0 0
0 0 0
0 0 0
0 0 0
0 0 0
0 0 0
0 0 0
0 0 0
0 0 0
0 0 0
0 0 0
0 0 0
0 0 0
0 0 0
0 0 0
0 0 0
0 0 0
0 0 0
0 0 0
0 0 0
0 0 0
0 0 0
0 0 0
0 0 0
0 0 0
0 0 0
0 0 0
0 0 0
0 0 0
0 0 0
0 0 0
0 0 0
0 0 0
0 0 0
0 0 0
0 0 0
0 0 0
0 0 0
0 0 0
0 0 0
0 0 0
0 0 0
0 0 0
0 0 0
0 0 0
0 0 0
0 0 0
0 0 0
0 0 0
0 0 0
0 0 0
0 0 0
0 0 0
0 0 0
0 0 0
0 0 0
0 0 0
0 0 0
0 0 0
0 0 0
0 0 0
0 0 0
0 0 0
0 0 0
0 0 0
0 0 0
0 0 0
0 0 0
0 0 0
0 0 0
0 0 0
0 0 0
0 0 0
0 0 0
0 0 0
0 0 0
0 0 0
0 0 0
0 0 0
0 0 0
0 0 0
0 0 0
0 0 0
0 0 0
0 0 0
0 0 0
0 0 0
0 0 0
0 0 0
0 0 0
0 0 0
0 0 0
0 0 0
0 0 0
0 0 0
0 0 0
0 0 0
0 0 0
0 0 0
0 0 0
0 0 0
0 0 0
0 0 0
0 0 0
0 0 0
0 0 0
0 0 0
0 0 0
0 0 0
0 0 0
0 0 0
0 0 0
0 0 0
0 0 0
0 0 0
0 0 0
0 0 0
0 0 0
0 0 0
0 0 0
0 0 0
0 0 0
0 0 0
0 0 0
0 0 0
0 0 0
0 0 0
0 0 0
0 0 0
0 0 0
0 0 0
0 0 0
0 0 0
0 0 0
0 0 0
0 0 0
0 0 0
0 0 0
0 0 0
0 0 0
0 0 0
0 0 0
0 0 0
0 0 0
0 0 0
0 0 0
0 0 0
0 0 0
0 0 0
0 0 0
0 0 0
0 0 0
0 0 0
0 0 0
0 0 0
0 0 0
0 0 0
0 0 0
0 0 0
0 0 0
0 0 0
0 0 0
0 0 0
0 0 0
0 0 0
0 0 0
0 0 0
0 0 0
0 0 0
0 0 0
0 0 0
0 0 0
0 0 0
0 0 0
0 0 0
0 0 0
0 0 0
0 0 0
0 0 0
0 0 0
0 0 0
0 0 0
0 0 0
0 0 0
0 0 0
0 0 0
0 0 0
0 0 0
0 0 0
0 0 0
0 0 0
0 0 0
0 0 0
0 0 0
0 0 0
0 0 0
0 0 0
0 0 0
0 0 0
0 0 0
0 0 0
0 0 0
0 0 0
0 0 0
0 0 0
0 0 0
0 0 0
0 0 0
0 0 0
0 0 0
0 0 0
0 0 0
0 0 0
0 0 0
0 0 0
0 0 0
0 0 0
0 0 0
0 0 0
0 0 0
0 0 0
0 0 0
0 0 0
0 0 0
0 0 0
0 0 0
0 0 0
0 0 0
0 0 0
0 0 0
0 0 0
0 0 0
0 0 0
0 0 0
0 0 0
0 0 0
0 0 0
0 0 0
0 0 0
0 0 0
0 0 0
0 0 0
0 0 0
0 0 0
0 0 0
0 0 0
0 0 0
0 0 0
0 0 0
0 0 0
0 0 0
0 0 0
0 0 0
0 0 0
0 0 0
0 0 0
0 0 0
0 0 0
0 0 0
0 0 0
0 0 0
16 16 16
24 24 24
41 41 41
20 20 20
4 4 4
8 8 8
7 7 7
3 3 3
0 0 0
9 9 9
56 56 56
48 48 48
32 32 32
59 59 59
12 12 12
25 25 25
31 31 31
0 0 0
2 2 2
61 61 61
38 38 38
33 33 33
35 35 35
29 29 29
41 41 41
38 38 38
26 26 26
59 59 59
78 78 78
79 79 79
60 60 60
67 67 67
33 33 33
69 69 69
36 36 36
77 77 77
42 42 42
52 52 52
61 61 61
0 0 0
42 42 42
25 25 25
8 8 8
8 8 8
13 13 13
13 13 13
28 28 28
45 45 45
40 40 40
49 49 49
114 114 114
115 115 115
128 128 128
174 174 174
118 118 118
114 114 114
143 143 143
155 155 155
150 150 150
121 121 121
99 99 99
154 154 154
167 167 167
130 130 130
124 124 124
107 107 107
35 35 35
33 33 33
56 56 56
98 98 98
141 141 141
126 126 126
85 85 85
38 38 38
21 21 21
27 27 27
37 37 37
51 51 51
26 26 26
51 51 51
88 88 88
147 147 147
140 140 140
110 110 110
103 103 103
48 48 48
14 14 14
17 17 17
4 4 4
16 16 16
45 45 45
78 78 78
44 44 44
62 62 62
0 0 0
0 0 0
0 0 0
0 0 0
0 0 0
0 0 0
0 0 0
0 0 0
0 0 0
0 0 0
0 0 0
0 0 0
0 0 0
0 0 0
0 0 0
0 0 0
0 0 0
0 0 0
0 0 0
0 0 0
0 0 0
0 0 0
255 255 255
255 255 255
255 255 255
255 255 255
255 255 255
255 255 255
255 255 255
255 255 255
255 255 255
255 255 255
255 255 255
255 255 255
255 255 255
255 255 255
255 255 255
255 255 255
255 255 255
255 255 255
255 255 255
0 0 0
0 0 0
0 0 0
0 0 0
0 0 0
0 0 0
0 0 0
0 0 0
0 0 0
0 0 0
0 0 0
0 0 0
0 0 0
0 0 0
0 0 0
0 0 0
0 0 0
0 0 0
0 0 0
0 0 0
0 0 0
0 0 0
0 0 0
0 0 0
0 0 0
0 0 0
0 0 0
0 0 0
0 0 0
0 0 0
0 0 0
0 0 0
0 0 0
0 0 0
0 0 0
0 0 0
0 0 0
0 0 0
0 0 0
0 0 0
0 0 0
0 0 0
0 0 0
0 0 0
0 0 0
0 0 0
0 0 0
0 0 0
0 0 0
0 0 0
0 0 0
0 0 0
0 0 0
0 0 0
0 0 0
0 0 0
0 0 0
0 0 0
0 0 0
0 0 0
0 0 0
0 0 0
0 0 0
0 0 0
0 0 0
0 0 0
0 0 0
0 0 0
0 0 0
0 0 0
0 0 0
0 0 0
0 0 0
0 0 0
0 0 0
0 0 0
0 0 0
0 0 0
0 0 0
0 0 0
0 0 0
0 0 0
0 0 0
0 0 0
0 0 0
0 0 0
0 0 0
0 0 0
0 0 0
0 0 0
0 0 0
0 0 0
0 0 0
0 0 0
0 0 0
0 0 0
0 0 0
0 0 0
0 0 0
0 0 0
0 0 0
0 0 0
0 0 0
0 0 0
0 0 0
0 0 0
0 0 0
0 0 0
0 0 0
0 0 0
0 0 0
0 0 0
0 0 0
0 0 0
0 0 0
0 0 0
0 0 0
0 0 0
0 0 0
0 0 0
0 0 0
0 0 0
0 0 0
0 0 0
0 0 0
0 0 0
0 0 0
0 0 0
0 0 0
0 0 0
0 0 0
0 0 0
0 0 0
0 0 0
0 0 0
0 0 0
0 0 0
0 0 0
0 0 0
0 0 0
0 0 0
0 0 0
0 0 0
0 0 0
0 0 0
0 0 0
0 0 0
0 0 0
0 0 0
0 0 0
0 0 0
0 0 0
0 0 0
0 0 0
0 0 0
0 0 0
0 0 0
0 0 0
0 0 0
0 0 0
0 0 0
0 0 0
0 0 0
0 0 0
0 0 0
0 0 0
0 0 0
0 0 0
0 0 0
0 0 0
0 0 0
0 0 0
0 0 0
0 0 0
0 0 0
0 0 0
0 0 0
0 0 0
0 0 0
0 0 0
0 0 0
0 0 0
0 0 0
0 0 0
0 0 0
0 0 0
0 0 0
0 0 0
0 0 0
0 0 0
0 0 0
0 0 0
0 0 0
0 0 0
0 0 0
0 0 0
0 0 0
0 0 0
0 0 0
0 0 0
0 0 0
0 0 0
0 0 0
0 0 0
0 0 0
0 0 0
0 0 0
0 0 0
0 0 0
0 0 0
0 0 0
0 0 0
0 0 0
0 0 0
0 0 0
0 0 0
0 0 0
0 0 0
0 0 0
0 0 0
0 0 0
0 0 0
0 0 0
0 0 0
0 0 0
0 0 0
0 0 0
0 0 0
0 0 0
0 0 0
0 0 0
0 0 0
0 0 0
0 0 0
0 0 0
0 0 0
0 0 0
0 0 0
0 0 0
0 0 0
0 0 0
0 0 0
0 0 0
0 0 0
0 0 0
0 0 0
0 0 0
0 0 0
0 0 0
0 0 0
0 0 0
0 0 0
0 0 0
0 0 0
0 0 0
0 0 0
0 0 0
0 0 0
0 0 0
0 0 0
0 0 0
0 0 0
0 0 0
0 0 0
0 0 0
37 37 37
50 50 50
65 65 65
35 35 35
16 16 16
0 0 0
15 15 15
2 2 2
0 0 0
19 19 19
61 61 61
25 25 25
67 67 67
18 18 18
28 28 28
31 31 31
29 29 29
0 0 0
40 40 40
0 0 0
10 10 10
4 4 4
23 23 23
20 20 20
42 42 42
53 53 53
79 79 79
52 52 52
66 66 66
0 0 0
63 63 63
57 57 57
40 40 40
51 51 51
61 61 61
47 47 47
42 42 42
53 53 53
48 48 48
34 34 34
45 45 45
14 14 14
8 8 8
7 7 7
5 5 5
8 8 8
23 23 23
69 69 69
59 59 59
89 89 89
108 108 108
121 121 121
134 134 134
58 58 58
145 145 145
123 123 123
110 110 110
187 187 187
153 153 153
97 97 97
117 117 117
177 177 177
160 160 160
144 144 144
122 122 122
109 109 109
48 48 48
29 29 29
66 66 66
98 98 98
124 124 124
116 116 116
72 72 72
34 34 34
11 11 11
40 40 40
53 53 53
21 21 21
20 20 20
76 76 76
110 110 110
150 150 150
141 141 141
95 95 95
86 86 86
30 30 30
24 24 24
25 25 25
31 31 31
25 25 25
41 41 41
70 70 70
43 43 43
0 0 0
0 0 0
0 0 0
0 0 0
0 0 0
0 0 0
0 0 0
0 0 0
0 0 0
0 0 0
0 0 0
0 0 0
0 0 0
0 0 0
0 0 0
0 0 0
0 0 0
0 0 0
0 0 0
0 0 0
0 0 0
0 0 0
0 0 0
255 255 255
255 255 255
255 255 255
255 255 255
255 255 255
255 255 255
255 255 255
255 255 255
255 255 255
255 255 255
255 255 255
255 255 255
255 255 255
255 255 255
255 255 255
255 255 255
255 255 255
255 255 255
255 255 255
0 0 0
0 0 0
0 0 0
0 0 0
0 0 0
0 0 0
0 0 0
0 0 0
0 0 0
0 0 0
0 0 0
0 0 0
0 0 0
0 0 0
0 0 0
0 0 0
0 0 0
0 0 0
0 0 0
0 0 0
0 0 0
0 0 0
0 0 0
0 0 0
0 0 0
0 0 0
0 0 0
0 0 0
0 0 0
0 0 0
0 0 0
0 0 0
0 0 0
0 0 0
0 0 0
0 0 0
0 0 0
0 0 0
0 0 0
0 0 0
0 0 0
0 0 0
0 0 0
0 0 0
0 0 0
0 0 0
0 0 0
0 0 0
0 0 0
0 0 0
0 0 0
0 0 0
0 0 0
0 0 0
0 0 0
0 0 0
0 0 0
0 0 0
0 0 0
0 0 0
0 0 0
0 0 0
0 0 0
0 0 0
0 0 0
0 0 0
0 0 0
0 0 0
0 0 0
0 0 0
0 0 0
0 0 0
0 0 0
0 0 0
0 0 0
0 0 0
0 0 0
0 0 0
0 0 0
0 0 0
0 0 0
0 0 0
0 0 0
0 0 0
0 0 0
0 0 0
0 0 0
0 0 0
0 0 0
0 0 0
0 0 0
0 0 0
0 0 0
0 0 0
0 0 0
0 0 0
0 0 0
0 0 0
0 0 0
0 0 0
0 0 0
0 0 0
0 0 0
0 0 0
0 0 0
0 0 0
0 0 0
0 0 0
0 0 0
0 0 0
0 0 0
0 0 0
0 0 0
0 0 0
0 0 0
0 0 0
0 0 0
0 0 0
0 0 0
0 0 0
0 0 0
0 0 0
0 0 0
0 0 0
0 0 0
0 0 0
0 0 0
0 0 0
0 0 0
0 0 0
0 0 0
0 0 0
0 0 0
0 0 0
0 0 0
0 0 0
0 0 0
0 0 0
0 0 0
0 0 0
0 0 0
0 0 0
0 0 0
0 0 0
0 0 0
0 0 0
0 0 0
0 0 0
0 0 0
0 0 0
0 0 0
0 0 0
0 0 0
0 0 0
0 0 0
0 0 0
0 0 0
0 0 0
0 0 0
0 0 0
0 0 0
0 0 0
0 0 0
0 0 0
0 0 0
0 0 0
0 0 0
0 0 0
0 0 0
0 0 0
0 0 0
0 0 0
0 0 0
0 0 0
0 0 0
0 0 0
0 0 0
0 0 0
0 0 0
0 0 0
0 0 0
0 0 0
0 0 0
0 0 0
0 0 0
0 0 0
0 0 0
0 0 0
0 0 0
0 0 0
0 0 0
0 0 0
0 0 0
0 0 0
0 0 0
0 0 0
0 0 0
0 0 0
0 0 0
0 0 0
0 0 0
0 0 0
0 0 0
0 0 0
0 0 0
0 0 0
0 0 0
0 0 0
0 0 0
0 0 0
0 0 0
0 0 0
0 0 0
0 0 0
0 0 0
0 0 0
0 0 0
0 0 0
0 0 0
0 0 0
0 0 0
0 0 0
0 0 0
0 0 0
0 0 0
0 0 0
0 0 0
0 0 0
0 0 0
0 0 0
0 0 0
0 0 0
0 0 0
0 0 0
0 0 0
0 0 0
0 0 0
0 0 0
0 0 0
0 0 0
0 0 0
0 0 0
0 0 0
0 0 0
0 0 0
0 0 0
0 0 0
0 0 0
0 0 0
0 0 0
0 0 0
0 0 0
0 0 0
0 0 0
0 0 0
0 0 0
0 0 0
0 0 0
0 0 0
0 0 0
0 0 0
0 0 0
0 0 0
0 0 0
0 0 0
68 68 68
0 0 0
17 17 17
52 52 52
26 26 26
8 8 8
15 15 15
6 6 6
5 5 5
37 37 37
0 0 0
30 30 30
73 73 73
37 37 37
0 0 0
34 34 34
62 62 62
65 65 65
66 66 66
64 64 64
18 18 18
5 5 5
29 29 29
21 21 21
27 27 27
0 0 0
44 44 44
95 95 95
41 41 41
14 14 14
53 53 53
33 33 33
49 49 49
30 30 30
29 29 29
36 36 36
27 27 27
50 50 50
32 32 32
28 28 28
35 35 35
27 27 27
8 8 8
0 0 0
7 7 7
10 10 10
15 15 15
44 44 44
68 68 68
82 82 82
114 114 114
92 92 92
142 142 142
150 150 150
129 129 129
148 148 148
128 128 128
102 102 102
143 143 143
137 137 137
143 143 143
139 139 139
176 176 176
138 138 138
158 158 158
115 115 115
36 36 36
52 52 52
89 89 89
94 94 94
70 70 70
55 55 55
44 44 44
7 7 7
7 7 7
17 17 17
28 28 28
10 10 10
18 18 18
51 51 51
83 83 83
141 141 141
166 166 166
136 136 136
28 28 28
15 15 15
16 16 16
16 16 16
40 40 40
47 47 47
59 59 59
56 56 56
67 67 67
78 78 78
0 0 0
0 0 0
0 0 0
0 0 0
0 0 0
0 0 0
0 0 0
0 0 0
0 0 0
0 0 0
0 0 0
0 0 0
0 0 0
0 0 0
0 0 0
0 0 0
0 0 0
0 0 0
0 0 0
0 0 0
0 0 0
0 0 0
255 255 255
255 255 255
255 255 255
255 255 255
255 255 255
255 255 255
255 255 255
255 255 255
255 255 255
255 255 255
255 255 255
255 255 255
255 255 255
255 255 255
255 255 255
255 255 255
255 255 255
255 255 255
255 255 255
0 0 0
0 0 0
0 0 0
0 0 0
0 0 0
0 0 0
0 0 0
0 0 0
0 0 0
0 0 0
0 0 0
0 0 0
0 0 0
0 0 0
0 0 0
0 0 0
0 0 0
0 0 0
0 0 0
0 0 0
0 0 0
0 0 0
0 0 0
0 0 0
0 0 0
0 0 0
0 0 0
0 0 0
0 0 0
0 0 0
0 0 0
0 0 0
0 0 0
0 0 0
0 0 0
0 0 0
0 0 0
0 0 0
0 0 0
0 0 0
0 0 0
0 0 0
0 0 0
0 0 0
0 0 0
0 0 0
0 0 0
0 0 0
0 0 0
0 0 0
0 0 0
0 0 0
0 0 0
0 0 0
0 0 0
0 0 0
0 0 0
0 0 0
0 0 0
0 0 0
0 0 0
0 0 0
0 0 0
0 0 0
0 0 0
0 0 0
0 0 0
0 0 0
0 0 0
0 0 0
0 0 0
0 0 0
0 0 0
0 0 0
0 0 0
0 0 0
0 0 0
0 0 0
0 0 0
0 0 0
0 0 0
0 0 0
0 0 0
0 0 0
0 0 0
0 0 0
0 0 0
0 0 0
0 0 0
0 0 0
0 0 0
0 0 0
0 0 0
0 0 0
0 0 0
0 0 0
0 0 0
0 0 0
0 0 0
0 0 0
0 0 0
0 0 0
0 0 0
0 0 0
0 0 0
0 0 0
0 0 0
0 0 0
0 0 0
0 0 0
0 0 0
0 0 0
0 0 0
0 0 0
0 0 0
0 0 0
0 0 0
0 0 0
0 0 0
0 0 0
0 0 0
0 0 0
0 0 0
0 0 0
0 0 0
0 0 0
0 0 0
0 0 0
0 0 0
0 0 0
0 0 0
0 0 0
0 0 0
0 0 0
0 0 0
0 0 0
0 0 0
0 0 0
0 0 0
0 0 0
0 0 0
0 0 0
0 0 0
0 0 0
0 0 0
0 0 0
0 0 0
0 0 0
0 0 0
0 0 0
0 0 0
0 0 0
0 0 0
0 0 0
0 0 0
0 0 0
0 0 0
0 0 0
0 0 0
0 0 0
0 0 0
0 0 0
0 0 0
0 0 0
0 0 0
0 0 0
0 0 0
0 0 0
0 0 0
0 0 0
0 0 0
0 0 0
0 0 0
0 0 0
0 0 0
0 0 0
0 0 0
0 0 0
0 0 0
0 0 0
0 0 0
0 0 0
0 0 0
0 0 0
0 0 0
0 0 0
0 0 0
0 0 0
0 0 0
0 0 0
0 0 0
0 0 0
0 0 0
0 0 0
0 0 0
0 0 0
0 0 0
0 0 0
0 0 0
0 0 0
0 0 0
0 0 0
0 0 0
0 0 0
0 0 0
0 0 0
0 0 0
0 0 0
0 0 0
0 0 0
0 0 0
0 0 0
0 0 0
0 0 0
0 0 0
0 0 0
0 0 0
0 0 0
0 0 0
0 0 0
0 0 0
0 0 0
0 0 0
0 0 0
0 0 0
0 0 0
0 0 0
0 0 0
0 0 0
0 0 0
0 0 0
0 0 0
0 0 0
0 0 0
0 0 0
0 0 0
0 0 0
0 0 0
0 0 0
0 0 0
0 0 0
0 0 0
0 0 0
0 0 0
0 0 0
0 0 0
0 0 0
0 0 0
0 0 0
0 0 0
0 0 0
0 0 0
0 0 0
0 0 0
0 0 0
0 0 0
0 0 0
0 0 0
0 0 0
0 0 0
0 0 0
0 0 0
0 0 0
0 0 0
0 0 0
0 0 0
50 50 50
31 31 31
0 0 0
33 33 33
0 0 0
15 15 15
0 0 0
6 6 6
30 30 30
31 31 31
85 85 85
46 46 46
68 68 68
61 61 61
43 43 43
46 46 46
73 73 73
0 0 0
50 50 50
3 3 3
48 48 48
14 14 14
26 26 26
17 17 17
17 17 17
49 49 49
0 0 0
73 73 73
51 51 51
93 93 93
44 44 44
30 30 30
45 45 45
57 57 57
43 43 43
27 27 27
0 0 0
36 36 36
19 19 19
17 17 17
21 21 21
11 11 11
7 7 7
3 3 3
23 23 23
35 35 35
54 54 54
57 57 57
99 99 99
57 57 57
105 105 105
136 136 136
86 86 86
135 135 135
97 97 97
192 192 192
177 177 177
197 197 197
146 146 146
140 140 140
135 135 135
172 172 172
143 143 143
133 133 133
81 81 81
53 53 53
76 76 76
90 90 90
47 47 47
33 33 33
21 21 21
24 24 24
8 8 8
14 14 14
41 41 41
26 26 26
13 13 13
30 30 30
82 82 82
114 114 114
129 129 129
137 137 137
118 118 118
29 29 29
13 13 13
17 17 17
21 21 21
41 41 41
57 57 57
46 46 46
80 80 80
26 26 26
39 39 39
0 0 0
0 0 0
0 0 0
0 0 0
0 0 0
0 0 0
0 0 0
0 0 0
0 0 0
0 0 0
0 0 0
0 0 0
0 0 0
0 0 0
0 0 0
0 0 0
0 0 0
0 0 0
0 0 0
0 0 0
0 0 0
0 0 0
255 255 255
255 255 255
255 255 255
255 255 255
255 255 255
255 255 255
255 255 255
255 255 255
255 255 255
255 255 255
255 255 255
255 255 255
255 255 255
255 255 255
255 255 255
255 255 255
255 255 255
255 255 255
255 255 255
0 0 0
0 0 0
0 0 0
0 0 0
0 0 0
0 0 0
0 0 0
0 0 0
0 0 0
0 0 0
0 0 0
0 0 0
0 0 0
0 0 0
0 0 0
0 0 0
0 0 0
0 0 0
0 0 0
0 0 0
47 47 47
0 0 0
0 0 0
0 0 0
0 0 0
0 0 0
0 0 0
0 0 0
0 0 0
0 0 0
0 0 0
0 0 0
0 0 0
0 0 0
0 0 0
0 0 0
0 0 0
0 0 0
0 0 0
0 0 0
0 0 0
0 0 0
0 0 0
0 0 0
0 0 0
0 0 0
0 0 0
0 0 0
0 0 0
0 0 0
0 0 0
0 0 0
0 0 0
0 0 0
0 0 0
0 0 0
0 0 0
0 0 0
0 0 0
0 0 0
0 0 0
0 0 0
0 0 0
0 0 0
0 0 0
0 0 0
0 0 0
0 0 0
0 0 0
0 0 0
0 0 0
0 0 0
0 0 0
0 0 0
0 0 0
0 0 0
0 0 0
0 0 0
0 0 0
0 0 0
0 0 0
0 0 0
0 0 0
0 0 0
0 0 0
0 0 0
0 0 0
0 0 0
0 0 0
0 0 0
0 0 0
0 0 0
0 0 0
0 0 0
0 0 0
0 0 0
0 0 0
0 0 0
0 0 0
0 0 0
0 0 0
0 0 0
0 0 0
0 0 0
0 0 0
0 0 0
0 0 0
0 0 0
0 0 0
0 0 0
0 0 0
0 0 0
0 0 0
0 0 0
0 0 0
0 0 0
0 0 0
0 0 0
0 0 0
0 0 0
0 0 0
0 0 0
0 0 0
0 0 0
0 0 0
0 0 0
0 0 0
0 0 0
0 0 0
0 0 0
0 0 0
0 0 0
0 0 0
0 0 0
0 0 0
0 0 0
0 0 0
0 0 0
0 0 0
0 0 0
0 0 0
0 0 0
0 0 0
0 0 0
0 0 0
0 0 0
0 0 0
0 0 0
0 0 0
0 0 0
0 0 0
0 0 0
0 0 0
0 0 0
0 0 0
0 0 0
0 0 0
0 0 0
0 0 0
0 0 0
0 0 0
0 0 0
0 0 0
0 0 0
0 0 0
0 0 0
0 0 0
0 0 0
0 0 0
0 0 0
0 0 0
0 0 0
0 0 0
0 0 0
0 0 0
0 0 0
0 0 0
0 0 0
0 0 0
0 0 0
0 0 0
0 0 0
0 0 0
0 0 0
0 0 0
0 0 0
0 0 0
0 0 0
0 0 0
0 0 0
0 0 0
0 0 0
51 51 51
0 0 0
0 0 0
0 0 0
0 0 0
0 0 0
0 0 0
0 0 0
0 0 0
0 0 0
0 0 0
0 0 0
0 0 0
0 0 0
0 0 0
0 0 0
0 0 0
0 0 0
0 0 0
0 0 0
0 0 0
0 0 0
0 0 0
0 0 0
0 0 0
0 0 0
0 0 0
0 0 0
0 0 0
0 0 0
0 0 0
0 0 0
0 0 0
0 0 0
0 0 0
0 0 0
0 0 0
0 0 0
0 0 0
0 0 0
0 0 0
0 0 0
0 0 0
0 0 0
0 0 0
0 0 0
0 0 0
0 0 0
0 0 0
0 0 0
0 0 0
0 0 0
0 0 0
0 0 0
0 0 0
0 0 0
0 0 0
0 0 0
0 0 0
0 0 0
0 0 0
0 0 0
0 0 0
0 0 0
0 0 0
0 0 0
0 0 0
0 0 0
40 40 40
0 0 0
0 0 0
0 0 0
0 0 0
0 0 0
54 54 54
30 30 30
3 3 3
40 40 40
32 32 32
21 21 21
0 0 0
1 1 1
21 21 21
41 41 41
20 20 20
55 55 55
30 30 30
0 0 0
65 65 65
61 61 61
37 37 37
0 0 0
40 40 40
55 55 55
2 2 2
8 8 8
0 0 0
8 8 8
10 10 10
17 17 17
74 74 74
53 53 53
65 65 65
61 61 61
35 35 35
34 34 34
31 31 31
43 43 43
34 34 34
32 32 32
25 25 25
28 28 28
12 12 12
11 11 11
5 5 5
4 4 4
3 3 3
12 12 12
47 47 47
72 72 72
48 48 48
55 55 55
128 128 128
138 138 138
122 122 122
134 134 134
114 114 114
117 117 117
129 129 129
123 123 123
135 135 135
141 141 141
168 168 168
175 175 175
133 133 133
166 166 166
106 106 106
114 114 114
73 73 73
64 64 64
79 79 79
54 54 54
25 25 25
32 32 32
31 31 31
9 9 9
14 14 14
39 39 39
39 39 39
22 22 22
36 36 36
70 70 70
63 63 63
103 103 103
126 126 126
105 105 105
78 78 78
17 17 17
32 32 32
20 20 20
10 10 10
53 53 53
62 62 62
56 56 56
60 60 60
86 86 86
0 0 0
0 0 0
0 0 0
0 0 0
0 0 0
0 0 0
0 0 0
0 0 0
0 0 0
0 0 0
0 0 0
0 0 0
0 0 0
0 0 0
0 0 0
0 0 0
0 0 0
0 0 0
0 0 0
0 0 0
0 0 0
0 0 0
0 0 0
255 255 255
255 255 255
255 255 255
255 255 255
255 255 255
255 255 255
255 255 255
255 255 255
255 255 255
255 255 255
255 255 255
255 255 255
255 255 255
255 255 255
255 255 255
255 255 255
255 255 255
255 255 255
255 255 255
0 0 0
0 0 0
0 0 0
0 0 0
0 0 0
0 0 0
0 0 0
0 0 0
0 0 0
0 0 0
0 0 0
0 0 0
0 0 0
0 0 0
0 0 0
0 0 0
0 0 0
0 0 0
0 0 0
0 0 0
0 0 0
0 0 0
0 0 0
0 0 0
0 0 0
0 0 0
0 0 0
0 0 0
0 0 0
0 0 0
0 0 0
0 0 0
0 0 0
0 0 0
0 0 0
0 0 0
0 0 0
0 0 0
0 0 0
0 0 0
0 0 0
0 0 0
0 0 0
0 0 0
0 0 0
0 0 0
0 0 0
0 0 0
0 0 0
0 0 0
0 0 0
0 0 0
0 0 0
0 0 0
0 0 0
0 0 0
0 0 0
0 0 0
0 0 0
0 0 0
0 0 0
0 0 0
0 0 0
0 0 0
0 0 0
0 0 0
0 0 0
0 0 0
0 0 0
0 0 0
0 0 0
0 0 0
0 0 0
0 0 0
0 0 0
0 0 0
0 0 0
0 0 0
0 0 0
0 0 0
0 0 0
0 0 0
0 0 0
0 0 0
0 0 0
0 0 0
0 0 0
0 0 0
0 0 0
0 0 0
0 0 0
0 0 0
0 0 0
0 0 0
0 0 0
0 0 0
0 0 0
0 0 0
0 0 0
0 0 0
0 0 0
0 0 0
0 0 0
0 0 0
0 0 0
0 0 0
0 0 0
0 0 0
0 0 0
0 0 0
0 0 0
0 0 0
0 0 0
0 0 0
0 0 0
0 0 0
0 0 0
0 0 0
0 0 0
0 0 0
0 0 0
0 0 0
0 0 0
0 0 0
0 0 0
0 0 0
0 0 0
0 0 0
0 0 0
0 0 0
0 0 0
0 0 0
0 0 0
0 0 0
0 0 0
0 0 0
0 0 0
0 0 0
0 0 0
0 0 0
0 0 0
0 0 0
0 0 0
0 0 0
0 0 0
0 0 0
0 0 0
0 0 0
0 0 0
0 0 0
0 0 0
0 0 0
0 0 0
0 0 0
0 0 0
0 0 0
0 0 0
0 0 0
0 0 0
0 0 0
0 0 0
0 0 0
0 0 0
0 0 0
0 0 0
0 0 0
0 0 0
0 0 0
0 0 0
0 0 0
0 0 0
0 0 0
0 0 0
0 0 0
0 0 0
0 0 0
0 0 0
0 0 0
0 0 0
0 0 0
0 0 0
0 0 0
0 0 0
0 0 0
0 0 0
0 0 0
0 0 0
0 0 0
0 0 0
0 0 0
0 0 0
0 0 0
0 0 0
0 0 0
0 0 0
0 0 0
0 0 0
0 0 0
0 0 0
0 0 0
0 0 0
64 64 64
0 0 0
0 0 0
0 0 0
0 0 0
0 0 0
0 0 0
45 45 45
0 0 0
0 0 0
0 0 0
0 0 0
0 0 0
0 0 0
0 0 0
0 0 0
0 0 0
0 0 0
0 0 0
0 0 0
0 0 0
0 0 0
0 0 0
0 0 0
0 0 0
0 0 0
0 0 0
0 0 0
0 0 0
0 0 0
0 0 0
46 46 46
0 0 0
0 0 0
0 0 0
0 0 0
0 0 0
0 0 0
0 0 0
0 0 0
0 0 0
0 0 0
0 0 0
0 0 0
0 0 0
56 56 56
0 0 0
0 0 0
0 0 0
0 0 0
0 0 0
0 0 0
0 0 0
0 0 0
0 0 0
0 0 0
0 0 0
0 0 0
0 0 0
0 0 0
0 0 0
0 0 0
0 0 0
0 0 0
0 0 0
0 0 0
0 0 0
47 47 47
38 38 38
18 18 18
11 11 11
0 0 0
0 0 0
7 7 7
40 40 40
52 52 52
0 0 0
74 74 74
38 38 38
43 43 43
81 81 81
53 53 53
64 64 64
11 11 11
54 54 54
51 51 51
29 29 29
17 17 17
18 18 18
8 8 8
15 15 15
25 25 25
50 50 50
36 36 36
38 38 38
30 30 30
58 58 58
74 74 74
47 47 47
27 27 27
12 12 12
22 22 22
9 9 9
20 20 20
15 15 15
19 19 19
25 25 25
19 19 19
9 9 9
56 56 56
44 44 44
89 89 89
80 80 80
137 137 137
73 73 73
109 109 109
149 149 149
121 121 121
139 139 139
108 108 108
143 143 143
100 100 100
138 138 138
124 124 124
146 146 146
133 133 133
166 166 166
119 119 119
79 79 79
58 58 58
61 61 61
43 43 43
21 21 21
2 2 2
25 25 25
34 34 34
12 12 12
21 21 21
45 45 45
48 48 48
22 22 22
63 63 63
57 57 57
101 101 101
142 142 142
176 176 176
79 79 79
56 56 56
12 12 12
15 15 15
6 6 6
19 19 19
37 37 37
73 73 73
66 66 66
82 82 82
81 81 81
0 0 0
0 0 0
0 0 0
0 0 0
0 0 0
0 0 0
0 0 0
50 50 50
0 0 0
0 0 0
0 0 0
0 0 0
0 0 0
0 0 0
0 0 0
0 0 0
0 0 0
0 0 0
0 0 0
0 0 0
0 0 0
0 0 0
0 0 0
255 255 255
255 255 255
255 255 255
255 255 255
255 255 255
255 255 255
255 255 255
255 255 255
255 255 255
255 255 255
255 255 255
255 255 255
255 255 255
255 255 255
255 255 255
255 255 255
255 255 255
255 255 255
255 255 255
0 0 0
0 0 0
0 0 0
0 0 0
0 0 0
0 0 0
0 0 0
0 0 0
0 0 0
0 0 0
0 0 0
0 0 0
0 0 0
0 0 0
0 0 0
0 0 0
0 0 0
0 0 0
0 0 0
0 0 0
0 0 0
0 0 0
0 0 0
0 0 0
0 0 0
0 0 0
0 0 0
0 0 0
0 0 0
0 0 0
0 0 0
0 0 0
0 0 0
0 0 0
50 50 50
0 0 0
50 50 50
0 0 0
0 0 0
3 3 3
0 0 0
1 1 1
0 0 0
0 0 0
0 0 0
47 47 47
0 0 0
0 0 0
0 0 0
0 0 0
0 0 0
0 0 0
0 0 0
30 30 30
0 0 0
0 0 0
0 0 0
0 0 0
0 0 0
0 0 0
0 0 0
0 0 0
0 0 0
0 0 0
0 0 0
0 0 0
0 0 0
0 0 0
0 0 0
0 0 0
0 0 0
0 0 0
32 32 32
0 0 0
0 0 0
0 0 0
0 0 0
0 0 0
0 0 0
0 0 0
0 0 0
0 0 0
0 0 0
0 0 0
0 0 0
0 0 0
0 0 0
0 0 0
0 0 0
0 0 0
0 0 0
0 0 0
0 0 0
0 0 0
0 0 0
0 0 0
0 0 0
0 0 0
0 0 0
0 0 0
0 0 0
0 0 0
0 0 0
0 0 0
0 0 0
0 0 0
0 0 0
0 0 0
0 0 0
0 0 0
0 0 0
0 0 0
0 0 0
0 0 0
0 0 0
0 0 0
0 0 0
0 0 0
0 0 0
0 0 0
0 0 0
0 0 0
0 0 0
0 0 0
0 0 0
0 0 0
0 0 0
0 0 0
0 0 0
0 0 0
0 0 0
0 0 0
0 0 0
0 0 0
0 0 0
0 0 0
0 0 0
0 0 0
0 0 0
0 0 0
0 0 0
0 0 0
0 0 0
0 0 0
0 0 0
0 0 0
0 0 0
0 0 0
0 0 0
0 0 0
0 0 0
0 0 0
0 0 0
0 0 0
0 0 0
0 0 0
46 46 46
0 0 0
0 0 0
0 0 0
0 0 0
0 0 0
0 0 0
0 0 0
20 20 20
43 43 43
0 0 0
0 0 0
0 0 0
0 0 0
0 0 0
0 0 0
0 0 0
0 0 0
0 0 0
0 0 0
0 0 0
0 0 0
0 0 0
0 0 0
0 0 0
0 0 0
0 0 0
0 0 0
0 0 0
0 0 0
0 0 0
0 0 0
0 0 0
0 0 0
0 0 0
0 0 0
0 0 0
0 0 0
0 0 0
0 0 0
0 0 0
0 0 0
0 0 0
0 0 0
0 0 0
0 0 0
0 0 0
0 0 0
0 0 0
0 0 0
0 0 0
0 0 0
0 0 0
0 0 0
0 0 0
0 0 0
0 0 0
49 49 49
0 0 0
0 0 0
0 0 0
0 0 0
0 0 0
0 0 0
0 0 0
0 0 0
0 0 0
10 10 10
0 0 0
0 0 0
0 0 0
0 0 0
0 0 0
0 0 0
0 0 0
0 0 0
0 0 0
0 0 0
0 0 0
0 0 0
0 0 0
0 0 0
0 0 0
0 0 0
0 0 0
0 0 0
0 0 0
0 0 0
0 0 0
0 0 0
0 0 0
0 0 0
0 0 0
0 0 0
0 0 0
0 0 0
0 0 0
0 0 0
0 0 0
0 0 0
0 0 0
0 0 0
0 0 0
0 0 0
0 0 0
0 0 0
0 0 0
0 0 0
0 0 0
0 0 0
18 18 18
64 64 64
55 55 55
73 73 73
37 37 37
6 6 6
2 2 2
39 39 39
24 24 24
56 56 56
43 43 43
53 53 53
59 59 59
16 16 16
66 66 66
34 34 34
77 77 77
98 98 98
0 0 0
32 32 32
63 63 63
14 14 14
13 13 13
18 18 18
10 10 10
3 3 3
17 17 17
13 13 13
43 43 43
32 32 32
43 43 43
13 13 13
52 52 52
51 51 51
30 30 30
20 20 20
9 9 9
23 23 23
18 18 18
36 36 36
30 30 30
38 38 38
30 30 30
47 47 47
62 62 62
48 48 48
130 130 130
98 98 98
106 106 106
104 104 104
99 99 99
104 104 104
107 107 107
65 65 65
134 134 134
116 116 116
127 127 127
143 143 143
152 152 152
106 106 106
139 139 139
154 154 154
99 99 99
84 84 84
46 46 46
45 45 45
14 14 14
6 6 6
5 5 5
29 29 29
33 33 33
20 20 20
11 11 11
22 22 22
38 38 38
12 12 12
35 35 35
64 64 64
73 73 73
124 124 124
126 126 126
104 104 104
41 41 41
40 40 40
10 10 10
14 14 14
46 46 46
38 38 38
102 102 102
115 115 115
47 47 47
20 20 20
0 0 0
19 19 19
0 0 0
0 0 0
0 0 0
0 0 0
0 0 0
0 0 0
0 0 0
44 44 44
0 0 0
0 0 0
0 0 0
0 0 0
0 0 0
0 0 0
0 0 0
0 0 0
0 0 0
0 0 0
0 0 0
11 11 11
0 0 0
255 255 255
255 255 255
255 255 255
255 255 255
255 255 255
255 255 255
255 255 255
255 255 255
255 255 255
255 255 255
255 255 255
255 255 255
255 255 255
255 255 255
255 255 255
255 255 255
255 255 255
255 255 255
255 255 255
0 0 0
0 0 0
24 24 24
0 0 0
0 0 0
0 0 0
0 0 0
0 0 0
0 0 0
0 0 0
0 0 0
0 0 0
0 0 0
0 0 0
0 0 0
0 0 0
0 0 0
0 0 0
0 0 0
0 0 0
0 0 0
0 0 0
0 0 0
0 0 0
35 35 35
0 0 0
0 0 0
0 0 0
0 0 0
0 0 0
0 0 0
49 49 49
0 0 0
0 0 0
0 0 0
0 0 0
0 0 0
0 0 0
0 0 0
0 0 0
0 0 0
0 0 0
0 0 0
0 0 0
0 0 0
0 0 0
0 0 0
0 0 0
0 0 0
0 0 0
0 0 0
0 0 0
0 0 0
0 0 0
0 0 0
0 0 0
0 0 0
0 0 0
0 0 0
0 0 0
24 24 24
0 0 0
0 0 0
0 0 0
0 0 0
0 0 0
0 0 0
0 0 0
51 51 51
0 0 0
0 0 0
0 0 0
0 0 0
0 0 0
0 0 0
0 0 0
0 0 0
0 0 0
0 0 0
0 0 0
0 0 0
0 0 0
0 0 0
0 0 0
0 0 0
0 0 0
0 0 0
0 0 0
0 0 0
0 0 0
0 0 0
0 0 0
0 0 0
0 0 0
0 0 0
0 0 0
0 0 0
45 45 45
0 0 0
0 0 0
0 0 0
0 0 0
0 0 0
0 0 0
0 0 0
0 0 0
0 0 0
0 0 0
0 0 0
0 0 0
0 0 0
49 49 49
0 0 0
39 39 39
0 0 0
0 0 0
2 2 2
0 0 0
0 0 0
0 0 0
0 0 0
0 0 0
0 0 0
0 0 0
0 0 0
0 0 0
0 0 0
0 0 0
0 0 0
0 0 0
0 0 0
0 0 0
0 0 0
9 9 9
0 0 0
0 0 0
0 0 0
0 0 0
0 0 0
0 0 0
0 0 0
0 0 0
0 0 0
0 0 0
0 0 0
0 0 0
0 0 0
0 0 0
0 0 0
0 0 0
0 0 0
0 0 0
0 0 0
0 0 0
0 0 0
0 0 0
0 0 0
0 0 0
0 0 0
0 0 0
0 0 0
0 0 0
0 0 0
0 0 0
0 0 0
0 0 0
0 0 0
0 0 0
0 0 0
0 0 0
0 0 0
0 0 0
0 0 0
0 0 0
0 0 0
0 0 0
0 0 0
0 0 0
0 0 0
0 0 0
0 0 0
0 0 0
0 0 0
0 0 0
0 0 0
0 0 0
0 0 0
0 0 0
0 0 0
0 0 0
0 0 0
0 0 0
0 0 0
0 0 0
0 0 0
0 0 0
0 0 0
0 0 0
0 0 0
0 0 0
0 0 0
0 0 0
0 0 0
0 0 0
0 0 0
0 0 0
0 0 0
0 0 0
0 0 0
0 0 0
0 0 0
0 0 0
50 50 50
0 0 0
5 5 5
0 0 0
0 0 0
50 50 50
0 0 0
0 0 0
0 0 0
51 51 51
0 0 0
0 0 0
0 0 0
0 0 0
0 0 0
0 0 0
0 0 0
0 0 0
0 0 0
0 0 0
0 0 0
0 0 0
0 0 0
0 0 0
0 0 0
0 0 0
0 0 0
0 0 0
0 0 0
0 0 0
0 0 0
0 0 0
0 0 0
0 0 0
2 2 2
0 0 0
0 0 0
0 0 0
0 0 0
0 0 0
0 0 0
0 0 0
0 0 0
0 0 0
0 0 0
25 25 25
0 0 0
37 37 37
53 53 53
0 0 0
0 0 0
49 49 49
0 0 0
0 0 0
0 0 0
58 58 58
30 30 30
45 45 45
64 64 64
38 38 38
25 25 25
41 41 41
38 38 38
50 50 50
77 77 77
85 85 85
0 0 0
74 74 74
16 16 16
55 55 55
61 61 61
71 71 71
50 50 50
68 68 68
26 26 26
48 48 48
10 10 10
16 16 16
9 9 9
4 4 4
2 2 2
8 8 8
9 9 9
2 2 2
30 30 30
27 27 27
33 33 33
34 34 34
31 31 31
21 21 21
29 29 29
42 42 42
62 62 62
39 39 39
33 33 33
58 58 58
34 34 34
40 40 40
39 39 39
62 62 62
111 111 111
149 149 149
105 105 105
136 136 136
120 120 120
159 159 159
105 105 105
158 158 158
154 154 154
46 46 46
117 117 117
94 94 94
107 107 107
127 127 127
105 105 105
138 138 138
88 88 88
111 111 111
63 63 63
44 44 44
36 36 36
12 12 12
6 6 6
12 12 12
30 30 30
8 8 8
15 15 15
22 22 22
20 20 20
47 47 47
30 30 30
63 63 63
65 65 65
146 146 146
83 83 83
73 73 73
76 76 76
25 25 25
27 27 27
24 24 24
67 67 67
41 41 41
72 72 72
107 107 107
50 50 50
23 23 23
0 0 0
0 0 0
0 0 0
0 0 0
0 0 0
0 0 0
42 42 42
0 0 0
0 0 0
47 47 47
0 0 0
0 0 0
0 0 0
0 0 0
0 0 0
0 0 0
0 0 0
0 0 0
0 0 0
0 0 0
0 0 0
0 0 0
0 0 0
255 255 255
255 255 255
255 255 255
255 255 255
255 255 255
255 255 255
255 255 255
255 255 255
255 255 255
255 255 255
255 255 255
255 255 255
255 255 255
255 255 255
255 255 255
255 255 255
255 255 255
255 255 255
255 255 255
0 0 0
0 0 0
0 0 0
0 0 0
51 51 51
0 0 0
0 0 0
0 0 0
0 0 0
0 0 0
0 0 0
0 0 0
0 0 0
0 0 0
0 0 0
40 40 40
5 5 5
0 0 0
0 0 0
0 0 0
0 0 0
0 0 0
0 0 0
0 0 0
0 0 0
0 0 0
0 0 0
0 0 0
0 0 0
0 0 0
0 0 0
40 40 40
1 1 1
0 0 0
0 0 0
0 0 0
0 0 0
0 0 0
0 0 0
0 0 0
0 0 0
0 0 0
0 0 0
0 0 0
0 0 0
0 0 0
0 0 0
30 30 30
0 0 0
0 0 0
0 0 0
39 39 39
0 0 0
0 0 0
0 0 0
0 0 0
0 0 0
0 0 0
0 0 0
0 0 0
0 0 0
0 0 0
0 0 0
0 0 0
0 0 0
0 0 0
0 0 0
0 0 0
0 0 0
0 0 0
0 0 0
0 0 0
0 0 0
0 0 0
0 0 0
0 0 0
0 0 0
46 46 46
0 0 0
0 0 0
0 0 0
0 0 0
0 0 0
0 0 0
0 0 0
0 0 0
0 0 0
0 0 0
0 0 0
61 61 61
0 0 0
0 0 0
0 0 0
0 0 0
0 0 0
0 0 0
0 0 0
0 0 0
0 0 0
0 0 0
0 0 0
0 0 0
0 0 0
0 0 0
0 0 0
0 0 0
0 0 0
0 0 0
0 0 0
36 36 36
0 0 0
0 0 0
0 0 0
0 0 0
0 0 0
0 0 0
0 0 0
0 0 0
0 0 0
0 0 0
0 0 0
0 0 0
0 0 0
0 0 0
0 0 0
0 0 0
0 0 0
0 0 0
0 0 0
0 0 0
0 0 0
0 0 0
0 0 0
0 0 0
0 0 0
0 0 0
0 0 0
0 0 0
0 0 0
0 0 0
0 0 0
0 0 0
0 0 0
0 0 0
0 0 0
0 0 0
0 0 0
0 0 0
0 0 0
0 0 0
0 0 0
0 0 0
0 0 0
0 0 0
0 0 0
0 0 0
0 0 0
0 0 0
0 0 0
0 0 0
0 0 0
0 0 0
0 0 0
0 0 0
0 0 0
0 0 0
0 0 0
0 0 0
0 0 0
0 0 0
0 0 0
0 0 0
0 0 0
0 0 0
46 46 46
49 49 49
0 0 0
0 0 0
0 0 0
0 0 0
0 0 0
48 48 48
0 0 0
0 0 0
20 20 20
0 0 0
0 0 0
0 0 0
0 0 0
0 0 0
0 0 0
0 0 0
0 0 0
0 0 0
0 0 0
0 0 0
0 0 0
0 0 0
0 0 0
50 50 50
0 0 0
0 0 0
0 0 0
0 0 0
0 0 0
0 0 0
0 0 0
0 0 0
0 0 0
0 0 0
0 0 0
0 0 0
0 0 0
0 0 0
0 0 0
0 0 0
0 0 0
0 0 0
0 0 0
0 0 0
51 51 51
0 0 0
0 0 0
0 0 0
0 0 0
0 0 0
0 0 0
0 0 0
0 0 0
0 0 0
0 0 0
0 0 0
0 0 0
0 0 0
0 0 0
0 0 0
0 0 0
0 0 0
0 0 0
0 0 0
0 0 0
0 0 0
0 0 0
0 0 0
0 0 0
0 0 0
0 0 0
0 0 0
0 0 0
0 0 0
0 0 0
0 0 0
0 0 0
0 0 0
0 0 0
37 37 37
0 0 0
0 0 0
50 50 50
0 0 0
0 0 0
0 0 0
0 0 0
0 0 0
0 0 0
0 0 0
0 0 0
46 46 46
36 36 36
16 16 16
31 31 31
7 7 7
18 18 18
32 32 32
44 44 44
31 31 31
15 15 15
18 18 18
37 37 37
68 68 68
38 38 38
45 45 45
18 18 18
48 48 48
89 89 89
86 86 86
54 54 54
47 47 47
36 36 36
21 21 21
14 14 14
4 4 4
6 6 6
5 5 5
6 6 6
3 3 3
4 4 4
5 5 5
13 13 13
12 12 12
6 6 6
15 15 15
25 25 25
30 30 30
75 75 75
41 41 41
42 42 42
36 36 36
63 63 63
71 71 71
77 77 77
132 132 132
109 109 109
105 105 105
128 128 128
108 108 108
115 115 115
130 130 130
133 133 133
93 93 93
114 114 114
118 118 118
100 100 100
102 102 102
127 127 127
164 164 164
126 126 126
79 79 79
143 143 143
105 105 105
96 96 96
43 43 43
37 37 37
14 14 14
19 19 19
29 29 29
26 26 26
10 10 10
29 29 29
15 15 15
27 27 27
27 27 27
14 14 14
62 62 62
70 70 70
137 137 137
108 108 108
71 71 71
49 49 49
16 16 16
10 10 10
33 33 33
60 60 60
57 57 57
88 88 88
108 108 108
70 70 70
0 0 0
0 0 0
0 0 0
0 0 0
28 28 28
0 0 0
24 24 24
0 0 0
0 0 0
0 0 0
3 3 3
0 0 0
0 0 0
0 0 0
0 0 0
0 0 0
0 0 0
0 0 0
0 0 0
0 0 0
34 34 34
0 0 0
0 0 0
0 0 0
255 255 255
255 255 255
255 255 255
255 255 255
255 255 255
255 255 255
255 255 255
255 255 255
255 255 255
255 255 255
255 255 255
255 255 255
255 255 255
255 255 255
255 255 255
255 255 255
255 255 255
255 255 255
255 255 255
0 0 0
0 0 0
30 30 30
0 0 0
0 0 0
0 0 0
0 0 0
0 0 0
0 0 0
0 0 0
0 0 0
0 0 0
0 0 0
0 0 0
0 0 0
0 0 0
0 0 0
0 0 0
0 0 0
0 0 0
0 0 0
0 0 0
0 0 0
0 0 0
0 0 0
10 10 10
0 0 0
0 0 0
0 0 0
0 0 0
0 0 0
0 0 0
0 0 0
0 0 0
0 0 0
0 0 0
0 0 0
0 0 0
41 41 41
0 0 0
0 0 0
30 30 30
0 0 0
0 0 0
0 0 0
0 0 0
0 0 0
50 50 50
0 0 0
48 48 48
0 0 0
0 0 0
0 0 0
0 0 0
0 0 0
0 0 0
28 28 28
0 0 0
0 0 0
0 0 0
0 0 0
0 0 0
0 0 0
0 0 0
0 0 0
0 0 0
0 0 0
0 0 0
0 0 0
37 37 37
0 0 0
0 0 0
0 0 0
0 0 0
0 0 0
0 0 0
0 0 0
0 0 0
0 0 0
0 0 0
0 0 0
0 0 0
31 31 31
0 0 0
0 0 0
0 0 0
0 0 0
0 0 0
0 0 0
0 0 0
0 0 0
0 0 0
0 0 0
0 0 0
0 0 0
0 0 0
0 0 0
0 0 0
0 0 0
2 2 2
0 0 0
0 0 0
0 0 0
49 49 49
0 0 0
0 0 0
0 0 0
0 0 0
0 0 0
0 0 0
27 27 27
0 0 0
0 0 0
0 0 0
0 0 0
0 0 0
0 0 0
0 0 0
0 0 0
0 0 0
0 0 0
47 47 47
0 0 0
0 0 0
0 0 0
0 0 0
0 0 0
0 0 0
0 0 0
0 0 0
0 0 0
0 0 0
0 0 0
0 0 0
0 0 0
0 0 0
0 0 0
0 0 0
0 0 0
0 0 0
0 0 0
0 0 0
0 0 0
0 0 0
0 0 0
27 27 27
0 0 0
0 0 0
0 0 0
0 0 0
0 0 0
0 0 0
0 0 0
0 0 0
0 0 0
0 0 0
45 45 45
0 0 0
0 0 0
0 0 0
51 51 51
0 0 0
0 0 0
0 0 0
0 0 0
23 23 23
0 0 0
0 0 0
0 0 0
0 0 0
0 0 0
0 0 0
0 0 0
0 0 0
0 0 0
44 44 44
0 0 0
0 0 0
0 0 0
0 0 0
0 0 0
0 0 0
0 0 0
0 0 0
0 0 0
0 0 0
19 19 19
0 0 0
0 0 0
0 0 0
0 0 0
0 0 0
0 0 0
0 0 0
0 0 0
0 0 0
0 0 0
0 0 0
0 0 0
0 0 0
0 0 0
43 43 43
0 0 0
0 0 0
33 33 33
45 45 45
21 21 21
0 0 0
0 0 0
0 0 0
48 48 48
50 50 50
45 45 45
0 0 0
41 41 41
0 0 0
49 49 49
0 0 0
0 0 0
0 0 0
0 0 0
0 0 0
0 0 0
0 0 0
0 0 0
0 0 0
0 0 0
0 0 0
0 0 0
0 0 0
0 0 0
29 29 29
0 0 0
0 0 0
0 0 0
0 0 0
0 0 0
13 13 13
0 0 0
0 0 0
39 39 39
0 0 0
0 0 0
0 0 0
0 0 0
0 0 0
0 0 0
0 0 0
24 24 24
0 0 0
0 0 0
0 0 0
0 0 0
0 0 0
0 0 0
0 0 0
0 0 0
0 0 0
0 0 0
0 0 0
0 0 0
0 0 0
50 50 50
49 49 49
0 0 0
0 0 0
0 0 0
20 20 20
75 75 75
63 63 63
47 47 47
45 45 45
29 29 29
34 34 34
34 34 34
48 48 48
82 82 82
26 26 26
32 32 32
62 62 62
70 70 70
13 13 13
50 50 50
69 69 69
61 61 61
77 77 77
62 62 62
50 50 50
29 29 29
35 35 35
8 8 8
3 3 3
1 1 1
2 2 2
4 4 4
13 13 13
18 18 18
8 8 8
18 18 18
15 15 15
10 10 10
20 20 20
59 59 59
48 48 48
58 58 58
77 77 77
91 91 91
70 70 70
80 80 80
102 102 102
73 73 73
108 108 108
133 133 133
132 132 132
119 119 119
99 99 99
144 144 144
128 128 128
116 116 116
131 131 131
98 98 98
99 99 99
99 99 99
124 124 124
116 116 116
122 122 122
144 144 144
143 143 143
125 125 125
95 95 95
60 60 60
34 34 34
20 20 20
12 12 12
21 21 21
27 27 27
33 33 33
10 10 10
15 15 15
28 28 28
15 15 15
26 26 26
18 18 18
23 23 23
97 97 97
106 106 106
55 55 55
58 58 58
36 36 36
18 18 18
17 17 17
67 67 67
94 94 94
97 97 97
121 121 121
90 90 90
34 34 34
0 0 0
0 0 0
0 0 0
0 0 0
0 0 0
0 0 0
0 0 0
0 0 0
48 48 48
0 0 0
0 0 0
0 0 0
0 0 0
56 56 56
0 0 0
0 0 0
0 0 0
0 0 0
0 0 0
0 0 0
0 0 0
0 0 0
0 0 0
0 0 0
255 255 255
255 255 255
255 255 255
255 255 255
255 255 255
255 255 255
255 255 255
255 255 255
255 255 255
255 255 255
255 255 255
255 255 255
255 255 255
255 255 255
255 255 255
255 255 255
255 255 255
255 255 255
255 255 255
0 0 0
0 0 0
0 0 0
0 0 0
0 0 0
45 45 45
0 0 0
0 0 0
0 0 0
0 0 0
0 0 0
0 0 0
0 0 0
0 0 0
0 0 0
0 0 0
25 25 25
0 0 0
0 0 0
0 0 0
0 0 0
0 0 0
0 0 0
47 47 47
0 0 0
0 0 0
12 12 12
0 0 0
50 50 50
0 0 0
0 0 0
0 0 0
0 0 0
0 0 0
0 0 0
0 0 0
0 0 0
1 1 1
0 0 0
0 0 0
0 0 0
0 0 0
0 0 0
0 0 0
49 49 49
0 0 0
0 0 0
0 0 0
0 0 0
32 32 32
30 30 30
0 0 0
0 0 0
0 0 0
0 0 0
0 0 0
0 0 0
0 0 0
0 0 0
0 0 0
0 0 0
0 0 0
0 0 0
0 0 0
0 0 0
0 0 0
24 24 24
0 0 0
0 0 0
0 0 0
0 0 0
0 0 0
0 0 0
34 34 34
0 0 0
0 0 0
12 12 12
0 0 0
5 5 5
0 0 0
0 0 0
0 0 0
0 0 0
0 0 0
0 0 0
0 0 0
0 0 0
0 0 0
0 0 0
27 27 27
0 0 0
0 0 0
0 0 0
0 0 0
0 0 0
0 0 0
0 0 0
0 0 0
0 0 0
0 0 0
0 0 0
0 0 0
0 0 0
0 0 0
0 0 0
0 0 0
0 0 0
0 0 0
0 0 0
0 0 0
0 0 0
0 0 0
0 0 0
48 48 48
0 0 0
0 0 0
0 0 0
0 0 0
0 0 0
0 0 0
0 0 0
0 0 0
0 0 0
0 0 0
0 0 0
0 0 0
45 45 45
0 0 0
0 0 0
0 0 0
47 47 47
0 0 0
0 0 0
0 0 0
0 0 0
0 0 0
0 0 0
0 0 0
38 38 38
0 0 0
0 0 0
0 0 0
0 0 0
0 0 0
0 0 0
0 0 0
0 0 0
0 0 0
0 0 0
0 0 0
0 0 0
0 0 0
0 0 0
0 0 0
0 0 0
0 0 0
7 7 7
0 0 0
0 0 0
0 0 0
0 0 0
0 0 0
0 0 0
0 0 0
0 0 0
19 19 19
0 0 0
0 0 0
0 0 0
0 0 0
0 0 0
0 0 0
0 0 0
0 0 0
0 0 0
0 0 0
0 0 0
0 0 0
46 46 46
0 0 0
0 0 0
0 0 0
0 0 0
0 0 0
0 0 0
0 0 0
12 12 12
0 0 0
5 5 5
17 17 17
0 0 0
31 31 31
43 43 43
0 0 0
0 0 0
54 54 54
0 0 0
0 0 0
0 0 0
0 0 0
0 0 0
0 0 0
0 0 0
0 0 0
0 0 0
0 0 0
0 0 0
0 0 0
27 27 27
0 0 0
0 0 0
0 0 0
0 0 0
0 0 0
0 0 0
0 0 0
0 0 0
49 49 49
0 0 0
0 0 0
0 0 0
0 0 0
0 0 0
0 0 0
0 0 0
31 31 31
50 50 50
0 0 0
0 0 0
0 0 0
0 0 0
49 49 49
0 0 0
0 0 0
0 0 0
39 39 39
0 0 0
0 0 0
0 0 0
15 15 15
0 0 0
0 0 0
0 0 0
0 0 0
0 0 0
0 0 0
0 0 0
0 0 0
0 0 0
0 0 0
0 0 0
0 0 0
18 18 18
40 40 40
43 43 43
0 0 0
0 0 0
17 17 17
0 0 0
0 0 0
0 0 0
0 0 0
0 0 0
0 0 0
0 0 0
0 0 0
41 41 41
0 0 0
0 0 0
0 0 0
20 20 20
48 48 48
0 0 0
0 0 0
39 39 39
44 44 44
46 46 46
88 88 88
37 37 37
59 59 59
66 66 66
33 33 33
6 6 6
4 4 4
93 93 93
36 36 36
0 0 0
45 45 45
27 27 27
37 37 37
11 11 11
2 2 2
3 3 3
4 4 4
3 3 3
14 14 14
23 23 23
35 35 35
10 10 10
25 25 25
29 29 29
27 27 27
36 36 36
67 67 67
75 75 75
67 67 67
50 50 50
31 31 31
104 104 104
49 49 49
48 48 48
119 119 119
123 123 123
137 137 137
105 105 105
94 94 94
118 118 118
130 130 130
124 124 124
149 149 149
118 118 118
118 118 118
93 93 93
125 125 125
109 109 109
154 154 154
168 168 168
131 131 131
139 139 139
109 109 109
71 71 71
23 23 23
12 12 12
12 12 12
8 8 8
22 22 22
10 10 10
26 26 26
13 13 13
29 29 29
23 23 23
11 11 11
16 16 16
35 35 35
101 101 101
98 98 98
72 72 72
34 34 34
43 43 43
15 15 15
59 59 59
68 68 68
97 97 97
101 101 101
62 62 62
50 50 50
0 0 0
0 0 0
0 0 0
0 0 0
0 0 0
0 0 0
0 0 0
0 0 0
0 0 0
0 0 0
5 5 5
0 0 0
0 0 0
38 38 38
41 41 41
0 0 0
0 0 0
16 16 16
0 0 0
0 0 0
0 0 0
0 0 0
0 0 0
0 0 0
0 0 0
255 255 255
255 255 255
255 255 255
255 255 255
255 255 255
255 255 255
255 255 255
255 255 255
255 255 255
255 255 255
255 255 255
255 255 255
255 255 255
255 255 255
255 255 255
255 255 255
255 255 255
255 255 255
255 255 255
0 0 0
44 44 44
0 0 0
0 0 0
0 0 0
0 0 0
17 17 17
21 21 21
6 6 6
0 0 0
50 50 50
0 0 0
0 0 0
0 0 0
47 47 47
0 0 0
44 44 44
0 0 0
0 0 0
26 26 26
0 0 0
0 0 0
0 0 0
0 0 0
0 0 0
0 0 0
0 0 0
0 0 0
0 0 0
0 0 0
0 0 0
0 0 0
45 45 45
0 0 0
0 0 0
0 0 0
0 0 0
0 0 0
0 0 0
0 0 0
0 0 0
0 0 0
0 0 0
0 0 0
0 0 0
28 28 28
0 0 0
0 0 0
0 0 0
0 0 0
0 0 0
0 0 0
37 37 37
0 0 0
0 0 0
0 0 0
0 0 0
0 0 0
0 0 0
9 9 9
0 0 0
0 0 0
18 18 18
0 0 0
47 47 47
0 0 0
40 40 40
0 0 0
0 0 0
0 0 0
0 0 0
0 0 0
0 0 0
0 0 0
0 0 0
50 50 50
37 37 37
0 0 0
0 0 0
0 0 0
0 0 0
3 3 3
23 23 23
0 0 0
0 0 0
0 0 0
0 0 0
0 0 0
0 0 0
50 50 50
0 0 0
0 0 0
0 0 0
0 0 0
0 0 0
0 0 0
0 0 0
0 0 0
0 0 0
5 5 5
0 0 0
0 0 0
0 0 0
0 0 0
0 0 0
0 0 0
0 0 0
0 0 0
0 0 0
0 0 0
0 0 0
0 0 0
0 0 0
37 37 37
0 0 0
46 46 46
0 0 0
55 55 55
56 56 56
0 0 0
0 0 0
0 0 0
0 0 0
0 0 0
4 4 4
0 0 0
0 0 0
0 0 0
0 0 0
16 16 16
0 0 0
0 0 0
0 0 0
0 0 0
0 0 0
0 0 0
0 0 0
0 0 0
0 0 0
0 0 0
0 0 0
0 0 0
0 0 0
0 0 0
49 49 49
41 41 41
0 0 0
0 0 0
0 0 0
0 0 0
0 0 0
0 0 0
0 0 0
0 0 0
0 0 0
0 0 0
0 0 0
0 0 0
0 0 0
0 0 0
0 0 0
0 0 0
0 0 0
0 0 0
0 0 0
0 0 0
0 0 0
21 21 21
0 0 0
43 43 43
0 0 0
0 0 0
26 26 26
9 9 9
0 0 0
0 0 0
0 0 0
0 0 0
0 0 0
0 0 0
0 0 0
0 0 0
0 0 0
0 0 0
0 0 0
0 0 0
0 0 0
0 0 0
18 18 18
0 0 0
0 0 0
40 40 40
13 13 13
0 0 0
0 0 0
0 0 0
38 38 38
0 0 0
0 0 0
33 33 33
0 0 0
0 0 0
48 48 48
0 0 0
0 0 0
0 0 0
0 0 0
0 0 0
0 0 0
0 0 0
0 0 0
0 0 0
0 0 0
0 0 0
0 0 0
0 0 0
40 40 40
0 0 0
33 33 33
0 0 0
40 40 40
0 0 0
24 24 24
0 0 0
0 0 0
0 0 0
0 0 0
0 0 0
0 0 0
0 0 0
31 31 31
0 0 0
0 0 0
13 13 13
42 42 42
0 0 0
0 0 0
0 0 0
14 14 14
0 0 0
36 36 36
0 0 0
0 0 0
0 0 0
0 0 0
0 0 0
0 0 0
0 0 0
0 0 0
77 77 77
0 0 0
51 51 51
0 0 0
0 0 0
0 0 0
17 17 17
0 0 0
12 12 12
0 0 0
39 39 39
0 0 0
0 0 0
0 0 0
0 0 0
46 46 46
0 0 0
0 0 0
0 0 0
26 26 26
0 0 0
29 29 29
0 0 0
48 48 48
61 61 61
6 6 6
73 73 73
0 0 0
34 34 34
45 45 45
48 48 48
14 14 14
51 51 51
32 32 32
69 69 69
77 77 77
0 0 0
40 40 40
60 60 60
64 64 64
44 44 44
44 44 44
13 13 13
11 11 11
17 17 17
8 8 8
3 3 3
6 6 6
0 0 0
19 19 19
34 34 34
54 54 54
43 43 43
23 23 23
25 25 25
38 38 38
41 41 41
93 93 93
72 72 72
117 117 117
98 98 98
69 69 69
133 133 133
109 109 109
124 124 124
137 137 137
158 158 158
120 120 120
145 145 145
145 145 145
118 118 118
125 125 125
82 82 82
143 143 143
135 135 135
190 190 190
181 181 181
169 169 169
126 126 126
156 156 156
127 127 127
53 53 53
30 30 30
28 28 28
34 34 34
20 20 20
18 18 18
13 13 13
11 11 11
15 15 15
37 37 37
19 19 19
13 13 13
16 16 16
55 55 55
114 114 114
129 129 129
61 61 61
66 66 66
37 37 37
87 87 87
80 80 80
76 76 76
54 54 54
80 80 80
78 78 78
0 0 0
0 0 0
26 26 26
0 0 0
50 50 50
0 0 0
45 45 45
0 0 0
0 0 0
0 0 0
0 0 0
0 0 0
47 47 47
0 0 0
0 0 0
0 0 0
0 0 0
0 0 0
0 0 0
49 49 49
0 0 0
0 0 0
0 0 0
70 70 70
0 0 0
36 36 36
255 255 255
255 255 255
255 255 255
255 255 255
255 255 255
255 255 255
255 255 255
255 255 255
255 255 255
255 255 255
255 255 255
255 255 255
255 255 255
255 255 255
255 255 255
255 255 255
255 255 255
255 255 255
255 255 255
50 50 50
0 0 0
28 28 28
0 0 0
48 48 48
0 0 0
0 0 0
0 0 0
0 0 0
48 48 48
48 48 48
0 0 0
0 0 0
0 0 0
0 0 0
35 35 35
52 52 52
0 0 0
0 0 0
0 0 0
0 0 0
0 0 0
0 0 0
0 0 0
0 0 0
0 0 0
0 0 0
0 0 0
0 0 0
0 0 0
0 0 0
0 0 0
35 35 35
0 0 0
0 0 0
0 0 0
0 0 0
31 31 31
0 0 0
35 35 35
31 31 31
0 0 0
0 0 0
0 0 0
0 0 0
44 44 44
0 0 0
0 0 0
0 0 0
13 13 13
4 4 4
0 0 0
0 0 0
0 0 0
0 0 0
52 52 52
0 0 0
0 0 0
0 0 0
0 0 0
0 0 0
0 0 0
0 0 0
0 0 0
0 0 0
0 0 0
45 45 45
0 0 0
0 0 0
0 0 0
0 0 0
0 0 0
0 0 0
0 0 0
0 0 0
30 30 30
0 0 0
0 0 0
27 27 27
0 0 0
0 0 0
0 0 0
0 0 0
0 0 0
0 0 0
0 0 0
0 0 0
0 0 0
41 41 41
38 38 38
0 0 0
12 12 12
0 0 0
0 0 0
0 0 0
0 0 0
0 0 0
0 0 0
0 0 0
0 0 0
0 0 0
0 0 0
0 0 0
0 0 0
0 0 0
17 17 17
44 44 44
0 0 0
0 0 0
0 0 0
0 0 0
45 45 45
0 0 0
0 0 0
0 0 0
0 0 0
0 0 0
63 63 63
0 0 0
0 0 0
0 0 0
0 0 0
0 0 0
0 0 0
0 0 0
0 0 0
0 0 0
0 0 0
0 0 0
0 0 0
0 0 0
0 0 0
0 0 0
0 0 0
0 0 0
0 0 0
61 61 61
0 0 0
0 0 0
0 0 0
0 0 0
0 0 0
0 0 0
14 14 14
0 0 0
0 0 0
0 0 0
17 17 17
33 33 33
36 36 36
0 0 0
0 0 0
0 0 0
0 0 0
0 0 0
16 16 16
47 47 47
0 0 0
0 0 0
0 0 0
0 0 0
0 0 0
0 0 0
0 0 0
0 0 0
0 0 0
0 0 0
0 0 0
0 0 0
0 0 0
0 0 0
0 0 0
0 0 0
0 0 0
0 0 0
0 0 0
0 0 0
0 0 0
29 29 29
0 0 0
30 30 30
0 0 0
0 0 0
0 0 0
0 0 0
0 0 0
0 0 0
0 0 0
0 0 0
0 0 0
0 0 0
0 0 0
0 0 0
0 0 0
0 0 0
0 0 0
0 0 0
0 0 0
0 0 0
0 0 0
0 0 0
49 49 49
0 0 0
39 39 39
0 0 0
0 0 0
14 14 14
50 50 50
0 0 0
62 62 62
0 0 0
0 0 0
44 44 44
0 0 0
0 0 0
0 0 0
49 49 49
0 0 0
0 0 0
51 51 51
0 0 0
0 0 0
0 0 0
44 44 44
0 0 0
0 0 0
0 0 0
0 0 0
42 42 42
49 49 49
0 0 0
0 0 0
0 0 0
0 0 0
0 0 0
0 0 0
0 0 0
0 0 0
0 0 0
0 0 0
26 26 26
0 0 0
0 0 0
0 0 0
0 0 0
0 0 0
0 0 0
0 0 0
42 42 42
0 0 0
0 0 0
0 0 0
0 0 0
0 0 0
29 29 29
0 0 0
0 0 0
0 0 0
0 0 0
16 16 16
0 0 0
3 3 3
25 25 25
0 0 0
0 0 0
0 0 0
0 0 0
24 24 24
42 42 42
0 0 0
46 46 46
30 30 30
65 65 65
35 35 35
0 0 0
36 36 36
51 51 51
28 28 28
0 0 0
40 40 40
82 82 82
44 44 44
67 67 67
66 66 66
74 74 74
82 82 82
81 81 81
48 48 48
60 60 60
23 23 23
19 19 19
44 44 44
18 18 18
10 10 10
4 4 4
0 0 0
6 6 6
7 7 7
14 14 14
21 21 21
41 41 41
23 23 23
32 32 32
39 39 39
41 41 41
55 55 55
64 64 64
42 42 42
123 123 123
66 66 66
92 92 92
59 59 59
99 99 99
111 111 111
113 113 113
98 98 98
104 104 104
133 133 133
125 125 125
110 110 110
94 94 94
134 134 134
145 145 145
162 162 162
149 149 149
154 154 154
129 129 129
168 168 168
143 143 143
93 93 93
33 33 33
36 36 36
27 27 27
32 32 32
16 16 16
20 20 20
24 24 24
28 28 28
26 26 26
61 61 61
24 24 24
16 16 16
18 18 18
57 57 57
100 100 100
100 100 100
55 55 55
30 30 30
60 60 60
114 114 114
68 68 68
132 132 132
99 99 99
80 80 80
71 71 71
41 41 41
0 0 0
36 36 36
45 45 45
37 37 37
51 51 51
0 0 0
35 35 35
0 0 0
0 0 0
0 0 0
0 0 0
42 42 42
66 66 66
0 0 0
0 0 0
0 0 0
0 0 0
0 0 0
0 0 0
16 16 16
0 0 0
0 0 0
0 0 0
57 57 57
0 0 0
255 255 255
255 255 255
255 255 255
255 255 255
255 255 255
255 255 255
255 255 255
255 255 255
255 255 255
255 255 255
255 255 255
255 255 255
255 255 255
255 255 255
255 255 255
255 255 255
255 255 255
255 255 255
255 255 255
49 49 49
0 0 0
0 0 0
0 0 0
0 0 0
0 0 0
0 0 0
0 0 0
0 0 0
46 46 46
0 0 0
0 0 0
0 0 0
0 0 0
75 75 75
28 28 28
0 0 0
0 0 0
43 43 43
0 0 0
0 0 0
0 0 0
28 28 28
15 15 15
0 0 0
50 50 50
51 51 51
42 42 42
0 0 0
70 70 70
0 0 0
42 42 42
48 48 48
0 0 0
0 0 0
0 0 0
34 34 34
15 15 15
0 0 0
30 30 30
0 0 0
0 0 0
0 0 0
0 0 0
49 49 49
0 0 0
0 0 0
17 17 17
0 0 0
0 0 0
72 72 72
0 0 0
0 0 0
0 0 0
0 0 0
50 50 50
0 0 0
0 0 0
0 0 0
0 0 0
39 39 39
0 0 0
10 10 10
0 0 0
0 0 0
50 50 50
0 0 0
0 0 0
0 0 0
39 39 39
0 0 0
0 0 0
0 0 0
47 47 47
0 0 0
0 0 0
0 0 0
0 0 0
4 4 4
0 0 0
0 0 0
0 0 0
51 51 51
0 0 0
0 0 0
11 11 11
0 0 0
0 0 0
0 0 0
0 0 0
0 0 0
0 0 0
0 0 0
0 0 0
48 48 48
28 28 28
0 0 0
0 0 0
0 0 0
0 0 0
0 0 0
0 0 0
0 0 0
0 0 0
21 21 21
0 0 0
0 0 0
0 0 0
0 0 0
0 0 0
0 0 0
0 0 0
0 0 0
0 0 0
0 0 0
0 0 0
47 47 47
0 0 0
0 0 0
0 0 0
11 11 11
0 0 0
0 0 0
0 0 0
0 0 0
23 23 23
0 0 0
6 6 6
0 0 0
0 0 0
44 44 44
3 3 3
0 0 0
0 0 0
0 0 0
0 0 0
0 0 0
0 0 0
0 0 0
0 0 0
0 0 0
0 0 0
0 0 0
0 0 0
0 0 0
0 0 0
28 28 28
0 0 0
0 0 0
0 0 0
0 0 0
0 0 0
0 0 0
0 0 0
0 0 0
1 1 1
0 0 0
0 0 0
0 0 0
0 0 0
0 0 0
0 0 0
0 0 0
0 0 0
0 0 0
0 0 0
0 0 0
0 0 0
40 40 40
0 0 0
0 0 0
0 0 0
0 0 0
0 0 0
0 0 0
0 0 0
0 0 0
0 0 0
13 13 13
0 0 0
0 0 0
0 0 0
0 0 0
0 0 0
0 0 0
0 0 0
0 0 0
49 49 49
0 0 0
0 0 0
41 41 41
28 28 28
0 0 0
66 66 66
24 24 24
0 0 0
0 0 0
0 0 0
0 0 0
0 0 0
0 0 0
0 0 0
0 0 0
0 0 0
0 0 0
49 49 49
51 51 51
47 47 47
49 49 49
0 0 0
0 0 0
0 0 0
0 0 0
23 23 23
0 0 0
11 11 11
0 0 0
0 0 0
4 4 4
0 0 0
0 0 0
0 0 0
0 0 0
36 36 36
27 27 27
0 0 0
51 51 51
50 50 50
46 46 46
0 0 0
0 0 0
47 47 47
39 39 39
0 0 0
0 0 0
0 0 0
0 0 0
43 43 43
42 42 42
0 0 0
33 33 33
42 42 42
12 12 12
0 0 0
23 23 23
0 0 0
0 0 0
44 44 44
45 45 45
0 0 0
0 0 0
0 0 0
0 0 0
38 38 38
0 0 0
0 0 0
32 32 32
0 0 0
0 0 0
0 0 0
0 0 0
49 49 49
51 51 51
39 39 39
0 0 0
12 12 12
0 0 0
0 0 0
0 0 0
9 9 9
70 70 70
48 48 48
33 33 33
32 32 32
0 0 0
71 71 71
83 83 83
40 40 40
74 74 74
21 21 21
0 0 0
35 35 35
59 59 59
69 69 69
63 63 63
77 77 77
7 7 7
62 62 62
31 31 31
43 43 43
59 59 59
57 57 57
26 26 26
4 4 4
4 4 4
15 15 15
19 19 19
8 8 8
13 13 13
37 37 37
42 42 42
38 38 38
35 35 35
36 36 36
50 50 50
49 49 49
80 80 80
74 74 74
89 89 89
72 72 72
65 65 65
39 39 39
92 92 92
157 157 157
121 121 121
107 107 107
92 92 92
100 100 100
117 117 117
180 180 180
88 88 88
136 136 136
133 133 133
134 134 134
133 133 133
181 181 181
145 145 145
153 153 153
111 111 111
64 64 64
29 29 29
43 43 43
32 32 32
21 21 21
7 7 7
21 21 21
48 48 48
58 58 58
70 70 70
77 77 77
55 55 55
17 17 17
15 15 15
22 22 22
42 42 42
125 125 125
117 117 117
81 81 81
128 128 128
115 115 115
90 90 90
115 115 115
97 97 97
81 81 81
0 0 0
0 0 0
0 0 0
0 0 0
0 0 0
0 0 0
0 0 0
0 0 0
0 0 0
45 45 45
70 70 70
0 0 0
0 0 0
0 0 0
48 48 48
0 0 0
0 0 0
60 60 60
0 0 0
0 0 0
0 0 0
0 0 0
0 0 0
27 27 27
0 0 0
0 0 0
51 51 51
255 255 255
255 255 255
255 255 255
255 255 255
255 255 255
255 255 255
255 255 255
255 255 255
255 255 255
255 255 255
255 255 255
255 255 255
255 255 255
255 255 255
255 255 255
255 255 255
255 255 255
255 255 255
255 255 255
0 0 0
0 0 0
6 6 6
46 46 46
0 0 0
0 0 0
0 0 0
0 0 0
0 0 0
44 44 44
0 0 0
0 0 0
0 0 0
0 0 0
0 0 0
45 45 45
0 0 0
0 0 0
46 46 46
0 0 0
0 0 0
0 0 0
0 0 0
0 0 0
0 0 0
0 0 0
0 0 0
41 41 41
0 0 0
0 0 0
0 0 0
25 25 25
39 39 39
0 0 0
35 35 35
0 0 0
45 45 45
0 0 0
0 0 0
47 47 47
0 0 0
0 0 0
49 49 49
0 0 0
0 0 0
0 0 0
0 0 0
7 7 7
25 25 25
0 0 0
0 0 0
39 39 39
0 0 0
0 0 0
0 0 0
47 47 47
0 0 0
0 0 0
0 0 0
21 21 21
0 0 0
0 0 0
0 0 0
0 0 0
0 0 0
0 0 0
21 21 21
30 30 30
0 0 0
0 0 0
0 0 0
0 0 0
51 51 51
0 0 0
0 0 0
0 0 0
0 0 0
0 0 0
0 0 0
17 17 17
26 26 26
0 0 0
0 0 0
0 0 0
0 0 0
0 0 0
0 0 0
0 0 0
0 0 0
0 0 0
0 0 0
31 31 31
0 0 0
0 0 0
0 0 0
0 0 0
0 0 0
0 0 0
0 0 0
0 0 0
40 40 40
0 0 0
0 0 0
0 0 0
0 0 0
51 51 51
0 0 0
45 45 45
0 0 0
50 50 50
0 0 0
43 43 43
0 0 0
70 70 70
0 0 0
0 0 0
0 0 0
0 0 0
41 41 41
0 0 0
0 0 0
0 0 0
0 0 0
0 0 0
0 0 0
0 0 0
0 0 0
0 0 0
0 0 0
1 1 1
0 0 0
0 0 0
0 0 0
0 0 0
45 45 45
0 0 0
0 0 0
41 41 41
0 0 0
0 0 0
39 39 39
0 0 0
0 0 0
0 0 0
0 0 0
0 0 0
12 12 12
0 0 0
0 0 0
0 0 0
0 0 0
0 0 0
0 0 0
46 46 46
0 0 0
0 0 0
70 70 70
51 51 51
0 0 0
50 50 50
50 50 50
0 0 0
0 0 0
0 0 0
33 33 33
0 0 0
0 0 0
0 0 0
0 0 0
0 0 0
0 0 0
18 18 18
0 0 0
22 22 22
2 2 2
0 0 0
34 34 34
0 0 0
0 0 0
0 0 0
0 0 0
0 0 0
0 0 0
58 58 58
0 0 0
47 47 47
0 0 0
0 0 0
22 22 22
0 0 0
0 0 0
0 0 0
0 0 0
0 0 0
0 0 0
24 24 24
0 0 0
0 0 0
22 22 22
0 0 0
0 0 0
20 20 20
0 0 0
42 42 42
0 0 0
0 0 0
34 34 34
51 51 51
0 0 0
0 0 0
56 56 56
0 0 0
0 0 0
0 0 0
0 0 0
0 0 0
4 4 4
0 0 0
27 27 27
0 0 0
0 0 0
0 0 0
0 0 0
18 18 18
0 0 0
48 48 48
0 0 0
50 50 50
0 0 0
0 0 0
0 0 0
0 0 0
0 0 0
0 0 0
51 51 51
0 0 0
26 26 26
0 0 0
0 0 0
28 28 28
0 0 0
12 12 12
33 33 33
10 10 10
18 18 18
0 0 0
0 0 0
0 0 0
0 0 0
0 0 0
48 48 48
42 42 42
0 0 0
0 0 0
0 0 0
0 0 0
0 0 0
47 47 47
0 0 0
0 0 0
25 25 25
0 0 0
0 0 0
30 30 30
0 0 0
0 0 0
0 0 0
0 0 0
43 43 43
0 0 0
59 59 59
52 52 52
2 2 2
14 14 14
50 50 50
83 83 83
58 58 58
24 24 24
19 19 19
33 33 33
48 48 48
44 44 44
60 60 60
78 78 78
0 0 0
10 10 10
50 50 50
39 39 39
44 44 44
44 44 44
39 39 39
43 43 43
0 0 0
9 9 9
1 1 1
6 6 6
15 15 15
32 32 32
24 24 24
15 15 15
30 30 30
68 68 68
8 8 8
32 32 32
48 48 48
48 48 48
52 52 52
89 89 89
91 91 91
49 49 49
79 79 79
79 79 79
82 82 82
141 141 141
84 84 84
149 149 149
119 119 119
102 102 102
91 91 91
138 138 138
106 106 106
143 143 143
124 124 124
90 90 90
112 112 112
108 108 108
143 143 143
159 159 159
155 155 155
82 82 82
38 38 38
20 20 20
13 13 13
28 28 28
36 36 36
58 58 58
74 74 74
88 88 88
85 85 85
65 65 65
14 14 14
5 5 5
8 8 8
17 17 17
34 34 34
121 121 121
129 129 129
94 94 94
101 101 101
92 92 92
57 57 57
52 52 52
60 60 60
59 59 59
51 51 51
50 50 50
43 43 43
63 63 63
0 0 0
0 0 0
0 0 0
0 0 0
0 0 0
0 0 0
25 25 25
27 27 27
0 0 0
26 26 26
0 0 0
34 34 34
22 22 22
0 0 0
0 0 0
0 0 0
0 0 0
0 0 0
49 49 49
0 0 0
49 49 49
41 41 41
72 72 72
255 255 255
255 255 255
255 255 255
255 255 255
255 255 255
255 255 255
255 255 255
255 255 255
255 255 255
255 255 255
255 255 255
255 255 255
255 255 255
255 255 255
255 255 255
255 255 255
255 255 255
255 255 255
255 255 255
0 0 0
0 0 0
0 0 0
0 0 0
0 0 0
45 45 45
0 0 0
0 0 0
7 7 7
32 32 32
0 0 0
2 2 2
9 9 9
1 1 1
0 0 0
0 0 0
0 0 0
0 0 0
0 0 0
0 0 0
0 0 0
0 0 0
0 0 0
0 0 0
0 0 0
0 0 0
0 0 0
0 0 0
0 0 0
0 0 0
10 10 10
0 0 0
23 23 23
18 18 18
0 0 0
5 5 5
0 0 0
0 0 0
6 6 6
15 15 15
0 0 0
4 4 4
0 0 0
0 0 0
0 0 0
47 47 47
46 46 46
38 38 38
0 0 0
36 36 36
0 0 0
0 0 0
27 27 27
0 0 0
0 0 0
26 26 26
0 0 0
0 0 0
0 0 0
21 21 21
0 0 0
0 0 0
0 0 0
0 0 0
0 0 0
49 49 49
0 0 0
57 57 57
51 51 51
0 0 0
0 0 0
0 0 0
0 0 0
0 0 0
0 0 0
0 0 0
23 23 23
37 37 37
0 0 0
0 0 0
0 0 0
48 48 48
0 0 0
0 0 0
58 58 58
0 0 0
41 41 41
47 47 47
0 0 0
35 35 35
0 0 0
0 0 0
0 0 0
0 0 0
28 28 28
0 0 0
0 0 0
0 0 0
0 0 0
0 0 0
0 0 0
0 0 0
0 0 0
0 0 0
45 45 45
0 0 0
0 0 0
47 47 47
0 0 0
0 0 0
43 43 43
33 33 33
0 0 0
0 0 0
0 0 0
70 70 70
56 56 56
0 0 0
0 0 0
0 0 0
0 0 0
0 0 0
0 0 0
0 0 0
7 7 7
0 0 0
0 0 0
0 0 0
0 0 0
0 0 0
0 0 0
0 0 0
0 0 0
0 0 0
45 45 45
0 0 0
0 0 0
0 0 0
0 0 0
0 0 0
37 37 37
0 0 0
49 49 49
0 0 0
0 0 0
0 0 0
0 0 0
30 30 30
0 0 0
13 13 13
0 0 0
45 45 45
0 0 0
0 0 0
0 0 0
45 45 45
0 0 0
0 0 0
0 0 0
0 0 0
50 50 50
0 0 0
0 0 0
0 0 0
39 39 39
10 10 10
0 0 0
0 0 0
0 0 0
0 0 0
0 0 0
0 0 0
0 0 0
38 38 38
35 35 35
0 0 0
0 0 0
0 0 0
0 0 0
0 0 0
0 0 0
63 63 63
0 0 0
0 0 0
0 0 0
0 0 0
0 0 0
0 0 0
37 37 37
0 0 0
22 22 22
0 0 0
25 25 25
0 0 0
72 72 72
0 0 0
18 18 18
0 0 0
0 0 0
0 0 0
10 10 10
0 0 0
0 0 0
0 0 0
0 0 0
0 0 0
0 0 0
0 0 0
41 41 41
0 0 0
0 0 0
0 0 0
26 26 26
0 0 0
70 70 70
74 74 74
12 12 12
0 0 0
0 0 0
0 0 0
23 23 23
24 24 24
12 12 12
40 40 40
0 0 0
0 0 0
0 0 0
0 0 0
0 0 0
18 18 18
14 14 14
0 0 0
0 0 0
0 0 0
64 64 64
0 0 0
37 37 37
0 0 0
0 0 0
0 0 0
56 56 56
0 0 0
0 0 0
0 0 0
0 0 0
10 10 10
8 8 8
0 0 0
30 30 30
0 0 0
11 11 11
24 24 24
0 0 0
0 0 0
0 0 0
48 48 48
69 69 69
0 0 0
69 69 69
0 0 0
0 0 0
0 0 0
0 0 0
45 45 45
12 12 12
0 0 0
50 50 50
0 0 0
0 0 0
29 29 29
0 0 0
35 35 35
35 35 35
2 2 2
17 17 17
61 61 61
18 18 18
66 66 66
69 69 69
55 55 55
54 54 54
22 22 22
10 10 10
90 90 90
72 72 72
34 34 34
38 38 38
33 33 33
22 22 22
38 38 38
43 43 43
51 51 51
50 50 50
33 33 33
5 5 5
0 0 0
19 19 19
17 17 17
11 11 11
2 2 2
38 38 38
54 54 54
33 33 33
74 74 74
54 54 54
86 86 86
78 78 78
103 103 103
92 92 92
75 75 75
36 36 36
60 60 60
78 78 78
121 121 121
105 105 105
105 105 105
110 110 110
107 107 107
118 118 118
120 120 120
113 113 113
120 120 120
97 97 97
49 49 49
80 80 80
108 108 108
133 133 133
141 141 141
142 142 142
79 79 79
59 59 59
6 6 6
23 23 23
34 34 34
42 42 42
52 52 52
109 109 109
96 96 96
84 84 84
61 61 61
4 4 4
11 11 11
22 22 22
39 39 39
53 53 53
75 75 75
120 120 120
112 112 112
122 122 122
69 69 69
103 103 103
63 63 63
62 62 62
84 84 84
0 0 0
0 0 0
0 0 0
0 0 0
49 49 49
48 48 48
30 30 30
0 0 0
0 0 0
0 0 0
0 0 0
30 30 30
0 0 0
0 0 0
50 50 50
48 48 48
0 0 0
0 0 0
10 10 10
0 0 0
0 0 0
50 50 50
0 0 0
0 0 0
47 47 47
0 0 0
72 72 72
255 255 255
255 255 255
255 255 255
255 255 255
255 255 255
255 255 255
255 255 255
255 255 255
255 255 255
255 255 255
255 255 255
255 255 255
255 255 255
255 255 255
255 255 255
255 255 255
255 255 255
255 255 255
255 255 255
0 0 0
0 0 0
0 0 0
47 47 47
29 29 29
28 28 28
0 0 0
0 0 0
0 0 0
46 46 46
54 54 54
45 45 45
49 49 49
8 8 8
2 2 2
28 28 28
27 27 27
27 27 27
0 0 0
0 0 0
39 39 39
56 56 56
0 0 0
0 0 0
0 0 0
0 0 0
0 0 0
0 0 0
0 0 0
0 0 0
40 40 40
44 44 44
0 0 0
0 0 0
0 0 0
0 0 0
9 9 9
0 0 0
21 21 21
49 49 49
50 50 50
0 0 0
11 11 11
0 0 0
0 0 0
0 0 0
0 0 0
0 0 0
31 31 31
51 51 51
0 0 0
0 0 0
48 48 48
0 0 0
0 0 0
0 0 0
8 8 8
5 5 5
22 22 22
0 0 0
50 50 50
0 0 0
0 0 0
3 3 3
0 0 0
0 0 0
0 0 0
0 0 0
45 45 45
0 0 0
0 0 0
0 0 0
57 57 57
0 0 0
0 0 0
0 0 0
0 0 0
0 0 0
0 0 0
45 45 45
0 0 0
0 0 0
7 7 7
41 41 41
0 0 0
0 0 0
37 37 37
0 0 0
0 0 0
0 0 0
0 0 0
0 0 0
0 0 0
0 0 0
48 48 48
0 0 0
0 0 0
0 0 0
0 0 0
0 0 0
0 0 0
0 0 0
0 0 0
0 0 0
0 0 0
0 0 0
0 0 0
0 0 0
0 0 0
0 0 0
0 0 0
0 0 0
0 0 0
0 0 0
0 0 0
0 0 0
0 0 0
48 48 48
0 0 0
0 0 0
0 0 0
0 0 0
0 0 0
23 23 23
0 0 0
0 0 0
0 0 0
0 0 0
0 0 0
0 0 0
0 0 0
0 0 0
6 6 6
0 0 0
0 0 0
0 0 0
0 0 0
0 0 0
0 0 0
0 0 0
0 0 0
0 0 0
0 0 0
29 29 29
58 58 58
0 0 0
0 0 0
0 0 0
47 47 47
0 0 0
0 0 0
36 36 36
0 0 0
0 0 0
0 0 0
0 0 0
0 0 0
0 0 0
0 0 0
0 0 0
47 47 47
49 49 49
0 0 0
0 0 0
0 0 0
0 0 0
0 0 0
0 0 0
0 0 0
0 0 0
18 18 18
0 0 0
15 15 15
15 15 15
25 25 25
0 0 0
0 0 0
64 64 64
45 45 45
39 39 39
42 42 42
46 46 46
50 50 50
51 51 51
0 0 0
78 78 78
0 0 0
66 66 66
26 26 26
39 39 39
18 18 18
0 0 0
17 17 17
0 0 0
0 0 0
24 24 24
0 0 0
6 6 6
0 0 0
0 0 0
39 39 39
68 68 68
0 0 0
32 32 32
0 0 0
0 0 0
0 0 0
47 47 47
0 0 0
58 58 58
0 0 0
50 50 50
50 50 50
0 0 0
50 50 50
48 48 48
15 15 15
19 19 19
22 22 22
46 46 46
0 0 0
33 33 33
0 0 0
25 25 25
0 0 0
40 40 40
0 0 0
18 18 18
0 0 0
20 20 20
0 0 0
27 27 27
0 0 0
0 0 0
0 0 0
0 0 0
0 0 0
0 0 0
0 0 0
0 0 0
57 57 57
0 0 0
49 49 49
0 0 0
24 24 24
0 0 0
0 0 0
0 0 0
49 49 49
0 0 0
28 28 28
21 21 21
0 0 0
20 20 20
0 0 0
28 28 28
0 0 0
0 0 0
45 45 45
0 0 0
0 0 0
51 51 51
47 47 47
0 0 0
0 0 0
49 49 49
0 0 0
0 0 0
0 0 0
0 0 0
57 57 57
49 49 49
32 32 32
14 14 14
9 9 9
41 41 41
0 0 0
80 80 80
31 31 31
0 0 0
34 34 34
47 47 47
38 38 38
52 52 52
67 67 67
70 70 70
44 44 44
27 27 27
29 29 29
0 0 0
29 29 29
56 56 56
49 49 49
23 23 23
26 26 26
14 14 14
7 7 7
10 10 10
10 10 10
9 9 9
1 1 1
0 0 0
33 33 33
96 96 96
83 83 83
120 120 120
56 56 56
2 2 2
42 42 42
0 0 0
69 69 69
68 68 68
92 92 92
92 92 92
103 103 103
118 118 118
92 92 92
96 96 96
94 94 94
108 108 108
90 90 90
96 96 96
91 91 91
74 74 74
89 89 89
119 119 119
117 117 117
179 179 179
91 91 91
109 109 109
103 103 103
53 53 53
18 18 18
18 18 18
19 19 19
64 64 64
83 83 83
101 101 101
72 72 72
22 22 22
35 35 35
64 64 64
78 78 78
27 27 27
56 56 56
90 90 90
108 108 108
92 92 92
96 96 96
79 79 79
61 61 61
81 81 81
46 46 46
0 0 0
0 0 0
0 0 0
0 0 0
48 48 48
50 50 50
0 0 0
41 41 41
68 68 68
55 55 55
0 0 0
0 0 0
39 39 39
0 0 0
0 0 0
0 0 0
41 41 41
0 0 0
0 0 0
0 0 0
24 24 24
34 34 34
0 0 0
28 28 28
0 0 0
0 0 0
50 50 50
68 68 68
255 255 255
255 255 255
255 255 255
255 255 255
255 255 255
255 255 255
255 255 255
255 255 255
255 255 255
255 255 255
255 255 255
255 255 255
255 255 255
255 255 255
255 255 255
255 255 255
255 255 255
255 255 255
255 255 255
43 43 43
3 3 3
0 0 0
8 8 8
0 0 0
44 44 44
43 43 43
57 57 57
25 25 25
70 70 70
0 0 0
64 64 64
50 50 50
51 51 51
0 0 0
33 33 33
67 67 67
51 51 51
16 16 16
0 0 0
0 0 0
43 43 43
53 53 53
42 42 42
0 0 0
0 0 0
26 26 26
0 0 0
28 28 28
36 36 36
27 27 27
59 59 59
0 0 0
39 39 39
0 0 0
48 48 48
0 0 0
0 0 0
47 47 47
64 64 64
46 46 46
0 0 0
0 0 0
0 0 0
20 20 20
0 0 0
16 16 16
5 5 5
0 0 0
1 1 1
0 0 0
21 21 21
40 40 40
0 0 0
0 0 0
25 25 25
0 0 0
46 46 46
0 0 0
42 42 42
0 0 0
0 0 0
0 0 0
0 0 0
40 40 40
0 0 0
0 0 0
10 10 10
16 16 16
0 0 0
13 13 13
0 0 0
0 0 0
29 29 29
25 25 25
0 0 0
0 0 0
0 0 0
0 0 0
0 0 0
0 0 0
50 50 50
0 0 0
0 0 0
0 0 0
0 0 0
0 0 0
0 0 0
0 0 0
0 0 0
0 0 0
0 0 0
0 0 0
0 0 0
0 0 0
47 47 47
0 0 0
0 0 0
0 0 0
0 0 0
0 0 0
0 0 0
0 0 0
0 0 0
0 0 0
19 19 19
0 0 0
50 50 50
0 0 0
0 0 0
14 14 14
0 0 0
30 30 30
24 24 24
0 0 0
0 0 0
17 17 17
34 34 34
0 0 0
0 0 0
0 0 0
45 45 45
0 0 0
21 21 21
0 0 0
10 10 10
14 14 14
0 0 0
39 39 39
20 20 20
0 0 0
14 14 14
46 46 46
0 0 0
0 0 0
0 0 0
0 0 0
0 0 0
0 0 0
0 0 0
0 0 0
46 46 46
0 0 0
0 0 0
0 0 0
0 0 0
0 0 0
0 0 0
0 0 0
42 42 42
22 22 22
0 0 0
0 0 0
0 0 0
0 0 0
44 44 44
44 44 44
0 0 0
0 0 0
0 0 0
51 51 51
0 0 0
0 0 0
55 55 55
0 0 0
0 0 0
41 41 41
50 50 50
0 0 0
40 40 40
29 29 29
0 0 0
0 0 0
0 0 0
0 0 0
0 0 0
37 37 37
0 0 0
14 14 14
5 5 5
25 25 25
0 0 0
47 47 47
0 0 0
49 49 49
0 0 0
0 0 0
0 0 0
0 0 0
0 0 0
38 38 38
39 39 39
0 0 0
37 37 37
0 0 0
0 0 0
29 29 29
0 0 0
0 0 0
0 0 0
0 0 0
14 14 14
0 0 0
0 0 0
14 14 14
33 33 33
49 49 49
67 67 67
0 0 0
0 0 0
30 30 30
47 47 47
47 47 47
0 0 0
0 0 0
0 0 0
0 0 0
0 0 0
0 0 0
0 0 0
0 0 0
42 42 42
16 16 16
37 37 37
15 15 15
17 17 17
0 0 0
28 28 28
52 52 52
0 0 0
0 0 0
0 0 0
0 0 0
9 9 9
40 40 40
31 31 31
51 51 51
0 0 0
0 0 0
0 0 0
0 0 0
0 0 0
51 51 51
18 18 18
29 29 29
51 51 51
0 0 0
51 51 51
0 0 0
37 37 37
23 23 23
0 0 0
0 0 0
42 42 42
0 0 0
48 48 48
15 15 15
46 46 46
0 0 0
48 48 48
51 51 51
0 0 0
0 0 0
70 70 70
0 0 0
0 0 0
51 51 51
90 90 90
31 31 31
36 36 36
46 46 46
0 0 0
41 41 41
51 51 51
0 0 0
5 5 5
76 76 76
0 0 0
81 81 81
50 50 50
19 19 19
0 0 0
63 63 63
64 64 64
58 58 58
33 33 33
47 47 47
57 57 57
20 20 20
24 24 24
57 57 57
18 18 18
55 55 55
85 85 85
49 49 49
5 5 5
32 32 32
19 19 19
23 23 23
17 17 17
9 9 9
11 11 11
20 20 20
34 34 34
63 63 63
65 65 65
12 12 12
67 67 67
73 73 73
60 60 60
69 69 69
92 92 92
96 96 96
102 102 102
79 79 79
85 85 85
68 68 68
84 84 84
58 58 58
49 49 49
63 63 63
94 94 94
39 39 39
58 58 58
57 57 57
83 83 83
139 139 139
125 125 125
171 171 171
148 148 148
120 120 120
81 81 81
22 22 22
16 16 16
5 5 5
20 20 20
69 69 69
55 55 55
61 61 61
69 69 69
55 55 55
47 47 47
72 72 72
35 35 35
47 47 47
87 87 87
64 64 64
93 93 93
99 99 99
108 108 108
113 113 113
80 80 80
15 15 15
24 24 24
40 40 40
0 0 0
32 32 32
0 0 0
39 39 39
26 26 26
44 44 44
49 49 49
81 81 81
0 0 0
51 51 51
0 0 0
0 0 0
47 47 47
70 70 70
67 67 67
0 0 0
60 60 60
0 0 0
33 33 33
0 0 0
0 0 0
33 33 33
0 0 0
10 10 10
0 0 0
51 51 51
255 255 255
255 255 255
255 255 255
255 255 255
255 255 255
255 255 255
255 255 255
255 255 255
255 255 255
255 255 255
255 255 255
255 255 255
255 255 255
255 255 255
255 255 255
255 255 255
255 255 255
255 255 255
255 255 255
0 0 0
0 0 0
0 0 0
52 52 52
0 0 0
0 0 0
0 0 0
0 0 0
0 0 0
25 25 25
33 33 33
47 47 47
0 0 0
0 0 0
50 50 50
46 46 46
0 0 0
50 50 50
0 0 0
49 49 49
0 0 0
22 22 22
0 0 0
0 0 0
0 0 0
48 48 48
0 0 0
0 0 0
0 0 0
0 0 0
43 43 43
40 40 40
0 0 0
0 0 0
0 0 0
0 0 0
0 0 0
0 0 0
48 48 48
23 23 23
64 64 64
0 0 0
47 47 47
0 0 0
39 39 39
0 0 0
0 0 0
0 0 0
0 0 0
0 0 0
0 0 0
0 0 0
29 29 29
20 20 20
51 51 51
0 0 0
18 18 18
0 0 0
0 0 0
0 0 0
0 0 0
50 50 50
0 0 0
0 0 0
49 49 49
0 0 0
0 0 0
0 0 0
38 38 38
0 0 0
0 0 0
0 0 0
50 50 50
0 0 0
0 0 0
28 28 28
44 44 44
0 0 0
50 50 50
0 0 0
27 27 27
0 0 0
31 31 31
0 0 0
0 0 0
0 0 0
0 0 0
0 0 0
0 0 0
0 0 0
0 0 0
0 0 0
0 0 0
0 0 0
50 50 50
0 0 0
57 57 57
0 0 0
0 0 0
0 0 0
15 15 15
0 0 0
11 11 11
0 0 0
0 0 0
0 0 0
0 0 0
0 0 0
0 0 0
0 0 0
47 47 47
0 0 0
0 0 0
0 0 0
0 0 0
0 0 0
6 6 6
15 15 15
25 25 25
0 0 0
0 0 0
0 0 0
0 0 0
32 32 32
0 0 0
0 0 0
16 16 16
70 70 70
0 0 0
0 0 0
0 0 0
0 0 0
72 72 72
0 0 0
39 39 39
0 0 0
0 0 0
0 0 0
0 0 0
76 76 76
0 0 0
49 49 49
50 50 50
42 42 42
0 0 0
0 0 0
0 0 0
7 7 7
0 0 0
0 0 0
0 0 0
20 20 20
0 0 0
3 3 3
0 0 0
38 38 38
16 16 16
21 21 21
34 34 34
0 0 0
0 0 0
50 50 50
67 67 67
0 0 0
0 0 0
32 32 32
0 0 0
0 0 0
24 24 24
36 36 36
0 0 0
0 0 0
31 31 31
0 0 0
0 0 0
6 6 6
38 38 38
41 41 41
38 38 38
0 0 0
0 0 0
48 48 48
0 0 0
0 0 0
50 50 50
51 51 51
0 0 0
0 0 0
38 38 38
36 36 36
0 0 0
54 54 54
0 0 0
0 0 0
0 0 0
29 29 29
0 0 0
34 34 34
32 32 32
0 0 0
0 0 0
0 0 0
53 53 53
70 70 70
44 44 44
0 0 0
0 0 0
46 46 46
50 50 50
0 0 0
72 72 72
0 0 0
0 0 0
0 0 0
44 44 44
70 70 70
0 0 0
0 0 0
16 16 16
22 22 22
0 0 0
0 0 0
0 0 0
0 0 0
19 19 19
41 41 41
32 32 32
22 22 22
0 0 0
46 46 46
0 0 0
49 49 49
88 88 88
38 38 38
0 0 0
36 36 36
24 24 24
50 50 50
6 6 6
0 0 0
0 0 0
51 51 51
0 0 0
0 0 0
51 51 51
61 61 61
28 28 28
0 0 0
27 27 27
0 0 0
47 47 47
0 0 0
22 22 22
54 54 54
51 51 51
49 49 49
32 32 32
51 51 51
79 79 79
52 52 52
26 26 26
17 17 17
37 37 37
50 50 50
68 68 68
41 41 41
0 0 0
0 0 0
71 71 71
0 0 0
14 14 14
38 38 38
0 0 0
52 52 52
55 55 55
67 67 67
39 39 39
11 11 11
56 56 56
10 10 10
56 56 56
75 75 75
79 79 79
48 48 48
73 73 73
55 55 55
30 30 30
32 32 32
39 39 39
36 36 36
28 28 28
66 66 66
78 78 78
53 53 53
55 55 55
74 74 74
58 58 58
28 28 28
47 47 47
8 8 8
6 6 6
5 5 5
0 0 0
14 14 14
29 29 29
53 53 53
57 57 57
55 55 55
75 75 75
61 61 61
104 104 104
90 90 90
128 128 128
96 96 96
70 70 70
100 100 100
45 45 45
81 81 81
69 69 69
72 72 72
61 61 61
59 59 59
6 6 6
15 15 15
34 34 34
77 77 77
103 103 103
103 103 103
73 73 73
115 115 115
61 61 61
56 56 56
27 27 27
21 21 21
22 22 22
17 17 17
27 27 27
60 60 60
75 75 75
64 64 64
31 31 31
56 56 56
29 29 29
11 11 11
43 43 43
49 49 49
84 84 84
112 112 112
111 111 111
62 62 62
66 66 66
16 16 16
21 21 21
20 20 20
0 0 0
0 0 0
45 45 45
2 2 2
35 35 35
47 47 47
13 13 13
19 19 19
21 21 21
0 0 0
0 0 0
4 4 4
12 12 12
0 0 0
49 49 49
0 0 0
44 44 44
50 50 50
66 66 66
0 0 0
66 66 66
44 44 44
75 75 75
50 50 50
0 0 0
0 0 0
51 51 51
255 255 255
255 255 255
255 255 255
255 255 255
255 255 255
255 255 255
255 255 255
255 255 255
255 255 255
255 255 255
255 255 255
255 255 255
255 255 255
255 255 255
255 255 255
255 255 255
255 255 255
255 255 255
255 255 255
0 0 0
51 51 51
71 71 71
50 50 50
48 48 48
0 0 0
0 0 0
0 0 0
0 0 0
38 38 38
24 24 24
0 0 0
0 0 0
7 7 7
0 0 0
23 23 23
67 67 67
63 63 63
0 0 0
0 0 0
0 0 0
29 29 29
43 43 43
0 0 0
50 50 50
66 66 66
46 46 46
0 0 0
0 0 0
36 36 36
0 0 0
0 0 0
17 17 17
10 10 10
7 7 7
2 2 2
0 0 0
23 23 23
36 36 36
0 0 0
0 0 0
32 32 32
0 0 0
0 0 0
82 82 82
0 0 0
0 0 0
0 0 0
47 47 47
0 0 0
0 0 0
0 0 0
0 0 0
0 0 0
78 78 78
70 70 70
21 21 21
0 0 0
0 0 0
0 0 0
0 0 0
0 0 0
0 0 0
0 0 0
0 0 0
0 0 0
39 39 39
52 52 52
10 10 10
0 0 0
0 0 0
12 12 12
0 0 0
0 0 0
62 62 62
0 0 0
23 23 23
49 49 49
0 0 0
0 0 0
0 0 0
52 52 52
0 0 0
0 0 0
0 0 0
51 51 51
47 47 47
0 0 0
29 29 29
0 0 0
0 0 0
3 3 3
1 1 1
0 0 0
0 0 0
0 0 0
0 0 0
35 35 35
50 50 50
51 51 51
0 0 0
72 72 72
0 0 0
50 50 50
0 0 0
0 0 0
31 31 31
0 0 0
0 0 0
0 0 0
12 12 12
0 0 0
0 0 0
13 13 13
0 0 0
0 0 0
0 0 0
40 40 40
0 0 0
0 0 0
0 0 0
20 20 20
0 0 0
0 0 0
0 0 0
10 10 10
0 0 0
0 0 0
0 0 0
0 0 0
35 35 35
40 40 40
49 49 49
0 0 0
57 57 57
0 0 0
0 0 0
0 0 0
40 40 40
0 0 0
22 22 22
0 0 0
0 0 0
0 0 0
17 17 17
11 11 11
0 0 0
0 0 0
18 18 18
15 15 15
0 0 0
0 0 0
50 50 50
50 50 50
0 0 0
27 27 27
49 49 49
0 0 0
0 0 0
41 41 41
0 0 0
51 51 51
0 0 0
41 41 41
48 48 48
0 0 0
0 0 0
37 37 37
35 35 35
13 13 13
19 19 19
19 19 19
24 24 24
32 32 32
0 0 0
0 0 0
21 21 21
15 15 15
0 0 0
50 50 50
0 0 0
0 0 0
0 0 0
48 48 48
0 0 0
0 0 0
69 69 69
0 0 0
41 41 41
55 55 55
83 83 83
26 26 26
0 0 0
55 55 55
75 75 75
25 25 25
0 0 0
0 0 0
0 0 0
0 0 0
6 6 6
34 34 34
18 18 18
37 37 37
0 0 0
0 0 0
27 27 27
48 48 48
0 0 0
71 71 71
51 51 51
0 0 0
0 0 0
78 78 78
0 0 0
49 49 49
71 71 71
49 49 49
0 0 0
52 52 52
9 9 9
63 63 63
2 2 2
0 0 0
0 0 0
7 7 7
12 12 12
23 23 23
0 0 0
0 0 0
0 0 0
0 0 0
36 36 36
43 43 43
62 62 62
72 72 72
74 74 74
0 0 0
51 51 51
44 44 44
66 66 66
25 25 25
39 39 39
35 35 35
0 0 0
47 47 47
21 21 21
0 0 0
34 34 34
24 24 24
34 34 34
24 24 24
15 15 15
17 17 17
0 0 0
0 0 0
0 0 0
42 42 42
44 44 44
42 42 42
66 66 66
24 24 24
0 0 0
36 36 36
54 54 54
69 69 69
70 70 70
71 71 71
50 50 50
0 0 0
0 0 0
50 50 50
44 44 44
62 62 62
16 16 16
50 50 50
66 66 66
26 26 26
62 62 62
16 16 16
76 76 76
58 58 58
72 72 72
56 56 56
41 41 41
31 31 31
46 46 46
54 54 54
8 8 8
52 52 52
17 17 17
55 55 55
73 73 73
55 55 55
42 42 42
43 43 43
35 35 35
10 10 10
42 42 42
15 15 15
12 12 12
2 2 2
5 5 5
3 3 3
24 24 24
50 50 50
32 32 32
40 40 40
57 57 57
45 45 45
39 39 39
77 77 77
76 76 76
48 48 48
102 102 102
60 60 60
65 65 65
46 46 46
61 61 61
59 59 59
40 40 40
9 9 9
21 21 21
20 20 20
63 63 63
44 44 44
109 109 109
123 123 123
128 128 128
132 132 132
121 121 121
84 84 84
44 44 44
21 21 21
20 20 20
23 23 23
39 39 39
74 74 74
69 69 69
50 50 50
84 84 84
58 58 58
62 62 62
11 11 11
43 43 43
88 88 88
28 28 28
130 130 130
96 96 96
104 104 104
64 64 64
29 29 29
84 84 84
48 48 48
28 28 28
12 12 12
31 31 31
53 53 53
64 64 64
11 11 11
45 45 45
0 0 0
47 47 47
28 28 28
29 29 29
65 65 65
54 54 54
41 41 41
0 0 0
33 33 33
0 0 0
51 51 51
7 7 7
60 60 60
26 26 26
28 28 28
49 49 49
41 41 41
0 0 0
0 0 0
68 68 68
255 255 255
255 255 255
255 255 255
255 255 255
255 255 255
255 255 255
255 255 255
255 255 255
255 255 255
255 255 255
255 255 255
255 255 255
255 255 255
255 255 255
255 255 255
255 255 255
255 255 255
255 255 255
255 255 255
0 0 0
69 69 69
0 0 0
0 0 0
77 77 77
38 38 38
56 56 56
50 50 50
44 44 44
19 19 19
20 20 20
0 0 0
0 0 0
26 26 26
0 0 0
32 32 32
0 0 0
31 31 31
0 0 0
18 18 18
0 0 0
17 17 17
0 0 0
0 0 0
28 28 28
0 0 0
0 0 0
44 44 44
46 46 46
0 0 0
51 51 51
50 50 50
50 50 50
0 0 0
0 0 0
42 42 42
0 0 0
0 0 0
0 0 0
0 0 0
14 14 14
12 12 12
18 18 18
0 0 0
2 2 2
21 21 21
26 26 26
0 0 0
0 0 0
0 0 0
0 0 0
0 0 0
0 0 0
0 0 0
0 0 0
0 0 0
51 51 51
59 59 59
56 56 56
39 39 39
26 26 26
23 23 23
45 45 45
0 0 0
9 9 9
29 29 29
10 10 10
0 0 0
23 23 23
0 0 0
0 0 0
0 0 0
42 42 42
55 55 55
42 42 42
0 0 0
22 22 22
0 0 0
0 0 0
0 0 0
50 50 50
99 99 99
51 51 51
83 83 83
66 66 66
0 0 0
0 0 0
50 50 50
50 50 50
47 47 47
66 66 66
0 0 0
0 0 0
0 0 0
0 0 0
59 59 59
0 0 0
0 0 0
3 3 3
34 34 34
0 0 0
0 0 0
49 49 49
0 0 0
49 49 49
0 0 0
0 0 0
0 0 0
0 0 0
22 22 22
4 4 4
0 0 0
44 44 44
37 37 37
0 0 0
0 0 0
0 0 0
0 0 0
41 41 41
0 0 0
43 43 43
0 0 0
0 0 0
0 0 0
0 0 0
0 0 0
47 47 47
0 0 0
14 14 14
50 50 50
14 14 14
0 0 0
0 0 0
0 0 0
42 42 42
0 0 0
51 51 51
0 0 0
0 0 0
0 0 0
4 4 4
3 3 3
49 49 49
8 8 8
0 0 0
0 0 0
0 0 0
51 51 51
0 0 0
0 0 0
26 26 26
0 0 0
0 0 0
49 49 49
46 46 46
45 45 45
47 47 47
0 0 0
79 79 79
0 0 0
0 0 0
0 0 0
63 63 63
0 0 0
0 0 0
0 0 0
0 0 0
0 0 0
0 0 0
34 34 34
6 6 6
31 31 31
39 39 39
23 23 23
0 0 0
36 36 36
0 0 0
33 33 33
0 0 0
30 30 30
47 47 47
45 45 45
69 69 69
71 71 71
87 87 87
71 71 71
70 70 70
0 0 0
49 49 49
62 62 62
0 0 0
30 30 30
0 0 0
27 27 27
22 22 22
22 22 22
19 19 19
7 7 7
7 7 7
18 18 18
18 18 18
0 0 0
3 3 3
22 22 22
14 14 14
26 26 26
0 0 0
27 27 27
49 49 49
49 49 49
49 49 49
49 49 49
49 49 49
69 69 69
0 0 0
39 39 39
0 0 0
50 50 50
29 29 29
42 42 42
29 29 29
34 34 34
0 0 0
0 0 0
8 8 8
16 16 16
12 12 12
3 3 3
27 27 27
0 0 0
7 7 7
0 0 0
21 21 21
62 62 62
65 65 65
30 30 30
51 51 51
0 0 0
0 0 0
65 65 65
63 63 63
47 47 47
33 33 33
40 40 40
0 0 0
39 39 39
0 0 0
0 0 0
59 59 59
0 0 0
47 47 47
72 72 72
0 0 0
35 35 35
2 2 2
27 27 27
46 46 46
31 31 31
0 0 0
44 44 44
21 21 21
9 9 9
26 26 26
34 34 34
28 28 28
31 31 31
31 31 31
46 46 46
0 0 0
0 0 0
46 46 46
0 0 0
54 54 54
56 56 56
45 45 45
9 9 9
64 64 64
12 12 12
90 90 90
52 52 52
11 11 11
59 59 59
54 54 54
15 15 15
32 32 32
16 16 16
40 40 40
21 21 21
36 36 36
32 32 32
0 0 0
25 25 25
17 17 17
7 7 7
44 44 44
56 56 56
97 97 97
57 57 57
32 32 32
14 14 14
17 17 17
3 3 3
14 14 14
20 20 20
30 30 30
29 29 29
7 7 7
14 14 14
42 42 42
28 28 28
15 15 15
31 31 31
63 63 63
67 67 67
76 76 76
61 61 61
67 67 67
52 52 52
53 53 53
56 56 56
50 50 50
12 12 12
13 13 13
26 26 26
42 42 42
104 104 104
115 115 115
131 131 131
100 100 100
155 155 155
134 134 134
79 79 79
63 63 63
22 22 22
20 20 20
19 19 19
54 54 54
73 73 73
122 122 122
133 133 133
75 75 75
62 62 62
63 63 63
13 13 13
48 48 48
69 69 69
85 85 85
85 85 85
40 40 40
92 92 92
48 48 48
58 58 58
58 58 58
0 0 0
0 0 0
0 0 0
75 75 75
0 0 0
47 47 47
102 102 102
70 70 70
0 0 0
58 58 58
0 0 0
18 18 18
20 20 20
25 25 25
7 7 7
1 1 1
16 16 16
8 8 8
0 0 0
15 15 15
20 20 20
43 43 43
43 43 43
43 43 43
66 66 66
48 48 48
67 67 67
44 44 44
255 255 255
255 255 255
255 255 255
255 255 255
255 255 255
255 255 255
255 255 255
255 255 255
255 255 255
255 255 255
255 255 255
255 255 255
255 255 255
255 255 255
255 255 255
255 255 255
255 255 255
255 255 255
255 255 255
33 33 33
27 27 27
0 0 0
0 0 0
15 15 15
15 15 15
5 5 5
0 0 0
63 63 63
77 77 77
36 36 36
49 49 49
49 49 49
52 52 52
31 31 31
0 0 0
41 41 41
46 46 46
32 32 32
0 0 0
18 18 18
6 6 6
0 0 0
28 28 28
0 0 0
25 25 25
0 0 0
43 43 43
0 0 0
42 42 42
0 0 0
50 50 50
64 64 64
31 31 31
58 58 58
0 0 0
0 0 0
32 32 32
0 0 0
0 0 0
35 35 35
0 0 0
32 32 32
49 49 49
0 0 0
32 32 32
15 15 15
40 40 40
0 0 0
0 0 0
0 0 0
23 23 23
0 0 0
40 40 40
0 0 0
8 8 8
22 22 22
22 22 22
50 50 50
47 47 47
20 20 20
0 0 0
0 0 0
0 0 0
0 0 0
0 0 0
45 45 45
46 46 46
0 0 0
14 14 14
0 0 0
40 40 40
31 31 31
0 0 0
0 0 0
0 0 0
22 22 22
0 0 0
0 0 0
39 39 39
0 0 0
0 0 0
0 0 0
0 0 0
69 69 69
0 0 0
0 0 0
48 48 48
51 51 51
50 50 50
47 47 47
40 40 40
0 0 0
0 0 0
24 24 24
0 0 0
46 46 46
0 0 0
0 0 0
0 0 0
0 0 0
59 59 59
0 0 0
39 39 39
65 65 65
0 0 0
35 35 35
0 0 0
0 0 0
0 0 0
21 21 21
38 38 38
43 43 43
0 0 0
49 49 49
49 49 49
0 0 0
0 0 0
72 72 72
0 0 0
0 0 0
0 0 0
0 0 0
23 23 23
47 47 47
0 0 0
70 70 70
0 0 0
72 72 72
0 0 0
0 0 0
0 0 0
0 0 0
27 27 27
0 0 0
72 72 72
0 0 0
0 0 0
20 20 20
0 0 0
0 0 0
0 0 0
0 0 0
0 0 0
0 0 0
57 57 57
0 0 0
0 0 0
45 45 45
14 14 14
0 0 0
0 0 0
14 14 14
51 51 51
0 0 0
0 0 0
69 69 69
72 72 72
49 49 49
48 48 48
81 81 81
0 0 0
0 0 0
0 0 0
72 72 72
0 0 0
50 50 50
71 71 71
48 48 48
49 49 49
49 49 49
0 0 0
35 35 35
0 0 0
18 18 18
31 31 31
2 2 2
35 35 35
29 29 29
0 0 0
14 14 14
60 60 60
0 0 0
70 70 70
0 0 0
49 49 49
0 0 0
80 80 80
46 46 46
0 0 0
0 0 0
71 71 71
27 27 27
48 48 48
0 0 0
53 53 53
24 24 24
49 49 49
0 0 0
0 0 0
0 0 0
41 41 41
36 36 36
34 34 34
0 0 0
0 0 0
25 25 25
44 44 44
0 0 0
70 70 70
96 96 96
0 0 0
86 86 86
0 0 0
51 51 51
83 83 83
51 51 51
0 0 0
47 47 47
0 0 0
38 38 38
46 46 46
0 0 0
51 51 51
0 0 0
41 41 41
0 0 0
46 46 46
56 56 56
49 49 49
48 48 48
45 45 45
32 32 32
28 28 28
56 56 56
22 22 22
0 0 0
17 17 17
87 87 87
72 72 72
0 0 0
0 0 0
0 0 0
87 87 87
47 47 47
43 43 43
40 40 40
42 42 42
39 39 39
66 66 66
47 47 47
78 78 78
0 0 0
0 0 0
0 0 0
7 7 7
18 18 18
0 0 0
11 11 11
28 28 28
0 0 0
53 53 53
58 58 58
42 42 42
44 44 44
78 78 78
71 71 71
0 0 0
51 51 51
70 70 70
70 70 70
66 66 66
85 85 85
81 81 81
16 16 16
0 0 0
23 23 23
62 62 62
26 26 26
57 57 57
35 35 35
39 39 39
49 49 49
38 38 38
29 29 29
27 27 27
23 23 23
23 23 23
27 27 27
30 30 30
0 0 0
13 13 13
9 9 9
32 32 32
50 50 50
36 36 36
0 0 0
20 20 20
35 35 35
21 21 21
9 9 9
10 10 10
26 26 26
27 27 27
28 28 28
21 21 21
15 15 15
9 9 9
8 8 8
1 1 1
1 1 1
10 10 10
23 23 23
37 37 37
68 68 68
85 85 85
47 47 47
37 37 37
54 54 54
31 31 31
65 65 65
29 29 29
18 18 18
31 31 31
30 30 30
71 71 71
77 77 77
117 117 117
112 112 112
153 153 153
79 79 79
76 76 76
70 70 70
34 34 34
27 27 27
35 35 35
33 33 33
58 58 58
80 80 80
120 120 120
81 81 81
61 61 61
25 25 25
26 26 26
65 65 65
118 118 118
91 91 91
133 133 133
81 81 81
36 36 36
73 73 73
47 47 47
67 67 67
80 80 80
0 0 0
44 44 44
84 84 84
62 62 62
66 66 66
49 49 49
0 0 0
76 76 76
0 0 0
68 68 68
48 48 48
0 0 0
56 56 56
32 32 32
48 48 48
67 67 67
0 0 0
7 7 7
10 10 10
0 0 0
41 41 41
67 67 67
39 39 39
0 0 0
30 30 30
0 0 0
42 42 42
35 35 35
78 78 78
70 70 70
168 168 168
255 255 255
255 255 255
255 255 255
255 255 255
255 255 255
255 255 255
255 255 255
255 255 255
255 255 255
255 255 255
255 255 255
255 255 255
255 255 255
255 255 255
255 255 255
0 0 0
1 1 1
0 0 0
20 20 20
40 40 40
30 30 30
51 51 51
0 0 0
0 0 0
64 64 64
0 0 0
57 57 57
81 81 81
96 96 96
51 51 51
42 42 42
50 50 50
18 18 18
25 25 25
0 0 0
0 0 0
0 0 0
46 46 46
18 18 18
22 22 22
48 48 48
11 11 11
15 15 15
7 7 7
16 16 16
13 13 13
0 0 0
0 0 0
64 64 64
30 30 30
39 39 39
42 42 42
0 0 0
0 0 0
41 41 41
0 0 0
84 84 84
66 66 66
51 51 51
81 81 81
50 50 50
0 0 0
44 44 44
0 0 0
46 46 46
9 9 9
6 6 6
0 0 0
44 44 44
0 0 0
0 0 0
0 0 0
13 13 13
13 13 13
10 10 10
0 0 0
0 0 0
17 17 17
24 24 24
0 0 0
51 51 51
45 45 45
0 0 0
0 0 0
50 50 50
0 0 0
0 0 0
0 0 0
51 51 51
0 0 0
0 0 0
12 12 12
5 5 5
16 16 16
0 0 0
0 0 0
0 0 0
15 15 15
64 64 64
0 0 0
0 0 0
0 0 0
0 0 0
34 34 34
44 44 44
0 0 0
84 84 84
0 0 0
0 0 0
0 0 0
0 0 0
36 36 36
0 0 0
0 0 0
50 50 50
0 0 0
0 0 0
44 44 44
49 49 49
45 45 45
0 0 0
0 0 0
0 0 0
14 14 14
3 3 3
0 0 0
26 26 26
4 4 4
0 0 0
0 0 0
18 18 18
64 64 64
0 0 0
0 0 0
32 32 32
0 0 0
0 0 0
9 9 9
54 54 54
44 44 44
0 0 0
0 0 0
0 0 0
97 97 97
0 0 0
0 0 0
0 0 0
48 48 48
0 0 0
0 0 0
50 50 50
48 48 48
64 64 64
49 49 49
0 0 0
0 0 0
0 0 0
0 0 0
13 13 13
35 35 35
0 0 0
30 30 30
0 0 0
10 10 10
46 46 46
45 45 45
0 0 0
0 0 0
0 0 0
0 0 0
44 44 44
57 57 57
0 0 0
0 0 0
70 70 70
0 0 0
44 44 44
77 77 77
56 56 56
0 0 0
49 49 49
0 0 0
78 78 78
46 46 46
0 0 0
38 38 38
39 39 39
31 31 31
7 7 7
25 25 25
0 0 0
47 47 47
0 0 0
43 43 43
37 37 37
93 93 93
64 64 64
0 0 0
38 38 38
0 0 0
13 13 13
45 45 45
45 45 45
39 39 39
44 44 44
30 30 30
44 44 44
45 45 45
44 44 44
48 48 48
28 28 28
33 33 33
12 12 12
25 25 25
50 50 50
28 28 28
0 0 0
41 41 41
5 5 5
32 32 32
0 0 0
33 33 33
0 0 0
19 19 19
21 21 21
39 39 39
74 74 74
0 0 0
59 59 59
0 0 0
71 71 71
0 0 0
85 85 85
50 50 50
51 51 51
46 46 46
28 28 28
46 46 46
0 0 0
41 41 41
0 0 0
0 0 0
0 0 0
18 18 18
47 47 47
3 3 3
20 20 20
5 5 5
0 0 0
0 0 0
43 43 43
47 47 47
48 48 48
56 56 56
47 47 47
57 57 57
45 45 45
67 67 67
70 70 70
49 49 49
69 69 69
50 50 50
59 59 59
55 55 55
75 75 75
47 47 47
58 58 58
29 29 29
39 39 39
0 0 0
0 0 0
44 44 44
2 2 2
10 10 10
27 27 27
21 21 21
48 48 48
0 0 0
60 60 60
0 0 0
29 29 29
0 0 0
0 0 0
55 55 55
22 22 22
62 62 62
45 45 45
40 40 40
50 50 50
0 0 0
72 72 72
32 32 32
58 58 58
23 23 23
57 57 57
53 53 53
0 0 0
38 38 38
34 34 34
26 26 26
36 36 36
60 60 60
4 4 4
0 0 0
5 5 5
17 17 17
1 1 1
5 5 5
13 13 13
15 15 15
19 19 19
21 21 21
53 53 53
68 68 68
41 41 41
16 16 16
7 7 7
14 14 14
38 38 38
21 21 21
44 44 44
20 20 20
9 9 9
2 2 2
21 21 21
21 21 21
13 13 13
31 31 31
37 37 37
37 37 37
64 64 64
85 85 85
56 56 56
55 55 55
77 77 77
96 96 96
63 63 63
57 57 57
39 39 39
65 65 65
124 124 124
99 99 99
122 122 122
123 123 123
137 137 137
107 107 107
111 111 111
66 66 66
23 23 23
25 25 25
22 22 22
17 17 17
64 64 64
18 18 18
77 77 77
74 74 74
92 92 92
33 33 33
39 39 39
89 89 89
87 87 87
79 79 79
66 66 66
13 13 13
9 9 9
0 0 0
0 0 0
54 54 54
44 44 44
81 81 81
47 47 47
12 12 12
0 0 0
0 0 0
54 54 54
71 71 71
67 67 67
0 0 0
59 59 59
0 0 0
37 37 37
15 15 15
44 44 44
36 36 36
51 51 51
0 0 0
42 42 42
29 29 29
3 3 3
15 15 15
57 57 57
8 8 8
0 0 0
0 0 0
52 52 52
17 17 17
0 0 0
60 60 60
0 0 0
54 54 54
29 29 29
0 0 0
10 10 10
145 145 145
250 250 250
255 255 255
255 255 255
255 255 255
255 255 255
255 255 255
255 255 255
255 255 255
255 255 255
255 255 255
255 255 255
33 33 33
0 0 0
28 28 28
17 17 17
38 38 38
53 53 53
6 6 6
18 18 18
36 36 36
48 48 48
37 37 37
0 0 0
71 71 71
0 0 0
56 56 56
46 46 46
47 47 47
44 44 44
77 77 77
62 62 62
65 65 65
46 46 46
0 0 0
23 23 23
0 0 0
45 45 45
0 0 0
21 21 21
67 67 67
3 3 3
27 27 27
35 35 35
0 0 0
41 41 41
63 63 63
44 44 44
47 47 47
44 44 44
15 15 15
67 67 67
70 70 70
48 48 48
0 0 0
51 51 51
58 58 58
43 43 43
50 50 50
0 0 0
49 49 49
51 51 51
64 64 64
44 44 44
46 46 46
70 70 70
0 0 0
88 88 88
75 75 75
0 0 0
20 20 20
21 21 21
16 16 16
0 0 0
13 13 13
11 11 11
0 0 0
0 0 0
11 11 11
6 6 6
45 45 45
0 0 0
0 0 0
75 75 75
38 38 38
0 0 0
0 0 0
0 0 0
0 0 0
20 20 20
0 0 0
46 46 46
32 32 32
32 32 32
36 36 36
44 44 44
69 69 69
48 48 48
27 27 27
0 0 0
0 0 0
5 5 5
29 29 29
3 3 3
5 5 5
19 19 19
0 0 0
21 21 21
25 25 25
0 0 0
30 30 30
0 0 0
0 0 0
39 39 39
46 46 46
0 0 0
0 0 0
0 0 0
35 35 35
45 45 45
11 11 11
43 43 43
44 44 44
39 39 39
58 58 58
0 0 0
46 46 46
0 0 0
31 31 31
12 12 12
0 0 0
34 34 34
4 4 4
41 41 41
0 0 0
18 18 18
0 0 0
51 51 51
101 101 101
50 50 50
49 49 49
0 0 0
0 0 0
62 62 62
60 60 60
0 0 0
0 0 0
39 39 39
36 36 36
26 26 26
21 21 21
0 0 0
2 2 2
15 15 15
25 25 25
0 0 0
0 0 0
0 0 0
24 24 24
49 49 49
49 49 49
46 46 46
0 0 0
45 45 45
57 57 57
57 57 57
21 21 21
44 44 44
67 67 67
47 47 47
42 42 42
47 47 47
61 61 61
0 0 0
84 84 84
73 73 73
22 22 22
17 17 17
9 9 9
44 44 44
0 0 0
0 0 0
42 42 42
33 33 33
39 39 39
23 23 23
38 38 38
21 21 21
30 30 30
42 42 42
0 0 0
0 0 0
33 33 33
39 39 39
13 13 13
2 2 2
30 30 30
0 0 0
21 21 21
0 0 0
0 0 0
50 50 50
0 0 0
56 56 56
34 34 34
35 35 35
41 41 41
17 17 17
0 0 0
43 43 43
26 26 26
17 17 17
34 34 34
50 50 50
40 40 40
0 0 0
10 10 10
28 28 28
53 53 53
66 66 66
46 46 46
34 34 34
67 67 67
29 29 29
61 61 61
9 9 9
67 67 67
0 0 0
79 79 79
0 0 0
101 101 101
63 63 63
51 51 51
57 57 57
56 56 56
29 29 29
56 56 56
58 58 58
75 75 75
50 50 50
82 82 82
86 86 86
20 20 20
0 0 0
33 33 33
24 24 24
44 44 44
28 28 28
34 34 34
64 64 64
0 0 0
51 51 51
47 47 47
50 50 50
67 67 67
61 61 61
0 0 0
87 87 87
86 86 86
86 86 86
84 84 84
36 36 36
35 35 35
65 65 65
71 71 71
65 65 65
33 33 33
0 0 0
48 48 48
35 35 35
68 68 68
37 37 37
18 18 18
51 51 51
40 40 40
40 40 40
30 30 30
61 61 61
32 32 32
20 20 20
46 46 46
53 53 53
20 20 20
38 38 38
51 51 51
50 50 50
89 89 89
100 100 100
60 60 60
42 42 42
69 69 69
3 3 3
26 26 26
44 44 44
16 16 16
29 29 29
28 28 28
20 20 20
18 18 18
34 34 34
2 2 2
18 18 18
6 6 6
0 0 0
5 5 5
1 1 1
9 9 9
29 29 29
48 48 48
13 13 13
45 45 45
31 31 31
24 24 24
21 21 21
13 13 13
18 18 18
16 16 16
28 28 28
15 15 15
23 23 23
2 2 2
29 29 29
22 22 22
7 7 7
20 20 20
36 36 36
49 49 49
62 62 62
81 81 81
95 95 95
80 80 80
76 76 76
100 100 100
84 84 84
63 63 63
69 69 69
68 68 68
103 103 103
117 117 117
87 87 87
95 95 95
94 94 94
98 98 98
92 92 92
47 47 47
15 15 15
37 37 37
14 14 14
50 50 50
57 57 57
83 83 83
85 85 85
78 78 78
82 82 82
1 1 1
24 24 24
26 26 26
49 49 49
75 75 75
16 16 16
30 30 30
26 26 26
31 31 31
0 0 0
48 48 48
38 38 38
81 81 81
33 33 33
47 47 47
12 12 12
17 17 17
30 30 30
18 18 18
3 3 3
42 42 42
49 49 49
50 50 50
63 63 63
79 79 79
0 0 0
0 0 0
35 35 35
54 54 54
67 67 67
24 24 24
41 41 41
30 30 30
9 9 9
10 10 10
17 17 17
4 4 4
31 31 31
24 24 24
44 44 44
37 37 37
62 62 62
65 65 65
47 47 47
48 48 48
11 11 11
47 47 47
8 8 8
50 50 50
85 85 85
146 146 146
245 245 245
255 255 255
255 255 255
255 255 255
255 255 255
255 255 255
255 255 255
66 66 66
56 56 56
43 43 43
55 55 55
43 43 43
49 49 49
37 37 37
42 42 42
44 44 44
51 51 51
0 0 0
51 51 51
50 50 50
71 71 71
0 0 0
92 92 92
82 82 82
24 24 24
47 47 47
61 61 61
63 63 63
59 59 59
81 81 81
51 51 51
0 0 0
43 43 43
81 81 81
50 50 50
31 31 31
43 43 43
48 48 48
77 77 77
14 14 14
20 20 20
46 46 46
86 86 86
108 108 108
49 49 49
51 51 51
8 8 8
68 68 68
50 50 50
12 12 12
6 6 6
38 38 38
38 38 38
14 14 14
66 66 66
51 51 51
81 81 81
71 71 71
0 0 0
55 55 55
0 0 0
40 40 40
63 63 63
35 35 35
41 41 41
0 0 0
53 53 53
8 8 8
9 9 9
26 26 26
0 0 0
0 0 0
16 16 16
4 4 4
13 13 13
31 31 31
23 23 23
4 4 4
0 0 0
23 23 23
48 48 48
0 0 0
75 75 75
7 7 7
43 43 43
17 17 17
0 0 0
35 35 35
44 44 44
0 0 0
0 0 0
59 59 59
0 0 0
67 67 67
0 0 0
0 0 0
0 0 0
7 7 7
22 22 22
21 21 21
0 0 0
0 0 0
1 1 1
0 0 0
0 0 0
74 74 74
0 0 0
50 50 50
72 72 72
69 69 69
68 68 68
45 45 45
50 50 50
51 51 51
49 49 49
62 62 62
46 46 46
0 0 0
38 38 38
0 0 0
0 0 0
0 0 0
15 15 15
0 0 0
16 16 16
0 0 0
0 0 0
0 0 0
4 4 4
47 47 47
47 47 47
0 0 0
49 49 49
70 70 70
51 51 51
0 0 0
51 51 51
28 28 28
0 0 0
0 0 0
50 50 50
0 0 0
0 0 0
0 0 0
0 0 0
50 50 50
49 49 49
51 51 51
50 50 50
45 45 45
41 41 41
25 25 25
29 29 29
11 11 11
0 0 0
0 0 0
21 21 21
36 36 36
32 32 32
47 47 47
0 0 0
48 48 48
0 0 0
0 0 0
0 0 0
0 0 0
0 0 0
42 42 42
66 66 66
0 0 0
66 66 66
26 26 26
0 0 0
77 77 77
0 0 0
0 0 0
42 42 42
0 0 0
12 12 12
24 24 24
22 22 22
30 30 30
0 0 0
34 34 34
0 0 0
75 75 75
48 48 48
16 16 16
55 55 55
0 0 0
93 93 93
86 86 86
38 38 38
46 46 46
71 71 71
82 82 82
72 72 72
39 39 39
42 42 42
0 0 0
38 38 38
72 72 72
0 0 0
24 24 24
47 47 47
0 0 0
0 0 0
4 4 4
7 7 7
4 4 4
22 22 22
0 0 0
49 49 49
41 41 41
83 83 83
34 34 34
51 51 51
75 75 75
93 93 93
67 67 67
90 90 90
0 0 0
51 51 51
88 88 88
86 86 86
68 68 68
71 71 71
61 61 61
58 58 58
71 71 71
0 0 0
39 39 39
11 11 11
75 75 75
38 38 38
52 52 52
63 63 63
52 52 52
19 19 19
30 30 30
40 40 40
13 13 13
19 19 19
33 33 33
8 8 8
7 7 7
29 29 29
0 0 0
0 0 0
43 43 43
33 33 33
71 71 71
71 71 71
70 70 70
82 82 82
91 91 91
102 102 102
60 60 60
53 53 53
92 92 92
83 83 83
86 86 86
86 86 86
18 18 18
51 51 51
33 33 33
62 62 62
22 22 22
33 33 33
9 9 9
33 33 33
4 4 4
17 17 17
3 3 3
59 59 59
55 55 55
14 14 14
31 31 31
46 46 46
84 84 84
17 17 17
87 87 87
91 91 91
71 71 71
79 79 79
64 64 64
40 40 40
30 30 30
21 21 21
17 17 17
43 43 43
58 58 58
71 71 71
41 41 41
18 18 18
0 0 0
15 15 15
0 0 0
9 9 9
6 6 6
12 12 12
19 19 19
25 25 25
24 24 24
44 44 44
49 49 49
16 16 16
24 24 24
38 38 38
12 12 12
27 27 27
11 11 11
26 26 26
24 24 24
40 40 40
32 32 32
12 12 12
17 17 17
8 8 8
21 21 21
42 42 42
56 56 56
49 49 49
97 97 97
80 80 80
124 124 124
127 127 127
105 105 105
83 83 83
111 111 111
29 29 29
87 87 87
108 108 108
129 129 129
101 101 101
125 125 125
140 140 140
106 106 106
86 86 86
10 10 10
20 20 20
7 7 7
57 57 57
47 47 47
100 100 100
95 95 95
96 96 96
88 88 88
48 48 48
12 12 12
19 19 19
42 42 42
29 29 29
31 31 31
49 49 49
17 17 17
83 83 83
10 10 10
0 0 0
34 34 34
9 9 9
18 18 18
57 57 57
43 43 43
69 69 69
53 53 53
52 52 52
60 60 60
51 51 51
41 41 41
35 35 35
47 47 47
23 23 23
33 33 33
71 71 71
60 60 60
0 0 0
81 81 81
51 51 51
52 52 52
68 68 68
66 66 66
43 43 43
49 49 49
1 1 1
24 24 24
19 19 19
66 66 66
51 51 51
15 15 15
48 48 48
43 43 43
28 28 28
65 65 65
70 70 70
48 48 48
16 16 16
33 33 33
33 33 33
37 37 37
63 63 63
49 49 49
0 0 0
102 102 102
238 238 238
255 255 255
255 255 255
0 0 0
26 26 26
0 0 0
38 38 38
48 48 48
36 36 36
49 49 49
6 6 6
12 12 12
63 63 63
6 6 6
31 31 31
59 59 59
45 45 45
0 0 0
0 0 0
6 6 6
19 19 19
42 42 42
40 40 40
28 28 28
0 0 0
69 69 69
70 70 70
50 50 50
69 69 69
68 68 68
44 44 44
94 94 94
63 63 63
72 72 72
0 0 0
0 0 0
0 0 0
0 0 0
0 0 0
0 0 0
57 57 57
53 53 53
77 77 77
61 61 61
0 0 0
32 32 32
36 36 36
42 42 42
31 31 31
34 34 34
52 52 52
83 83 83
20 20 20
16 16 16
0 0 0
38 38 38
38 38 38
51 51 51
23 23 23
36 36 36
46 46 46
0 0 0
42 42 42
64 64 64
0 0 0
0 0 0
30 30 30
60 60 60
62 62 62
30 30 30
86 86 86
45 45 45
70 70 70
67 67 67
49 49 49
35 35 35
0 0 0
34 34 34
0 0 0
38 38 38
0 0 0
42 42 42
0 0 0
0 0 0
0 0 0
74 74 74
66 66 66
69 69 69
63 63 63
0 0 0
49 49 49
61 61 61
72 72 72
33 33 33
0 0 0
49 49 49
0 0 0
0 0 0
50 50 50
50 50 50
75 75 75
14 14 14
0 0 0
0 0 0
66 66 66
49 49 49
0 0 0
0 0 0
0 0 0
0 0 0
29 29 29
48 48 48
0 0 0
36 36 36
46 46 46
0 0 0
24 24 24
0 0 0
29 29 29
37 37 37
0 0 0
0 0 0
63 63 63
79 79 79
85 85 85
50 50 50
37 37 37
71 71 71
0 0 0
49 49 49
84 84 84
42 42 42
0 0 0
49 49 49
0 0 0
67 67 67
0 0 0
0 0 0
0 0 0
0 0 0
0 0 0
46 46 46
0 0 0
0 0 0
14 14 14
13 13 13
8 8 8
6 6 6
55 55 55
0 0 0
54 54 54
47 47 47
30 30 30
48 48 48
67 67 67
23 23 23
56 56 56
8 8 8
29 29 29
0 0 0
58 58 58
64 64 64
49 49 49
0 0 0
68 68 68
69 69 69
0 0 0
70 70 70
42 42 42
54 54 54
30 30 30
19 19 19
45 45 45
0 0 0
0 0 0
0 0 0
0 0 0
24 24 24
51 51 51
36 36 36
0 0 0
40 40 40
36 36 36
47 47 47
41 41 41
72 72 72
0 0 0
0 0 0
55 55 55
0 0 0
79 79 79
43 43 43
37 37 37
45 45 45
70 70 70
43 43 43
16 16 16
33 33 33
40 40 40
80 80 80
78 78 78
89 89 89
35 35 35
0 0 0
15 15 15
0 0 0
23 23 23
16 16 16
0 0 0
6 6 6
38 38 38
25 25 25
24 24 24
42 42 42
3 3 3
36 36 36
49 49 49
100 100 100
71 71 71
71 71 71
84 84 84
83 83 83
0 0 0
80 80 80
38 38 38
53 53 53
39 39 39
59 59 59
22 22 22
33 33 33
56 56 56
52 52 52
6 6 6
6 6 6
1 1 1
8 8 8
17 17 17
0 0 0
27 27 27
49 49 49
59 59 59
58 58 58
95 95 95
79 79 79
57 57 57
48 48 48
49 49 49
81 81 81
88 88 88
84 84 84
88 88 88
86 86 86
99 99 99
109 109 109
67 67 67
0 0 0
91 91 91
84 84 84
80 80 80
43 43 43
85 85 85
57 57 57
74 74 74
58 58 58
43 43 43
42 42 42
47 47 47
49 49 49
55 55 55
44 44 44
4 4 4
54 54 54
35 35 35
56 56 56
76 76 76
88 88 88
18 18 18
103 103 103
58 58 58
37 37 37
82 82 82
71 71 71
64 64 64
23 23 23
50 50 50
11 11 11
23 23 23
49 49 49
57 57 57
41 41 41
76 76 76
25 25 25
45 45 45
36 36 36
3 3 3
2 2 2
19 19 19
6 6 6
9 9 9
10 10 10
25 25 25
16 16 16
6 6 6
11 11 11
9 9 9
24 24 24
17 17 17
5 5 5
21 21 21
13 13 13
38 38 38
45 45 45
21 21 21
31 31 31
25 25 25
51 51 51
60 60 60
72 72 72
90 90 90
79 79 79
42 42 42
111 111 111
96 96 96
133 133 133
111 111 111
62 62 62
76 76 76
72 72 72
79 79 79
76 76 76
100 100 100
97 97 97
92 92 92
86 86 86
46 46 46
7 7 7
10 10 10
31 31 31
70 70 70
118 118 118
96 96 96
104 104 104
79 79 79
59 59 59
52 52 52
9 9 9
37 37 37
76 76 76
46 46 46
80 80 80
101 101 101
73 73 73
43 43 43
45 45 45
46 46 46
73 73 73
81 81 81
34 34 34
45 45 45
41 41 41
75 75 75
20 20 20
40 40 40
0 0 0
37 37 37
57 57 57
63 63 63
49 49 49
79 79 79
49 49 49
60 60 60
76 76 76
80 80 80
52 52 52
49 49 49
50 50 50
68 68 68
0 0 0
97 97 97
80 80 80
86 86 86
59 59 59
41 41 41
0 0 0
90 90 90
81 81 81
57 57 57
14 14 14
32 32 32
6 6 6
21 21 21
0 0 0
28 28 28
55 55 55
57 57 57
45 45 45
0 0 0
90 90 90
71 71 71
98 98 98
0 0 0
117 117 117
72 72 72
87 87 87
41 41 41
119 119 119
51 51 51
69 69 69
45 45 45
65 65 65
91 91 91
82 82 82
81 81 81
67 67 67
102 102 102
83 83 83
58 58 58
88 88 88
98 98 98
0 0 0
59 59 59
24 24 24
0 0 0
21 21 21
73 73 73
9 9 9
43 43 43
40 40 40
68 68 68
0 0 0
67 67 67
0 0 0
111 111 111
0 0 0
0 0 0
50 50 50
78 78 78
0 0 0
50 50 50
47 47 47
54 54 54
36 36 36
0 0 0
0 0 0
0 0 0
38 38 38
62 62 62
26 26 26
60 60 60
0 0 0
26 26 26
11 11 11
28 28 28
7 7 7
7 7 7
20 20 20
26 26 26
21 21 21
17 17 17
36 36 36
45 45 45
28 28 28
64 64 64
50 50 50
69 69 69
0 0 0
0 0 0
88 88 88
50 50 50
46 46 46
50 50 50
71 71 71
50 50 50
0 0 0
0 0 0
20 20 20
0 0 0
9 9 9
4 4 4
15 15 15
23 23 23
0 0 0
22 22 22
13 13 13
49 49 49
39 39 39
43 43 43
48 48 48
44 44 44
0 0 0
0 0 0
50 50 50
50 50 50
64 64 64
0 0 0
69 69 69
0 0 0
60 60 60
64 64 64
0 0 0
0 0 0
47 47 47
49 49 49
47 47 47
62 62 62
0 0 0
43 43 43
0 0 0
0 0 0
0 0 0
7 7 7
0 0 0
30 30 30
0 0 0
39 39 39
21 21 21
5 5 5
34 34 34
5 5 5
31 31 31
50 50 50
38 38 38
62 62 62
39 39 39
0 0 0
0 0 0
0 0 0
49 49 49
51 51 51
69 69 69
43 43 43
38 38 38
50 50 50
86 86 86
50 50 50
0 0 0
32 32 32
46 46 46
34 34 34
29 29 29
19 19 19
0 0 0
0 0 0
27 27 27
23 23 23
0 0 0
14 14 14
21 21 21
71 71 71
43 43 43
17 17 17
41 41 41
46 46 46
67 67 67
22 22 22
61 61 61
45 45 45
0 0 0
48 48 48
49 49 49
117 117 117
33 33 33
39 39 39
0 0 0
0 0 0
40 40 40
0 0 0
25 25 25
17 17 17
39 39 39
0 0 0
52 52 52
51 51 51
13 13 13
0 0 0
19 19 19
42 42 42
57 57 57
46 46 46
57 57 57
59 59 59
0 0 0
47 47 47
63 63 63
30 30 30
94 94 94
59 59 59
66 66 66
75 75 75
64 64 64
63 63 63
43 43 43
0 0 0
98 98 98
48 48 48
93 93 93
110 110 110
37 37 37
33 33 33
73 73 73
0 0 0
71 71 71
49 49 49
63 63 63
36 36 36
0 0 0
8 8 8
27 27 27
42 42 42
27 27 27
29 29 29
81 81 81
8 8 8
10 10 10
45 45 45
8 8 8
42 42 42
12 12 12
51 51 51
42 42 42
19 19 19
11 11 11
2 2 2
37 37 37
70 70 70
82 82 82
58 58 58
60 60 60
87 87 87
49 49 49
27 27 27
56 56 56
19 19 19
13 13 13
21 21 21
15 15 15
12 12 12
0 0 0
24 24 24
0 0 0
18 18 18
38 38 38
0 0 0
79 79 79
73 73 73
90 90 90
0 0 0
26 26 26
45 45 45
89 89 89
27 27 27
85 85 85
58 58 58
51 51 51
85 85 85
78 78 78
64 64 64
83 83 83
69 69 69
65 65 65
48 48 48
41 41 41
37 37 37
20 20 20
21 21 21
21 21 21
35 35 35
70 70 70
2 2 2
36 36 36
31 31 31
26 26 26
26 26 26
32 32 32
2 2 2
58 58 58
53 53 53
37 37 37
52 52 52
62 62 62
76 76 76
61 61 61
59 59 59
54 54 54
67 67 67
0 0 0
28 28 28
28 28 28
87 87 87
35 35 35
51 51 51
13 13 13
55 55 55
59 59 59
8 8 8
32 32 32
7 7 7
7 7 7
18 18 18
2 2 2
10 10 10
14 14 14
29 29 29
37 37 37
53 53 53
6 6 6
18 18 18
11 11 11
12 12 12
22 22 22
20 20 20
22 22 22
20 20 20
14 14 14
9 9 9
50 50 50
56 56 56
54 54 54
77 77 77
63 63 63
101 101 101
100 100 100
102 102 102
131 131 131
125 125 125
132 132 132
125 125 125
57 57 57
63 63 63
57 57 57
38 38 38
82 82 82
110 110 110
78 78 78
35 35 35
9 9 9
11 11 11
37 37 37
47 47 47
33 33 33
57 57 57
34 34 34
39 39 39
24 24 24
22 22 22
20 20 20
34 34 34
85 85 85
87 87 87
64 64 64
54 54 54
75 75 75
58 58 58
67 67 67
78 78 78
70 70 70
82 82 82
50 50 50
58 58 58
5 5 5
21 21 21
17 17 17
12 12 12
35 35 35
9 9 9
57 57 57
76 76 76
74 74 74
72 72 72
24 24 24
20 20 20
64 64 64
43 43 43
12 12 12
29 29 29
112 112 112
110 110 110
50 50 50
123 123 123
94 94 94
97 97 97
64 64 64
78 78 78
90 90 90
32 32 32
95 95 95
68 68 68
0 0 0
51 51 51
39 39 39
63 63 63
54 54 54
10 10 10
23 23 23
60 60 60
26 26 26
5 5 5
18 18 18
27 27 27
17 17 17
80 80 80
0 0 0
59 59 59
53 53 53
0 0 0
45 45 45
90 90 90
50 50 50
45 45 45
56 56 56
50 50 50
65 65 65
47 47 47
62 62 62
58 58 58
64 64 64
73 73 73
80 80 80
0 0 0
52 52 52
14 14 14
14 14 14
22 22 22
29 29 29
17 17 17
40 40 40
23 23 23
50 50 50
70 70 70
50 50 50
77 77 77
65 65 65
0 0 0
0 0 0
35 35 35
84 84 84
65 65 65
0 0 0
59 59 59
80 80 80
42 42 42
62 62 62
0 0 0
56 56 56
0 0 0
37 37 37
0 0 0
77 77 77
65 65 65
66 66 66
35 35 35
35 35 35
0 0 0
42 42 42
11 11 11
37 37 37
26 26 26
8 8 8
12 12 12
11 11 11
40 40 40
22 22 22
27 27 27
38 38 38
47 47 47
54 54 54
46 46 46
57 57 57
55 55 55
44 44 44
91 91 91
0 0 0
70 70 70
48 48 48
28 28 28
89 89 89
0 0 0
62 62 62
56 56 56
54 54 54
6 6 6
35 35 35
2 2 2
24 24 24
6 6 6
31 31 31
40 40 40
40 40 40
23 23 23
49 49 49
34 34 34
48 48 48
70 70 70
27 27 27
0 0 0
0 0 0
0 0 0
50 50 50
0 0 0
49 49 49
104 104 104
39 39 39
66 66 66
0 0 0
0 0 0
35 35 35
85 85 85
47 47 47
72 72 72
0 0 0
32 32 32
28 28 28
10 10 10
0 0 0
20 20 20
0 0 0
14 14 14
0 0 0
1 1 1
6 6 6
20 20 20
16 16 16
41 41 41
39 39 39
72 72 72
70 70 70
71 71 71
49 49 49
71 71 71
0 0 0
0 0 0
36 36 36
0 0 0
58 58 58
71 71 71
20 20 20
0 0 0
69 69 69
57 57 57
57 57 57
71 71 71
89 89 89
69 69 69
56 56 56
8 8 8
26 26 26
0 0 0
7 7 7
57 57 57
41 41 41
37 37 37
62 62 62
92 92 92
32 32 32
0 0 0
0 0 0
69 69 69
51 51 51
0 0 0
72 72 72
69 69 69
49 49 49
64 64 64
69 69 69
46 46 46
57 57 57
43 43 43
30 30 30
11 11 11
7 7 7
15 15 15
0 0 0
1 1 1
10 10 10
18 18 18
0 0 0
24 24 24
44 44 44
46 46 46
0 0 0
70 70 70
0 0 0
75 75 75
0 0 0
61 61 61
65 65 65
50 50 50
34 34 34
56 56 56
110 110 110
48 48 48
0 0 0
8 8 8
49 49 49
47 47 47
5 5 5
32 32 32
28 28 28
70 70 70
60 60 60
70 70 70
87 87 87
120 120 120
41 41 41
46 46 46
0 0 0
11 11 11
24 24 24
60 60 60
31 31 31
30 30 30
33 33 33
25 25 25
31 31 31
74 74 74
55 55 55
58 58 58
19 19 19
50 50 50
49 49 49
54 54 54
71 71 71
82 82 82
71 71 71
83 83 83
80 80 80
43 43 43
120 120 120
69 69 69
85 85 85
86 86 86
83 83 83
42 42 42
47 47 47
102 102 102
85 85 85
84 84 84
0 0 0
82 82 82
29 29 29
10 10 10
29 29 29
56 56 56
44 44 44
62 62 62
62 62 62
49 49 49
24 24 24
85 85 85
53 53 53
92 92 92
67 67 67
79 79 79
83 83 83
50 50 50
94 94 94
86 86 86
74 74 74
59 59 59
80 80 80
84 84 84
67 67 67
45 45 45
44 44 44
33 33 33
20 20 20
3 3 3
21 21 21
2 2 2
6 6 6
19 19 19
13 13 13
35 35 35
27 27 27
55 55 55
66 66 66
86 86 86
86 86 86
97 97 97
0 0 0
66 66 66
114 114 114
87 87 87
73 73 73
31 31 31
43 43 43
22 22 22
39 39 39
75 75 75
6 6 6
44 44 44
6 6 6
44 44 44
58 58 58
40 40 40
73 73 73
28 28 28
9 9 9
30 30 30
27 27 27
7 7 7
39 39 39
38 38 38
53 53 53
55 55 55
12 12 12
35 35 35
5 5 5
6 6 6
9 9 9
22 22 22
5 5 5
16 16 16
4 4 4
29 29 29
70 70 70
45 45 45
79 79 79
87 87 87
114 114 114
60 60 60
86 86 86
64 64 64
130 130 130
95 95 95
60 60 60
121 121 121
109 109 109
50 50 50
67 67 67
118 118 118
86 86 86
115 115 115
66 66 66
43 43 43
7 7 7
1 1 1
34 34 34
34 34 34
27 27 27
26 26 26
19 19 19
9 9 9
0 0 0
6 6 6
14 14 14
13 13 13
42 42 42
91 91 91
66 66 66
46 46 46
84 84 84
104 104 104
83 83 83
85 85 85
82 82 82
0 0 0
50 50 50
117 117 117
76 76 76
78 78 78
85 85 85
87 87 87
64 64 64
59 59 59
99 99 99
40 40 40
67 67 67
59 59 59
56 56 56
28 28 28
13 13 13
55 55 55
55 55 55
71 71 71
61 61 61
53 53 53
70 70 70
101 101 101
69 69 69
99 99 99
142 142 142
87 87 87
42 42 42
103 103 103
76 76 76
68 68 68
112 112 112
49 49 49
0 0 0
52 52 52
49 49 49
38 38 38
52 52 52
41 41 41
32 32 32
40 40 40
67 67 67
50 50 50
22 22 22
31 31 31
46 46 46
31 31 31
19 19 19
35 35 35
24 24 24
74 74 74
38 38 38
95 95 95
13 13 13
85 85 85
0 0 0
103 103 103
52 52 52
0 0 0
40 40 40
46 46 46
84 84 84
49 49 49
77 77 77
79 79 79
0 0 0
78 78 78
6 6 6
60 60 60
51 51 51
24 24 24
40 40 40
8 8 8
1 1 1
0 0 0
39 39 39
20 20 20
15 15 15
8 8 8
61 61 61
25 25 25
5 5 5
0 0 0
50 50 50
31 31 31
50 50 50
57 57 57
58 58 58
0 0 0
71 71 71
0 0 0
96 96 96
76 76 76
72 72 72
80 80 80
49 49 49
49 49 49
56 56 56
19 19 19
39 39 39
0 0 0
34 34 34
0 0 0
5 5 5
21 21 21
25 25 25
13 13 13
12 12 12
28 28 28
53 53 53
0 0 0
62 62 62
49 49 49
54 54 54
24 24 24
4 4 4
87 87 87
8 8 8
66 66 66
50 50 50
69 69 69
34 34 34
63 63 63
50 50 50
102 102 102
69 69 69
0 0 0
49 49 49
0 0 0
71 71 71
0 0 0
57 57 57
84 84 84
6 6 6
0 0 0
50 50 50
13 13 13
8 8 8
0 0 0
21 21 21
0 0 0
28 28 28
52 52 52
32 32 32
70 70 70
28 28 28
0 0 0
0 0 0
48 48 48
36 36 36
0 0 0
36 36 36
51 51 51
32 32 32
43 43 43
0 0 0
55 55 55
0 0 0
23 23 23
48 48 48
3 3 3
6 6 6
49 49 49
59 59 59
0 0 0
68 68 68
70 70 70
51 51 51
79 79 79
0 0 0
71 71 71
45 45 45
49 49 49
56 56 56
45 45 45
10 10 10
8 8 8
15 15 15
0 0 0
49 49 49
62 62 62
46 46 46
39 39 39
0 0 0
65 65 65
0 0 0
76 76 76
0 0 0
14 14 14
37 37 37
0 0 0
40 40 40
33 33 33
40 40 40
60 60 60
56 56 56
59 59 59
0 0 0
0 0 0
65 65 65
36 36 36
51 51 51
47 47 47
35 35 35
64 64 64
49 49 49
38 38 38
37 37 37
0 0 0
39 39 39
41 41 41
0 0 0
0 0 0
45 45 45
16 16 16
2 2 2
0 0 0
3 3 3
20 20 20
0 0 0
0 0 0
21 21 21
57 57 57
65 65 65
0 0 0
0 0 0
0 0 0
46 46 46
0 0 0
47 47 47
97 97 97
106 106 106
47 47 47
109 109 109
65 65 65
45 45 45
41 41 41
65 65 65
41 41 41
71 71 71
43 43 43
101 101 101
85 85 85
80 80 80
12 12 12
59 59 59
48 48 48
49 49 49
20 20 20
55 55 55
43 43 43
11 11 11
22 22 22
4 4 4
22 22 22
20 20 20
33 33 33
23 23 23
38 38 38
45 45 45
55 55 55
18 18 18
86 86 86
47 47 47
57 57 57
102 102 102
105 105 105
112 112 112
101 101 101
110 110 110
79 79 79
118 118 118
106 106 106
91 91 91
81 81 81
93 93 93
77 77 77
0 0 0
16 16 16
45 45 45
43 43 43
36 36 36
16 16 16
42 42 42
25 25 25
27 27 27
13 13 13
41 41 41
35 35 35
0 0 0
61 61 61
57 57 57
101 101 101
109 109 109
66 66 66
86 86 86
108 108 108
96 96 96
101 101 101
0 0 0
50 50 50
120 120 120
82 82 82
64 64 64
50 50 50
87 87 87
78 78 78
0 0 0
49 49 49
68 68 68
75 75 75
25 25 25
40 40 40
31 31 31
23 23 23
28 28 28
28 28 28
1 1 1
0 0 0
35 35 35
31 31 31
97 97 97
56 56 56
86 86 86
110 110 110
127 127 127
69 69 69
126 126 126
73 73 73
12 12 12
28 28 28
20 20 20
23 23 23
56 56 56
49 49 49
68 68 68
61 61 61
29 29 29
46 46 46
51 51 51
57 57 57
23 23 23
25 25 25
24 24 24
0 0 0
8 8 8
22 22 22
25 25 25
47 47 47
16 16 16
53 53 53
16 16 16
13 13 13
26 26 26
60 60 60
46 46 46
10 10 10
24 24 24
19 19 19
97 97 97
53 53 53
70 70 70
115 115 115
95 95 95
123 123 123
95 95 95
98 98 98
99 99 99
80 80 80
89 89 89
88 88 88
74 74 74
59 59 59
62 62 62
138 138 138
134 134 134
66 66 66
34 34 34
21 21 21
15 15 15
10 10 10
15 15 15
4 4 4
10 10 10
14 14 14
6 6 6
20 20 20
11 11 11
13 13 13
44 44 44
41 41 41
39 39 39
45 45 45
62 62 62
51 51 51
1 1 1
40 40 40
85 85 85
51 51 51
61 61 61
67 67 67
123 123 123
73 73 73
99 99 99
67 67 67
91 91 91
142 142 142
77 77 77
105 105 105
17 17 17
89 89 89
75 75 75
59 59 59
63 63 63
80 80 80
21 21 21
8 8 8
29 29 29
59 59 59
34 34 34
46 46 46
68 68 68
89 89 89
78 78 78
103 103 103
71 71 71
86 86 86
124 124 124
123 123 123
88 88 88
87 87 87
86 86 86
68 68 68
95 95 95
91 91 91
83 83 83
30 30 30
95 95 95
41 41 41
49 49 49
59 59 59
104 104 104
69 69 69
73 73 73
111 111 111
8 8 8
72 72 72
46 46 46
22 22 22
5 5 5
2 2 2
13 13 13
9 9 9
0 0 0
24 24 24
60 60 60
84 84 84
52 52 52
79 79 79
64 64 64
50 50 50
12 12 12
89 89 89
42 42 42
79 79 79
53 53 53
75 75 75
0 0 0
48 48 48
51 51 51
89 89 89
46 46 46
68 68 68
47 47 47
36 36 36
22 22 22
6 6 6
10 10 10
0 0 0
18 18 18
38 38 38
0 0 0
30 30 30
41 41 41
37 37 37
48 48 48
0 0 0
74 74 74
67 67 67
61 61 61
83 83 83
56 56 56
107 107 107
68 68 68
69 69 69
64 64 64
59 59 59
0 0 0
32 32 32
53 53 53
28 28 28
40 40 40
32 32 32
0 0 0
21 21 21
9 9 9
55 55 55
30 30 30
41 41 41
29 29 29
0 0 0
47 47 47
0 0 0
45 45 45
44 44 44
51 51 51
36 36 36
0 0 0
0 0 0
56 56 56
0 0 0
0 0 0
29 29 29
35 35 35
12 12 12
0 0 0
64 64 64
73 73 73
44 44 44
0 0 0
33 33 33
55 55 55
48 48 48
0 0 0
36 36 36
38 38 38
10 10 10
7 7 7
32 32 32
28 28 28
6 6 6
16 16 16
5 5 5
23 23 23
48 48 48
43 43 43
44 44 44
42 42 42
0 0 0
0 0 0
0 0 0
49 49 49
63 63 63
36 36 36
61 61 61
98 98 98
0 0 0
0 0 0
43 43 43
31 31 31
18 18 18
42 42 42
24 24 24
42 42 42
56 56 56
8 8 8
35 35 35
43 43 43
0 0 0
81 81 81
60 60 60
97 97 97
48 48 48
48 48 48
0 0 0
90 90 90
83 83 83
60 60 60
0 0 0
0 0 0
47 47 47
46 46 46
0 0 0
49 49 49
45 45 45
22 22 22
41 41 41
32 32 32
26 26 26
0 0 0
65 65 65
0 0 0
31 31 31
0 0 0
0 0 0
40 40 40
49 49 49
34 34 34
82 82 82
48 48 48
49 49 49
27 27 27
33 33 33
15 15 15
20 20 20
73 73 73
63 63 63
77 77 77
60 60 60
50 50 50
74 74 74
52 52 52
19 19 19
0 0 0
33 33 33
14 14 14
0 0 0
12 12 12
18 18 18
11 11 11
46 46 46
55 55 55
42 42 42
33 33 33
34 34 34
30 30 30
71 71 71
38 38 38
65 65 65
25 25 25
64 64 64
67 67 67
96 96 96
88 88 88
0 0 0
46 46 46
68 68 68
44 44 44
0 0 0
71 71 71
61 61 61
55 55 55
57 57 57
42 42 42
47 47 47
69 69 69
0 0 0
50 50 50
80 80 80
50 50 50
46 46 46
22 22 22
42 42 42
26 26 26
36 36 36
40 40 40
38 38 38
39 39 39
42 42 42
72 72 72
59 59 59
67 67 67
83 83 83
78 78 78
102 102 102
88 88 88
51 51 51
100 100 100
70 70 70
82 82 82
85 85 85
98 98 98
87 87 87
122 122 122
83 83 83
57 57 57
59 59 59
76 76 76
49 49 49
78 78 78
36 36 36
21 21 21
11 11 11
12 12 12
14 14 14
10 10 10
68 68 68
41 41 41
31 31 31
12 12 12
53 53 53
68 68 68
6 6 6
48 48 48
37 37 37
48 48 48
54 54 54
60 60 60
81 81 81
113 113 113
83 83 83
49 49 49
140 140 140
49 49 49
122 122 122
101 101 101
72 72 72
48 48 48
151 151 151
54 54 54
53 53 53
58 58 58
18 18 18
53 53 53
40 40 40
53 53 53
59 59 59
57 57 57
51 51 51
56 56 56
34 34 34
24 24 24
62 62 62
40 40 40
31 31 31
0 0 0
50 50 50
31 31 31
37 37 37
45 45 45
54 54 54
6 6 6
0 0 0
13 13 13
1 1 1
83 83 83
49 49 49
64 64 64
50 50 50
98 98 98
34 34 34
38 38 38
21 21 21
19 19 19
13 13 13
33 33 33
19 19 19
32 32 32
49 49 49
37 37 37
63 63 63
19 19 19
24 24 24
2 2 2
44 44 44
38 38 38
15 15 15
14 14 14
43 43 43
52 52 52
47 47 47
73 73 73
114 114 114
99 99 99
97 97 97
63 63 63
78 78 78
54 54 54
76 76 76
91 91 91
69 69 69
65 65 65
118 118 118
62 62 62
101 101 101
47 47 47
47 47 47
18 18 18
2 2 2
18 18 18
21 21 21
5 5 5
6 6 6
12 12 12
3 3 3
6 6 6
7 7 7
16 16 16
34 34 34
0 0 0
50 50 50
50 50 50
47 47 47
67 67 67
60 60 60
94 94 94
71 71 71
67 67 67
103 103 103
70 70 70
109 109 109
126 126 126
100 100 100
90 90 90
103 103 103
91 91 91
99 99 99
97 97 97
40 40 40
67 67 67
48 48 48
45 45 45
31 31 31
25 25 25
7 7 7
20 20 20
25 25 25
0 0 0
57 57 57
26 26 26
38 38 38
39 39 39
28 28 28
65 65 65
0 0 0
77 77 77
103 103 103
107 107 107
65 65 65
44 44 44
93 93 93
84 84 84
100 100 100
85 85 85
117 117 117
70 70 70
91 91 91
49 49 49
42 42 42
39 39 39
73 73 73
97 97 97
70 70 70
78 78 78
58 58 58
72 72 72
50 50 50
68 68 68
36 36 36
44 44 44
31 31 31
11 11 11
12 12 12
20 20 20
38 38 38
68 68 68
60 60 60
58 58 58
0 0 0
66 66 66
42 42 42
0 0 0
73 73 73
28 28 28
64 64 64
90 90 90
91 91 91
66 66 66
71 71 71
81 81 81
96 96 96
72 72 72
119 119 119
16 16 16
101 101 101
69 69 69
87 87 87
88 88 88
63 63 63
44 44 44
38 38 38
57 57 57
18 18 18
32 32 32
43 43 43
0 0 0
29 29 29
37 37 37
46 46 46
38 38 38
57 57 57
46 46 46
61 61 61
97 97 97
64 64 64
64 64 64
58 58 58
40 40 40
45 45 45
18 18 18
0 0 0
70 70 70
96 96 96
81 81 81
91 91 91
85 85 85
29 29 29
49 49 49
88 88 88
69 69 69
9 9 9
72 72 72
50 50 50
0 0 0
0 0 0
46 46 46
12 12 12
5 5 5
9 9 9
8 8 8
41 41 41
51 51 51
47 47 47
0 0 0
24 24 24
44 44 44
47 47 47
65 65 65
60 60 60
66 66 66
82 82 82
43 43 43
40 40 40
0 0 0
38 38 38
51 51 51
87 87 87
79 79 79
0 0 0
73 73 73
21 21 21
34 34 34
15 15 15
42 42 42
32 32 32
30 30 30
25 25 25
1 1 1
21 21 21
0 0 0
0 0 0
51 51 51
21 21 21
51 51 51
24 24 24
68 68 68
64 64 64
87 87 87
51 51 51
51 51 51
43 43 43
43 43 43
0 0 0
5 5 5
51 51 51
17 17 17
0 0 0
39 39 39
51 51 51
55 55 55
41 41 41
99 99 99
64 64 64
88 88 88
69 69 69
35 35 35
47 47 47
27 27 27
34 34 34
36 36 36
33 33 33
46 46 46
15 15 15
31 31 31
22 22 22
26 26 26
0 0 0
32 32 32
38 38 38
31 31 31
24 24 24
0 0 0
17 17 17
25 25 25
12 12 12
15 15 15
3 3 3
63 63 63
18 18 18
41 41 41
50 50 50
45 45 45
68 68 68
50 50 50
71 71 71
48 48 48
36 36 36
67 67 67
0 0 0
70 70 70
62 62 62
76 76 76
53 53 53
0 0 0
75 75 75
0 0 0
0 0 0
32 32 32
7 7 7
25 25 25
16 16 16
0 0 0
51 51 51
67 67 67
74 74 74
33 33 33
71 71 71
46 46 46
46 46 46
43 43 43
23 23 23
39 39 39
66 66 66
71 71 71
51 51 51
88 88 88
82 82 82
119 119 119
109 109 109
0 0 0
67 67 67
37 37 37
79 79 79
60 60 60
62 62 62
70 70 70
86 86 86
44 44 44
31 31 31
14 14 14
42 42 42
60 60 60
19 19 19
3 3 3
52 52 52
54 54 54
12 12 12
50 50 50
17 17 17
30 30 30
28 28 28
26 26 26
38 38 38
45 45 45
98 98 98
46 46 46
100 100 100
71 71 71
86 86 86
111 111 111
69 69 69
79 79 79
61 61 61
91 91 91
112 112 112
44 44 44
68 68 68
0 0 0
78 78 78
57 57 57
28 28 28
27 27 27
33 33 33
17 17 17
9 9 9
15 15 15
29 29 29
30 30 30
22 22 22
21 21 21
6 6 6
63 63 63
62 62 62
54 54 54
82 82 82
111 111 111
96 96 96
98 98 98
89 89 89
114 114 114
100 100 100
110 110 110
96 96 96
104 104 104
99 99 99
64 64 64
96 96 96
88 88 88
60 60 60
37 37 37
27 27 27
60 60 60
60 60 60
121 121 121
112 112 112
105 105 105
102 102 102
72 72 72
23 23 23
30 30 30
21 21 21
35 35 35
13 13 13
44 44 44
69 69 69
103 103 103
107 107 107
75 75 75
65 65 65
35 35 35
39 39 39
23 23 23
0 0 0
12 12 12
5 5 5
0 0 0
29 29 29
32 32 32
61 61 61
45 45 45
60 60 60
7 7 7
12 12 12
20 20 20
15 15 15
16 16 16
17 17 17
36 36 36
10 10 10
44 44 44
58 58 58
29 29 29
17 17 17
5 5 5
15 15 15
21 21 21
10 10 10
24 24 24
25 25 25
36 36 36
32 32 32
59 59 59
92 92 92
104 104 104
74 74 74
93 93 93
68 68 68
40 40 40
55 55 55
73 73 73
23 23 23
64 64 64
75 75 75
79 79 79
42 42 42
80 80 80
15 15 15
12 12 12
10 10 10
0 0 0
22 22 22
5 5 5
10 10 10
7 7 7
2 2 2
34 34 34
71 71 71
100 100 100
9 9 9
122 122 122
71 71 71
26 26 26
32 32 32
44 44 44
85 85 85
87 87 87
103 103 103
88 88 88
100 100 100
108 108 108
72 72 72
84 84 84
88 88 88
99 99 99
83 83 83
101 101 101
124 124 124
114 114 114
70 70 70
95 95 95
116 116 116
98 98 98
108 108 108
49 49 49
105 105 105
61 61 61
95 95 95
88 88 88
54 54 54
42 42 42
27 27 27
49 49 49
26 26 26
36 36 36
5 5 5
52 52 52
53 53 53
51 51 51
68 68 68
50 50 50
75 75 75
62 62 62
62 62 62
85 85 85
151 151 151
121 121 121
77 77 77
56 56 56
48 48 48
0 0 0
85 85 85
100 100 100
94 94 94
56 56 56
84 84 84
94 94 94
77 77 77
51 51 51
72 72 72
58 58 58
61 61 61
83 83 83
98 98 98
27 27 27
60 60 60
65 65 65
50 50 50
12 12 12
0 0 0
20 20 20
23 23 23
55 55 55
10 10 10
51 51 51
68 68 68
53 53 53
53 53 53
50 50 50
80 80 80
81 81 81
110 110 110
98 98 98
86 86 86
70 70 70
87 87 87
85 85 85
93 93 93
77 77 77
69 69 69
70 70 70
33 33 33
62 62 62
58 58 58
41 41 41
9 9 9
19 19 19
7 7 7
12 12 12
20 20 20
35 35 35
28 28 28
43 43 43
43 43 43
55 55 55
66 66 66
70 70 70
98 98 98
117 117 117
0 0 0
50 50 50
108 108 108
89 89 89
88 88 88
69 69 69
0 0 0
98 98 98
63 63 63
51 51 51
58 58 58
76 76 76
75 75 75
28 28 28
65 65 65
82 82 82
60 60 60
72 72 72
67 67 67
98 98 98
83 83 83
2 2 2
40 40 40
34 34 34
55 55 55
39 39 39
54 54 54
42 42 42
65 65 65
78 78 78
42 42 42
66 66 66
70 70 70
49 49 49
0 0 0
71 71 71
50 50 50
71 71 71
54 54 54
71 71 71
85 85 85
64 64 64
73 73 73
41 41 41
43 43 43
0 0 0
30 30 30
15 15 15
32 32 32
23 23 23
8 8 8
0 0 0
22 22 22
45 45 45
12 12 12
21 21 21
25 25 25
51 51 51
0 0 0
41 41 41
62 62 62
74 74 74
59 59 59
70 70 70
68 68 68
42 42 42
9 9 9
54 54 54
29 29 29
65 65 65
59 59 59
45 45 45
30 30 30
34 34 34
37 37 37
82 82 82
44 44 44
11 11 11
53 53 53
0 0 0
25 25 25
55 55 55
42 42 42
57 57 57
87 87 87
0 0 0
58 58 58
64 64 64
42 42 42
0 0 0
0 0 0
51 51 51
30 30 30
38 38 38
12 12 12
0 0 0
49 49 49
49 49 49
35 35 35
18 18 18
35 35 35
52 52 52
25 25 25
55 55 55
38 38 38
24 24 24
35 35 35
58 58 58
103 103 103
76 76 76
97 97 97
59 59 59
51 51 51
47 47 47
0 0 0
40 40 40
28 28 28
69 69 69
0 0 0
62 62 62
0 0 0
54 54 54
95 95 95
86 86 86
101 101 101
52 52 52
51 51 51
50 50 50
73 73 73
27 27 27
0 0 0
69 69 69
51 51 51
101 101 101
71 71 71
113 113 113
70 70 70
86 86 86
120 120 120
94 94 94
103 103 103
77 77 77
73 73 73
79 79 79
72 72 72
78 78 78
0 0 0
61 61 61
70 70 70
54 54 54
34 34 34
3 3 3
8 8 8
19 19 19
27 27 27
34 34 34
56 56 56
29 29 29
32 32 32
20 20 20
24 24 24
35 35 35
41 41 41
53 53 53
85 85 85
46 46 46
93 93 93
87 87 87
86 86 86
101 101 101
100 100 100
86 86 86
123 123 123
101 101 101
51 51 51
51 51 51
96 96 96
133 133 133
91 91 91
67 67 67
89 89 89
59 59 59
78 78 78
82 82 82
97 97 97
77 77 77
40 40 40
3 3 3
26 26 26
34 34 34
18 18 18
20 20 20
16 16 16
38 38 38
31 31 31
38 38 38
21 21 21
84 84 84
59 59 59
79 79 79
69 69 69
69 69 69
116 116 116
78 78 78
74 74 74
30 30 30
51 51 51
68 68 68
74 74 74
93 93 93
109 109 109
79 79 79
78 78 78
114 114 114
118 118 118
98 98 98
82 82 82
58 58 58
15 15 15
45 45 45
31 31 31
33 33 33
41 41 41
31 31 31
42 42 42
30 30 30
44 44 44
36 36 36
48 48 48
23 23 23
42 42 42
35 35 35
78 78 78
69 69 69
74 74 74
17 17 17
2 2 2
1 1 1
0 0 0
13 13 13
1 1 1
36 36 36
37 37 37
51 51 51
38 38 38
13 13 13
50 50 50
2 2 2
8 8 8
21 21 21
0 0 0
16 16 16
30 30 30
24 24 24
14 14 14
5 5 5
7 7 7
7 7 7
6 6 6
6 6 6
13 13 13
35 35 35
60 60 60
9 9 9
63 63 63
60 60 60
85 85 85
81 81 81
95 95 95
101 101 101
63 63 63
97 97 97
75 75 75
71 71 71
79 79 79
120 120 120
88 88 88
17 17 17
4 4 4
0 0 0
6 6 6
11 11 11
19 19 19
8 8 8
5 5 5
11 11 11
14 14 14
51 51 51
44 44 44
68 68 68
8 8 8
123 123 123
88 88 88
66 66 66
84 84 84
55 55 55
48 48 48
57 57 57
27 27 27
97 97 97
98 98 98
54 54 54
64 64 64
83 83 83
70 70 70
69 69 69
56 56 56
85 85 85
95 95 95
89 89 89
113 113 113
94 94 94
72 72 72
101 101 101
57 57 57
58 58 58
89 89 89
139 139 139
87 87 87
80 80 80
95 95 95
119 119 119
93 93 93
113 113 113
89 89 89
54 54 54
31 31 31
35 35 35
27 27 27
36 36 36
41 41 41
46 46 46
45 45 45
40 40 40
62 62 62
75 75 75
73 73 73
89 89 89
130 130 130
123 123 123
104 104 104
85 85 85
69 69 69
55 55 55
143 143 143
76 76 76
94 94 94
119 119 119
141 141 141
68 68 68
80 80 80
79 79 79
113 113 113
112 112 112
85 85 85
91 91 91
34 34 34
46 46 46
0 0 0
45 45 45
0 0 0
12 12 12
41 41 41
54 54 54
39 39 39
76 76 76
43 43 43
58 58 58
56 56 56
91 91 91
120 120 120
40 40 40
70 70 70
93 93 93
86 86 86
96 96 96
69 69 69
87 87 87
83 83 83
64 64 64
112 112 112
90 90 90
56 56 56
84 84 84
151 151 151
50 50 50
121 121 121
53 53 53
60 60 60
11 11 11
18 18 18
14 14 14
14 14 14
0 0 0
20 20 20
55 55 55
34 34 34
41 41 41
57 57 57
76 76 76
45 45 45
15 15 15
78 78 78
44 44 44
122 122 122
116 116 116
84 84 84
47 47 47
73 73 73
73 73 73
76 76 76
84 84 84
0 0 0
55 55 55
0 0 0
0 0 0
66 66 66
84 84 84
58 58 58
47 47 47
69 69 69
56 56 56
1 1 1
39 39 39
40 40 40
35 35 35
0 0 0
12 12 12
0 0 0
5 5 5
16 16 16
25 25 25
16 16 16
9 9 9
7 7 7
59 59 59
62 62 62
0 0 0
82 82 82
85 85 85
0 0 0
98 98 98
0 0 0
72 72 72
65 65 65
73 73 73
63 63 63
103 103 103
93 93 93
0 0 0
29 29 29
35 35 35
38 38 38
44 44 44
4 4 4
34 34 34
19 19 19
16 16 16
11 11 11
13 13 13
43 43 43
33 33 33
0 0 0
31 31 31
0 0 0
58 58 58
0 0 0
61 61 61
80 80 80
55 55 55
0 0 0
69 69 69
90 90 90
49 49 49
18 18 18
0 0 0
43 43 43
0 0 0
48 48 48
22 22 22
43 43 43
0 0 0
63 63 63
100 100 100
0 0 0
31 31 31
0 0 0
0 0 0
15 15 15
32 32 32
14 14 14
60 60 60
0 0 0
17 17 17
0 0 0
0 0 0
3 3 3
46 46 46
35 35 35
45 45 45
25 25 25
46 46 46
17 17 17
53 53 53
0 0 0
36 36 36
43 43 43
24 24 24
103 103 103
51 51 51
56 56 56
0 0 0
43 43 43
38 38 38
60 60 60
14 14 14
20 20 20
41 41 41
64 64 64
44 44 44
22 22 22
39 39 39
36 36 36
29 29 29
5 5 5
16 16 16
20 20 20
79 79 79
39 39 39
53 53 53
74 74 74
79 79 79
46 46 46
77 77 77
91 91 91
66 66 66
0 0 0
131 131 131
84 84 84
100 100 100
85 85 85
100 100 100
84 84 84
73 73 73
124 124 124
97 97 97
77 77 77
79 79 79
65 65 65
28 28 28
34 34 34
12 12 12
0 0 0
22 22 22
14 14 14
20 20 20
29 29 29
43 43 43
45 45 45
35 35 35
18 18 18
49 49 49
59 59 59
54 54 54
62 62 62
40 40 40
0 0 0
44 44 44
94 94 94
119 119 119
101 101 101
96 96 96
134 134 134
42 42 42
71 71 71
148 148 148
66 66 66
80 80 80
92 92 92
98 98 98
73 73 73
44 44 44
39 39 39
38 38 38
22 22 22
24 24 24
35 35 35
6 6 6
15 15 15
13 13 13
2 2 2
37 37 37
31 31 31
31 31 31
38 38 38
35 35 35
21 21 21
36 36 36
22 22 22
63 63 63
85 85 85
125 125 125
80 80 80
97 97 97
101 101 101
83 83 83
62 62 62
84 84 84
121 121 121
115 115 115
86 86 86
58 58 58
83 83 83
67 67 67
90 90 90
67 67 67
78 78 78
62 62 62
56 56 56
53 53 53
48 48 48
42 42 42
30 30 30
39 39 39
22 22 22
23 23 23
24 24 24
22 22 22
37 37 37
0 0 0
55 55 55
59 59 59
15 15 15
96 96 96
89 89 89
49 49 49
0 0 0
15 15 15
0 0 0
13 13 13
0 0 0
10 10 10
6 6 6
9 9 9
6 6 6
6 6 6
17 17 17
21 21 21
1 1 1
7 7 7
23 23 23
13 13 13
56 56 56
27 27 27
5 5 5
1 1 1
1 1 1
0 0 0
8 8 8
6 6 6
20 20 20
41 41 41
37 37 37
68 68 68
75 75 75
91 91 91
44 44 44
73 73 73
70 70 70
42 42 42
67 67 67
52 52 52
65 65 65
39 39 39
81 81 81
51 51 51
71 71 71
20 20 20
7 7 7
9 9 9
10 10 10
8 8 8
31 31 31
7 7 7
24 24 24
24 24 24
78 78 78
67 67 67
101 101 101
85 85 85
49 49 49
86 86 86
93 93 93
63 63 63
30 30 30
32 32 32
32 32 32
33 33 33
76 76 76
84 84 84
26 26 26
81 81 81
87 87 87
79 79 79
52 52 52
90 90 90
64 64 64
71 71 71
11 11 11
94 94 94
91 91 91
86 86 86
83 83 83
57 57 57
88 88 88
64 64 64
60 60 60
108 108 108
126 126 126
122 122 122
88 88 88
100 100 100
68 68 68
63 63 63
45 45 45
12 12 12
34 34 34
26 26 26
13 13 13
31 31 31
16 16 16
19 19 19
40 40 40
12 12 12
56 56 56
49 49 49
78 78 78
46 46 46
89 89 89
70 70 70
0 0 0
102 102 102
122 122 122
110 110 110
71 71 71
2 2 2
101 101 101
87 87 87
86 86 86
106 106 106
111 111 111
58 58 58
110 110 110
77 77 77
84 84 84
46 46 46
62 62 62
62 62 62
67 67 67
64 64 64
40 40 40
62 62 62
49 49 49
61 61 61
47 47 47
59 59 59
31 31 31
24 24 24
40 40 40
29 29 29
0 0 0
48 48 48
54 54 54
66 66 66
0 0 0
79 79 79
81 81 81
103 103 103
133 133 133
47 47 47
110 110 110
71 71 71
132 132 132
50 50 50
71 71 71
94 94 94
80 80 80
74 74 74
74 74 74
0 0 0
51 51 51
30 30 30
29 29 29
30 30 30
17 17 17
26 26 26
19 19 19
18 18 18
15 15 15
49 49 49
30 30 30
35 35 35
63 63 63
66 66 66
37 37 37
55 55 55
22 22 22
45 45 45
89 89 89
71 71 71
113 113 113
90 90 90
72 72 72
63 63 63
65 65 65
69 69 69
101 101 101
83 83 83
65 65 65
74 74 74
44 44 44
89 89 89
63 63 63
70 70 70
71 71 71
80 80 80
42 42 42
39 39 39
30 30 30
18 18 18
17 17 17
2 2 2
23 23 23
51 51 51
31 31 31
60 60 60
29 29 29
47 47 47
33 33 33
0 0 0
43 43 43
94 94 94
0 0 0
87 87 87
71 71 71
66 66 66
68 68 68
69 69 69
59 59 59
69 69 69
68 68 68
88 88 88
0 0 0
47 47 47
75 75 75
39 39 39
38 38 38
55 55 55
18 18 18
0 0 0
13 13 13
51 51 51
0 0 0
72 72 72
57 57 57
70 70 70
0 0 0
0 0 0
47 47 47
48 48 48
50 50 50
0 0 0
86 86 86
0 0 0
41 41 41
0 0 0
0 0 0
71 71 71
66 66 66
61 61 61
40 40 40
61 61 61
51 51 51
42 42 42
6 6 6
10 10 10
14 14 14
15 15 15
13 13 13
37 37 37
21 21 21
41 41 41
43 43 43
61 61 61
42 42 42
37 37 37
72 72 72
47 47 47
111 111 111
51 51 51
71 71 71
101 101 101
123 123 123
99 99 99
85 85 85
70 70 70
51 51 51
50 50 50
69 69 69
98 98 98
0 0 0
47 47 47
41 41 41
51 51 51
88 88 88
32 32 32
32 32 32
6 6 6
9 9 9
4 4 4
15 15 15
26 26 26
43 43 43
53 53 53
36 36 36
7 7 7
16 16 16
60 60 60
20 20 20
44 44 44
24 24 24
67 67 67
22 22 22
91 91 91
83 83 83
104 104 104
85 85 85
51 51 51
122 122 122
112 112 112
128 128 128
94 94 94
49 49 49
70 70 70
55 55 55
96 96 96
78 78 78
20 20 20
38 38 38
60 60 60
39 39 39
20 20 20
27 27 27
25 25 25
13 13 13
23 23 23
7 7 7
14 14 14
28 28 28
66 66 66
21 21 21
25 25 25
47 47 47
0 0 0
3 3 3
69 69 69
65 65 65
55 55 55
90 90 90
36 36 36
72 72 72
124 124 124
83 83 83
88 88 88
72 72 72
80 80 80
71 71 71
106 106 106
118 118 118
101 101 101
118 118 118
72 72 72
60 60 60
69 69 69
72 72 72
85 85 85
62 62 62
28 28 28
50 50 50
29 29 29
15 15 15
4 4 4
17 17 17
24 24 24
37 37 37
34 34 34
21 21 21
51 51 51
69 69 69
0 0 0
12 12 12
72 72 72
87 87 87
91 91 91
86 86 86
71 71 71
0 0 0
50 50 50
133 133 133
141 141 141
121 121 121
78 78 78
99 99 99
89 89 89
147 147 147
79 79 79
56 56 56
63 63 63
73 73 73
46 46 46
0 0 0
18 18 18
5 5 5
19 19 19
35 35 35
28 28 28
49 49 49
56 56 56
28 28 28
66 66 66
73 73 73
72 72 72
51 51 51
86 86 86
46 46 46
61 61 61
46 46 46
5 5 5
12 12 12
17 17 17
0 0 0
28 28 28
20 20 20
1 1 1
2 2 2
10 10 10
14 14 14
22 22 22
3 3 3
33 33 33
37 37 37
60 60 60
60 60 60
23 23 23
25 25 25
1 1 1
8 8 8
5 5 5
19 19 19
19 19 19
30 30 30
44 44 44
42 42 42
76 76 76
77 77 77
68 68 68
78 78 78
85 85 85
67 67 67
75 75 75
92 92 92
71 71 71
63 63 63
97 97 97
59 59 59
53 53 53
33 33 33
2 2 2
7 7 7
29 29 29
56 56 56
65 65 65
28 28 28
0 0 0
44 44 44
35 35 35
38 38 38
31 31 31
97 97 97
59 59 59
66 66 66
56 56 56
30 30 30
11 11 11
17 17 17
20 20 20
5 5 5
19 19 19
1 1 1
13 13 13
12 12 12
34 34 34
50 50 50
61 61 61
77 77 77
86 86 86
97 97 97
99 99 99
79 79 79
34 34 34
8 8 8
13 13 13
42 42 42
54 54 54
43 43 43
57 57 57
65 65 65
47 47 47
86 86 86
76 76 76
83 83 83
104 104 104
83 83 83
60 60 60
44 44 44
18 18 18
26 26 26
43 43 43
12 12 12
14 14 14
10 10 10
11 11 11
21 21 21
41 41 41
21 21 21
20 20 20
5 5 5
25 25 25
40 40 40
62 62 62
61 61 61
57 57 57
5 5 5
46 46 46
60 60 60
38 38 38
49 49 49
23 23 23
25 25 25
87 87 87
97 97 97
70 70 70
97 97 97
66 66 66
120 120 120
119 119 119
69 69 69
57 57 57
54 54 54
41 41 41
50 50 50
50 50 50
24 24 24
30 30 30
64 64 64
42 42 42
70 70 70
41 41 41
55 55 55
4 4 4
43 43 43
52 52 52
31 31 31
40 40 40
82 82 82
72 72 72
77 77 77
48 48 48
58 58 58
109 109 109
132 132 132
101 101 101
99 99 99
72 72 72
85 85 85
113 113 113
87 87 87
98 98 98
53 53 53
99 99 99
72 72 72
67 67 67
43 43 43
53 53 53
81 81 81
55 55 55
88 88 88
103 103 103
92 92 92
66 66 66
85 85 85
40 40 40
0 0 0
53 53 53
35 35 35
34 34 34
72 72 72
51 51 51
0 0 0
76 76 76
86 86 86
77 77 77
69 69 69
67 67 67
122 122 122
99 99 99
99 99 99
50 50 50
85 85 85
86 86 86
85 85 85
68 68 68
97 97 97
47 47 47
83 83 83
40 40 40
21 21 21
48 48 48
100 100 100
73 73 73
80 80 80
132 132 132
79 79 79
65 65 65
59 59 59
60 60 60
96 96 96
0 0 0
74 74 74
48 48 48
48 48 48
29 29 29
45 45 45
39 39 39
0 0 0
100 100 100
0 0 0
0 0 0
37 37 37
98 98 98
71 71 71
99 99 99
50 50 50
50 50 50
84 84 84
69 69 69
39 39 39
54 54 54
37 37 37
46 46 46
63 63 63
29 29 29
27 27 27
45 45 45
57 57 57
0 0 0
50 50 50
0 0 0
81 81 81
129 129 129
71 71 71
40 40 40
55 55 55
34 34 34
52 52 52
82 82 82
45 45 45
55 55 55
47 47 47
33 33 33
9 9 9
44 44 44
44 44 44
29 29 29
10 10 10
25 25 25
40 40 40
45 45 45
37 37 37
0 0 0
50 50 50
55 55 55
85 85 85
45 45 45
79 79 79
47 47 47
0 0 0
82 82 82
0 0 0
71 71 71
72 72 72
72 72 72
70 70 70
71 71 71
70 70 70
72 72 72
66 66 66
40 40 40
75 75 75
53 53 53
64 64 64
100 100 100
43 43 43
26 26 26
23 23 23
72 72 72
31 31 31
0 0 0
25 25 25
10 10 10
22 22 22
24 24 24
33 33 33
9 9 9
21 21 21
2 2 2
15 15 15
47 47 47
48 48 48
93 93 93
37 37 37
68 68 68
0 0 0
0 0 0
113 113 113
98 98 98
83 83 83
65 65 65
0 0 0
114 114 114
69 69 69
113 113 113
87 87 87
87 87 87
53 53 53
55 55 55
83 83 83
61 61 61
96 96 96
100 100 100
108 108 108
119 119 119
91 91 91
79 79 79
74 74 74
42 42 42
35 35 35
35 35 35
36 36 36
10 10 10
4 4 4
42 42 42
71 71 71
41 41 41
75 75 75
60 60 60
76 76 76
105 105 105
123 123 123
83 83 83
71 71 71
101 101 101
113 113 113
120 120 120
67 67 67
96 96 96
95 95 95
99 99 99
86 86 86
93 93 93
114 114 114
41 41 41
55 55 55
47 47 47
90 90 90
61 61 61
73 73 73
66 66 66
85 85 85
104 104 104
77 77 77
56 56 56
117 117 117
115 115 115
100 100 100
97 97 97
40 40 40
77 77 77
104 104 104
54 54 54
105 105 105
54 54 54
69 69 69
50 50 50
22 22 22
53 53 53
86 86 86
49 49 49
71 71 71
101 101 101
86 86 86
50 50 50
120 120 120
93 93 93
86 86 86
11 11 11
96 96 96
35 35 35
66 66 66
41 41 41
52 52 52
51 51 51
0 0 0
20 20 20
4 4 4
9 9 9
25 25 25
22 22 22
11 11 11
0 0 0
4 4 4
2 2 2
0 0 0
0 0 0
0 0 0
46 46 46
0 0 0
1 1 1
24 24 24
50 50 50
22 22 22
8 8 8
0 0 0
1 1 1
0 0 0
1 1 1
33 33 33
9 9 9
24 24 24
29 29 29
17 17 17
18 18 18
56 56 56
54 54 54
35 35 35
6 6 6
16 16 16
18 18 18
40 40 40
51 51 51
34 34 34
80 80 80
45 45 45
67 67 67
95 95 95
83 83 83
22 22 22
94 94 94
66 66 66
83 83 83
78 78 78
73 73 73
78 78 78
21 21 21
38 38 38
18 18 18
5 5 5
32 32 32
12 12 12
9 9 9
10 10 10
0 0 0
50 50 50
9 9 9
1 1 1
49 49 49
11 11 11
37 37 37
37 37 37
0 0 0
25 25 25
27 27 27
30 30 30
21 21 21
15 15 15
43 43 43
37 37 37
17 17 17
20 20 20
11 11 11
5 5 5
0 0 0
45 45 45
30 30 30
0 0 0
57 57 57
67 67 67
35 35 35
45 45 45
72 72 72
21 21 21
65 65 65
27 27 27
22 22 22
24 24 24
40 40 40
32 32 32
56 56 56
81 81 81
43 43 43
111 111 111
85 85 85
99 99 99
84 84 84
63 63 63
86 86 86
111 111 111
70 70 70
52 52 52
41 41 41
41 41 41
25 25 25
10 10 10
13 13 13
17 17 17
29 29 29
50 50 50
55 55 55
58 58 58
79 79 79
62 62 62
72 72 72
8 8 8
39 39 39
71 71 71
28 28 28
76 76 76
51 51 51
39 39 39
40 40 40
45 45 45
35 35 35
38 38 38
80 80 80
96 96 96
91 91 91
76 76 76
91 91 91
51 51 51
131 131 131
90 90 90
91 91 91
87 87 87
76 76 76
68 68 68
72 72 72
100 100 100
42 42 42
37 37 37
50 50 50
42 42 42
10 10 10
20 20 20
28 28 28
12 12 12
28 28 28
39 39 39
3 3 3
49 49 49
52 52 52
46 46 46
88 88 88
117 117 117
66 66 66
46 46 46
107 107 107
65 65 65
76 76 76
101 101 101
64 64 64
105 105 105
64 64 64
40 40 40
55 55 55
53 53 53
31 31 31
70 70 70
144 144 144
100 100 100
83 83 83
86 86 86
56 56 56
72 72 72
46 46 46
28 28 28
23 23 23
20 20 20
12 12 12
27 27 27
1 1 1
36 36 36
58 58 58
53 53 53
40 40 40
82 82 82
79 79 79
57 57 57
36 36 36
51 51 51
48 48 48
0 0 0
5 5 5
68 68 68
0 0 0
100 100 100
88 88 88
45 45 45
98 98 98
84 84 84
88 88 88
69 69 69
49 49 49
93 93 93
92 92 92
60 60 60
68 68 68
68 68 68
46 46 46
71 71 71
63 63 63
44 44 44
47 47 47
15 15 15
18 18 18
53 53 53
48 48 48
35 35 35
58 58 58
95 95 95
60 60 60
62 62 62
54 54 54
34 34 34
79 79 79
70 70 70
99 99 99
86 86 86
87 87 87
71 71 71
0 0 0
84 84 84
61 61 61
63 63 63
53 53 53
50 50 50
86 86 86
62 62 62
61 61 61
50 50 50
111 111 111
46 46 46
66 66 66
0 0 0
30 30 30
59 59 59
24 24 24
20 20 20
35 35 35
43 43 43
26 26 26
16 16 16
17 17 17
28 28 28
29 29 29
22 22 22
20 20 20
12 12 12
13 13 13
53 53 53
37 37 37
27 27 27
21 21 21
25 25 25
42 42 42
69 69 69
81 81 81
88 88 88
69 69 69
87 87 87
88 88 88
113 113 113
72 72 72
88 88 88
112 112 112
67 67 67
81 81 81
57 57 57
66 66 66
71 71 71
52 52 52
64 64 64
28 28 28
34 34 34
46 46 46
57 57 57
59 59 59
49 49 49
22 22 22
27 27 27
6 6 6
12 12 12
8 8 8
29 29 29
42 42 42
33 33 33
48 48 48
62 62 62
66 66 66
56 56 56
69 69 69
38 38 38
63 63 63
78 78 78
76 76 76
79 79 79
51 51 51
88 88 88
62 62 62
49 49 49
94 94 94
63 63 63
82 82 82
112 112 112
140 140 140
88 88 88
69 69 69
68 68 68
74 74 74
66 66 66
70 70 70
68 68 68
64 64 64
46 46 46
47 47 47
75 75 75
43 43 43
17 17 17
27 27 27
23 23 23
32 32 32
31 31 31
36 36 36
51 51 51
0 0 0
80 80 80
76 76 76
43 43 43
2 2 2
78 78 78
77 77 77
36 36 36
16 16 16
51 51 51
56 56 56
29 29 29
35 35 35
16 16 16
54 54 54
78 78 78
71 71 71
118 118 118
96 96 96
73 73 73
71 71 71
65 65 65
107 107 107
64 64 64
104 104 104
71 71 71
82 82 82
86 86 86
45 45 45
65 65 65
116 116 116
93 93 93
94 94 94
112 112 112
120 120 120
82 82 82
83 83 83
44 44 44
25 25 25
9 9 9
23 23 23
62 62 62
73 73 73
106 106 106
71 71 71
69 69 69
85 85 85
70 70 70
76 76 76
88 88 88
70 70 70
44 44 44
44 44 44
74 74 74
79 79 79
38 38 38
33 33 33
7 7 7
28 28 28
44 44 44
35 35 35
3 3 3
16 16 16
27 27 27
0 0 0
0 0 0
0 0 0
1 1 1
10 10 10
22 22 22
0 0 0
0 0 0
8 8 8
31 31 31
0 0 0
0 0 0
0 0 0
6 6 6
8 8 8
0 0 0
1 1 1
16 16 16
18 18 18
30 30 30
25 25 25
26 26 26
37 37 37
12 12 12
42 42 42
8 8 8
40 40 40
29 29 29
27 27 27
41 41 41
5 5 5
57 57 57
80 80 80
67 67 67
88 88 88
87 87 87
81 81 81
108 108 108
78 78 78
48 48 48
66 66 66
18 18 18
52 52 52
55 55 55
69 69 69
27 27 27
16 16 16
32 32 32
50 50 50
35 35 35
57 57 57
53 53 53
0 0 0
7 7 7
0 0 0
0 0 0
18 18 18
0 0 0
0 0 0
0 0 0
9 9 9
14 14 14
1 1 1
0 0 0
22 22 22
43 43 43
19 19 19
0 0 0
0 0 0
29 29 29
0 0 0
33 33 33
4 4 4
13 13 13
11 11 11
8 8 8
7 7 7
2 2 2
9 9 9
5 5 5
68 68 68
30 30 30
56 56 56
20 20 20
51 51 51
96 96 96
74 74 74
78 78 78
70 70 70
71 71 71
119 119 119
105 105 105
112 112 112
69 69 69
50 50 50
111 111 111
82 82 82
88 88 88
118 118 118
86 86 86
61 61 61
48 48 48
46 46 46
59 59 59
14 14 14
56 56 56
0 0 0
40 40 40
87 87 87
64 64 64
6 6 6
110 110 110
93 93 93
129 129 129
95 95 95
76 76 76
78 78 78
84 84 84
29 29 29
47 47 47
62 62 62
94 94 94
51 51 51
107 107 107
63 63 63
77 77 77
57 57 57
90 90 90
80 80 80
106 106 106
126 126 126
116 116 116
99 99 99
87 87 87
116 116 116
74 74 74
127 127 127
111 111 111
141 141 141
102 102 102
124 124 124
110 110 110
78 78 78
43 43 43
44 44 44
8 8 8
22 22 22
21 21 21
21 21 21
39 39 39
26 26 26
31 31 31
50 50 50
45 45 45
10 10 10
61 61 61
59 59 59
76 76 76
85 85 85
75 75 75
59 59 59
31 31 31
19 19 19
77 77 77
11 11 11
61 61 61
19 19 19
90 90 90
67 67 67
85 85 85
133 133 133
111 111 111
99 99 99
45 45 45
70 70 70
67 67 67
70 70 70
66 66 66
81 81 81
55 55 55
69 69 69
17 17 17
24 24 24
53 53 53
2 2 2
42 42 42
0 0 0
20 20 20
2 2 2
39 39 39
19 19 19
44 44 44
22 22 22
25 25 25
50 50 50
52 52 52
91 91 91
52 52 52
43 43 43
103 103 103
51 51 51
64 64 64
84 84 84
48 48 48
50 50 50
111 111 111
85 85 85
76 76 76
69 69 69
78 78 78
68 68 68
65 65 65
65 65 65
87 87 87
0 0 0
53 53 53
39 39 39
0 0 0
37 37 37
31 31 31
3 3 3
23 23 23
50 50 50
61 61 61
61 61 61
73 73 73
26 26 26
59 59 59
1 1 1
84 84 84
65 65 65
65 65 65
69 69 69
0 0 0
46 46 46
33 33 33
31 31 31
65 65 65
0 0 0
69 69 69
70 70 70
49 49 49
48 48 48
0 0 0
96 96 96
47 47 47
68 68 68
71 71 71
72 72 72
86 86 86
98 98 98
63 63 63
73 73 73
74 74 74
0 0 0
0 0 0
33 33 33
93 93 93
56 56 56
40 40 40
54 54 54
3 3 3
18 18 18
50 50 50
10 10 10
56 56 56
0 0 0
71 71 71
76 76 76
48 48 48
70 70 70
0 0 0
71 71 71
87 87 87
72 72 72
98 98 98
0 0 0
86 86 86
93 93 93
57 57 57
64 64 64
67 67 67
56 56 56
50 50 50
66 66 66
28 28 28
49 49 49
64 64 64
69 69 69
62 62 62
75 75 75
52 52 52
29 29 29
11 11 11
33 33 33
19 19 19
32 32 32
29 29 29
31 31 31
53 53 53
65 65 65
68 68 68
40 40 40
44 44 44
58 58 58
58 58 58
83 83 83
85 85 85
96 96 96
88 88 88
124 124 124
63 63 63
70 70 70
83 83 83
91 91 91
110 110 110
100 100 100
51 51 51
94 94 94
53 53 53
100 100 100
86 86 86
67 67 67
98 98 98
83 83 83
72 72 72
115 115 115
96 96 96
72 72 72
38 38 38
33 33 33
18 18 18
27 27 27
29 29 29
31 31 31
39 39 39
42 42 42
63 63 63
54 54 54
34 34 34
62 62 62
36 36 36
33 33 33
29 29 29
62 62 62
44 44 44
5 5 5
54 54 54
29 29 29
91 91 91
44 44 44
97 97 97
95 95 95
144 144 144
63 63 63
67 67 67
76 76 76
66 66 66
62 62 62
97 97 97
119 119 119
47 47 47
101 101 101
88 88 88
50 50 50
62 62 62
43 43 43
76 76 76
17 17 17
92 92 92
50 50 50
39 39 39
26 26 26
33 33 33
31 31 31
50 50 50
68 68 68
61 61 61
65 65 65
54 54 54
64 64 64
56 56 56
0 0 0
44 44 44
10 10 10
0 0 0
87 87 87
0 0 0
48 48 48
11 11 11
48 48 48
32 32 32
0 0 0
31 31 31
0 0 0
0 0 0
0 0 0
0 0 0
16 16 16
0 0 0
0 0 0
0 0 0
0 0 0
8 8 8
0 0 0
0 0 0
0 0 0
6 6 6
0 0 0
0 0 0
0 0 0
0 0 0
5 5 5
12 12 12
10 10 10
0 0 0
0 0 0
0 0 0
0 0 0
18 18 18
0 0 0
7 7 7
26 26 26
19 19 19
53 53 53
45 45 45
26 26 26
15 15 15
53 53 53
22 22 22
36 36 36
54 54 54
119 119 119
67 67 67
45 45 45
61 61 61
56 56 56
71 71 71
59 59 59
45 45 45
75 75 75
80 80 80
49 49 49
43 43 43
7 7 7
45 45 45
20 20 20
40 40 40
28 28 28
0 0 0
26 26 26
0 0 0
0 0 0
0 0 0
3 3 3
0 0 0
14 14 14
13 13 13
51 51 51
0 0 0
0 0 0
46 46 46
0 0 0
57 57 57
2 2 2
0 0 0
4 4 4
3 3 3
0 0 0
48 48 48
0 0 0
23 23 23
0 0 0
0 0 0
50 50 50
8 8 8
0 0 0
2 2 2
50 50 50
68 68 68
68 68 68
66 66 66
41 41 41
63 63 63
9 9 9
46 46 46
56 56 56
51 51 51
68 68 68
7 7 7
70 70 70
20 20 20
62 62 62
61 61 61
43 43 43
69 69 69
73 73 73
63 63 63
60 60 60
114 114 114
111 111 111
108 108 108
117 117 117
67 67 67
83 83 83
119 119 119
96 96 96
78 78 78
88 88 88
79 79 79
82 82 82
104 104 104
119 119 119
110 110 110
113 113 113
99 99 99
153 153 153
68 68 68
83 83 83
65 65 65
37 37 37
59 59 59
74 74 74
69 69 69
72 72 72
79 79 79
36 36 36
54 54 54
64 64 64
60 60 60
104 104 104
95 95 95
111 111 111
98 98 98
116 116 116
151 151 151
152 152 152
71 71 71
112 112 112
102 102 102
74 74 74
69 69 69
70 70 70
20 20 20
34 34 34
34 34 34
74 74 74
42 42 42
32 32 32
26 26 26
11 11 11
35 35 35
49 49 49
51 51 51
43 43 43
43 43 43
14 14 14
56 56 56
65 65 65
40 40 40
65 65 65
51 51 51
45 45 45
42 42 42
76 76 76
87 87 87
71 71 71
72 72 72
45 45 45
111 111 111
83 83 83
84 84 84
70 70 70
84 84 84
79 79 79
95 95 95
57 57 57
83 83 83
55 55 55
78 78 78
103 103 103
87 87 87
91 91 91
86 86 86
35 35 35
0 0 0
27 27 27
20 20 20
14 14 14
7 7 7
13 13 13
34 34 34
32 32 32
24 24 24
42 42 42
67 67 67
42 42 42
108 108 108
26 26 26
64 64 64
112 112 112
66 66 66
81 81 81
111 111 111
58 58 58
110 110 110
87 87 87
68 68 68
81 81 81
101 101 101
110 110 110
91 91 91
65 65 65
91 91 91
51 51 51
69 69 69
0 0 0
52 52 52
47 47 47
9 9 9
10 10 10
44 44 44
51 51 51
25 25 25
45 45 45
47 47 47
18 18 18
23 23 23
18 18 18
29 29 29
34 34 34
26 26 26
0 0 0
57 57 57
71 71 71
51 51 51
53 53 53
0 0 0
17 17 17
104 104 104
65 65 65
71 71 71
83 83 83
76 76 76
61 61 61
66 66 66
0 0 0
39 39 39
0 0 0
79 79 79
88 88 88
62 62 62
86 86 86
0 0 0
68 68 68
58 58 58
50 50 50
54 54 54
43 43 43
18 18 18
15 15 15
34 34 34
18 18 18
0 0 0
21 21 21
25 25 25
78 78 78
66 66 66
52 52 52
47 47 47
66 66 66
52 52 52
45 45 45
20 20 20
69 69 69
101 101 101
99 99 99
96 96 96
114 114 114
87 87 87
64 64 64
114 114 114
77 77 77
72 72 72
78 78 78
86 86 86
82 82 82
102 102 102
104 104 104
68 68 68
104 104 104
49 49 49
50 50 50
12 12 12
27 27 27
33 33 33
53 53 53
25 25 25
59 59 59
61 61 61
37 37 37
44 44 44
77 77 77
66 66 66
94 94 94
81 81 81
50 50 50
132 132 132
88 88 88
88 88 88
123 123 123
100 100 100
84 84 84
123 123 123
83 83 83
93 93 93
49 49 49
92 92 92
66 66 66
88 88 88
66 66 66
74 74 74
28 28 28
55 55 55
37 37 37
23 23 23
43 43 43
53 53 53
50 50 50
28 28 28
28 28 28
56 56 56
0 0 0
33 33 33
18 18 18
40 40 40
34 34 34
44 44 44
92 92 92
41 41 41
81 81 81
84 84 84
72 72 72
79 79 79
67 67 67
100 100 100
68 68 68
102 102 102
145 145 145
107 107 107
141 141 141
86 86 86
105 105 105
95 95 95
110 110 110
113 113 113
101 101 101
79 79 79
89 89 89
77 77 77
110 110 110
68 68 68
66 66 66
57 57 57
49 49 49
81 81 81
56 56 56
52 52 52
14 14 14
50 50 50
60 60 60
54 54 54
45 45 45
78 78 78
53 53 53
60 60 60
7 7 7
14 14 14
21 21 21
33 33 33
59 59 59
73 73 73
63 63 63
40 40 40
69 69 69
44 44 44
0 0 0
0 0 0
54 54 54
0 0 0
35 35 35
13 13 13
0 0 0
0 0 0
0 0 0
0 0 0
0 0 0
0 0 0
0 0 0
0 0 0
0 0 0
9 9 9
68 68 68
0 0 0
0 0 0
5 5 5
0 0 0
1 1 1
0 0 0
0 0 0
0 0 0
0 0 0
0 0 0
0 0 0
0 0 0
4 4 4
0 0 0
0 0 0
0 0 0
0 0 0
0 0 0
31 31 31
38 38 38
18 18 18
7 7 7
38 38 38
14 14 14
28 28 28
66 66 66
63 63 63
73 73 73
47 47 47
94 94 94
37 37 37
47 47 47
70 70 70
78 78 78
75 75 75
44 44 44
45 45 45
76 76 76
52 52 52
34 34 34
34 34 34
47 47 47
20 20 20
36 36 36
60 60 60
0 0 0
0 0 0
0 0 0
0 0 0
16 16 16
9 9 9
26 26 26
7 7 7
6 6 6
58 58 58
31 31 31
0 0 0
3 3 3
2 2 2
7 7 7
27 27 27
16 16 16
0 0 0
0 0 0
41 41 41
8 8 8
1 1 1
41 41 41
0 0 0
0 0 0
1 1 1
0 0 0
0 0 0
0 0 0
0 0 0
0 0 0
0 0 0
7 7 7
37 37 37
50 50 50
54 54 54
18 18 18
65 65 65
100 100 100
60 60 60
0 0 0
21 21 21
69 69 69
73 73 73
58 58 58
43 43 43
40 40 40
16 16 16
34 34 34
70 70 70
83 83 83
59 59 59
121 121 121
71 71 71
106 106 106
104 104 104
76 76 76
86 86 86
136 136 136
94 94 94
57 57 57
63 63 63
56 56 56
74 74 74
56 56 56
80 80 80
122 122 122
71 71 71
92 92 92
82 82 82
69 69 69
55 55 55
16 16 16
21 21 21
47 47 47
77 77 77
75 75 75
46 46 46
49 49 49
60 60 60
77 77 77
55 55 55
18 18 18
12 12 12
32 32 32
34 34 34
54 54 54
92 92 92
129 129 129
143 143 143
100 100 100
133 133 133
120 120 120
86 86 86
92 92 92
62 62 62
74 74 74
85 85 85
88 88 88
46 46 46
37 37 37
38 38 38
12 12 12
31 31 31
48 48 48
69 69 69
58 58 58
24 24 24
19 19 19
62 62 62
44 44 44
41 41 41
57 57 57
59 59 59
72 72 72
99 99 99
79 79 79
106 106 106
74 74 74
139 139 139
108 108 108
110 110 110
91 91 91
78 78 78
131 131 131
111 111 111
48 48 48
120 120 120
66 66 66
108 108 108
82 82 82
43 43 43
86 86 86
96 96 96
110 110 110
68 68 68
91 91 91
62 62 62
53 53 53
33 33 33
39 39 39
16 16 16
14 14 14
11 11 11
28 28 28
42 42 42
30 30 30
0 0 0
37 37 37
33 33 33
26 26 26
26 26 26
55 55 55
0 0 0
78 78 78
68 68 68
101 101 101
93 93 93
69 69 69
81 81 81
18 18 18
78 78 78
63 63 63
80 80 80
98 98 98
87 87 87
85 85 85
90 90 90
97 97 97
50 50 50
55 55 55
88 88 88
76 76 76
77 77 77
101 101 101
53 53 53
66 66 66
107 107 107
111 111 111
82 82 82
84 84 84
45 45 45
111 111 111
49 49 49
87 87 87
42 42 42
35 35 35
38 38 38
0 0 0
76 76 76
68 68 68
99 99 99
95 95 95
112 112 112
87 87 87
0 0 0
57 57 57
97 97 97
87 87 87
104 104 104
0 0 0
48 48 48
97 97 97
51 51 51
71 71 71
64 64 64
45 45 45
67 67 67
0 0 0
46 46 46
33 33 33
27 27 27
29 29 29
43 43 43
62 62 62
11 11 11
42 42 42
1 1 1
25 25 25
20 20 20
34 34 34
74 74 74
57 57 57
64 64 64
68 68 68
52 52 52
48 48 48
100 100 100
68 68 68
71 71 71
78 78 78
92 92 92
83 83 83
125 125 125
83 83 83
61 61 61
54 54 54
55 55 55
83 83 83
81 81 81
69 69 69
79 79 79
93 93 93
41 41 41
29 29 29
13 13 13
15 15 15
52 52 52
47 47 47
39 39 39
20 20 20
83 83 83
73 73 73
36 36 36
99 99 99
46 46 46
75 75 75
82 82 82
80 80 80
108 108 108
83 83 83
86 86 86
100 100 100
50 50 50
122 122 122
139 139 139
123 123 123
97 97 97
127 127 127
136 136 136
110 110 110
44 44 44
82 82 82
43 43 43
59 59 59
18 18 18
27 27 27
39 39 39
38 38 38
40 40 40
0 0 0
12 12 12
11 11 11
10 10 10
24 24 24
27 27 27
0 0 0
47 47 47
60 60 60
20 20 20
38 38 38
40 40 40
45 45 45
7 7 7
26 26 26
20 20 20
61 61 61
73 73 73
62 62 62
95 95 95
97 97 97
100 100 100
98 98 98
101 101 101
123 123 123
101 101 101
125 125 125
105 105 105
71 71 71
92 92 92
56 56 56
71 71 71
42 42 42
78 78 78
108 108 108
63 63 63
120 120 120
112 112 112
66 66 66
100 100 100
50 50 50
46 46 46
81 81 81
69 69 69
49 49 49
69 69 69
86 86 86
61 61 61
0 0 0
34 34 34
0 0 0
0 0 0
61 61 61
60 60 60
46 46 46
63 63 63
29 29 29
7 7 7
0 0 0
0 0 0
1 1 1
1 1 1
0 0 0
1 1 1
0 0 0
0 0 0
0 0 0
0 0 0
0 0 0
0 0 0
0 0 0
0 0 0
12 12 12
0 0 0
0 0 0
0 0 0
3 3 3
0 0 0
0 0 0
0 0 0
0 0 0
0 0 0
1 1 1
0 0 0
8 8 8
0 0 0
0 0 0
0 0 0
0 0 0
0 0 0
3 3 3
0 0 0
0 0 0
0 0 0
0 0 0
0 0 0
7 7 7
27 27 27
45 45 45
0 0 0
71 71 71
43 43 43
48 48 48
110 110 110
68 68 68
69 69 69
79 79 79
42 42 42
24 24 24
63 63 63
49 49 49
53 53 53
3 3 3
15 15 15
57 57 57
0 0 0
40 40 40
1 1 1
0 0 0
0 0 0
0 0 0
0 0 0
14 14 14
17 17 17
2 2 2
33 33 33
2 2 2
0 0 0
11 11 11
45 45 45
26 26 26
0 0 0
9 9 9
11 11 11
46 46 46
20 20 20
6 6 6
67 67 67
11 11 11
0 0 0
18 18 18
0 0 0
0 0 0
50 50 50
13 13 13
44 44 44
49 49 49
0 0 0
38 38 38
24 24 24
4 4 4
26 26 26
0 0 0
7 7 7
0 0 0
4 4 4
30 30 30
56 56 56
0 0 0
23 23 23
28 28 28
0 0 0
49 49 49
0 0 0
47 47 47
26 26 26
15 15 15
19 19 19
34 34 34
51 51 51
66 66 66
120 120 120
88 88 88
143 143 143
70 70 70
111 111 111
98 98 98
99 99 99
139 139 139
99 99 99
90 90 90
106 106 106
66 66 66
67 67 67
113 113 113
59 59 59
68 68 68
65 65 65
49 49 49
50 50 50
34 34 34
37 37 37
24 24 24
54 54 54
75 75 75
63 63 63
74 74 74
51 51 51
38 38 38
46 46 46
41 41 41
56 56 56
86 86 86
68 68 68
60 60 60
81 81 81
76 76 76
84 84 84
122 122 122
111 111 111
133 133 133
140 140 140
94 94 94
61 61 61
96 96 96
95 95 95
94 94 94
133 133 133
121 121 121
87 87 87
142 142 142
91 91 91
97 97 97
71 71 71
51 51 51
54 54 54
66 66 66
65 65 65
33 33 33
20 20 20
23 23 23
41 41 41
22 22 22
51 51 51
52 52 52
83 83 83
73 73 73
51 51 51
100 100 100
75 75 75
94 94 94
89 89 89
121 121 121
85 85 85
87 87 87
50 50 50
50 50 50
123 123 123
123 123 123
70 70 70
102 102 102
86 86 86
107 107 107
72 72 72
71 71 71
89 89 89
98 98 98
81 81 81
61 61 61
58 58 58
54 54 54
62 62 62
84 84 84
42 42 42
58 58 58
33 33 33
14 14 14
27 27 27
40 40 40
15 15 15
26 26 26
43 43 43
22 22 22
29 29 29
6 6 6
46 46 46
36 36 36
53 53 53
83 83 83
127 127 127
73 73 73
79 79 79
118 118 118
75 75 75
92 92 92
71 71 71
59 59 59
63 63 63
95 95 95
122 122 122
47 47 47
51 51 51
85 85 85
66 66 66
58 58 58
69 69 69
0 0 0
57 57 57
49 49 49
32 32 32
42 42 42
21 21 21
29 29 29
32 32 32
51 51 51
58 58 58
51 51 51
97 97 97
108 108 108
68 68 68
86 86 86
49 49 49
71 71 71
0 0 0
102 102 102
64 64 64
46 46 46
44 44 44
52 52 52
67 67 67
0 0 0
100 100 100
71 71 71
15 15 15
60 60 60
102 102 102
60 60 60
68 68 68
38 38 38
0 0 0
34 34 34
12 12 12
19 19 19
33 33 33
49 49 49
48 48 48
83 83 83
101 101 101
89 89 89
83 83 83
91 91 91
0 0 0
84 84 84
84 84 84
87 87 87
70 70 70
63 63 63
72 72 72
0 0 0
81 81 81
82 82 82
77 77 77
97 97 97
86 86 86
86 86 86
54 54 54
39 39 39
50 50 50
42 42 42
19 19 19
33 33 33
59 59 59
7 7 7
31 31 31
27 27 27
46 46 46
32 32 32
38 38 38
33 33 33
17 17 17
35 35 35
44 44 44
61 61 61
57 57 57
66 66 66
59 59 59
140 140 140
50 50 50
103 103 103
79 79 79
65 65 65
108 108 108
99 99 99
100 100 100
134 134 134
71 71 71
101 101 101
111 111 111
109 109 109
82 82 82
47 47 47
66 66 66
61 61 61
78 78 78
70 70 70
58 58 58
69 69 69
80 80 80
63 63 63
16 16 16
40 40 40
51 51 51
13 13 13
9 9 9
17 17 17
36 36 36
35 35 35
52 52 52
41 41 41
56 56 56
66 66 66
62 62 62
46 46 46
31 31 31
55 55 55
16 16 16
21 21 21
23 23 23
71 71 71
65 65 65
108 108 108
96 96 96
99 99 99
122 122 122
69 69 69
79 79 79
91 91 91
65 65 65
96 96 96
111 111 111
109 109 109
83 83 83
104 104 104
51 51 51
83 83 83
114 114 114
93 93 93
63 63 63
0 0 0
76 76 76
47 47 47
85 85 85
60 60 60
69 69 69
84 84 84
48 48 48
0 0 0
39 39 39
27 27 27
0 0 0
22 22 22
35 35 35
43 43 43
0 0 0
0 0 0
0 0 0
16 16 16
0 0 0
0 0 0
1 1 1
29 29 29
7 7 7
0 0 0
0 0 0
30 30 30
0 0 0
35 35 35
0 0 0
42 42 42
7 7 7
15 15 15
0 0 0
4 4 4
0 0 0
0 0 0
7 7 7
0 0 0
3 3 3
14 14 14
5 5 5
9 9 9
0 0 0
0 0 0
1 1 1
0 0 0
0 0 0
0 0 0
0 0 0
5 5 5
1 1 1
0 0 0
20 20 20
0 0 0
0 0 0
0 0 0
5 5 5
0 0 0
0 0 0
0 0 0
0 0 0
0 0 0
0 0 0
4 4 4
0 0 0
16 16 16
0 0 0
42 42 42
38 38 38
1 1 1
1 1 1
0 0 0
0 0 0
11 11 11
0 0 0
25 25 25
4 4 4
4 4 4
0 0 0
6 6 6
0 0 0
9 9 9
2 2 2
0 0 0
4 4 4
9 9 9
0 0 0
49 49 49
44 44 44
47 47 47
18 18 18
43 43 43
43 43 43
48 48 48
18 18 18
16 16 16
0 0 0
0 0 0
6 6 6
35 35 35
108 108 108
3 3 3
27 27 27
33 33 33
44 44 44
42 42 42
10 10 10
17 17 17
21 21 21
0 0 0
42 42 42
50 50 50
4 4 4
43 43 43
0 0 0
10 10 10
9 9 9
6 6 6
24 24 24
10 10 10
20 20 20
29 29 29
32 32 32
16 16 16
58 58 58
53 53 53
47 47 47
68 68 68
74 74 74
63 63 63
66 66 66
106 106 106
144 144 144
81 81 81
127 127 127
86 86 86
71 71 71
105 105 105
117 117 117
100 100 100
91 91 91
94 94 94
92 92 92
95 95 95
69 69 69
126 126 126
112 112 112
139 139 139
115 115 115
118 118 118
96 96 96
86 86 86
100 100 100
124 124 124
100 100 100
114 114 114
116 116 116
68 68 68
79 79 79
113 113 113
17 17 17
53 53 53
54 54 54
59 59 59
102 102 102
100 100 100
57 57 57
94 94 94
117 117 117
119 119 119
76 76 76
70 70 70
38 38 38
23 23 23
43 43 43
49 49 49
53 53 53
85 85 85
75 75 75
75 75 75
39 39 39
98 98 98
83 83 83
130 130 130
125 125 125
137 137 137
126 126 126
71 71 71
120 120 120
124 124 124
124 124 124
97 97 97
52 52 52
28 28 28
13 13 13
14 14 14
27 27 27
15 15 15
23 23 23
81 81 81
50 50 50
65 65 65
55 55 55
81 81 81
99 99 99
90 90 90
70 70 70
128 128 128
96 96 96
108 108 108
105 105 105
113 113 113
113 113 113
144 144 144
84 84 84
121 121 121
103 103 103
98 98 98
101 101 101
131 131 131
91 91 91
86 86 86
77 77 77
83 83 83
76 76 76
47 47 47
46 46 46
25 25 25
24 24 24
16 16 16
23 23 23
9 9 9
11 11 11
18 18 18
19 19 19
13 13 13
72 72 72
38 38 38
25 25 25
4 4 4
8 8 8
25 25 25
49 49 49
25 25 25
27 27 27
62 62 62
68 68 68
34 34 34
68 68 68
68 68 68
82 82 82
89 89 89
71 71 71
91 91 91
75 75 75
75 75 75
83 83 83
0 0 0
10 10 10
109 109 109
45 45 45
35 35 35
93 93 93
52 52 52
50 50 50
85 85 85
49 49 49
94 94 94
51 51 51
74 74 74
86 86 86
50 50 50
70 70 70
70 70 70
70 70 70
64 64 64
77 77 77
41 41 41
80 80 80
69 69 69
23 23 23
49 49 49
54 54 54
72 72 72
70 70 70
47 47 47
37 37 37
29 29 29
20 20 20
19 19 19
31 31 31
39 39 39
7 7 7
24 24 24
16 16 16
15 15 15
42 42 42
40 40 40
44 44 44
45 45 45
8 8 8
58 58 58
82 82 82
119 119 119
113 113 113
50 50 50
132 132 132
75 75 75
29 29 29
105 105 105
119 119 119
59 59 59
70 70 70
68 68 68
108 108 108
64 64 64
97 97 97
109 109 109
100 100 100
38 38 38
69 69 69
51 51 51
60 60 60
38 38 38
102 102 102
41 41 41
48 48 48
11 11 11
22 22 22
28 28 28
36 36 36
40 40 40
25 25 25
46 46 46
69 69 69
82 82 82
84 84 84
48 48 48
0 0 0
49 49 49
50 50 50
46 46 46
64 64 64
54 54 54
23 23 23
68 68 68
43 43 43
64 64 64
99 99 99
83 83 83
124 124 124
86 86 86
79 79 79
100 100 100
103 103 103
118 118 118
109 109 109
82 82 82
97 97 97
140 140 140
80 80 80
69 69 69
82 82 82
85 85 85
104 104 104
86 86 86
96 96 96
63 63 63
66 66 66
85 85 85
28 28 28
45 45 45
32 32 32
20 20 20
66 66 66
44 44 44
46 46 46
0 0 0
59 59 59
36 36 36
37 37 37
52 52 52
66 66 66
57 57 57
48 48 48
49 49 49
73 73 73
64 64 64
96 96 96
82 82 82
100 100 100
107 107 107
69 69 69
122 122 122
100 100 100
50 50 50
82 82 82
88 88 88
79 79 79
69 69 69
65 65 65
56 56 56
85 85 85
21 21 21
21 21 21
0 0 0
25 25 25
5 5 5
29 29 29
29 29 29
40 40 40
25 25 25
35 35 35
33 33 33
56 56 56
27 27 27
57 57 57
9 9 9
0 0 0
63 63 63
0 0 0
0 0 0
26 26 26
49 49 49
51 51 51
0 0 0
62 62 62
46 46 46
1 1 1
0 0 0
0 0 0
43 43 43
0 0 0
0 0 0
0 0 0
23 23 23
24 24 24
49 49 49
44 44 44
0 0 0
14 14 14
32 32 32
12 12 12
0 0 0
0 0 0
36 36 36
1 1 1
0 0 0
29 29 29
0 0 0
0 0 0
2 2 2
1 1 1
0 0 0
14 14 14
6 6 6
35 35 35
62 62 62
5 5 5
22 22 22
57 57 57
67 67 67
46 46 46
26 26 26
81 81 81
38 38 38
51 51 51
13 13 13
78 78 78
54 54 54
45 45 45
34 34 34
28 28 28
12 12 12
30 30 30
36 36 36
90 90 90
30 30 30
56 56 56
48 48 48
23 23 23
30 30 30
17 17 17
30 30 30
45 45 45
5 5 5
66 66 66
55 55 55
37 37 37
25 25 25
1 1 1
11 11 11
3 3 3
32 32 32
29 29 29
40 40 40
1 1 1
78 78 78
66 66 66
68 68 68
62 62 62
56 56 56
66 66 66
63 63 63
62 62 62
70 70 70
54 54 54
44 44 44
71 71 71
0 0 0
88 88 88
48 48 48
65 65 65
70 70 70
31 31 31
50 50 50
12 12 12
38 38 38
9 9 9
21 21 21
13 13 13
32 32 32
10 10 10
28 28 28
13 13 13
0 0 0
33 33 33
61 61 61
45 45 45
13 13 13
60 60 60
0 0 0
77 77 77
100 100 100
92 92 92
80 80 80
69 69 69
85 85 85
85 85 85
38 38 38
99 99 99
135 135 135
112 112 112
110 110 110
133 133 133
109 109 109
147 147 147
145 145 145
106 106 106
82 82 82
46 46 46
69 69 69
44 44 44
50 50 50
67 67 67
86 86 86
66 66 66
89 89 89
73 73 73
102 102 102
101 101 101
150 150 150
92 92 92
61 61 61
57 57 57
40 40 40
48 48 48
55 55 55
34 34 34
77 77 77
93 93 93
73 73 73
85 85 85
77 77 77
116 116 116
73 73 73
84 84 84
74 74 74
83 83 83
108 108 108
58 58 58
71 71 71
92 92 92
81 81 81
170 170 170
131 131 131
135 135 135
142 142 142
100 100 100
127 127 127
94 94 94
73 73 73
107 107 107
89 89 89
78 78 78
63 63 63
55 55 55
49 49 49
69 69 69
31 31 31
56 56 56
36 36 36
70 70 70
71 71 71
106 106 106
71 71 71
37 37 37
21 21 21
21 21 21
56 56 56
73 73 73
66 66 66
83 83 83
67 67 67
75 75 75
76 76 76
48 48 48
83 83 83
98 98 98
61 61 61
64 64 64
54 54 54
85 85 85
119 119 119
102 102 102
89 89 89
36 36 36
89 89 89
98 98 98
89 89 89
106 106 106
52 52 52
49 49 49
18 18 18
16 16 16
4 4 4
3 3 3
19 19 19
28 28 28
26 26 26
39 39 39
40 40 40
34 34 34
35 35 35
48 48 48
44 44 44
28 28 28
63 63 63
61 61 61
69 69 69
58 58 58
84 84 84
67 67 67
120 120 120
103 103 103
53 53 53
74 74 74
63 63 63
61 61 61
64 64 64
110 110 110
49 49 49
87 87 87
124 124 124
0 0 0
29 29 29
111 111 111
69 69 69
40 40 40
111 111 111
65 65 65
71 71 71
99 99 99
50 50 50
63 63 63
0 0 0
56 56 56
49 49 49
64 64 64
72 72 72
0 0 0
59 59 59
50 50 50
90 90 90
86 86 86
47 47 47
74 74 74
38 38 38
24 24 24
66 66 66
48 48 48
44 44 44
29 29 29
24 24 24
47 47 47
21 21 21
46 46 46
0 0 0
64 64 64
77 77 77
64 64 64
53 53 53
56 56 56
106 106 106
49 49 49
114 114 114
143 143 143
71 71 71
97 97 97
60 60 60
70 70 70
70 70 70
68 68 68
111 111 111
51 51 51
85 85 85
49 49 49
97 97 97
90 90 90
82 82 82
68 68 68
63 63 63
29 29 29
11 11 11
18 18 18
17 17 17
16 16 16
25 25 25
27 27 27
25 25 25
33 33 33
59 59 59
45 45 45
54 54 54
79 79 79
49 49 49
92 92 92
96 96 96
54 54 54
53 53 53
70 70 70
55 55 55
34 34 34
89 89 89
95 95 95
55 55 55
75 75 75
72 72 72
125 125 125
120 120 120
58 58 58
102 102 102
100 100 100
113 113 113
124 124 124
101 101 101
63 63 63
82 82 82
59 59 59
76 76 76
56 56 56
93 93 93
52 52 52
50 50 50
17 17 17
12 12 12
30 30 30
23 23 23
36 36 36
40 40 40
25 25 25
52 52 52
64 64 64
38 38 38
33 33 33
53 53 53
20 20 20
33 33 33
32 32 32
44 44 44
33 33 33
50 50 50
27 27 27
41 41 41
82 82 82
99 99 99
91 91 91
76 76 76
92 92 92
74 74 74
61 61 61
72 72 72
53 53 53
107 107 107
106 106 106
44 44 44
67 67 67
60 60 60
88 88 88
12 12 12
71 71 71
76 76 76
74 74 74
45 45 45
17 17 17
15 15 15
2 2 2
19 19 19
25 25 25
36 36 36
21 21 21
45 45 45
0 0 0
59 59 59
47 47 47
56 56 56
38 38 38
6 6 6
0 0 0
0 0 0
16 16 16
26 26 26
1 1 1
5 5 5
2 2 2
0 0 0
10 10 10
34 34 34
0 0 0
14 14 14
51 51 51
45 45 45
79 79 79
71 71 71
0 0 0
75 75 75
6 6 6
0 0 0
18 18 18
40 40 40
27 27 27
4 4 4
3 3 3
47 47 47
74 74 74
39 39 39
1 1 1
0 0 0
17 17 17
17 17 17
3 3 3
46 46 46
44 44 44
23 23 23
8 8 8
55 55 55
15 15 15
0 0 0
27 27 27
33 33 33
37 37 37
40 40 40
63 63 63
63 63 63
67 67 67
71 71 71
92 92 92
110 110 110
84 84 84
85 85 85
64 64 64
102 102 102
70 70 70
58 58 58
14 14 14
57 57 57
86 86 86
115 115 115
50 50 50
38 38 38
22 22 22
38 38 38
7 7 7
26 26 26
10 10 10
53 53 53
44 44 44
69 69 69
74 74 74
101 101 101
26 26 26
7 7 7
18 18 18
0 0 0
35 35 35
0 0 0
8 8 8
19 19 19
52 52 52
57 57 57
47 47 47
63 63 63
35 35 35
61 61 61
50 50 50
33 33 33
12 12 12
78 78 78
10 10 10
23 23 23
38 38 38
48 48 48
41 41 41
0 0 0
21 21 21
78 78 78
62 62 62
51 51 51
75 75 75
27 27 27
16 16 16
56 56 56
36 36 36
40 40 40
20 20 20
3 3 3
11 11 11
31 31 31
17 17 17
33 33 33
66 66 66
44 44 44
51 51 51
75 75 75
66 66 66
98 98 98
66 66 66
88 88 88
98 98 98
135 135 135
121 121 121
84 84 84
88 88 88
149 149 149
131 131 131
130 130 130
93 93 93
112 112 112
74 74 74
66 66 66
63 63 63
40 40 40
53 53 53
73 73 73
66 66 66
79 79 79
107 107 107
115 115 115
111 111 111
137 137 137
84 84 84
77 77 77
95 95 95
80 80 80
33 33 33
22 22 22
33 33 33
43 43 43
62 62 62
63 63 63
67 67 67
58 58 58
113 113 113
99 99 99
91 91 91
100 100 100
85 85 85
81 81 81
85 85 85
54 54 54
127 127 127
156 156 156
179 179 179
160 160 160
133 133 133
135 135 135
105 105 105
110 110 110
148 148 148
107 107 107
66 66 66
77 77 77
135 135 135
129 129 129
91 91 91
97 97 97
108 108 108
52 52 52
87 87 87
94 94 94
65 65 65
39 39 39
44 44 44
95 95 95
125 125 125
61 61 61
56 56 56
42 42 42
39 39 39
37 37 37
48 48 48
67 67 67
119 119 119
96 96 96
88 88 88
41 41 41
80 80 80
98 98 98
102 102 102
89 89 89
108 108 108
114 114 114
88 88 88
85 85 85
135 135 135
126 126 126
105 105 105
92 92 92
84 84 84
78 78 78
71 71 71
62 62 62
75 75 75
66 66 66
51 51 51
49 49 49
28 28 28
32 32 32
27 27 27
6 6 6
9 9 9
15 15 15
33 33 33
11 11 11
23 23 23
34 34 34
35 35 35
48 48 48
0 0 0
81 81 81
56 56 56
86 86 86
77 77 77
66 66 66
99 99 99
0 0 0
78 78 78
84 84 84
50 50 50
84 84 84
49 49 49
88 88 88
72 72 72
71 71 71
81 81 81
50 50 50
69 69 69
87 87 87
0 0 0
84 84 84
64 64 64
50 50 50
59 59 59
48 48 48
0 0 0
82 82 82
58 58 58
35 35 35
60 60 60
47 47 47
36 36 36
38 38 38
50 50 50
66 66 66
55 55 55
86 86 86
18 18 18
28 28 28
0 0 0
41 41 41
54 54 54
55 55 55
43 43 43
0 0 0
14 14 14
40 40 40
42 42 42
31 31 31
34 34 34
11 11 11
26 26 26
19 19 19
54 54 54
41 41 41
57 57 57
66 66 66
72 72 72
66 66 66
97 97 97
122 122 122
72 72 72
110 110 110
96 96 96
106 106 106
98 98 98
0 0 0
64 64 64
46 46 46
68 68 68
44 44 44
0 0 0
75 75 75
26 26 26
50 50 50
7 7 7
13 13 13
8 8 8
16 16 16
30 30 30
41 41 41
36 36 36
63 63 63
28 28 28
62 62 62
74 74 74
102 102 102
99 99 99
35 35 35
92 92 92
129 129 129
127 127 127
122 122 122
87 87 87
100 100 100
164 164 164
51 51 51
100 100 100
87 87 87
141 141 141
95 95 95
115 115 115
63 63 63
0 0 0
98 98 98
96 96 96
153 153 153
83 83 83
150 150 150
81 81 81
80 80 80
40 40 40
96 96 96
57 57 57
79 79 79
67 67 67
85 85 85
80 80 80
51 51 51
34 34 34
26 26 26
33 33 33
29 29 29
63 63 63
45 45 45
89 89 89
73 73 73
18 18 18
58 58 58
39 39 39
28 28 28
31 31 31
11 11 11
14 14 14
23 23 23
51 51 51
49 49 49
77 77 77
48 48 48
44 44 44
62 62 62
0 0 0
60 60 60
67 67 67
25 25 25
69 69 69
82 82 82
32 32 32
77 77 77
124 124 124
49 49 49
57 57 57
0 0 0
22 22 22
13 13 13
9 9 9
11 11 11
14 14 14
1 1 1
7 7 7
0 0 0
25 25 25
11 11 11
49 49 49
40 40 40
10 10 10
26 26 26
46 46 46
31 31 31
22 22 22
34 34 34
11 11 11
11 11 11
0 0 0
20 20 20
21 21 21
27 27 27
28 28 28
8 8 8
0 0 0
49 49 49
37 37 37
71 71 71
0 0 0
86 86 86
46 46 46
40 40 40
1 1 1
9 9 9
0 0 0
50 50 50
24 24 24
66 66 66
0 0 0
58 58 58
71 71 71
3 3 3
62 62 62
24 24 24
10 10 10
5 5 5
22 22 22
25 25 25
0 0 0
17 17 17
12 12 12
10 10 10
0 0 0
52 52 52
40 40 40
74 74 74
36 36 36
57 57 57
1 1 1
18 18 18
49 49 49
34 34 34
62 62 62
85 85 85
75 75 75
109 109 109
82 82 82
113 113 113
62 62 62
70 70 70
105 105 105
66 66 66
68 68 68
50 50 50
115 115 115
72 72 72
63 63 63
86 86 86
49 49 49
9 9 9
24 24 24
32 32 32
33 33 33
50 50 50
9 9 9
15 15 15
49 49 49
62 62 62
67 67 67
32 32 32
62 62 62
25 25 25
4 4 4
38 38 38
82 82 82
64 64 64
42 42 42
26 26 26
57 57 57
18 18 18
26 26 26
14 14 14
59 59 59
60 60 60
50 50 50
20 20 20
19 19 19
27 27 27
26 26 26
20 20 20
30 30 30
16 16 16
28 28 28
17 17 17
33 33 33
90 90 90
84 84 84
85 85 85
72 72 72
89 89 89
67 67 67
45 45 45
21 21 21
14 14 14
18 18 18
41 41 41
35 35 35
54 54 54
38 38 38
61 61 61
52 52 52
58 58 58
81 81 81
85 85 85
95 95 95
84 84 84
125 125 125
75 75 75
130 130 130
135 135 135
188 188 188
175 175 175
98 98 98
123 123 123
122 122 122
169 169 169
114 114 114
185 185 185
113 113 113
126 126 126
113 113 113
112 112 112
137 137 137
113 113 113
129 129 129
140 140 140
133 133 133
65 65 65
49 49 49
43 43 43
62 62 62
86 86 86
123 123 123
133 133 133
125 125 125
109 109 109
85 85 85
47 47 47
25 25 25
55 55 55
103 103 103
108 108 108
106 106 106
67 67 67
22 22 22
16 16 16
19 19 19
32 32 32
65 65 65
110 110 110
128 128 128
134 134 134
125 125 125
128 128 128
126 126 126
126 126 126
105 105 105
195 195 195
149 149 149
158 158 158
126 126 126
134 134 134
126 126 126
111 111 111
61 61 61
128 128 128
51 51 51
80 80 80
64 64 64
20 20 20
8 8 8
27 27 27
35 35 35
61 61 61
42 42 42
43 43 43
48 48 48
26 26 26
29 29 29
42 42 42
68 68 68
72 72 72
122 122 122
102 102 102
104 104 104
105 105 105
100 100 100
105 105 105
85 85 85
97 97 97
116 116 116
76 76 76
122 122 122
67 67 67
100 100 100
97 97 97
101 101 101
62 62 62
67 67 67
50 50 50
80 80 80
88 88 88
95 95 95
85 85 85
30 30 30
70 70 70
29 29 29
52 52 52
31 31 31
10 10 10
5 5 5
6 6 6
26 26 26
13 13 13
20 20 20
7 7 7
31 31 31
44 44 44
66 66 66
50 50 50
29 29 29
49 49 49
99 99 99
69 69 69
97 97 97
127 127 127
114 114 114
83 83 83
0 0 0
50 50 50
123 123 123
98 98 98
69 69 69
123 123 123
87 87 87
49 49 49
82 82 82
49 49 49
42 42 42
95 95 95
46 46 46
65 65 65
98 98 98
99 99 99
82 82 82
60 60 60
70 70 70
0 0 0
42 42 42
109 109 109
79 79 79
71 71 71
63 63 63
39 39 39
65 65 65
49 49 49
45 45 45
38 38 38
11 11 11
52 52 52
33 33 33
41 41 41
26 26 26
17 17 17
50 50 50
62 62 62
73 73 73
76 76 76
89 89 89
92 92 92
77 77 77
85 85 85
101 101 101
50 50 50
123 123 123
97 97 97
46 46 46
68 68 68
76 76 76
114 114 114
91 91 91
74 74 74
28 28 28
58 58 58
41 41 41
15 15 15
37 37 37
74 74 74
50 50 50
39 39 39
7 7 7
11 11 11
11 11 11
29 29 29
29 29 29
22 22 22
13 13 13
21 21 21
22 22 22
35 35 35
29 29 29
25 25 25
37 37 37
53 53 53
44 44 44
89 89 89
108 108 108
112 112 112
84 84 84
66 66 66
102 102 102
120 120 120
158 158 158
160 160 160
110 110 110
86 86 86
127 127 127
133 133 133
98 98 98
91 91 91
83 83 83
106 106 106
117 117 117
116 116 116
81 81 81
93 93 93
56 56 56
85 85 85
62 62 62
67 67 67
31 31 31
8 8 8
18 18 18
17 17 17
24 24 24
24 24 24
0 0 0
36 36 36
63 63 63
56 56 56
66 66 66
33 33 33
56 56 56
44 44 44
59 59 59
40 40 40
51 51 51
95 95 95
33 33 33
35 35 35
24 24 24
32 32 32
53 53 53
25 25 25
56 56 56
68 68 68
60 60 60
56 56 56
75 75 75
91 91 91
77 77 77
88 88 88
114 114 114
82 82 82
101 101 101
70 70 70
96 96 96
65 65 65
76 76 76
57 57 57
54 54 54
14 14 14
16 16 16
12 12 12
23 23 23
36 36 36
40 40 40
20 20 20
8 8 8
45 45 45
49 49 49
82 82 82
13 13 13
56 56 56
18 18 18
48 48 48
2 2 2
14 14 14
50 50 50
66 66 66
51 51 51
56 56 56
87 87 87
51 51 51
66 66 66
0 0 0
31 31 31
51 51 51
66 66 66
32 32 32
27 27 27
70 70 70
91 91 91
47 47 47
54 54 54
1 1 1
39 39 39
67 67 67
33 33 33
1 1 1
34 34 34
72 72 72
48 48 48
33 33 33
67 67 67
57 57 57
33 33 33
65 65 65
43 43 43
36 36 36
79 79 79
29 29 29
44 44 44
34 34 34
43 43 43
10 10 10
46 46 46
32 32 32
29 29 29
19 19 19
8 8 8
45 45 45
63 63 63
28 28 28
140 140 140
39 39 39
9 9 9
71 71 71
104 104 104
114 114 114
115 115 115
89 89 89
90 90 90
133 133 133
104 104 104
66 66 66
60 60 60
84 84 84
70 70 70
96 96 96
124 124 124
97 97 97
36 36 36
15 15 15
62 62 62
83 83 83
72 72 72
126 126 126
87 87 87
45 45 45
85 85 85
57 57 57
71 71 71
32 32 32
8 8 8
40 40 40
48 48 48
66 66 66
92 92 92
58 58 58
48 48 48
39 39 39
76 76 76
36 36 36
10 10 10
32 32 32
34 34 34
31 31 31
43 43 43
39 39 39
58 58 58
9 9 9
30 30 30
45 45 45
75 75 75
97 97 97
95 95 95
63 63 63
104 104 104
126 126 126
105 105 105
93 93 93
24 24 24
22 22 22
14 14 14
5 5 5
24 24 24
26 26 26
25 25 25
18 18 18
39 39 39
25 25 25
46 46 46
76 76 76
113 113 113
76 76 76
95 95 95
129 129 129
92 92 92
124 124 124
121 121 121
143 143 143
94 94 94
75 75 75
155 155 155
108 108 108
150 150 150
134 134 134
133 133 133
129 129 129
153 153 153
161 161 161
129 129 129
135 135 135
131 131 131
127 127 127
128 128 128
96 96 96
63 63 63
83 83 83
94 94 94
65 65 65
83 83 83
10 10 10
80 80 80
44 44 44
27 27 27
38 38 38
48 48 48
56 56 56
63 63 63
57 57 57
82 82 82
70 70 70
92 92 92
107 107 107
80 80 80
111 111 111
105 105 105
106 106 106
90 90 90
114 114 114
124 124 124
85 85 85
157 157 157
160 160 160
71 71 71
201 201 201
122 122 122
129 129 129
152 152 152
116 116 116
76 76 76
108 108 108
138 138 138
125 125 125
99 99 99
135 135 135
99 99 99
93 93 93
136 136 136
108 108 108
59 59 59
64 64 64
74 74 74
79 79 79
54 54 54
36 36 36
28 28 28
39 39 39
41 41 41
33 33 33
50 50 50
67 67 67
75 75 75
57 57 57
63 63 63
28 28 28
78 78 78
77 77 77
85 85 85
108 108 108
99 99 99
104 104 104
126 126 126
81 81 81
129 129 129
92 92 92
77 77 77
72 72 72
77 77 77
109 109 109
129 129 129
0 0 0
85 85 85
71 71 71
73 73 73
98 98 98
98 98 98
68 68 68
30 30 30
32 32 32
36 36 36
53 53 53
26 26 26
38 38 38
21 21 21
20 20 20
42 42 42
26 26 26
38 38 38
49 49 49
49 49 49
0 0 0
29 29 29
94 94 94
51 51 51
93 93 93
75 75 75
66 66 66
70 70 70
49 49 49
128 128 128
51 51 51
113 113 113
69 69 69
124 124 124
51 51 51
0 0 0
82 82 82
74 74 74
48 48 48
112 112 112
102 102 102
88 88 88
51 51 51
83 83 83
107 107 107
0 0 0
45 45 45
44 44 44
3 3 3
1 1 1
26 26 26
21 21 21
24 24 24
33 33 33
49 49 49
47 47 47
51 51 51
77 77 77
0 0 0
56 56 56
64 64 64
94 94 94
42 42 42
70 70 70
69 69 69
84 84 84
84 84 84
98 98 98
111 111 111
58 58 58
106 106 106
122 122 122
86 86 86
111 111 111
65 65 65
95 95 95
69 69 69
86 86 86
100 100 100
71 71 71
121 121 121
101 101 101
83 83 83
67 67 67
116 116 116
80 80 80
99 99 99
70 70 70
72 72 72
106 106 106
80 80 80
60 60 60
40 40 40
45 45 45
33 33 33
38 38 38
28 28 28
23 23 23
54 54 54
13 13 13
36 36 36
96 96 96
79 79 79
77 77 77
48 48 48
109 109 109
85 85 85
112 112 112
101 101 101
151 151 151
114 114 114
88 88 88
101 101 101
117 117 117
72 72 72
70 70 70
79 79 79
129 129 129
113 113 113
101 101 101
117 117 117
106 106 106
110 110 110
81 81 81
106 106 106
70 70 70
63 63 63
99 99 99
100 100 100
35 35 35
48 48 48
53 53 53
29 29 29
8 8 8
20 20 20
61 61 61
91 91 91
52 52 52
75 75 75
49 49 49
48 48 48
58 58 58
55 55 55
99 99 99
75 75 75
111 111 111
86 86 86
104 104 104
107 107 107
101 101 101
112 112 112
99 99 99
122 122 122
98 98 98
107 107 107
103 103 103
81 81 81
109 109 109
129 129 129
94 94 94
86 86 86
79 79 79
60 60 60
40 40 40
19 19 19
31 31 31
26 26 26
26 26 26
8 8 8
17 17 17
13 13 13
20 20 20
59 59 59
42 42 42
19 19 19
59 59 59
45 45 45
66 66 66
46 46 46
43 43 43
43 43 43
47 47 47
31 31 31
36 36 36
26 26 26
29 29 29
30 30 30
36 36 36
0 0 0
8 8 8
28 28 28
46 46 46
43 43 43
45 45 45
82 82 82
0 0 0
70 70 70
83 83 83
97 97 97
51 51 51
38 38 38
67 67 67
70 70 70
83 83 83
38 38 38
78 78 78
73 73 73
75 75 75
50 50 50
8 8 8
84 84 84
86 86 86
119 119 119
51 51 51
90 90 90
103 103 103
85 85 85
82 82 82
62 62 62
50 50 50
57 57 57
45 45 45
33 33 33
32 32 32
37 37 37
43 43 43
41 41 41
57 57 57
99 99 99
76 76 76
94 94 94
52 52 52
109 109 109
113 113 113
113 113 113
99 99 99
129 129 129
88 88 88
69 69 69
115 115 115
98 98 98
95 95 95
103 103 103
77 77 77
71 71 71
75 75 75
73 73 73
50 50 50
84 84 84
90 90 90
93 93 93
131 131 131
86 86 86
122 122 122
99 99 99
136 136 136
115 115 115
150 150 150
110 110 110
60 60 60
55 55 55
37 37 37
22 22 22
60 60 60
89 89 89
74 74 74
93 93 93
64 64 64
104 104 104
88 88 88
75 75 75
53 53 53
2 2 2
39 39 39
16 16 16
39 39 39
38 38 38
59 59 59
53 53 53
99 99 99
118 118 118
111 111 111
127 127 127
106 106 106
86 86 86
117 117 117
82 82 82
118 118 118
55 55 55
53 53 53
51 51 51
35 35 35
70 70 70
90 90 90
67 67 67
55 55 55
60 60 60
72 72 72
50 50 50
18 18 18
52 52 52
41 41 41
44 44 44
21 21 21
73 73 73
41 41 41
67 67 67
99 99 99
95 95 95
84 84 84
120 120 120
116 116 116
102 102 102
117 117 117
74 74 74
113 113 113
109 109 109
161 161 161
155 155 155
136 136 136
173 173 173
134 134 134
145 145 145
120 120 120
151 151 151
110 110 110
118 118 118
109 109 109
117 117 117
128 128 128
56 56 56
77 77 77
96 96 96
86 86 86
102 102 102
131 131 131
105 105 105
110 110 110
87 87 87
69 69 69
41 41 41
35 35 35
49 49 49
91 91 91
77 77 77
96 96 96
78 78 78
78 78 78
67 67 67
103 103 103
89 89 89
94 94 94
76 76 76
122 122 122
136 136 136
160 160 160
126 126 126
69 69 69
148 148 148
181 181 181
163 163 163
108 108 108
110 110 110
115 115 115
125 125 125
79 79 79
112 112 112
104 104 104
133 133 133
92 92 92
109 109 109
94 94 94
75 75 75
100 100 100
70 70 70
57 57 57
45 45 45
27 27 27
23 23 23
41 41 41
43 43 43
45 45 45
57 57 57
47 47 47
56 56 56
35 35 35
43 43 43
52 52 52
35 35 35
40 40 40
54 54 54
38 38 38
54 54 54
81 81 81
42 42 42
103 103 103
71 71 71
79 79 79
126 126 126
135 135 135
121 121 121
101 101 101
76 76 76
105 105 105
101 101 101
92 92 92
99 99 99
124 124 124
141 141 141
106 106 106
101 101 101
4 4 4
21 21 21
6 6 6
4 4 4
22 22 22
33 33 33
51 51 51
43 43 43
36 36 36
29 29 29
0 0 0
34 34 34
35 35 35
59 59 59
60 60 60
36 36 36
42 42 42
18 18 18
5 5 5
96 96 96
45 45 45
67 67 67
93 93 93
95 95 95
68 68 68
64 64 64
77 77 77
80 80 80
29 29 29
64 64 64
93 93 93
18 18 18
24 24 24
43 43 43
40 40 40
27 27 27
17 17 17
15 15 15
20 20 20
14 14 14
32 32 32
36 36 36
50 50 50
4 4 4
19 19 19
18 18 18
26 26 26
40 40 40
87 87 87
46 46 46
44 44 44
66 66 66
4 4 4
18 18 18
6 6 6
66 66 66
89 89 89
73 73 73
99 99 99
106 106 106
144 144 144
46 46 46
109 109 109
95 95 95
0 0 0
94 94 94
101 101 101
114 114 114
139 139 139
79 79 79
85 85 85
47 47 47
99 99 99
61 61 61
93 93 93
101 101 101
67 67 67
40 40 40
82 82 82
31 31 31
34 34 34
39 39 39
32 32 32
19 19 19
13 13 13
43 43 43
43 43 43
84 84 84
71 71 71
74 74 74
96 96 96
77 77 77
118 118 118
103 103 103
119 119 119
91 91 91
154 154 154
72 72 72
113 113 113
113 113 113
123 123 123
130 130 130
97 97 97
69 69 69
104 104 104
70 70 70
141 141 141
118 118 118
130 130 130
83 83 83
110 110 110
45 45 45
44 44 44
78 78 78
76 76 76
70 70 70
57 57 57
58 58 58
68 68 68
86 86 86
31 31 31
70 70 70
11 11 11
26 26 26
38 38 38
70 70 70
47 47 47
64 64 64
30 30 30
68 68 68
41 41 41
24 24 24
50 50 50
34 34 34
20 20 20
63 63 63
83 83 83
84 84 84
79 79 79
85 85 85
110 110 110
124 124 124
85 85 85
48 48 48
153 153 153
121 121 121
137 137 137
112 112 112
119 119 119
111 111 111
97 97 97
131 131 131
107 107 107
55 55 55
35 35 35
69 69 69
69 69 69
57 57 57
108 108 108
121 121 121
72 72 72
101 101 101
87 87 87
0 0 0
89 89 89
154 154 154
91 91 91
109 109 109
110 110 110
135 135 135
67 67 67
116 116 116
97 97 97
60 60 60
50 50 50
90 90 90
59 59 59
27 27 27
24 24 24
64 64 64
106 106 106
145 145 145
69 69 69
101 101 101
74 74 74
51 51 51
82 82 82
111 111 111
105 105 105
113 113 113
100 100 100
109 109 109
84 84 84
60 60 60
51 51 51
39 39 39
39 39 39
84 84 84
69 69 69
63 63 63
50 50 50
85 85 85
47 47 47
19 19 19
45 45 45
40 40 40
38 38 38
47 47 47
31 31 31
59 59 59
21 21 21
40 40 40
52 52 52
64 64 64
64 64 64
96 96 96
100 100 100
140 140 140
112 112 112
83 83 83
75 75 75
120 120 120
94 94 94
156 156 156
126 126 126
61 61 61
124 124 124
112 112 112
129 129 129
109 109 109
108 108 108
141 141 141
85 85 85
139 139 139
127 127 127
123 123 123
140 140 140
115 115 115
149 149 149
151 151 151
81 81 81
84 84 84
91 91 91
150 150 150
119 119 119
147 147 147
142 142 142
125 125 125
78 78 78
85 85 85
34 34 34
43 43 43
63 63 63
79 79 79
110 110 110
95 95 95
114 114 114
104 104 104
88 88 88
110 110 110
116 116 116
84 84 84
87 87 87
145 145 145
103 103 103
138 138 138
123 123 123
137 137 137
150 150 150
159 159 159
131 131 131
115 115 115
126 126 126
108 108 108
153 153 153
157 157 157
144 144 144
113 113 113
122 122 122
96 96 96
85 85 85
74 74 74
25 25 25
78 78 78
54 54 54
42 42 42
8 8 8
13 13 13
25 25 25
32 32 32
26 26 26
54 54 54
47 47 47
63 63 63
44 44 44
20 20 20
18 18 18
60 60 60
46 46 46
74 74 74
113 113 113
155 155 155
131 131 131
121 121 121
129 129 129
88 88 88
64 64 64
91 91 91
77 77 77
123 123 123
155 155 155
140 140 140
135 135 135
145 145 145
168 168 168
167 167 167
154 154 154
155 155 155
172 172 172
118 118 118
101 101 101
106 106 106
95 95 95
88 88 88
72 72 72
101 101 101
78 78 78
48 48 48
41 41 41
23 23 23
43 43 43
49 49 49
68 68 68
61 61 61
52 52 52
71 71 71
78 78 78
72 72 72
59 59 59
72 72 72
76 76 76
87 87 87
57 57 57
42 42 42
54 54 54
97 97 97
78 78 78
113 113 113
116 116 116
148 148 148
95 95 95
126 126 126
160 160 160
98 98 98
115 115 115
154 154 154
91 91 91
154 154 154
121 121 121
108 108 108
117 117 117
136 136 136
125 125 125
66 66 66
83 83 83
70 70 70
109 109 109
80 80 80
48 48 48
15 15 15
8 8 8
16 16 16
38 38 38
82 82 82
50 50 50
50 50 50
75 75 75
85 85 85
70 70 70
43 43 43
52 52 52
83 83 83
81 81 81
90 90 90
101 101 101
88 88 88
111 111 111
146 146 146
132 132 132
148 148 148
134 134 134
87 87 87
102 102 102
109 109 109
135 135 135
103 103 103
86 86 86
82 82 82
106 106 106
72 72 72
118 118 118
122 122 122
50 50 50
59 59 59
103 103 103
75 75 75
89 89 89
71 71 71
84 84 84
51 51 51
81 81 81
85 85 85
28 28 28
0 0 0
15 15 15
46 46 46
40 40 40
69 69 69
48 48 48
96 96 96
109 109 109
110 110 110
70 70 70
103 103 103
84 84 84
46 46 46
67 67 67
39 39 39
28 28 28
61 61 61
27 27 27
36 36 36
21 21 21
38 38 38
22 22 22
13 13 13
0 0 0
31 31 31
17 17 17
23 23 23
23 23 23
64 64 64
49 49 49
17 17 17
37 37 37
19 19 19
58 58 58
20 20 20
55 55 55
65 65 65
9 9 9
68 68 68
47 47 47
107 107 107
79 79 79
98 98 98
46 46 46
112 112 112
101 101 101
99 99 99
123 123 123
51 51 51
82 82 82
60 60 60
102 102 102
46 46 46
0 0 0
85 85 85
96 96 96
86 86 86
76 76 76
72 72 72
45 45 45
29 29 29
18 18 18
60 60 60
56 56 56
83 83 83
59 59 59
95 95 95
41 41 41
93 93 93
42 42 42
79 79 79
62 62 62
48 48 48
28 28 28
47 47 47
36 36 36
8 8 8
49 49 49
20 20 20
27 27 27
42 42 42
40 40 40
45 45 45
69 69 69
78 78 78
130 130 130
79 79 79
65 65 65
101 101 101
98 98 98
97 97 97
65 65 65
100 100 100
102 102 102
70 70 70
96 96 96
84 84 84
50 50 50
84 84 84
111 111 111
81 81 81
115 115 115
120 120 120
130 130 130
81 81 81
93 93 93
133 133 133
78 78 78
100 100 100
89 89 89
127 127 127
122 122 122
94 94 94
104 104 104
124 124 124
82 82 82
107 107 107
98 98 98
120 120 120
53 53 53
102 102 102
69 69 69
54 54 54
74 74 74
53 53 53
44 44 44
36 36 36
37 37 37
40 40 40
90 90 90
96 96 96
71 71 71
85 85 85
82 82 82
128 128 128
109 109 109
155 155 155
94 94 94
133 133 133
93 93 93
103 103 103
98 98 98
62 62 62
73 73 73
88 88 88
51 51 51
80 80 80
47 47 47
76 76 76
26 26 26
83 83 83
123 123 123
74 74 74
119 119 119
92 92 92
95 95 95
53 53 53
87 87 87
59 59 59
69 69 69
43 43 43
62 62 62
83 83 83
0 0 0
83 83 83
115 115 115
111 111 111
128 128 128
117 117 117
123 123 123
145 145 145
86 86 86
99 99 99
88 88 88
137 137 137
149 149 149
74 74 74
70 70 70
79 79 79
72 72 72
105 105 105
91 91 91
37 37 37
60 60 60
91 91 91
90 90 90
129 129 129
97 97 97
120 120 120
85 85 85
104 104 104
77 77 77
110 110 110
119 119 119
144 144 144
121 121 121
92 92 92
57 57 57
28 28 28
32 32 32
32 32 32
88 88 88
83 83 83
91 91 91
81 81 81
89 89 89
116 116 116
165 165 165
82 82 82
121 121 121
148 148 148
124 124 124
128 128 128
158 158 158
136 136 136
101 101 101
64 64 64
112 112 112
111 111 111
116 116 116
113 113 113
101 101 101
87 87 87
51 51 51
76 76 76
92 92 92
141 141 141
128 128 128
156 156 156
141 141 141
134 134 134
122 122 122
60 60 60
61 61 61
19 19 19
39 39 39
41 41 41
53 53 53
64 64 64
63 63 63
72 72 72
63 63 63
61 61 61
62 62 62
63 63 63
65 65 65
113 113 113
116 116 116
110 110 110
134 134 134
157 157 157
134 134 134
121 121 121
105 105 105
129 129 129
133 133 133
93 93 93
124 124 124
103 103 103
41 41 41
56 56 56
96 96 96
100 100 100
100 100 100
86 86 86
63 63 63
129 129 129
132 132 132
81 81 81
114 114 114
105 105 105
65 65 65
47 47 47
23 23 23
17 17 17
45 45 45
9 9 9
27 27 27
14 14 14
18 18 18
13 13 13
21 21 21
38 38 38
59 59 59
114 114 114
156 156 156
141 141 141
130 130 130
164 164 164
132 132 132
148 148 148
172 172 172
132 132 132
146 146 146
88 88 88
38 38 38
102 102 102
159 159 159
175 175 175
173 173 173
169 169 169
177 177 177
183 183 183
136 136 136
174 174 174
186 186 186
107 107 107
123 123 123
135 135 135
79 79 79
109 109 109
104 104 104
124 124 124
91 91 91
52 52 52
48 48 48
24 24 24
35 35 35
22 22 22
27 27 27
38 38 38
56 56 56
64 64 64
88 88 88
81 81 81
130 130 130
124 124 124
97 97 97
133 133 133
71 71 71
71 71 71
18 18 18
40 40 40
58 58 58
61 61 61
118 118 118
114 114 114
112 112 112
141 141 141
187 187 187
87 87 87
122 122 122
176 176 176
132 132 132
115 115 115
135 135 135
83 83 83
113 113 113
141 141 141
78 78 78
100 100 100
98 98 98
118 118 118
78 78 78
50 50 50
53 53 53
37 37 37
38 38 38
39 39 39
22 22 22
23 23 23
39 39 39
27 27 27
19 19 19
39 39 39
41 41 41
50 50 50
41 41 41
57 57 57
38 38 38
84 84 84
34 34 34
98 98 98
31 31 31
59 59 59
48 48 48
71 71 71
83 83 83
80 80 80
113 113 113
142 142 142
143 143 143
72 72 72
100 100 100
143 143 143
94 94 94
67 67 67
133 133 133
99 99 99
94 94 94
97 97 97
100 100 100
50 50 50
90 90 90
50 50 50
90 90 90
67 67 67
70 70 70
86 86 86
100 100 100
119 119 119
82 82 82
32 32 32
13 13 13
47 47 47
60 60 60
68 68 68
81 81 81
47 47 47
59 59 59
49 49 49
38 38 38
47 47 47
70 70 70
43 43 43
58 58 58
76 76 76
79 79 79
51 51 51
81 81 81
108 108 108
78 78 78
75 75 75
58 58 58
77 77 77
51 51 51
34 34 34
39 39 39
21 21 21
54 54 54
0 0 0
39 39 39
62 62 62
53 53 53
93 93 93
78 78 78
109 109 109
108 108 108
56 56 56
54 54 54
74 74 74
67 67 67
101 101 101
72 72 72
90 90 90
109 109 109
68 68 68
68 68 68
85 85 85
69 69 69
66 66 66
86 86 86
86 86 86
93 93 93
68 68 68
27 27 27
99 99 99
72 72 72
65 65 65
73 73 73
21 21 21
30 30 30
38 38 38
4 4 4
76 76 76
39 39 39
9 9 9
31 31 31
21 21 21
24 24 24
43 43 43
30 30 30
39 39 39
40 40 40
28 28 28
43 43 43
76 76 76
46 46 46
60 60 60
104 104 104
126 126 126
46 46 46
94 94 94
70 70 70
110 110 110
65 65 65
110 110 110
100 100 100
122 122 122
69 69 69
139 139 139
69 69 69
116 116 116
105 105 105
73 73 73
86 86 86
82 82 82
67 67 67
80 80 80
66 66 66
28 28 28
62 62 62
37 37 37
81 81 81
69 69 69
39 39 39
31 31 31
7 7 7
22 22 22
18 18 18
27 27 27
36 36 36
52 52 52
68 68 68
55 55 55
40 40 40
44 44 44
61 61 61
79 79 79
84 84 84
96 96 96
30 30 30
63 63 63
78 78 78
86 86 86
79 79 79
99 99 99
113 113 113
77 77 77
136 136 136
148 148 148
101 101 101
93 93 93
121 121 121
121 121 121
104 104 104
96 96 96
125 125 125
121 121 121
97 97 97
130 130 130
73 73 73
126 126 126
106 106 106
88 88 88
51 51 51
120 120 120
80 80 80
88 88 88
45 45 45
29 29 29
14 14 14
19 19 19
25 25 25
14 14 14
4 4 4
44 44 44
58 58 58
89 89 89
67 67 67
73 73 73
68 68 68
79 79 79
114 114 114
111 111 111
65 65 65
117 117 117
75 75 75
86 86 86
72 72 72
118 118 118
112 112 112
104 104 104
71 71 71
111 111 111
109 109 109
139 139 139
102 102 102
86 86 86
112 112 112
113 113 113
133 133 133
113 113 113
101 101 101
96 96 96
111 111 111
119 119 119
105 105 105
112 112 112
81 81 81
126 126 126
110 110 110
168 168 168
127 127 127
117 117 117
82 82 82
90 90 90
17 17 17
26 26 26
67 67 67
63 63 63
102 102 102
80 80 80
111 111 111
80 80 80
97 97 97
120 120 120
105 105 105
126 126 126
122 122 122
102 102 102
129 129 129
132 132 132
118 118 118
110 110 110
140 140 140
165 165 165
103 103 103
115 115 115
131 131 131
92 92 92
137 137 137
150 150 150
102 102 102
125 125 125
114 114 114
133 133 133
133 133 133
140 140 140
122 122 122
119 119 119
88 88 88
80 80 80
72 72 72
90 90 90
50 50 50
48 48 48
37 37 37
38 38 38
38 38 38
59 59 59
86 86 86
88 88 88
97 97 97
84 84 84
72 72 72
103 103 103
107 107 107
116 116 116
149 149 149
126 126 126
137 137 137
133 133 133
156 156 156
64 64 64
30 30 30
16 16 16
15 15 15
21 21 21
52 52 52
58 58 58
61 61 61
55 55 55
56 56 56
49 49 49
41 41 41
42 42 42
55 55 55
110 110 110
111 111 111
108 108 108
139 139 139
120 120 120
123 123 123
90 90 90
100 100 100
70 70 70
66 66 66
34 34 34
4 4 4
53 53 53
60 60 60
75 75 75
73 73 73
102 102 102
111 111 111
95 95 95
99 99 99
101 101 101
108 108 108
89 89 89
69 69 69
32 32 32
62 62 62
65 65 65
124 124 124
142 142 142
188 188 188
142 142 142
225 225 225
215 215 215
206 206 206
199 199 199
164 164 164
123 123 123
192 192 192
154 154 154
174 174 174
181 181 181
151 151 151
196 196 196
167 167 167
147 147 147
133 133 133
110 110 110
99 99 99
90 90 90
126 126 126
104 104 104
88 88 88
56 56 56
19 19 19
31 31 31
47 47 47
64 64 64
80 80 80
81 81 81
83 83 83
108 108 108
99 99 99
107 107 107
126 126 126
76 76 76
40 40 40
42 42 42
50 50 50
89 89 89
120 120 120
141 141 141
157 157 157
145 145 145
124 124 124
133 133 133
171 171 171
149 149 149
172 172 172
113 113 113
124 124 124
110 110 110
140 140 140
151 151 151
147 147 147
91 91 91
110 110 110
111 111 111
118 118 118
95 95 95
80 80 80
67 67 67
58 58 58
37 37 37
80 80 80
77 77 77
104 104 104
49 49 49
65 65 65
71 71 71
30 30 30
43 43 43
70 70 70
75 75 75
57 57 57
56 56 56
23 23 23
12 12 12
45 45 45
24 24 24
46 46 46
63 63 63
100 100 100
87 87 87
141 141 141
115 115 115
121 121 121
128 128 128
106 106 106
123 123 123
112 112 112
48 48 48
61 61 61
84 84 84
61 61 61
119 119 119
76 76 76
88 88 88
107 107 107
59 59 59
50 50 50
86 86 86
132 132 132
99 99 99
140 140 140
77 77 77
78 78 78
40 40 40
0 0 0
42 42 42
64 64 64
80 80 80
72 72 72
80 80 80
76 76 76
49 49 49
51 51 51
69 69 69
47 47 47
84 84 84
81 81 81
110 110 110
75 75 75
39 39 39
65 65 65
0 0 0
70 70 70
123 123 123
64 64 64
60 60 60
72 72 72
44 44 44
43 43 43
55 55 55
48 48 48
54 54 54
60 60 60
75 75 75
51 51 51
54 54 54
28 28 28
33 33 33
6 6 6
13 13 13
31 31 31
72 72 72
81 81 81
78 78 78
69 69 69
45 45 45
82 82 82
116 116 116
124 124 124
124 124 124
95 95 95
117 117 117
71 71 71
107 107 107
49 49 49
105 105 105
80 80 80
77 77 77
93 93 93
50 50 50
50 50 50
47 47 47
73 73 73
56 56 56
1 1 1
36 36 36
69 69 69
50 50 50
92 92 92
45 45 45
78 78 78
39 39 39
37 37 37
17 17 17
0 0 0
83 83 83
87 87 87
113 113 113
91 91 91
115 115 115
65 65 65
127 127 127
122 122 122
113 113 113
123 123 123
124 124 124
50 50 50
112 112 112
122 122 122
142 142 142
95 95 95
81 81 81
112 112 112
131 131 131
85 85 85
96 96 96
75 75 75
44 44 44
61 61 61
82 82 82
85 85 85
115 115 115
116 116 116
132 132 132
85 85 85
78 78 78
80 80 80
75 75 75
61 61 61
54 54 54
33 33 33
25 25 25
25 25 25
51 51 51
44 44 44
43 43 43
51 51 51
82 82 82
52 52 52
46 46 46
82 82 82
95 95 95
48 48 48
66 66 66
86 86 86
94 94 94
83 83 83
112 112 112
113 113 113
113 113 113
124 124 124
131 131 131
140 140 140
117 117 117
132 132 132
106 106 106
129 129 129
68 68 68
130 130 130
117 117 117
80 80 80
131 131 131
108 108 108
117 117 117
64 64 64
122 122 122
81 81 81
18 18 18
52 52 52
42 42 42
16 16 16
31 31 31
34 34 34
27 27 27
38 38 38
21 21 21
22 22 22
51 51 51
73 73 73
97 97 97
49 49 49
65 65 65
103 103 103
114 114 114
144 144 144
100 100 100
135 135 135
125 125 125
101 101 101
115 115 115
113 113 113
132 132 132
169 169 169
120 120 120
127 127 127
100 100 100
65 65 65
94 94 94
93 93 93
103 103 103
78 78 78
75 75 75
45 45 45
97 97 97
84 84 84
104 104 104
115 115 115
105 105 105
82 82 82
120 120 120
106 106 106
119 119 119
110 110 110
89 89 89
94 94 94
43 43 43
40 40 40
24 24 24
42 42 42
41 41 41
36 36 36
37 37 37
48 48 48
54 54 54
116 116 116
146 146 146
90 90 90
86 86 86
118 118 118
102 102 102
146 146 146
136 136 136
132 132 132
140 140 140
181 181 181
140 140 140
121 121 121
145 145 145
119 119 119
100 100 100
106 106 106
130 130 130
152 152 152
113 113 113
103 103 103
116 116 116
112 112 112
106 106 106
135 135 135
102 102 102
126 126 126
148 148 148
157 157 157
145 145 145
92 92 92
114 114 114
81 81 81
62 62 62
43 43 43
24 24 24
21 21 21
55 55 55
44 44 44
83 83 83
48 48 48
69 69 69
65 65 65
120 120 120
144 144 144
131 131 131
115 115 115
94 94 94
86 86 86
31 31 31
33 33 33
45 45 45
60 60 60
64 64 64
42 42 42
17 17 17
40 40 40
64 64 64
70 70 70
66 66 66
86 86 86
91 91 91
161 161 161
70 70 70
94 94 94
150 150 150
168 168 168
121 121 121
170 170 170
182 182 182
103 103 103
112 112 112
53 53 53
25 25 25
56 56 56
32 32 32
17 17 17
20 20 20
25 25 25
34 34 34
45 45 45
44 44 44
27 27 27
52 52 52
65 65 65
62 62 62
41 41 41
63 63 63
88 88 88
78 78 78
120 120 120
152 152 152
174 174 174
161 161 161
128 128 128
128 128 128
224 224 224
189 189 189
198 198 198
202 202 202
197 197 197
214 214 214
165 165 165
131 131 131
151 151 151
175 175 175
164 164 164
186 186 186
194 194 194
134 134 134
203 203 203
134 134 134
204 204 204
147 147 147
179 179 179
114 114 114
55 55 55
75 75 75
82 82 82
67 67 67
34 34 34
34 34 34
33 33 33
12 12 12
44 44 44
72 72 72
98 98 98
104 104 104
71 71 71
115 115 115
92 92 92
94 94 94
147 147 147
115 115 115
148 148 148
111 111 111
151 151 151
132 132 132
121 121 121
121 121 121
154 154 154
129 129 129
157 157 157
123 123 123
136 136 136
143 143 143
187 187 187
110 110 110
143 143 143
101 101 101
151 151 151
123 123 123
131 131 131
118 118 118
95 95 95
79 79 79
75 75 75
77 77 77
77 77 77
24 24 24
36 36 36
31 31 31
34 34 34
5 5 5
20 20 20
46 46 46
43 43 43
33 33 33
19 19 19
10 10 10
22 22 22
37 37 37
81 81 81
79 79 79
98 98 98
83 83 83
91 91 91
106 106 106
83 83 83
96 96 96
117 117 117
109 109 109
152 152 152
100 100 100
111 111 111
63 63 63
109 109 109
111 111 111
127 127 127
129 129 129
97 97 97
118 118 118
60 60 60
50 50 50
114 114 114
64 64 64
106 106 106
65 65 65
66 66 66
46 46 46
28 28 28
0 0 0
0 0 0
77 77 77
0 0 0
50 50 50
72 72 72
80 80 80
55 55 55
58 58 58
52 52 52
51 51 51
15 15 15
50 50 50
108 108 108
99 99 99
35 35 35
45 45 45
72 72 72
61 61 61
73 73 73
98 98 98
44 44 44
30 30 30
44 44 44
51 51 51
25 25 25
6 6 6
13 13 13
73 73 73
80 80 80
59 59 59
36 36 36
77 77 77
85 85 85
91 91 91
104 104 104
96 96 96
113 113 113
112 112 112
112 112 112
98 98 98
86 86 86
98 98 98
85 85 85
127 127 127
67 67 67
117 117 117
75 75 75
52 52 52
53 53 53
29 29 29
40 40 40
43 43 43
41 41 41
33 33 33
25 25 25
41 41 41
51 51 51
80 80 80
57 57 57
53 53 53
91 91 91
104 104 104
100 100 100
61 61 61
88 88 88
56 56 56
36 36 36
21 21 21
49 49 49
58 58 58
48 48 48
63 63 63
109 109 109
119 119 119
113 113 113
146 146 146
104 104 104
114 114 114
98 98 98
103 103 103
86 86 86
68 68 68
87 87 87
62 62 62
97 97 97
86 86 86
86 86 86
107 107 107
95 95 95
104 104 104
36 36 36
95 95 95
47 47 47
48 48 48
147 147 147
86 86 86
81 81 81
79 79 79
94 94 94
135 135 135
0 0 0
48 48 48
36 36 36
40 40 40
62 62 62
87 87 87
58 58 58
91 91 91
72 72 72
89 89 89
111 111 111
80 80 80
101 101 101
73 73 73
72 72 72
28 28 28
21 21 21
32 32 32
39 39 39
61 61 61
112 112 112
107 107 107
96 96 96
117 117 117
140 140 140
123 123 123
54 54 54
56 56 56
111 111 111
91 91 91
104 104 104
124 124 124
98 98 98
94 94 94
82 82 82
143 143 143
114 114 114
134 134 134
61 61 61
53 53 53
43 43 43
42 42 42
39 39 39
52 52 52
106 106 106
67 67 67
49 49 49
81 81 81
68 68 68
17 17 17
70 70 70
87 87 87
40 40 40
41 41 41
30 30 30
49 49 49
85 85 85
51 51 51
80 80 80
116 116 116
99 99 99
105 105 105
110 110 110
100 100 100
128 128 128
106 106 106
89 89 89
51 51 51
101 101 101
108 108 108
104 104 104
141 141 141
82 82 82
151 151 151
144 144 144
96 96 96
143 143 143
150 150 150
98 98 98
108 108 108
50 50 50
70 70 70
49 49 49
45 45 45
29 29 29
29 29 29
36 36 36
39 39 39
25 25 25
19 19 19
21 21 21
20 20 20
32 32 32
54 54 54
86 86 86
41 41 41
75 75 75
74 74 74
89 89 89
111 111 111
101 101 101
127 127 127
126 126 126
113 113 113
155 155 155
163 163 163
132 132 132
122 122 122
157 157 157
144 144 144
109 109 109
130 130 130
100 100 100
62 62 62
100 100 100
89 89 89
98 98 98
35 35 35
63 63 63
54 54 54
61 61 61
142 142 142
168 168 168
153 153 153
139 139 139
166 166 166
202 202 202
142 142 142
184 184 184
153 153 153
159 159 159
203 203 203
100 100 100
158 158 158
154 154 154
108 108 108
112 112 112
88 88 88
96 96 96
50 50 50
20 20 20
26 26 26
52 52 52
75 75 75
106 106 106
122 122 122
168 168 168
153 153 153
153 153 153
169 169 169
162 162 162
185 185 185
154 154 154
122 122 122
171 171 171
139 139 139
157 157 157
206 206 206
181 181 181
185 185 185
159 159 159
148 148 148
149 149 149
159 159 159
158 158 158
181 181 181
153 153 153
173 173 173
127 127 127
132 132 132
124 124 124
108 108 108
63 63 63
19 19 19
11 11 11
13 13 13
16 16 16
27 27 27
33 33 33
24 24 24
44 44 44
64 64 64
82 82 82
63 63 63
90 90 90
81 81 81
103 103 103
101 101 101
62 62 62
56 56 56
40 40 40
30 30 30
39 39 39
63 63 63
76 76 76
104 104 104
148 148 148
105 105 105
153 153 153
187 187 187
126 126 126
182 182 182
169 169 169
146 146 146
164 164 164
190 190 190
142 142 142
180 180 180
185 185 185
147 147 147
193 193 193
174 174 174
165 165 165
212 212 212
185 185 185
144 144 144
156 156 156
136 136 136
91 91 91
46 46 46
41 41 41
47 47 47
41 41 41
32 32 32
56 56 56
49 49 49
34 34 34
16 16 16
31 31 31
26 26 26
33 33 33
24 24 24
25 25 25
52 52 52
63 63 63
48 48 48
38 38 38
19 19 19
57 57 57
62 62 62
57 57 57
65 65 65
63 63 63
118 118 118
157 157 157
112 112 112
165 165 165
144 144 144
140 140 140
181 181 181
127 127 127
150 150 150
125 125 125
117 117 117
84 84 84
78 78 78
139 139 139
65 65 65
47 47 47
58 58 58
31 31 31
16 16 16
23 23 23
11 11 11
27 27 27
27 27 27
37 37 37
44 44 44
45 45 45
53 53 53
50 50 50
60 60 60
51 51 51
64 64 64
44 44 44
35 35 35
31 31 31
38 38 38
39 39 39
55 55 55
67 67 67
112 112 112
115 115 115
113 113 113
100 100 100
71 71 71
70 70 70
69 69 69
123 123 123
105 105 105
106 106 106
78 78 78
82 82 82
89 89 89
91 91 91
89 89 89
91 91 91
46 46 46
29 29 29
71 71 71
69 69 69
65 65 65
106 106 106
111 111 111
100 100 100
48 48 48
39 39 39
17 17 17
25 25 25
39 39 39
34 34 34
23 23 23
29 29 29
19 19 19
0 0 0
0 0 0
20 20 20
16 16 16
41 41 41
54 54 54
34 34 34
0 0 0
33 33 33
31 31 31
54 54 54
83 83 83
65 65 65
38 38 38
19 19 19
12 12 12
22 22 22
35 35 35
38 38 38
21 21 21
51 51 51
57 57 57
87 87 87
0 0 0
52 52 52
80 80 80
79 79 79
131 131 131
70 70 70
100 100 100
112 112 112
87 87 87
124 124 124
112 112 112
107 107 107
75 75 75
54 54 54
73 73 73
57 57 57
38 38 38
15 15 15
24 24 24
36 36 36
26 26 26
44 44 44
55 55 55
23 23 23
23 23 23
25 25 25
27 27 27
29 29 29
38 38 38
72 72 72
61 61 61
52 52 52
94 94 94
78 78 78
88 88 88
60 60 60
92 92 92
46 46 46
127 127 127
101 101 101
120 120 120
109 109 109
76 76 76
20 20 20
27 27 27
26 26 26
17 17 17
64 64 64
43 43 43
41 41 41
80 80 80
50 50 50
108 108 108
90 90 90
62 62 62
110 110 110
100 100 100
76 76 76
108 108 108
94 94 94
40 40 40
76 76 76
32 32 32
38 38 38
50 50 50
82 82 82
62 62 62
103 103 103
112 112 112
80 80 80
84 84 84
115 115 115
89 89 89
77 77 77
34 34 34
59 59 59
16 16 16
53 53 53
0 0 0
44 44 44
41 41 41
63 63 63
52 52 52
100 100 100
62 62 62
89 89 89
86 86 86
86 86 86
133 133 133
122 122 122
101 101 101
87 87 87
65 65 65
99 99 99
40 40 40
91 91 91
139 139 139
142 142 142
105 105 105
107 107 107
47 47 47
71 71 71
89 89 89
143 143 143
114 114 114
82 82 82
97 97 97
110 110 110
88 88 88
57 57 57
55 55 55
35 35 35
10 10 10
18 18 18
30 30 30
21 21 21
41 41 41
49 49 49
28 28 28
63 63 63
84 84 84
53 53 53
35 35 35
48 48 48
56 56 56
70 70 70
51 51 51
57 57 57
73 73 73
97 97 97
70 70 70
61 61 61
46 46 46
68 68 68
65 65 65
36 36 36
18 18 18
73 73 73
98 98 98
143 143 143
140 140 140
137 137 137
103 103 103
89 89 89
89 89 89
75 75 75
95 95 95
96 96 96
110 110 110
86 86 86
102 102 102
69 69 69
89 89 89
63 63 63
65 65 65
47 47 47
56 56 56
47 47 47
50 50 50
42 42 42
76 76 76
92 92 92
81 81 81
62 62 62
29 29 29
18 18 18
54 54 54
48 48 48
63 63 63
81 81 81
96 96 96
93 93 93
83 83 83
77 77 77
63 63 63
42 42 42
66 66 66
100 100 100
92 92 92
82 82 82
69 69 69
88 88 88
93 93 93
114 114 114
142 142 142
187 187 187
220 220 220
177 177 177
161 161 161
159 159 159
215 215 215
142 142 142
171 171 171
179 179 179
150 150 150
197 197 197
178 178 178
181 181 181
165 165 165
176 176 176
152 152 152
134 134 134
135 135 135
151 151 151
50 50 50
51 51 51
54 54 54
50 50 50
85 85 85
87 87 87
113 113 113
151 151 151
168 168 168
206 206 206
185 185 185
196 196 196
198 198 198
159 159 159
171 171 171
170 170 170
190 190 190
210 210 210
155 155 155
191 191 191
202 202 202
196 196 196
171 171 171
182 182 182
192 192 192
180 180 180
155 155 155
162 162 162
103 103 103
130 130 130
138 138 138
124 124 124
121 121 121
96 96 96
84 84 84
61 61 61
95 95 95
64 64 64
42 42 42
35 35 35
18 18 18
29 29 29
58 58 58
29 29 29
63 63 63
87 87 87
75 75 75
76 76 76
110 110 110
78 78 78
95 95 95
91 91 91
127 127 127
103 103 103
98 98 98
84 84 84
110 110 110
140 140 140
131 131 131
203 203 203
165 165 165
176 176 176
193 193 193
142 142 142
214 214 214
217 217 217
205 205 205
205 205 205
154 154 154
146 146 146
141 141 141
145 145 145
152 152 152
117 117 117
99 99 99
119 119 119
137 137 137
112 112 112
106 106 106
43 43 43
34 34 34
21 21 21
28 28 28
32 32 32
52 52 52
55 55 55
61 61 61
75 75 75
37 37 37
73 73 73
66 66 66
81 81 81
95 95 95
96 96 96
109 109 109
101 101 101
92 92 92
74 74 74
87 87 87
107 107 107
84 84 84
118 118 118
118 118 118
129 129 129
141 141 141
134 134 134
127 127 127
118 118 118
161 161 161
177 177 177
133 133 133
166 166 166
113 113 113
143 143 143
150 150 150
123 123 123
112 112 112
50 50 50
110 110 110
83 83 83
112 112 112
56 56 56
20 20 20
34 34 34
37 37 37
38 38 38
52 52 52
19 19 19
25 25 25
0 0 0
20 20 20
15 15 15
40 40 40
31 31 31
28 28 28
51 51 51
33 33 33
51 51 51
45 45 45
62 62 62
107 107 107
115 115 115
95 95 95
108 108 108
81 81 81
96 96 96
83 83 83
86 86 86
88 88 88
72 72 72
47 47 47
69 69 69
116 116 116
91 91 91
80 80 80
116 116 116
57 57 57
82 82 82
107 107 107
50 50 50
0 0 0
70 70 70
51 51 51
89 89 89
62 62 62
78 78 78
0 0 0
94 94 94
76 76 76
69 69 69
123 123 123
0 0 0
31 31 31
41 41 41
45 45 45
27 27 27
20 20 20
36 36 36
41 41 41
44 44 44
24 24 24
0 0 0
52 52 52
0 0 0
66 66 66
72 72 72
55 55 55
82 82 82
73 73 73
55 55 55
23 23 23
60 60 60
75 75 75
96 96 96
64 64 64
69 69 69
37 37 37
49 49 49
87 87 87
101 101 101
86 86 86
122 122 122
85 85 85
94 94 94
130 130 130
62 62 62
111 111 111
66 66 66
73 73 73
46 46 46
32 32 32
47 47 47
20 20 20
14 14 14
33 33 33
31 31 31
17 17 17
22 22 22
20 20 20
25 25 25
27 27 27
23 23 23
49 49 49
52 52 52
56 56 56
63 63 63
54 54 54
64 64 64
80 80 80
53 53 53
48 48 48
86 86 86
73 73 73
121 121 121
96 96 96
97 97 97
82 82 82
136 136 136
65 65 65
92 92 92
111 111 111
126 126 126
129 129 129
120 120 120
83 83 83
121 121 121
98 98 98
77 77 77
97 97 97
96 96 96
79 79 79
62 62 62
91 91 91
69 69 69
52 52 52
39 39 39
66 66 66
66 66 66
44 44 44
43 43 43
8 8 8
9 9 9
17 17 17
21 21 21
18 18 18
16 16 16
42 42 42
56 56 56
59 59 59
54 54 54
54 54 54
61 61 61
86 86 86
79 79 79
89 89 89
69 69 69
80 80 80
88 88 88
114 114 114
86 86 86
135 135 135
101 101 101
95 95 95
128 128 128
86 86 86
116 116 116
124 124 124
139 139 139
85 85 85
119 119 119
113 113 113
75 75 75
131 131 131
100 100 100
114 114 114
44 44 44
82 82 82
66 66 66
92 92 92
104 104 104
49 49 49
53 53 53
34 34 34
40 40 40
38 38 38
47 47 47
51 51 51
56 56 56
57 57 57
51 51 51
66 66 66
78 78 78
95 95 95
95 95 95
70 70 70
83 83 83
126 126 126
109 109 109
83 83 83
38 38 38
62 62 62
85 85 85
68 68 68
88 88 88
70 70 70
75 75 75
92 92 92
79 79 79
130 130 130
67 67 67
105 105 105
45 45 45
43 43 43
60 60 60
29 29 29
54 54 54
82 82 82
118 118 118
140 140 140
111 111 111
128 128 128
129 129 129
110 110 110
64 64 64
41 41 41
47 47 47
74 74 74
65 65 65
32 32 32
30 30 30
5 5 5
12 12 12
22 22 22
21 21 21
27 27 27
37 37 37
38 38 38
68 68 68
63 63 63
66 66 66
64 64 64
58 58 58
71 71 71
42 42 42
100 100 100
144 144 144
138 138 138
113 113 113
138 138 138
127 127 127
127 127 127
136 136 136
143 143 143
153 153 153
147 147 147
161 161 161
165 165 165
179 179 179
191 191 191
130 130 130
183 183 183
162 162 162
156 156 156
118 118 118
144 144 144
147 147 147
105 105 105
105 105 105
106 106 106
132 132 132
109 109 109
131 131 131
117 117 117
124 124 124
95 95 95
71 71 71
85 85 85
79 79 79
69 69 69
71 71 71
63 63 63
65 65 65
36 36 36
19 19 19
63 63 63
89 89 89
114 114 114
131 131 131
155 155 155
125 125 125
128 128 128
176 176 176
175 175 175
173 173 173
222 222 222
189 189 189
183 183 183
206 206 206
214 214 214
214 214 214
174 174 174
199 199 199
171 171 171
205 205 205
165 165 165
184 184 184
131 131 131
160 160 160
151 151 151
135 135 135
107 107 107
133 133 133
109 109 109
99 99 99
101 101 101
89 89 89
117 117 117
76 76 76
53 53 53
89 89 89
92 92 92
74 74 74
36 36 36
44 44 44
28 28 28
26 26 26
16 16 16
62 62 62
59 59 59
95 95 95
52 52 52
60 60 60
95 95 95
103 103 103
78 78 78
91 91 91
85 85 85
166 166 166
169 169 169
139 139 139
197 197 197
177 177 177
120 120 120
181 181 181
165 165 165
161 161 161
158 158 158
129 129 129
164 164 164
169 169 169
166 166 166
171 171 171
131 131 131
163 163 163
177 177 177
125 125 125
102 102 102
107 107 107
90 90 90
69 69 69
96 96 96
71 71 71
112 112 112
130 130 130
102 102 102
140 140 140
104 104 104
106 106 106
35 35 35
33 33 33
77 77 77
72 72 72
88 88 88
43 43 43
42 42 42
63 63 63
60 60 60
23 23 23
77 77 77
99 99 99
100 100 100
61 61 61
64 64 64
72 72 72
49 49 49
85 85 85
98 98 98
72 72 72
128 128 128
158 158 158
131 131 131
146 146 146
108 108 108
141 141 141
119 119 119
102 102 102
122 122 122
115 115 115
0 0 0
71 71 71
141 141 141
84 84 84
91 91 91
64 64 64
53 53 53
55 55 55
64 64 64
69 69 69
50 50 50
29 29 29
23 23 23
15 15 15
27 27 27
54 54 54
24 24 24
33 33 33
36 36 36
79 79 79
79 79 79
16 16 16
71 71 71
62 62 62
38 38 38
37 37 37
25 25 25
35 35 35
42 42 42
17 17 17
69 69 69
31 31 31
72 72 72
81 81 81
96 96 96
75 75 75
120 120 120
106 106 106
96 96 96
108 108 108
43 43 43
36 36 36
66 66 66
46 46 46
35 35 35
21 21 21
67 67 67
58 58 58
81 81 81
0 0 0
38 38 38
85 85 85
70 70 70
51 51 51
0 0 0
30 30 30
18 18 18
28 28 28
3 3 3
9 9 9
18 18 18
34 34 34
23 23 23
47 47 47
55 55 55
67 67 67
0 0 0
64 64 64
76 76 76
77 77 77
67 67 67
56 56 56
84 84 84
67 67 67
0 0 0
136 136 136
71 71 71
111 111 111
98 98 98
67 67 67
71 71 71
72 72 72
101 101 101
61 61 61
102 102 102
93 93 93
81 81 81
63 63 63
78 78 78
54 54 54
74 74 74
57 57 57
39 39 39
31 31 31
32 32 32
28 28 28
59 59 59
36 36 36
38 38 38
22 22 22
23 23 23
28 28 28
8 8 8
17 17 17
13 13 13
24 24 24
57 57 57
56 56 56
40 40 40
25 25 25
35 35 35
38 38 38
36 36 36
60 60 60
53 53 53
77 77 77
88 88 88
94 94 94
96 96 96
131 131 131
123 123 123
98 98 98
87 87 87
101 101 101
71 71 71
111 111 111
111 111 111
105 105 105
84 84 84
82 82 82
106 106 106
88 88 88
122 122 122
122 122 122
105 105 105
88 88 88
96 96 96
111 111 111
78 78 78
78 78 78
60 60 60
4 4 4
64 64 64
56 56 56
68 68 68
45 45 45
62 62 62
14 14 14
72 72 72
24 24 24
22 22 22
30 30 30
50 50 50
45 45 45
55 55 55
71 71 71
46 46 46
88 88 88
95 95 95
116 116 116
79 79 79
78 78 78
120 120 120
106 106 106
109 109 109
86 86 86
124 124 124
72 72 72
101 101 101
114 114 114
125 125 125
117 117 117
139 139 139
156 156 156
105 105 105
121 121 121
102 102 102
101 101 101
99 99 99
72 72 72
83 83 83
87 87 87
129 129 129
121 121 121
92 92 92
114 114 114
67 67 67
110 110 110
77 77 77
102 102 102
72 72 72
52 52 52
102 102 102
120 120 120
72 72 72
95 95 95
52 52 52
76 76 76
46 46 46
74 74 74
79 79 79
90 90 90
44 44 44
142 142 142
75 75 75
117 117 117
101 101 101
112 112 112
117 117 117
128 128 128
91 91 91
64 64 64
129 129 129
88 88 88
96 96 96
98 98 98
87 87 87
135 135 135
123 123 123
112 112 112
164 164 164
145 145 145
97 97 97
132 132 132
107 107 107
65 65 65
83 83 83
85 85 85
75 75 75
72 72 72
42 42 42
66 66 66
44 44 44
37 37 37
14 14 14
42 42 42
64 64 64
63 63 63
29 29 29
27 27 27
63 63 63
74 74 74
47 47 47
46 46 46
40 40 40
30 30 30
17 17 17
18 18 18
40 40 40
42 42 42
38 38 38
18 18 18
37 37 37
54 54 54
86 86 86
123 123 123
122 122 122
115 115 115
129 129 129
141 141 141
145 145 145
186 186 186
146 146 146
201 201 201
160 160 160
205 205 205
158 158 158
161 161 161
145 145 145
134 134 134
121 121 121
115 115 115
100 100 100
85 85 85
80 80 80
33 33 33
37 37 37
49 49 49
55 55 55
100 100 100
74 74 74
45 45 45
37 37 37
33 33 33
19 19 19
17 17 17
54 54 54
67 67 67
79 79 79
91 91 91
90 90 90
116 116 116
158 158 158
141 141 141
130 130 130
158 158 158
160 160 160
170 170 170
168 168 168
159 159 159
183 183 183
190 190 190
148 148 148
204 204 204
166 166 166
148 148 148
191 191 191
196 196 196
175 175 175
181 181 181
150 150 150
154 154 154
163 163 163
86 86 86
102 102 102
118 118 118
87 87 87
118 118 118
63 63 63
52 52 52
30 30 30
38 38 38
40 40 40
27 27 27
19 19 19
6 6 6
23 23 23
34 34 34
23 23 23
31 31 31
27 27 27
43 43 43
53 53 53
60 60 60
59 59 59
58 58 58
80 80 80
73 73 73
72 72 72
73 73 73
100 100 100
93 93 93
135 135 135
142 142 142
147 147 147
107 107 107
140 140 140
119 119 119
174 174 174
98 98 98
171 171 171
174 174 174
138 138 138
172 172 172
162 162 162
157 157 157
147 147 147
199 199 199
165 165 165
145 145 145
135 135 135
129 129 129
122 122 122
74 74 74
60 60 60
110 110 110
104 104 104
147 147 147
128 128 128
132 132 132
117 117 117
95 95 95
128 128 128
110 110 110
87 87 87
93 93 93
54 54 54
56 56 56
45 45 45
27 27 27
56 56 56
56 56 56
131 131 131
88 88 88
98 98 98
111 111 111
96 96 96
104 104 104
148 148 148
153 153 153
165 165 165
131 131 131
124 124 124
113 113 113
133 133 133
113 113 113
87 87 87
149 149 149
131 131 131
123 123 123
88 88 88
100 100 100
90 90 90
97 97 97
107 107 107
98 98 98
67 67 67
67 67 67
66 66 66
73 73 73
56 56 56
29 29 29
55 55 55
32 32 32
43 43 43
55 55 55
67 67 67
72 72 72
77 77 77
110 110 110
35 35 35
130 130 130
94 94 94
79 79 79
64 64 64
32 32 32
40 40 40
51 51 51
73 73 73
61 61 61
51 51 51
74 74 74
13 13 13
46 46 46
31 31 31
42 42 42
41 41 41
41 41 41
95 95 95
107 107 107
108 108 108
67 67 67
38 38 38
35 35 35
53 53 53
38 38 38
39 39 39
61 61 61
60 60 60
37 37 37
8 8 8
2 2 2
0 0 0
17 17 17
5 5 5
7 7 7
19 19 19
23 23 23
23 23 23
23 23 23
65 65 65
55 55 55
60 60 60
0 0 0
36 36 36
33 33 33
77 77 77
44 44 44
70 70 70
70 70 70
43 43 43
30 30 30
68 68 68
78 78 78
80 80 80
61 61 61
85 85 85
58 58 58
64 64 64
74 74 74
79 79 79
64 64 64
66 66 66
70 70 70
82 82 82
71 71 71
97 97 97
70 70 70
44 44 44
85 85 85
0 0 0
94 94 94
59 59 59
52 52 52
36 36 36
29 29 29
46 46 46
47 47 47
37 37 37
21 21 21
21 21 21
16 16 16
8 8 8
3 3 3
35 35 35
2 2 2
18 18 18
14 14 14
69 69 69
39 39 39
7 7 7
24 24 24
40 40 40
47 47 47
33 33 33
22 22 22
7 7 7
3 3 3
34 34 34
63 63 63
69 69 69
35 35 35
117 117 117
67 67 67
32 32 32
85 85 85
26 26 26
30 30 30
43 43 43
71 71 71
71 71 71
89 89 89
72 72 72
98 98 98
71 71 71
69 69 69
139 139 139
112 112 112
115 115 115
86 86 86
85 85 85
87 87 87
124 124 124
125 125 125
99 99 99
87 87 87
122 122 122
113 113 113
86 86 86
79 79 79
18 18 18
28 28 28
53 53 53
64 64 64
70 70 70
76 76 76
62 62 62
86 86 86
87 87 87
80 80 80
84 84 84
82 82 82
80 80 80
67 67 67
100 100 100
112 112 112
87 87 87
129 129 129
68 68 68
179 179 179
86 86 86
72 72 72
157 157 157
119 119 119
138 138 138
114 114 114
99 99 99
82 82 82
85 85 85
96 96 96
62 62 62
80 80 80
79 79 79
75 75 75
77 77 77
85 85 85
97 97 97
86 86 86
85 85 85
83 83 83
41 41 41
73 73 73
45 45 45
72 72 72
50 50 50
1 1 1
35 35 35
46 46 46
41 41 41
37 37 37
69 69 69
65 65 65
58 58 58
62 62 62
58 58 58
62 62 62
98 98 98
101 101 101
120 120 120
85 85 85
130 130 130
134 134 134
115 115 115
121 121 121
150 150 150
99 99 99
133 133 133
89 89 89
142 142 142
147 147 147
127 127 127
152 152 152
120 120 120
149 149 149
112 112 112
190 190 190
152 152 152
151 151 151
153 153 153
137 137 137
119 119 119
110 110 110
81 81 81
70 70 70
41 41 41
14 14 14
37 37 37
34 34 34
26 26 26
20 20 20
37 37 37
47 47 47
56 56 56
65 65 65
47 47 47
59 59 59
63 63 63
71 71 71
68 68 68
78 78 78
93 93 93
111 111 111
121 121 121
137 137 137
132 132 132
131 131 131
163 163 163
128 128 128
118 118 118
113 113 113
163 163 163
206 206 206
185 185 185
141 141 141
120 120 120
158 158 158
169 169 169
154 154 154
165 165 165
127 127 127
126 126 126
109 109 109
82 82 82
126 126 126
119 119 119
105 105 105
77 77 77
75 75 75
41 41 41
34 34 34
36 36 36
23 23 23
15 15 15
23 23 23
36 36 36
40 40 40
49 49 49
68 68 68
49 49 49
24 24 24
50 50 50
113 113 113
111 111 111
105 105 105
124 124 124
112 112 112
131 131 131
95 95 95
129 129 129
137 137 137
139 139 139
134 134 134
151 151 151
183 183 183
136 136 136
157 157 157
143 143 143
197 197 197
223 223 223
175 175 175
150 150 150
151 151 151
126 126 126
110 110 110
132 132 132
119 119 119
130 130 130
118 118 118
96 96 96
46 46 46
86 86 86
95 95 95
66 66 66
50 50 50
44 44 44
38 38 38
22 22 22
12 12 12
5 5 5
13 13 13
26 26 26
33 33 33
49 49 49
32 32 32
29 29 29
51 51 51
37 37 37
69 69 69
91 91 91
69 69 69
74 74 74
103 103 103
97 97 97
117 117 117
126 126 126
68 68 68
112 112 112
121 121 121
142 142 142
114 114 114
149 149 149
131 131 131
139 139 139
135 135 135
115 115 115
141 141 141
158 158 158
165 165 165
127 127 127
107 107 107
134 134 134
136 136 136
152 152 152
120 120 120
113 113 113
92 92 92
51 51 51
63 63 63
37 37 37
61 61 61
66 66 66
59 59 59
58 58 58
73 73 73
92 92 92
48 48 48
59 59 59
54 54 54
23 23 23
14 14 14
27 27 27
27 27 27
37 37 37
52 52 52
54 54 54
102 102 102
82 82 82
82 82 82
64 64 64
70 70 70
110 110 110
67 67 67
142 142 142
133 133 133
151 151 151
125 125 125
107 107 107
127 127 127
101 101 101
166 166 166
65 65 65
105 105 105
111 111 111
109 109 109
89 89 89
111 111 111
119 119 119
108 108 108
109 109 109
120 120 120
148 148 148
84 84 84
52 52 52
78 78 78
64 64 64
88 88 88
103 103 103
107 107 107
97 97 97
119 119 119
96 96 96
111 111 111
62 62 62
108 108 108
112 112 112
112 112 112
100 100 100
127 127 127
102 102 102
95 95 95
97 97 97
72 72 72
96 96 96
115 115 115
94 94 94
55 55 55
16 16 16
2 2 2
9 9 9
15 15 15
56 56 56
56 56 56
67 67 67
72 72 72
45 45 45
50 50 50
50 50 50
48 48 48
57 57 57
59 59 59
47 47 47
32 32 32
25 25 25
4 4 4
14 14 14
24 24 24
31 31 31
29 29 29
21 21 21
24 24 24
20 20 20
20 20 20
59 59 59
0 0 0
34 34 34
38 38 38
49 49 49
49 49 49
56 56 56
100 100 100
103 103 103
106 106 106
95 95 95
115 115 115
84 84 84
121 121 121
97 97 97
50 50 50
66 66 66
103 103 103
107 107 107
116 116 116
113 113 113
87 87 87
116 116 116
78 78 78
93 93 93
41 41 41
67 67 67
36 36 36
90 90 90
43 43 43
23 23 23
55 55 55
29 29 29
24 24 24
38 38 38
47 47 47
15 15 15
33 33 33
12 12 12
23 23 23
24 24 24
22 22 22
47 47 47
50 50 50
54 54 54
68 68 68
36 36 36
41 41 41
37 37 37
20 20 20
20 20 20
23 23 23
13 13 13
6 6 6
8 8 8
8 8 8
14 14 14
11 11 11
29 29 29
24 24 24
25 25 25
26 26 26
20 20 20
19 19 19
23 23 23
34 34 34
20 20 20
66 66 66
5 5 5
69 69 69
34 34 34
93 93 93
65 65 65
103 103 103
88 88 88
130 130 130
104 104 104
141 141 141
148 148 148
87 87 87
116 116 116
100 100 100
99 99 99
124 124 124
0 0 0
89 89 89
81 81 81
49 49 49
59 59 59
13 13 13
24 24 24
54 54 54
75 75 75
44 44 44
82 82 82
83 83 83
84 84 84
59 59 59
96 96 96
97 97 97
109 109 109
97 97 97
49 49 49
109 109 109
101 101 101
132 132 132
126 126 126
123 123 123
119 119 119
72 72 72
97 97 97
112 112 112
144 144 144
85 85 85
82 82 82
90 90 90
108 108 108
83 83 83
109 109 109
116 116 116
75 75 75
0 0 0
75 75 75
94 94 94
78 78 78
105 105 105
72 72 72
66 66 66
30 30 30
35 35 35
3 3 3
9 9 9
32 32 32
28 28 28
30 30 30
16 16 16
59 59 59
64 64 64
53 53 53
38 38 38
49 49 49
26 26 26
21 21 21
22 22 22
11 11 11
46 46 46
60 60 60
59 59 59
48 48 48
65 65 65
97 97 97
99 99 99
87 87 87
110 110 110
91 91 91
132 132 132
119 119 119
129 129 129
117 117 117
110 110 110
98 98 98
86 86 86
84 84 84
107 107 107
132 132 132
118 118 118
93 93 93
128 128 128
113 113 113
144 144 144
71 71 71
90 90 90
23 23 23
33 33 33
39 39 39
15 15 15
11 11 11
11 11 11
18 18 18
29 29 29
32 32 32
42 42 42
56 56 56
25 25 25
48 48 48
49 49 49
84 84 84
83 83 83
105 105 105
95 95 95
121 121 121
87 87 87
95 95 95
90 90 90
92 92 92
106 106 106
128 128 128
140 140 140
161 161 161
157 157 157
165 165 165
129 129 129
140 140 140
180 180 180
162 162 162
139 139 139
167 167 167
152 152 152
121 121 121
157 157 157
104 104 104
113 113 113
120 120 120
122 122 122
105 105 105
111 111 111
105 105 105
96 96 96
92 92 92
65 65 65
31 31 31
34 34 34
60 60 60
61 61 61
87 87 87
71 71 71
87 87 87
95 95 95
143 143 143
91 91 91
75 75 75
42 42 42
48 48 48
78 78 78
122 122 122
129 129 129
140 140 140
90 90 90
140 140 140
91 91 91
150 150 150
161 161 161
180 180 180
215 215 215
170 170 170
176 176 176
196 196 196
181 181 181
184 184 184
175 175 175
155 155 155
109 109 109
103 103 103
139 139 139
71 71 71
142 142 142
134 134 134
124 124 124
98 98 98
110 110 110
69 69 69
47 47 47
42 42 42
24 24 24
26 26 26
43 43 43
46 46 46
16 16 16
15 15 15
13 13 13
10 10 10
11 11 11
20 20 20
16 16 16
29 29 29
26 26 26
33 33 33
19 19 19
39 39 39
47 47 47
55 55 55
54 54 54
56 56 56
111 111 111
91 91 91
140 140 140
109 109 109
177 177 177
129 129 129
98 98 98
124 124 124
98 98 98
137 137 137
119 119 119
139 139 139
122 122 122
148 148 148
136 136 136
128 128 128
113 113 113
183 183 183
99 99 99
80 80 80
124 124 124
87 87 87
97 97 97
57 57 57
118 118 118
110 110 110
92 92 92
143 143 143
113 113 113
110 110 110
71 71 71
70 70 70
38 38 38
32 32 32
27 27 27
8 8 8
41 41 41
47 47 47
39 39 39
43 43 43
55 55 55
52 52 52
86 86 86
79 79 79
109 109 109
99 99 99
82 82 82
97 97 97
107 107 107
119 119 119
72 72 72
18 18 18
62 62 62
74 74 74
59 59 59
48 48 48
47 47 47
30 30 30
21 21 21
26 26 26
32 32 32
30 30 30
39 39 39
60 60 60
51 51 51
91 91 91
156 156 156
123 123 123
93 93 93
84 84 84
46 46 46
42 42 42
82 82 82
87 87 87
76 76 76
49 49 49
55 55 55
94 94 94
146 146 146
87 87 87
68 68 68
98 98 98
69 69 69
120 120 120
111 111 111
96 96 96
72 72 72
113 113 113
0 0 0
44 44 44
87 87 87
37 37 37
21 21 21
12 12 12
13 13 13
99 99 99
84 84 84
71 71 71
65 65 65
50 50 50
0 0 0
48 48 48
69 69 69
99 99 99
71 71 71
51 51 51
51 51 51
84 84 84
93 93 93
61 61 61
45 45 45
91 91 91
80 80 80
60 60 60
73 73 73
34 34 34
54 54 54
23 23 23
29 29 29
34 34 34
47 47 47
27 27 27
7 7 7
34 34 34
57 57 57
60 60 60
79 79 79
78 78 78
80 80 80
37 37 37
46 46 46
58 58 58
55 55 55
95 95 95
62 62 62
40 40 40
119 119 119
85 85 85
72 72 72
100 100 100
47 47 47
63 63 63
70 70 70
45 45 45
38 38 38
79 79 79
97 97 97
53 53 53
97 97 97
51 51 51
52 52 52
58 58 58
81 81 81
68 68 68
40 40 40
31 31 31
18 18 18
17 17 17
22 22 22
12 12 12
15 15 15
35 35 35
35 35 35
28 28 28
44 44 44
34 34 34
10 10 10
40 40 40
47 47 47
72 72 72
67 67 67
24 24 24
11 11 11
25 25 25
29 29 29
16 16 16
35 35 35
39 39 39
60 60 60
85 85 85
60 60 60
112 112 112
69 69 69
77 77 77
94 94 94
64 64 64
62 62 62
85 85 85
71 71 71
69 69 69
121 121 121
79 79 79
92 92 92
105 105 105
54 54 54
70 70 70
128 128 128
102 102 102
60 60 60
14 14 14
74 74 74
72 72 72
50 50 50
39 39 39
63 63 63
45 45 45
32 32 32
52 52 52
29 29 29
18 18 18
13 13 13
15 15 15
45 45 45
59 59 59
70 70 70
74 74 74
87 87 87
96 96 96
98 98 98
139 139 139
83 83 83
86 86 86
121 121 121
111 111 111
110 110 110
127 127 127
142 142 142
101 101 101
141 141 141
108 108 108
115 115 115
96 96 96
88 88 88
125 125 125
91 91 91
82 82 82
101 101 101
123 123 123
114 114 114
106 106 106
92 92 92
77 77 77
84 84 84
95 95 95
95 95 95
68 68 68
49 49 49
109 109 109
48 48 48
82 82 82
64 64 64
64 64 64
33 33 33
32 32 32
34 34 34
21 21 21
31 31 31
7 7 7
17 17 17
19 19 19
24 24 24
35 35 35
39 39 39
20 20 20
26 26 26
28 28 28
27 27 27
11 11 11
29 29 29
30 30 30
23 23 23
30 30 30
20 20 20
45 45 45
72 72 72
83 83 83
121 121 121
115 115 115
87 87 87
158 158 158
113 113 113
98 98 98
137 137 137
99 99 99
93 93 93
90 90 90
86 86 86
74 74 74
76 76 76
47 47 47
26 26 26
33 33 33
18 18 18
15 15 15
22 22 22
18 18 18
21 21 21
23 23 23
44 44 44
27 27 27
21 21 21
27 27 27
13 13 13
19 19 19
10 10 10
19 19 19
37 37 37
25 25 25
27 27 27
24 24 24
17 17 17
46 46 46
56 56 56
78 78 78
47 47 47
78 78 78
79 79 79
124 124 124
117 117 117
159 159 159
191 191 191
153 153 153
131 131 131
173 173 173
191 191 191
172 172 172
170 170 170
153 153 153
141 141 141
107 107 107
180 180 180
150 150 150
154 154 154
149 149 149
134 134 134
142 142 142
129 129 129
103 103 103
117 117 117
90 90 90
82 82 82
82 82 82
55 55 55
54 54 54
20 20 20
34 34 34
50 50 50
43 43 43
41 41 41
52 52 52
26 26 26
25 25 25
21 21 21
8 8 8
16 16 16
26 26 26
24 24 24
101 101 101
89 89 89
75 75 75
133 133 133
137 137 137
107 107 107
120 120 120
125 125 125
153 153 153
176 176 176
143 143 143
124 124 124
158 158 158
142 142 142
61 61 61
142 142 142
148 148 148
89 89 89
74 74 74
104 104 104
69 69 69
72 72 72
64 64 64
52 52 52
75 75 75
38 38 38
57 57 57
44 44 44
2 2 2
30 30 30
39 39 39
34 34 34
28 28 28
52 52 52
17 17 17
47 47 47
31 31 31
15 15 15
41 41 41
51 51 51
53 53 53
56 56 56
67 67 67
57 57 57
70 70 70
33 33 33
46 46 46
113 113 113
109 109 109
76 76 76
99 99 99
126 126 126
102 102 102
127 127 127
83 83 83
135 135 135
137 137 137
113 113 113
87 87 87
135 135 135
113 113 113
133 133 133
113 113 113
113 113 113
71 71 71
141 141 141
142 142 142
165 165 165
93 93 93
130 130 130
125 125 125
93 93 93
118 118 118
130 130 130
96 96 96
128 128 128
90 90 90
124 124 124
51 51 51
80 80 80
60 60 60
118 118 118
75 75 75
71 71 71
72 72 72
65 65 65
46 46 46
46 46 46
59 59 59
75 75 75
96 96 96
86 86 86
106 106 106
91 91 91
109 109 109
64 64 64
63 63 63
84 84 84
65 65 65
54 54 54
72 72 72
57 57 57
44 44 44
49 49 49
53 53 53
27 27 27
46 46 46
72 72 72
86 86 86
91 91 91
96 96 96
121 121 121
104 104 104
115 115 115
73 73 73
28 28 28
62 62 62
38 38 38
63 63 63
23 23 23
69 69 69
78 78 78
90 90 90
86 86 86
81 81 81
85 85 85
0 0 0
122 122 122
111 111 111
99 99 99
122 122 122
121 121 121
84 84 84
70 70 70
0 0 0
49 49 49
58 58 58
21 21 21
63 63 63
61 61 61
67 67 67
0 0 0
47 47 47
99 99 99
84 84 84
51 51 51
71 71 71
51 51 51
0 0 0
71 71 71
0 0 0
113 113 113
109 109 109
48 48 48
50 50 50
81 81 81
44 44 44
0 0 0
105 105 105
64 64 64
100 100 100
53 53 53
79 79 79
35 35 35
31 31 31
23 23 23
20 20 20
30 30 30
41 41 41
66 66 66
59 59 59
67 67 67
86 86 86
88 88 88
124 124 124
50 50 50
70 70 70
70 70 70
86 86 86
82 82 82
79 79 79
72 72 72
0 0 0
91 91 91
86 86 86
56 56 56
90 90 90
69 69 69
63 63 63
49 49 49
17 17 17
18 18 18
42 42 42
37 37 37
22 22 22
0 0 0
26 26 26
42 42 42
23 23 23
16 16 16
20 20 20
2 2 2
12 12 12
22 22 22
20 20 20
19 19 19
12 12 12
17 17 17
14 14 14
14 14 14
36 36 36
71 71 71
71 71 71
91 91 91
71 71 71
46 46 46
92 92 92
50 50 50
68 68 68
81 81 81
101 101 101
70 70 70
96 96 96
122 122 122
112 112 112
122 122 122
70 70 70
49 49 49
130 130 130
107 107 107
59 59 59
85 85 85
56 56 56
107 107 107
86 86 86
63 63 63
73 73 73
101 101 101
68 68 68
22 22 22
18 18 18
13 13 13
28 28 28
28 28 28
17 17 17
7 7 7
17 17 17
26 26 26
35 35 35
18 18 18
43 43 43
21 21 21
40 40 40
33 33 33
79 79 79
83 83 83
91 91 91
87 87 87
100 100 100
69 69 69
77 77 77
0 0 0
45 45 45
97 97 97
94 94 94
79 79 79
97 97 97
82 82 82
152 152 152
134 134 134
99 99 99
83 83 83
128 128 128
105 105 105
147 147 147
89 89 89
135 135 135
97 97 97
106 106 106
93 93 93
98 98 98
87 87 87
107 107 107
126 126 126
93 93 93
125 125 125
171 171 171
64 64 64
148 148 148
143 143 143
111 111 111
85 85 85
70 70 70
45 45 45
42 42 42
41 41 41
31 31 31
40 40 40
27 27 27
40 40 40
59 59 59
38 38 38
73 73 73
97 97 97
82 82 82
66 66 66
20 20 20
54 54 54
25 25 25
43 43 43
63 63 63
57 57 57
39 39 39
58 58 58
87 87 87
126 126 126
116 116 116
95 95 95
114 114 114
132 132 132
145 145 145
109 109 109
197 197 197
113 113 113
90 90 90
171 171 171
82 82 82
111 111 111
126 126 126
90 90 90
120 120 120
86 86 86
41 41 41
109 109 109
128 128 128
80 80 80
104 104 104
122 122 122
60 60 60
40 40 40
17 17 17
40 40 40
37 37 37
23 23 23
39 39 39
75 75 75
67 67 67
62 62 62
36 36 36
64 64 64
65 65 65
90 90 90
89 89 89
83 83 83
97 97 97
151 151 151
114 114 114
121 121 121
118 118 118
125 125 125
165 165 165
123 123 123
127 127 127
143 143 143
179 179 179
140 140 140
107 107 107
98 98 98
121 121 121
136 136 136
190 190 190
151 151 151
152 152 152
129 129 129
144 144 144
129 129 129
95 95 95
142 142 142
148 148 148
203 203 203
146 146 146
182 182 182
175 175 175
170 170 170
99 99 99
109 109 109
67 67 67
38 38 38
45 45 45
30 30 30
50 50 50
58 58 58
47 47 47
60 60 60
31 31 31
60 60 60
98 98 98
73 73 73
73 73 73
38 38 38
90 90 90
104 104 104
98 98 98
122 122 122
67 67 67
115 115 115
123 123 123
132 132 132
142 142 142
149 149 149
131 131 131
138 138 138
170 170 170
140 140 140
133 133 133
104 104 104
115 115 115
101 101 101
130 130 130
158 158 158
118 118 118
70 70 70
114 114 114
137 137 137
76 76 76
101 101 101
81 81 81
61 61 61
93 93 93
66 66 66
35 35 35
60 60 60
80 80 80
94 94 94
68 68 68
77 77 77
79 79 79
86 86 86
89 89 89
57 57 57
52 52 52
62 62 62
45 45 45
46 46 46
75 75 75
60 60 60
108 108 108
82 82 82
77 77 77
63 63 63
62 62 62
58 58 58
48 48 48
126 126 126
106 106 106
123 123 123
102 102 102
87 87 87
52 52 52
50 50 50
70 70 70
131 131 131
86 86 86
117 117 117
127 127 127
117 117 117
117 117 117
87 87 87
110 110 110
79 79 79
84 84 84
82 82 82
82 82 82
60 60 60
63 63 63
54 54 54
59 59 59
52 52 52
43 43 43
93 93 93
52 52 52
51 51 51
30 30 30
57 57 57
47 47 47
52 52 52
28 28 28
33 33 33
18 18 18
41 41 41
32 32 32
37 37 37
50 50 50
28 28 28
84 84 84
95 95 95
98 98 98
85 85 85
77 77 77
79 79 79
103 103 103
77 77 77
126 126 126
101 101 101
62 62 62
86 86 86
92 92 92
101 101 101
91 91 91
66 66 66
87 87 87
143 143 143
149 149 149
95 95 95
113 113 113
56 56 56
31 31 31
29 29 29
94 94 94
51 51 51
107 107 107
94 94 94
90 90 90
134 134 134
66 66 66
93 93 93
45 45 45
119 119 119
50 50 50
85 85 85
74 74 74
89 89 89
96 96 96
35 35 35
35 35 35
19 19 19
33 33 33
55 55 55
62 62 62
56 56 56
51 51 51
50 50 50
61 61 61
53 53 53
35 35 35
44 44 44
12 12 12
16 16 16
47 47 47
0 0 0
83 83 83
57 57 57
83 83 83
47 47 47
79 79 79
42 42 42
79 79 79
38 38 38
67 67 67
24 24 24
0 0 0
13 13 13
41 41 41
0 0 0
26 26 26
40 40 40
65 65 65
47 47 47
25 25 25
73 73 73
47 47 47
83 83 83
71 71 71
114 114 114
71 71 71
87 87 87
99 99 99
49 49 49
68 68 68
116 116 116
124 124 124
126 126 126
100 100 100
45 45 45
45 45 45
40 40 40
69 69 69
75 75 75
79 79 79
77 77 77
88 88 88
26 26 26
50 50 50
62 62 62
32 32 32
16 16 16
17 17 17
12 12 12
8 8 8
16 16 16
28 28 28
25 25 25
13 13 13
28 28 28
22 22 22
45 45 45
35 35 35
51 51 51
52 52 52
42 42 42
29 29 29
17 17 17
15 15 15
4 4 4
39 39 39
39 39 39
64 64 64
78 78 78
50 50 50
68 68 68
80 80 80
39 39 39
29 29 29
32 32 32
18 18 18
28 28 28
68 68 68
64 64 64
106 106 106
82 82 82
69 69 69
92 92 92
64 64 64
105 105 105
50 50 50
45 45 45
64 64 64
43 43 43
44 44 44
34 34 34
22 22 22
27 27 27
25 25 25
11 11 11
18 18 18
10 10 10
17 17 17
17 17 17
28 28 28
18 18 18
22 22 22
40 40 40
54 54 54
43 43 43
60 60 60
54 54 54
64 64 64
47 47 47
58 58 58
77 77 77
79 79 79
81 81 81
106 106 106
71 71 71
60 60 60
93 93 93
104 104 104
114 114 114
88 88 88
113 113 113
101 101 101
101 101 101
133 133 133
101 101 101
108 108 108
91 91 91
98 98 98
65 65 65
111 111 111
99 99 99
64 64 64
118 118 118
100 100 100
58 58 58
67 67 67
42 42 42
111 111 111
76 76 76
86 86 86
50 50 50
48 48 48
20 20 20
29 29 29
26 26 26
27 27 27
11 11 11
18 18 18
45 45 45
36 36 36
39 39 39
25 25 25
21 21 21
41 41 41
65 65 65
27 27 27
76 76 76
117 117 117
79 79 79
110 110 110
105 105 105
102 102 102
137 137 137
110 110 110
123 123 123
111 111 111
158 158 158
121 121 121
90 90 90
158 158 158
125 125 125
115 115 115
116 116 116
91 91 91
132 132 132
120 120 120
59 59 59
82 82 82
102 102 102
155 155 155
158 158 158
85 85 85
163 163 163
112 112 112
144 144 144
133 133 133
117 117 117
102 102 102
106 106 106
119 119 119
128 128 128
109 109 109
93 93 93
88 88 88
71 71 71
37 37 37
28 28 28
24 24 24
11 11 11
23 23 23
54 54 54
78 78 78
87 87 87
85 85 85
79 79 79
145 145 145
94 94 94
74 74 74
87 87 87
66 66 66
56 56 56
48 48 48
41 41 41
31 31 31
13 13 13
54 54 54
64 64 64
44 44 44
59 59 59
68 68 68
83 83 83
96 96 96
55 55 55
67 67 67
47 47 47
72 72 72
73 73 73
78 78 78
119 119 119
76 76 76
72 72 72
94 94 94
104 104 104
142 142 142
122 122 122
158 158 158
183 183 183
134 134 134
91 91 91
52 52 52
51 51 51
17 17 17
12 12 12
15 15 15
19 19 19
37 37 37
61 61 61
63 63 63
68 68 68
52 52 52
85 85 85
76 76 76
60 60 60
47 47 47
47 47 47
35 35 35
46 46 46
86 86 86
86 86 86
106 106 106
104 104 104
51 51 51
58 58 58
17 17 17
34 34 34
47 47 47
89 89 89
74 74 74
51 51 51
78 78 78
115 115 115
124 124 124
144 144 144
100 100 100
116 116 116
81 81 81
64 64 64
97 97 97
80 80 80
103 103 103
58 58 58
62 62 62
41 41 41
48 48 48
57 57 57
64 64 64
49 49 49
25 25 25
9 9 9
20 20 20
45 45 45
21 21 21
25 25 25
31 31 31
64 64 64
28 28 28
25 25 25
70 70 70
100 100 100
68 68 68
49 49 49
72 72 72
115 115 115
102 102 102
91 91 91
61 61 61
93 93 93
50 50 50
105 105 105
118 118 118
114 114 114
88 88 88
112 112 112
88 88 88
69 69 69
113 113 113
123 123 123
132 132 132
48 48 48
90 90 90
89 89 89
111 111 111
103 103 103
79 79 79
89 89 89
69 69 69
62 62 62
51 51 51
29 29 29
0 0 0
41 41 41
28 28 28
58 58 58
52 52 52
59 59 59
45 45 45
23 23 23
22 22 22
48 48 48
43 43 43
33 33 33
36 36 36
34 34 34
45 45 45
26 26 26
10 10 10
17 17 17
18 18 18
6 6 6
35 35 35
60 60 60
51 51 51
91 91 91
27 27 27
75 75 75
74 74 74
78 78 78
82 82 82
50 50 50
108 108 108
95 95 95
100 100 100
85 85 85
82 82 82
83 83 83
112 112 112
109 109 109
82 82 82
137 137 137
107 107 107
80 80 80
104 104 104
104 104 104
114 114 114
84 84 84
66 66 66
93 93 93
86 86 86
64 64 64
64 64 64
44 44 44
24 24 24
40 40 40
9 9 9
12 12 12
16 16 16
23 23 23
23 23 23
42 42 42
71 71 71
80 80 80
49 49 49
67 67 67
83 83 83
0 0 0
24 24 24
73 73 73
74 74 74
50 50 50
36 36 36
25 25 25
30 30 30
18 18 18
5 5 5
17 17 17
38 38 38
6 6 6
19 19 19
35 35 35
38 38 38
29 29 29
68 68 68
47 47 47
48 48 48
57 57 57
60 60 60
45 45 45
89 89 89
83 83 83
79 79 79
65 65 65
91 91 91
76 76 76
70 70 70
71 71 71
50 50 50
70 70 70
50 50 50
70 70 70
87 87 87
88 88 88
88 88 88
113 113 113
99 99 99
48 48 48
94 94 94
0 0 0
47 47 47
84 84 84
68 68 68
46 46 46
135 135 135
96 96 96
78 78 78
77 77 77
77 77 77
48 48 48
51 51 51
45 45 45
36 36 36
19 19 19
30 30 30
3 3 3
3 3 3
38 38 38
30 30 30
61 61 61
38 38 38
29 29 29
32 32 32
16 16 16
20 20 20
20 20 20
11 11 11
26 26 26
54 54 54
109 109 109
105 105 105
93 93 93
73 73 73
74 74 74
40 40 40
100 100 100
83 83 83
82 82 82
70 70 70
52 52 52
99 99 99
109 109 109
88 88 88
88 88 88
100 100 100
120 120 120
109 109 109
63 63 63
149 149 149
71 71 71
82 82 82
43 43 43
84 84 84
80 80 80
60 60 60
62 62 62
59 59 59
60 60 60
21 21 21
33 33 33
17 17 17
21 21 21
19 19 19
5 5 5
13 13 13
15 15 15
25 25 25
14 14 14
27 27 27
51 51 51
42 42 42
64 64 64
72 72 72
83 83 83
40 40 40
59 59 59
46 46 46
73 73 73
123 123 123
80 80 80
112 112 112
87 87 87
88 88 88
95 95 95
73 73 73
102 102 102
74 74 74
94 94 94
83 83 83
49 49 49
151 151 151
69 69 69
131 131 131
117 117 117
0 0 0
86 86 86
99 99 99
85 85 85
65 65 65
44 44 44
69 69 69
51 51 51
54 54 54
27 27 27
54 54 54
49 49 49
56 56 56
70 70 70
58 58 58
82 82 82
54 54 54
29 29 29
37 37 37
17 17 17
38 38 38
32 32 32
26 26 26
71 71 71
61 61 61
81 81 81
59 59 59
45 45 45
69 69 69
60 60 60
43 43 43
87 87 87
134 134 134
115 115 115
83 83 83
126 126 126
130 130 130
83 83 83
120 120 120
108 108 108
70 70 70
112 112 112
91 91 91
95 95 95
109 109 109
135 135 135
87 87 87
141 141 141
116 116 116
100 100 100
111 111 111
78 78 78
131 131 131
140 140 140
78 78 78
126 126 126
103 103 103
104 104 104
96 96 96
55 55 55
71 71 71
53 53 53
22 22 22
37 37 37
26 26 26
38 38 38
21 21 21
7 7 7
16 16 16
52 52 52
62 62 62
53 53 53
85 85 85
81 81 81
91 91 91
84 84 84
111 111 111
134 134 134
108 108 108
116 116 116
129 129 129
127 127 127
156 156 156
88 88 88
111 111 111
95 95 95
103 103 103
126 126 126
132 132 132
141 141 141
130 130 130
130 130 130
100 100 100
139 139 139
164 164 164
156 156 156
98 98 98
107 107 107
108 108 108
140 140 140
155 155 155
149 149 149
116 116 116
99 99 99
118 118 118
144 144 144
82 82 82
113 113 113
57 57 57
54 54 54
48 48 48
18 18 18
24 24 24
42 42 42
32 32 32
73 73 73
63 63 63
62 62 62
73 73 73
57 57 57
46 46 46
54 54 54
40 40 40
90 90 90
49 49 49
60 60 60
108 108 108
99 99 99
121 121 121
97 97 97
87 87 87
86 86 86
77 77 77
62 62 62
55 55 55
61 61 61
94 94 94
43 43 43
78 78 78
85 85 85
111 111 111
70 70 70
68 68 68
86 86 86
84 84 84
95 95 95
90 90 90
79 79 79
83 83 83
53 53 53
83 83 83
90 90 90
65 65 65
73 73 73
59 59 59
47 47 47
71 71 71
89 89 89
41 41 41
41 41 41
66 66 66
74 74 74
42 42 42
16 16 16
34 34 34
33 33 33
54 54 54
54 54 54
48 48 48
72 72 72
77 77 77
72 72 72
90 90 90
82 82 82
84 84 84
76 76 76
89 89 89
64 64 64
117 117 117
111 111 111
89 89 89
71 71 71
88 88 88
87 87 87
100 100 100
132 132 132
121 121 121
110 110 110
98 98 98
102 102 102
87 87 87
116 116 116
44 44 44
102 102 102
84 84 84
47 47 47
107 107 107
30 30 30
112 112 112
93 93 93
67 67 67
45 45 45
23 23 23
45 45 45
51 51 51
24 24 24
21 21 21
11 11 11
15 15 15
15 15 15
32 32 32
36 36 36
27 27 27
0 0 0
40 40 40
34 34 34
41 41 41
68 68 68
53 53 53
63 63 63
39 39 39
52 52 52
56 56 56
79 79 79
57 57 57
82 82 82
58 58 58
43 43 43
70 70 70
37 37 37
57 57 57
46 46 46
97 97 97
78 78 78
121 121 121
82 82 82
82 82 82
98 98 98
113 113 113
114 114 114
85 85 85
0 0 0
72 72 72
51 51 51
111 111 111
49 49 49
66 66 66
123 123 123
36 36 36
30 30 30
24 24 24
39 39 39
23 23 23
51 51 51
42 42 42
85 85 85
56 56 56
54 54 54
56 56 56
71 71 71
73 73 73
58 58 58
65 65 65
58 58 58
92 92 92
42 42 42
37 37 37
38 38 38
30 30 30
51 51 51
16 16 16
63 63 63
80 80 80
75 75 75
78 78 78
44 44 44
84 84 84
95 95 95
48 48 48
47 47 47
43 43 43
52 52 52
37 37 37
33 33 33
10 10 10
41 41 41
59 59 59
0 0 0
83 83 83
48 48 48
132 132 132
72 72 72
101 101 101
101 101 101
114 114 114
72 72 72
88 88 88
71 71 71
71 71 71
68 68 68
49 49 49
98 98 98
85 85 85
44 44 44
50 50 50
68 68 68
85 85 85
99 99 99
86 86 86
69 69 69
87 87 87
72 72 72
101 101 101
70 70 70
116 116 116
88 88 88
65 65 65
50 50 50
68 68 68
78 78 78
82 82 82
89 89 89
53 53 53
73 73 73
41 41 41
38 38 38
40 40 40
44 44 44
17 17 17
56 56 56
55 55 55
50 50 50
37 37 37
67 67 67
75 75 75
73 73 73
70 70 70
58 58 58
9 9 9
54 54 54
58 58 58
86 86 86
59 59 59
114 114 114
101 101 101
123 123 123
49 49 49
69 69 69
42 42 42
94 94 94
71 71 71
72 72 72
101 101 101
102 102 102
71 71 71
111 111 111
108 108 108
92 92 92
83 83 83
85 85 85
51 51 51
100 100 100
123 123 123
69 69 69
49 49 49
9 9 9
19 19 19
18 18 18
27 27 27
22 22 22
14 14 14
24 24 24
26 26 26
19 19 19
41 41 41
8 8 8
50 50 50
53 53 53
40 40 40
29 29 29
43 43 43
33 33 33
67 67 67
44 44 44
64 64 64
111 111 111
32 32 32
45 45 45
62 62 62
43 43 43
33 33 33
34 34 34
44 44 44
25 25 25
39 39 39
55 55 55
47 47 47
53 53 53
58 58 58
71 71 71
103 103 103
136 136 136
80 80 80
88 88 88
92 92 92
124 124 124
95 95 95
55 55 55
68 68 68
120 120 120
100 100 100
97 97 97
171 171 171
105 105 105
99 99 99
97 97 97
64 64 64
48 48 48
13 13 13
34 34 34
25 25 25
13 13 13
22 22 22
18 18 18
25 25 25
21 21 21
0 0 0
35 35 35
31 31 31
20 20 20
23 23 23
20 20 20
11 11 11
20 20 20
32 32 32
48 48 48
114 114 114
83 83 83
114 114 114
124 124 124
124 124 124
124 124 124
123 123 123
124 124 124
113 113 113
110 110 110
161 161 161
92 92 92
90 90 90
98 98 98
152 152 152
99 99 99
58 58 58
108 108 108
25 25 25
102 102 102
42 42 42
53 53 53
62 62 62
47 47 47
30 30 30
15 15 15
10 10 10
20 20 20
13 13 13
15 15 15
15 15 15
14 14 14
35 35 35
34 34 34
36 36 36
31 31 31
29 29 29
46 46 46
73 73 73
64 64 64
91 91 91
114 114 114
120 120 120
72 72 72
97 97 97
121 121 121
63 63 63
104 104 104
122 122 122
111 111 111
104 104 104
116 116 116
125 125 125
153 153 153
131 131 131
149 149 149
147 147 147
165 165 165
155 155 155
115 115 115
93 93 93
96 96 96
120 120 120
94 94 94
94 94 94
108 108 108
129 129 129
150 150 150
155 155 155
94 94 94
95 95 95
108 108 108
123 123 123
52 52 52
31 31 31
17 17 17
31 31 31
20 20 20
33 33 33
59 59 59
31 31 31
97 97 97
82 82 82
37 37 37
63 63 63
24 24 24
13 13 13
5 5 5
18 18 18
24 24 24
35 35 35
25 25 25
74 74 74
78 78 78
74 74 74
112 112 112
102 102 102
137 137 137
106 106 106
131 131 131
140 140 140
81 81 81
86 86 86
98 98 98
64 64 64
60 60 60
93 93 93
104 104 104
75 75 75
99 99 99
101 101 101
85 85 85
94 94 94
91 91 91
97 97 97
87 87 87
52 52 52
49 49 49
35 35 35
54 54 54
76 76 76
61 61 61
62 62 62
51 51 51
92 92 92
58 58 58
49 49 49
53 53 53
22 22 22
6 6 6
9 9 9
19 19 19
31 31 31
23 23 23
40 40 40
39 39 39
23 23 23
38 38 38
38 38 38
34 34 34
38 38 38
32 32 32
65 65 65
59 59 59
65 65 65
96 96 96
97 97 97
85 85 85
110 110 110
108 108 108
87 87 87
73 73 73
88 88 88
102 102 102
124 124 124
69 69 69
84 84 84
86 86 86
108 108 108
136 136 136
84 84 84
95 95 95
75 75 75
67 67 67
54 54 54
54 54 54
34 34 34
54 54 54
71 71 71
51 51 51
58 58 58
18 18 18
14 14 14
13 13 13
7 7 7
7 7 7
18 18 18
3 3 3
21 21 21
40 40 40
0 0 0
64 64 64
39 39 39
35 35 35
38 38 38
39 39 39
56 56 56
37 37 37
2 2 2
61 61 61
38 38 38
21 21 21
22 22 22
2 2 2
34 34 34
42 42 42
22 22 22
61 61 61
61 61 61
0 0 0
76 76 76
65 65 65
136 136 136
110 110 110
112 112 112
121 121 121
107 107 107
86 86 86
113 113 113
114 114 114
75 75 75
69 69 69
75 75 75
31 31 31
65 65 65
42 42 42
47 47 47
70 70 70
58 58 58
48 48 48
52 52 52
50 50 50
35 35 35
1 1 1
76 76 76
35 35 35
32 32 32
45 45 45
45 45 45
61 61 61
37 37 37
65 65 65
91 91 91
44 44 44
0 0 0
0 0 0
77 77 77
55 55 55
54 54 54
40 40 40
94 94 94
48 48 48
64 64 64
60 60 60
37 37 37
53 53 53
23 23 23
39 39 39
33 33 33
72 72 72
86 86 86
44 44 44
70 70 70
84 84 84
49 49 49
86 86 86
0 0 0
47 47 47
50 50 50
85 85 85
87 87 87
134 134 134
51 51 51
97 97 97
100 100 100
71 71 71
50 50 50
85 85 85
69 69 69
48 48 48
67 67 67
84 84 84
67 67 67
77 77 77
105 105 105
71 71 71
62 62 62
63 63 63
85 85 85
82 82 82
96 96 96
81 81 81
48 48 48
51 51 51
109 109 109
42 42 42
58 58 58
19 19 19
29 29 29
41 41 41
68 68 68
34 34 34
83 83 83
45 45 45
27 27 27
10 10 10
26 26 26
37 37 37
37 37 37
25 25 25
18 18 18
70 70 70
48 48 48
68 68 68
67 67 67
58 58 58
100 100 100
68 68 68
86 86 86
81 81 81
95 95 95
81 81 81
79 79 79
98 98 98
99 99 99
71 71 71
98 98 98
141 141 141
66 66 66
62 62 62
101 101 101
63 63 63
97 97 97
75 75 75
51 51 51
77 77 77
46 46 46
87 87 87
48 48 48
80 80 80
89 89 89
91 91 91
85 85 85
65 65 65
32 32 32
91 91 91
35 35 35
64 64 64
23 23 23
66 66 66
48 48 48
89 89 89
78 78 78
43 43 43
31 31 31
6 6 6
58 58 58
85 85 85
81 81 81
116 116 116
53 53 53
18 18 18
89 89 89
37 37 37
6 6 6
13 13 13
17 17 17
25 25 25
16 16 16
39 39 39
58 58 58
49 49 49
0 0 0
97 97 97
94 94 94
128 128 128
136 136 136
85 85 85
74 74 74
101 101 101
76 76 76
86 86 86
62 62 62
102 102 102
98 98 98
85 85 85
108 108 108
104 104 104
111 111 111
74 74 74
100 100 100
53 53 53
57 57 57
43 43 43
31 31 31
32 32 32
26 26 26
32 32 32
10 10 10
13 13 13
17 17 17
16 16 16
14 14 14
19 19 19
21 21 21
46 46 46
1 1 1
48 48 48
82 82 82
72 72 72
79 79 79
109 109 109
88 88 88
136 136 136
129 129 129
94 94 94
95 95 95
94 94 94
105 105 105
118 118 118
90 90 90
94 94 94
111 111 111
85 85 85
110 110 110
107 107 107
119 119 119
137 137 137
100 100 100
107 107 107
82 82 82
93 93 93
49 49 49
34 34 34
61 61 61
37 37 37
37 37 37
41 41 41
15 15 15
10 10 10
20 20 20
20 20 20
35 35 35
32 32 32
17 17 17
36 36 36
44 44 44
73 73 73
51 51 51
74 74 74
62 62 62
65 65 65
68 68 68
56 56 56
49 49 49
95 95 95
128 128 128
113 113 113
81 81 81
75 75 75
79 79 79
49 49 49
72 72 72
55 55 55
68 68 68
78 78 78
86 86 86
110 110 110
80 80 80
115 115 115
139 139 139
117 117 117
66 66 66
127 127 127
117 117 117
117 117 117
105 105 105
132 132 132
93 93 93
70 70 70
52 52 52
58 58 58
54 54 54
57 57 57
38 38 38
47 47 47
21 21 21
14 14 14
8 8 8
13 13 13
12 12 12
16 16 16
18 18 18
30 30 30
42 42 42
41 41 41
23 23 23
16 16 16
37 37 37
38 38 38
68 68 68
88 88 88
57 57 57
85 85 85
92 92 92
93 93 93
92 92 92
130 130 130
63 63 63
130 130 130
117 117 117
130 130 130
134 134 134
143 143 143
137 137 137
141 141 141
87 87 87
98 98 98
70 70 70
123 123 123
101 101 101
106 106 106
123 123 123
72 72 72
72 72 72
100 100 100
67 67 67
58 58 58
51 51 51
0 0 0
51 51 51
38 38 38
29 29 29
41 41 41
28 28 28
46 46 46
12 12 12
0 0 0
6 6 6
10 10 10
21 21 21
32 32 32
27 27 27
50 50 50
35 35 35
17 17 17
10 10 10
17 17 17
10 10 10
6 6 6
0 0 0
17 17 17
8 8 8
19 19 19
54 54 54
58 58 58
96 96 96
47 47 47
87 87 87
68 68 68
83 83 83
107 107 107
82 82 82
69 69 69
88 88 88
70 70 70
51 51 51
86 86 86
107 107 107
105 105 105
65 65 65
98 98 98
64 64 64
98 98 98
82 82 82
46 46 46
29 29 29
50 50 50
41 41 41
55 55 55
70 70 70
49 49 49
45 45 45
24 24 24
31 31 31
19 19 19
24 24 24
16 16 16
7 7 7
0 0 0
34 34 34
31 31 31
30 30 30
31 31 31
56 56 56
28 28 28
17 17 17
98 98 98
82 82 82
50 50 50
81 81 81
54 54 54
46 46 46
75 75 75
59 59 59
79 79 79
0 0 0
0 0 0
1 1 1
20 20 20
48 48 48
30 30 30
76 76 76
41 41 41
39 39 39
110 110 110
84 84 84
100 100 100
72 72 72
0 0 0
76 76 76
0 0 0
74 74 74
67 67 67
49 49 49
54 54 54
39 39 39
43 43 43
43 43 43
30 30 30
30 30 30
0 0 0
35 35 35
0 0 0
58 58 58
61 61 61
75 75 75
68 68 68
80 80 80
85 85 85
82 82 82
41 41 41
83 83 83
0 0 0
100 100 100
72 72 72
88 88 88
49 49 49
79 79 79
91 91 91
102 102 102
48 48 48
54 54 54
29 29 29
2 2 2
37 37 37
43 43 43
102 102 102
46 46 46
48 48 48
69 69 69
0 0 0
70 70 70
72 72 72
49 49 49
72 72 72
124 124 124
87 87 87
113 113 113
122 122 122
101 101 101
71 71 71
67 67 67
76 76 76
93 93 93
72 72 72
82 82 82
58 58 58
61 61 61
37 37 37
94 94 94
56 56 56
68 68 68
66 66 66
51 51 51
74 74 74
54 54 54
54 54 54
70 70 70
49 49 49
0 0 0
44 44 44
53 53 53
12 12 12
28 28 28
21 21 21
12 12 12
10 10 10
16 16 16
5 5 5
40 40 40
18 18 18
49 49 49
28 28 28
34 34 34
44 44 44
98 98 98
90 90 90
66 66 66
59 59 59
59 59 59
73 73 73
80 80 80
47 47 47
97 97 97
91 91 91
113 113 113
34 34 34
65 65 65
55 55 55
79 79 79
66 66 66
66 66 66
83 83 83
70 70 70
0 0 0
88 88 88
88 88 88
112 112 112
67 67 67
98 98 98
65 65 65
112 112 112
101 101 101
86 86 86
51 51 51
69 69 69
126 126 126
68 68 68
96 96 96
0 0 0
78 78 78
35 35 35
37 37 37
28 28 28
36 36 36
52 52 52
38 38 38
41 41 41
67 67 67
34 34 34
53 53 53
63 63 63
0 0 0
38 38 38
45 45 45
46 46 46
66 66 66
74 74 74
76 76 76
75 75 75
90 90 90
85 85 85
111 111 111
107 107 107
110 110 110
74 74 74
97 97 97
71 71 71
125 125 125
101 101 101
94 94 94
44 44 44
46 46 46
123 123 123
82 82 82
78 78 78
61 61 61
98 98 98
96 96 96
95 95 95
46 46 46
87 87 87
88 88 88
29 29 29
110 110 110
100 100 100
69 69 69
29 29 29
28 28 28
10 10 10
36 36 36
23 23 23
12 12 12
19 19 19
33 33 33
24 24 24
25 25 25
35 35 35
36 36 36
21 21 21
29 29 29
27 27 27
96 96 96
66 66 66
56 56 56
75 75 75
73 73 73
97 97 97
61 61 61
102 102 102
108 108 108
132 132 132
121 121 121
137 137 137
161 161 161
141 141 141
49 49 49
102 102 102
115 115 115
112 112 112
76 76 76
59 59 59
32 32 32
66 66 66
42 42 42
75 75 75
125 125 125
148 148 148
88 88 88
117 117 117
110 110 110
46 46 46
91 91 91
50 50 50
25 25 25
52 52 52
45 45 45
59 59 59
38 38 38
15 15 15
19 19 19
25 25 25
6 6 6
51 51 51
67 67 67
71 71 71
85 85 85
100 100 100
83 83 83
62 62 62
56 56 56
47 47 47
40 40 40
54 54 54
101 101 101
82 82 82
95 95 95
67 67 67
69 69 69
50 50 50
31 31 31
42 42 42
55 55 55
67 67 67
62 62 62
93 93 93
91 91 91
97 97 97
104 104 104
90 90 90
116 116 116
98 98 98
157 157 157
67 67 67
106 106 106
104 104 104
132 132 132
122 122 122
131 131 131
117 117 117
126 126 126
155 155 155
94 94 94
93 93 93
123 123 123
94 94 94
88 88 88
59 59 59
98 98 98
69 69 69
66 66 66
68 68 68
42 42 42
29 29 29
39 39 39
41 41 41
38 38 38
64 64 64
54 54 54
46 46 46
64 64 64
39 39 39
71 71 71
57 57 57
60 60 60
39 39 39
11 11 11
44 44 44
23 23 23
87 87 87
88 88 88
97 97 97
57 57 57
45 45 45
100 100 100
98 98 98
121 121 121
123 123 123
121 121 121
110 110 110
101 101 101
120 120 120
96 96 96
0 0 0
101 101 101
120 120 120
82 82 82
70 70 70
86 86 86
97 97 97
117 117 117
38 38 38
54 54 54
50 50 50
48 48 48
50 50 50
73 73 73
67 67 67
26 26 26
68 68 68
56 56 56
54 54 54
79 79 79
43 43 43
85 85 85
74 74 74
59 59 59
51 51 51
0 0 0
28 28 28
11 11 11
13 13 13
23 23 23
36 36 36
53 53 53
44 44 44
81 81 81
88 88 88
47 47 47
102 102 102
74 74 74
50 50 50
109 109 109
74 74 74
0 0 0
92 92 92
133 133 133
87 87 87
83 83 83
92 92 92
51 51 51
61 61 61
77 77 77
83 83 83
94 94 94
95 95 95
41 41 41
29 29 29
0 0 0
45 45 45
35 35 35
38 38 38
50 50 50
0 0 0
52 52 52
39 39 39
41 41 41
63 63 63
44 44 44
56 56 56
76 76 76
79 79 79
75 75 75
19 19 19
20 20 20
54 54 54
39 39 39
4 4 4
38 38 38
57 57 57
37 37 37
38 38 38
65 65 65
59 59 59
43 43 43
26 26 26
42 42 42
55 55 55
19 19 19
33 33 33
77 77 77
53 53 53
45 45 45
66 66 66
90 90 90
122 122 122
50 50 50
113 113 113
99 99 99
72 72 72
70 70 70
50 50 50
70 70 70
115 115 115
0 0 0
0 0 0
53 53 53
65 65 65
36 36 36
88 88 88
0 0 0
0 0 0
64 64 64
61 61 61
56 56 56
53 53 53
78 78 78
36 36 36
56 56 56
49 49 49
56 56 56
39 39 39
96 96 96
50 50 50
69 69 69
34 34 34
74 74 74
58 58 58
48 48 48
53 53 53
34 34 34
21 21 21
42 42 42
64 64 64
61 61 61
36 36 36
75 75 75
0 0 0
46 46 46
36 36 36
94 94 94
120 120 120
88 88 88
51 51 51
71 71 71
113 113 113
72 72 72
111 111 111
86 86 86
86 86 86
82 82 82
77 77 77
64 64 64
85 85 85
88 88 88
48 48 48
42 42 42
0 0 0
47 47 47
67 67 67
72 72 72
50 50 50
70 70 70
88 88 88
60 60 60
87 87 87
70 70 70
110 110 110
68 68 68
0 0 0
42 42 42
39 39 39
21 21 21
22 22 22
22 22 22
17 17 17
33 33 33
28 28 28
35 35 35
53 53 53
21 21 21
69 69 69
20 20 20
48 48 48
27 27 27
14 14 14
19 19 19
47 47 47
44 44 44
51 51 51
30 30 30
15 15 15
26 26 26
65 65 65
74 74 74
0 0 0
7 7 7
46 46 46
18 18 18
25 25 25
24 24 24
54 54 54
71 71 71
68 68 68
71 71 71
67 67 67
67 67 67
71 71 71
99 99 99
80 80 80
116 116 116
46 46 46
94 94 94
50 50 50
96 96 96
82 82 82
35 35 35
62 62 62
64 64 64
44 44 44
18 18 18
36 36 36
4 4 4
23 23 23
12 12 12
12 12 12
7 7 7
31 31 31
32 32 32
5 5 5
26 26 26
34 34 34
59 59 59
68 68 68
80 80 80
101 101 101
94 94 94
107 107 107
105 105 105
114 114 114
114 114 114
86 86 86
100 100 100
86 86 86
122 122 122
143 143 143
102 102 102
51 51 51
112 112 112
87 87 87
100 100 100
88 88 88
111 111 111
100 100 100
70 70 70
66 66 66
72 72 72
83 83 83
116 116 116
101 101 101
54 54 54
69 69 69
63 63 63
81 81 81
120 120 120
114 114 114
0 0 0
121 121 121
146 146 146
65 65 65
91 91 91
79 79 79
42 42 42
37 37 37
46 46 46
57 57 57
46 46 46
38 38 38
60 60 60
22 22 22
29 29 29
27 27 27
28 28 28
15 15 15
12 12 12
41 41 41
20 20 20
24 24 24
41 41 41
50 50 50
58 58 58
64 64 64
94 94 94
97 97 97
119 119 119
122 122 122
114 114 114
102 102 102
100 100 100
85 85 85
101 101 101
102 102 102
89 89 89
106 106 106
79 79 79
100 100 100
51 51 51
152 152 152
115 115 115
106 106 106
99 99 99
87 87 87
81 81 81
33 33 33
85 85 85
72 72 72
70 70 70
60 60 60
61 61 61
40 40 40
12 12 12
32 32 32
5 5 5
13 13 13
33 33 33
65 65 65
136 136 136
105 105 105
70 70 70
125 125 125
97 97 97
141 141 141
117 117 117
86 86 86
46 46 46
81 81 81
50 50 50
61 61 61
11 11 11
88 88 88
18 18 18
88 88 88
71 71 71
89 89 89
146 146 146
57 57 57
38 38 38
107 107 107
104 104 104
144 144 144
103 103 103
125 125 125
77 77 77
78 78 78
88 88 88
82 82 82
93 93 93
43 43 43
62 62 62
76 76 76
107 107 107
89 89 89
151 151 151
87 87 87
88 88 88
133 133 133
82 82 82
76 76 76
103 103 103
108 108 108
99 99 99
64 64 64
58 58 58
41 41 41
56 56 56
37 37 37
21 21 21
14 14 14
11 11 11
18 18 18
20 20 20
48 48 48
64 64 64
58 58 58
52 52 52
70 70 70
28 28 28
31 31 31
42 42 42
41 41 41
30 30 30
31 31 31
40 40 40
40 40 40
58 58 58
61 61 61
46 46 46
81 81 81
67 67 67
128 128 128
51 51 51
83 83 83
67 67 67
71 71 71
101 101 101
109 109 109
104 104 104
78 78 78
94 94 94
81 81 81
86 86 86
48 48 48
0 0 0
0 0 0
81 81 81
82 82 82
58 58 58
49 49 49
50 50 50
96 96 96
43 43 43
46 46 46
38 38 38
22 22 22
36 36 36
0 0 0
12 12 12
29 29 29
35 35 35
31 31 31
19 19 19
39 39 39
3 3 3
21 21 21
32 32 32
7 7 7
6 6 6
32 32 32
75 75 75
89 89 89
83 83 83
55 55 55
99 99 99
62 62 62
102 102 102
50 50 50
63 63 63
44 44 44
52 52 52
37 37 37
39 39 39
35 35 35
48 48 48
67 67 67
20 20 20
23 23 23
55 55 55
27 27 27
101 101 101
84 84 84
85 85 85
60 60 60
51 51 51
123 123 123
109 109 109
44 44 44
47 47 47
99 99 99
79 79 79
65 65 65
43 43 43
71 71 71
86 86 86
84 84 84
101 101 101
93 93 93
0 0 0
0 0 0
86 86 86
100 100 100
71 71 71
98 98 98
80 80 80
52 52 52
27 27 27
15 15 15
7 7 7
27 27 27
28 28 28
16 16 16
60 60 60
37 37 37
39 39 39
64 64 64
86 86 86
63 63 63
67 67 67
50 50 50
0 0 0
87 87 87
111 111 111
87 87 87
72 72 72
87 87 87
127 127 127
0 0 0
91 91 91
57 57 57
79 79 79
93 93 93
69 69 69
40 40 40
40 40 40
38 38 38
71 71 71
47 47 47
71 71 71
70 70 70
51 51 51
66 66 66
41 41 41
39 39 39
18 18 18
27 27 27
5 5 5
10 10 10
39 39 39
3 3 3
38 38 38
25 25 25
33 33 33
32 32 32
20 20 20
57 57 57
50 50 50
56 56 56
64 64 64
47 47 47
67 67 67
67 67 67
100 100 100
111 111 111
99 99 99
0 0 0
49 49 49
98 98 98
48 48 48
100 100 100
0 0 0
69 69 69
84 84 84
71 71 71
108 108 108
93 93 93
95 95 95
51 51 51
49 49 49
71 71 71
61 61 61
40 40 40
75 75 75
49 49 49
0 0 0
39 39 39
83 83 83
97 97 97
0 0 0
71 71 71
110 110 110
49 49 49
46 46 46
66 66 66
42 42 42
60 60 60
0 0 0
15 15 15
11 11 11
39 39 39
25 25 25
0 0 0
50 50 50
46 46 46
43 43 43
22 22 22
26 26 26
34 34 34
0 0 0
29 29 29
8 8 8
20 20 20
19 19 19
14 14 14
16 16 16
35 35 35
8 8 8
48 48 48
34 34 34
69 69 69
28 28 28
33 33 33
52 52 52
38 38 38
4 4 4
10 10 10
15 15 15
31 31 31
70 70 70
55 55 55
0 0 0
72 72 72
111 111 111
119 119 119
56 56 56
75 75 75
58 58 58
23 23 23
31 31 31
28 28 28
31 31 31
16 16 16
24 24 24
39 39 39
50 50 50
24 24 24
71 71 71
34 34 34
41 41 41
19 19 19
19 19 19
25 25 25
38 38 38
58 58 58
52 52 52
54 54 54
58 58 58
38 38 38
68 68 68
76 76 76
53 53 53
44 44 44
49 49 49
91 91 91
80 80 80
103 103 103
67 67 67
59 59 59
81 81 81
56 56 56
86 86 86
70 70 70
87 87 87
82 82 82
81 81 81
104 104 104
83 83 83
98 98 98
102 102 102
93 93 93
81 81 81
83 83 83
64 64 64
77 77 77
81 81 81
61 61 61
61 61 61
50 50 50
83 83 83
99 99 99
104 104 104
116 116 116
86 86 86
100 100 100
93 93 93
103 103 103
101 101 101
114 114 114
44 44 44
55 55 55
26 26 26
18 18 18
12 12 12
22 22 22
32 32 32
25 25 25
25 25 25
30 30 30
20 20 20
38 38 38
34 34 34
68 68 68
52 52 52
56 56 56
88 88 88
94 94 94
130 130 130
86 86 86
135 135 135
113 113 113
114 114 114
70 70 70
50 50 50
132 132 132
134 134 134
113 113 113
102 102 102
111 111 111
108 108 108
70 70 70
58 58 58
61 61 61
72 72 72
60 60 60
79 79 79
36 36 36
76 76 76
89 89 89
70 70 70
37 37 37
27 27 27
19 19 19
5 5 5
26 26 26
3 3 3
13 13 13
25 25 25
80 80 80
73 73 73
87 87 87
109 109 109
101 101 101
50 50 50
99 99 99
93 93 93
64 64 64
66 66 66
35 35 35
28 28 28
62 62 62
29 29 29
43 43 43
71 71 71
36 36 36
46 46 46
97 97 97
69 69 69
84 84 84
86 86 86
90 90 90
170 170 170
111 111 111
86 86 86
124 124 124
106 106 106
87 87 87
109 109 109
107 107 107
111 111 111
106 106 106
81 81 81
95 95 95
70 70 70
111 111 111
121 121 121
115 115 115
87 87 87
89 89 89
69 69 69
92 92 92
84 84 84
46 46 46
52 52 52
48 48 48
64 64 64
16 16 16
15 15 15
26 26 26
23 23 23
13 13 13
7 7 7
35 35 35
34 34 34
0 0 0
22 22 22
27 27 27
33 33 33
31 31 31
53 53 53
63 63 63
31 31 31
81 81 81
87 87 87
38 38 38
100 100 100
65 65 65
47 47 47
83 83 83
78 78 78
60 60 60
62 62 62
76 76 76
114 114 114
94 94 94
134 134 134
101 101 101
123 123 123
70 70 70
72 72 72
51 51 51
113 113 113
73 73 73
106 106 106
81 81 81
61 61 61
79 79 79
68 68 68
58 58 58
56 56 56
85 85 85
70 70 70
113 113 113
110 110 110
82 82 82
66 66 66
64 64 64
42 42 42
71 71 71
66 66 66
46 46 46
17 17 17
21 21 21
8 8 8
21 21 21
14 14 14
62 62 62
34 34 34
46 46 46
26 26 26
37 37 37
2 2 2
36 36 36
31 31 31
32 32 32
16 16 16
53 53 53
38 38 38
25 25 25
51 51 51
60 60 60
47 47 47
63 63 63
20 20 20
24 24 24
9 9 9
21 21 21
53 53 53
3 3 3
50 50 50
33 33 33
8 8 8
28 28 28
48 48 48
0 0 0
43 43 43
44 44 44
43 43 43
61 61 61
53 53 53
85 85 85
63 63 63
69 69 69
57 57 57
78 78 78
68 68 68
0 0 0
83 83 83
119 119 119
47 47 47
0 0 0
70 70 70
101 101 101
87 87 87
103 103 103
31 31 31
34 34 34
12 12 12
0 0 0
34 34 34
24 24 24
21 21 21
60 60 60
27 27 27
61 61 61
78 78 78
67 67 67
48 48 48
104 104 104
84 84 84
49 49 49
59 59 59
0 0 0
72 72 72
78 78 78
70 70 70
87 87 87
69 69 69
80 80 80
87 87 87
101 101 101
83 83 83
79 79 79
85 85 85
50 50 50
71 71 71
0 0 0
46 46 46
72 72 72
50 50 50
64 64 64
41 41 41
33 33 33
21 21 21
26 26 26
37 37 37
33 33 33
7 7 7
40 40 40
0 0 0
44 44 44
39 39 39
34 34 34
0 0 0
30 30 30
41 41 41
41 41 41
74 74 74
0 0 0
78 78 78
103 103 103
40 40 40
76 76 76
58 58 58
61 61 61
38 38 38
32 32 32
55 55 55
58 58 58
51 51 51
39 39 39
83 83 83
89 89 89
54 54 54
0 0 0
45 45 45
66 66 66
62 62 62
24 24 24
47 47 47
0 0 0
46 46 46
71 71 71
59 59 59
39 39 39
86 86 86
68 68 68
0 0 0
85 85 85
0 0 0
35 35 35
61 61 61
64 64 64
0 0 0
31 31 31
9 9 9
0 0 0
17 17 17
48 48 48
45 45 45
36 36 36
35 35 35
46 46 46
0 0 0
42 42 42
50 50 50
50 50 50
55 55 55
51 51 51
34 34 34
38 38 38
12 12 12
7 7 7
30 30 30
80 80 80
34 34 34
39 39 39
92 92 92
49 49 49
88 88 88
16 16 16
43 43 43
54 54 54
0 0 0
26 26 26
37 37 37
109 109 109
80 80 80
107 107 107
0 0 0
86 86 86
82 82 82
36 36 36
46 46 46
50 50 50
66 66 66
20 20 20
24 24 24
64 64 64
30 30 30
46 46 46
51 51 51
33 33 33
29 29 29
37 37 37
32 32 32
25 25 25
20 20 20
14 14 14
25 25 25
12 12 12
10 10 10
14 14 14
14 14 14
25 25 25
29 29 29
18 18 18
32 32 32
0 0 0
26 26 26
31 31 31
67 67 67
45 45 45
48 48 48
30 30 30
17 17 17
7 7 7
15 15 15
5 5 5
28 28 28
45 45 45
5 5 5
22 22 22
10 10 10
59 59 59
39 39 39
106 106 106
69 69 69
108 108 108
112 112 112
118 118 118
114 114 114
72 72 72
91 91 91
57 57 57
65 65 65
48 48 48
52 52 52
56 56 56
40 40 40
62 62 62
0 0 0
46 46 46
37 37 37
54 54 54
40 40 40
41 41 41
37 37 37
36 36 36
41 41 41
32 32 32
20 20 20
19 19 19
26 26 26
33 33 33
27 27 27
56 56 56
63 63 63
47 47 47
82 82 82
51 51 51
66 66 66
88 88 88
78 78 78
81 81 81
107 107 107
118 118 118
133 133 133
99 99 99
109 109 109
100 100 100
88 88 88
130 130 130
133 133 133
87 87 87
88 88 88
110 110 110
88 88 88
136 136 136
110 110 110
122 122 122
92 92 92
82 82 82
85 85 85
90 90 90
90 90 90
104 104 104
58 58 58
70 70 70
63 63 63
65 65 65
58 58 58
53 53 53
42 42 42
24 24 24
10 10 10
11 11 11
16 16 16
29 29 29
18 18 18
20 20 20
29 29 29
34 34 34
34 34 34
23 23 23
28 28 28
49 49 49
44 44 44
40 40 40
18 18 18
75 75 75
60 60 60
78 78 78
47 47 47
94 94 94
100 100 100
97 97 97
89 89 89
108 108 108
106 106 106
137 137 137
102 102 102
117 117 117
132 132 132
93 93 93
100 100 100
69 69 69
100 100 100
122 122 122
87 87 87
94 94 94
71 71 71
90 90 90
71 71 71
94 94 94
75 75 75
48 48 48
87 87 87
77 77 77
90 90 90
101 101 101
51 51 51
76 76 76
89 89 89
129 129 129
109 109 109
86 86 86
76 76 76
35 35 35
41 41 41
17 17 17
16 16 16
14 14 14
18 18 18
27 27 27
23 23 23
28 28 28
43 43 43
30 30 30
27 27 27
30 30 30
13 13 13
10 10 10
11 11 11
19 19 19
10 10 10
21 21 21
9 9 9
30 30 30
39 39 39
39 39 39
39 39 39
11 11 11
42 42 42
33 33 33
66 66 66
74 74 74
65 65 65
6 6 6
85 85 85
113 113 113
71 71 71
71 71 71
109 109 109
81 81 81
107 107 107
125 125 125
112 112 112
50 50 50
63 63 63
99 99 99
71 71 71
113 113 113
102 102 102
94 94 94
83 83 83
84 84 84
0 0 0
0 0 0
0 0 0
81 81 81
42 42 42
46 46 46
87 87 87
92 92 92
88 88 88
37 37 37
87 87 87
64 64 64
90 90 90
39 39 39
43 43 43
21 21 21
13 13 13
20 20 20
22 22 22
0 0 0
7 7 7
37 37 37
57 57 57
63 63 63
90 90 90
44 44 44
68 68 68
32 32 32
36 36 36
0 0 0
62 62 62
55 55 55
58 58 58
76 76 76
85 85 85
66 66 66
56 56 56
17 17 17
17 17 17
21 21 21
12 12 12
25 25 25
32 32 32
45 45 45
22 22 22
30 30 30
47 47 47
26 26 26
73 73 73
124 124 124
79 79 79
61 61 61
84 84 84
82 82 82
48 48 48
69 69 69
86 86 86
98 98 98
68 68 68
58 58 58
9 9 9
17 17 17
21 21 21
27 27 27
0 0 0
57 57 57
63 63 63
46 46 46
82 82 82
32 32 32
0 0 0
108 108 108
87 87 87
68 68 68
31 31 31
38 38 38
42 42 42
11 11 11
6 6 6
28 28 28
28 28 28
44 44 44
14 14 14
0 0 0
54 54 54
12 12 12
75 75 75
45 45 45
68 68 68
101 101 101
72 72 72
88 88 88
51 51 51
101 101 101
71 71 71
45 45 45
71 71 71
82 82 82
49 49 49
70 70 70
32 32 32
34 34 34
52 52 52
17 17 17
20 20 20
11 11 11
9 9 9
3 3 3
30 30 30
52 52 52
32 32 32
33 33 33
58 58 58
56 56 56
28 28 28
22 22 22
10 10 10
5 5 5
20 20 20
15 15 15
14 14 14
9 9 9
17 17 17
29 29 29
0 0 0
29 29 29
19 19 19
33 33 33
18 18 18
8 8 8
2 2 2
7 7 7
13 13 13
31 31 31
22 22 22
48 48 48
72 72 72
48 48 48
100 100 100
0 0 0
62 62 62
31 31 31
46 46 46
42 42 42
41 41 41
16 16 16
13 13 13
4 4 4
10 10 10
7 7 7
16 16 16
19 19 19
30 30 30
0 0 0
36 36 36
57 57 57
47 47 47
49 49 49
48 48 48
63 63 63
96 96 96
38 38 38
83 83 83
58 58 58
83 83 83
41 41 41
61 61 61
73 73 73
56 56 56
77 77 77
30 30 30
101 101 101
64 64 64
101 101 101
88 88 88
50 50 50
88 88 88
87 87 87
48 48 48
138 138 138
69 69 69
81 81 81
68 68 68
80 80 80
50 50 50
46 46 46
58 58 58
67 67 67
34 34 34
58 58 58
64 64 64
59 59 59
49 49 49
61 61 61
24 24 24
41 41 41
59 59 59
31 31 31
41 41 41
32 32 32
15 15 15
31 31 31
35 35 35
36 36 36
47 47 47
35 35 35
49 49 49
73 73 73
22 22 22
28 28 28
31 31 31
42 42 42
33 33 33
32 32 32
8 8 8
36 36 36
24 24 24
30 30 30
28 28 28
45 45 45
39 39 39
37 37 37
35 35 35
18 18 18
30 30 30
19 19 19
17 17 17
1 1 1
54 54 54
61 61 61
83 83 83
88 88 88
121 121 121
134 134 134
100 100 100
126 126 126
62 62 62
60 60 60
108 108 108
56 56 56
56 56 56
64 64 64
66 66 66
50 50 50
81 81 81
47 47 47
35 35 35
46 46 46
50 50 50
0 0 0
14 14 14
21 21 21
0 0 0
3 3 3
6 6 6
19 19 19
11 11 11
14 14 14
14 14 14
19 19 19
34 34 34
47 47 47
22 22 22
57 57 57
77 77 77
69 69 69
72 72 72
117 117 117
64 64 64
133 133 133
47 47 47
84 84 84
87 87 87
72 72 72
123 123 123
104 104 104
122 122 122
49 49 49
101 101 101
86 86 86
122 122 122
84 84 84
158 158 158
101 101 101
100 100 100
89 89 89
126 126 126
86 86 86
74 74 74
49 49 49
94 94 94
80 80 80
130 130 130
107 107 107
120 120 120
112 112 112
80 80 80
81 81 81
59 59 59
62 62 62
50 50 50
40 40 40
17 17 17
3 3 3
16 16 16
31 31 31
52 52 52
37 37 37
27 27 27
35 35 35
65 65 65
50 50 50
29 29 29
74 74 74
49 49 49
48 48 48
5 5 5
28 28 28
35 35 35
54 54 54
54 54 54
97 97 97
84 84 84
95 95 95
88 88 88
80 80 80
62 62 62
62 62 62
70 70 70
85 85 85
132 132 132
102 102 102
123 123 123
140 140 140
119 119 119
94 94 94
45 45 45
87 87 87
77 77 77
105 105 105
63 63 63
88 88 88
108 108 108
99 99 99
132 132 132
112 112 112
112 112 112
111 111 111
48 48 48
99 99 99
119 119 119
0 0 0
70 70 70
77 77 77
40 40 40
18 18 18
15 15 15
23 23 23
20 20 20
38 38 38
22 22 22
33 33 33
30 30 30
11 11 11
19 19 19
8 8 8
9 9 9
9 9 9
10 10 10
9 9 9
9 9 9
38 38 38
0 0 0
77 77 77
51 51 51
39 39 39
24 24 24
25 25 25
38 38 38
20 20 20
18 18 18
7 7 7
46 46 46
19 19 19
45 45 45
15 15 15
40 40 40
19 19 19
50 50 50
61 61 61
39 39 39
54 54 54
44 44 44
87 87 87
50 50 50
71 71 71
0 0 0
48 48 48
97 97 97
84 84 84
51 51 51
0 0 0
55 55 55
37 37 37
60 60 60
71 71 71
80 80 80
43 43 43
43 43 43
67 67 67
76 76 76
66 66 66
30 30 30
24 24 24
27 27 27
11 11 11
11 11 11
0 0 0
42 42 42
37 37 37
71 71 71
67 67 67
33 33 33
0 0 0
42 42 42
79 79 79
46 46 46
70 70 70
70 70 70
67 67 67
0 0 0
47 47 47
51 51 51
51 51 51
87 87 87
70 70 70
71 71 71
78 78 78
98 98 98
92 92 92
78 78 78
50 50 50
36 36 36
104 104 104
89 89 89
94 94 94
74 74 74
72 72 72
61 61 61
57 57 57
76 76 76
62 62 62
50 50 50
97 97 97
98 98 98
99 99 99
86 86 86
0 0 0
72 72 72
49 49 49
30 30 30
53 53 53
13 13 13
15 15 15
19 19 19
23 23 23
27 27 27
28 28 28
16 16 16
9 9 9
40 40 40
3 3 3
63 63 63
28 28 28
50 50 50
23 23 23
87 87 87
44 44 44
48 48 48
18 18 18
51 51 51
27 27 27
20 20 20
18 18 18
37 37 37
8 8 8
30 30 30
33 33 33
0 0 0
63 63 63
66 66 66
78 78 78
54 54 54
39 39 39
77 77 77
67 67 67
37 37 37
24 24 24
12 12 12
16 16 16
5 5 5
13 13 13
9 9 9
4 4 4
0 0 0
6 6 6
63 63 63
25 25 25
71 71 71
0 0 0
84 84 84
75 75 75
35 35 35
33 33 33
67 67 67
9 9 9
36 36 36
0 0 0
15 15 15
16 16 16
8 8 8
0 0 0
12 12 12
19 19 19
31 31 31
31 31 31
42 42 42
57 57 57
0 0 0
29 29 29
42 42 42
98 98 98
27 27 27
82 82 82
71 71 71
92 92 92
70 70 70
49 49 49
68 68 68
52 52 52
46 46 46
45 45 45
1 1 1
46 46 46
59 59 59
38 38 38
27 27 27
31 31 31
25 25 25
24 24 24
24 24 24
6 6 6
1 1 1
30 30 30
0 0 0
29 29 29
50 50 50
51 51 51
54 54 54
46 46 46
69 69 69
68 68 68
69 69 69
53 53 53
37 37 37
15 15 15
10 10 10
9 9 9
8 8 8
5 5 5
12 12 12
38 38 38
25 25 25
38 38 38
54 54 54
47 47 47
53 53 53
24 24 24
88 88 88
52 52 52
72 72 72
132 132 132
95 95 95
108 108 108
73 73 73
93 93 93
59 59 59
88 88 88
27 27 27
67 67 67
37 37 37
0 0 0
54 54 54
52 52 52
26 26 26
34 34 34
30 30 30
10 10 10
0 0 0
15 15 15
25 25 25
32 32 32
54 54 54
25 25 25
0 0 0
34 34 34
60 60 60
65 65 65
62 62 62
96 96 96
69 69 69
69 69 69
28 28 28
51 51 51
96 96 96
23 23 23
72 72 72
37 37 37
53 53 53
4 4 4
23 23 23
31 31 31
77 77 77
0 0 0
75 75 75
55 55 55
32 32 32
59 59 59
77 77 77
91 91 91
43 43 43
67 67 67
133 133 133
99 99 99
101 101 101
76 76 76
92 92 92
41 41 41
80 80 80
45 45 45
45 45 45
55 55 55
0 0 0
32 32 32
57 57 57
71 71 71
81 81 81
46 46 46
77 77 77
27 27 27
32 32 32
47 47 47
44 44 44
62 62 62
73 73 73
60 60 60
60 60 60
48 48 48
57 57 57
36 36 36
19 19 19
29 29 29
17 17 17
9 9 9
22 22 22
33 33 33
45 45 45
9 9 9
49 49 49
49 49 49
67 67 67
76 76 76
82 82 82
49 49 49
85 85 85
71 71 71
111 111 111
85 85 85
93 93 93
105 105 105
86 86 86
97 97 97
72 72 72
88 88 88
135 135 135
87 87 87
105 105 105
106 106 106
91 91 91
101 101 101
49 49 49
71 71 71
117 117 117
102 102 102
100 100 100
88 88 88
114 114 114
71 71 71
86 86 86
97 97 97
84 84 84
70 70 70
66 66 66
128 128 128
69 69 69
52 52 52
30 30 30
15 15 15
23 23 23
21 21 21
36 36 36
32 32 32
29 29 29
32 32 32
19 19 19
27 27 27
17 17 17
13 13 13
8 8 8
11 11 11
32 32 32
0 0 0
42 42 42
69 69 69
84 84 84
85 85 85
43 43 43
39 39 39
63 63 63
0 0 0
0 0 0
57 57 57
49 49 49
58 58 58
54 54 54
90 90 90
126 126 126
92 92 92
107 107 107
0 0 0
81 81 81
104 104 104
80 80 80
80 80 80
112 112 112
134 134 134
132 132 132
95 95 95
64 64 64
75 75 75
61 61 61
48 48 48
31 31 31
14 14 14
21 21 21
13 13 13
20 20 20
10 10 10
7 7 7
42 42 42
26 26 26
36 36 36
40 40 40
3 3 3
29 29 29
22 22 22
15 15 15
32 32 32
10 10 10
34 34 34
25 25 25
7 7 7
10 10 10
22 22 22
35 35 35
24 24 24
33 33 33
23 23 23
20 20 20
20 20 20
14 14 14
15 15 15
8 8 8
19 19 19
22 22 22
35 35 35
56 56 56
42 42 42
88 88 88
72 72 72
66 66 66
59 59 59
69 69 69
97 97 97
70 70 70
87 87 87
53 53 53
49 49 49
29 29 29
93 93 93
81 81 81
69 69 69
93 93 93
56 56 56
46 46 46
11 11 11
20 20 20
28 28 28
16 16 16
3 3 3
13 13 13
17 17 17
9 9 9
23 23 23
29 29 29
22 22 22
14 14 14
35 35 35
12 12 12
29 29 29
0 0 0
23 23 23
35 35 35
28 28 28
45 45 45
36 36 36
65 65 65
46 46 46
56 56 56
89 89 89
68 68 68
98 98 98
0 0 0
51 51 51
72 72 72
43 43 43
81 81 81
38 38 38
59 59 59
47 47 47
66 66 66
44 44 44
104 104 104
50 50 50
67 67 67
51 51 51
35 35 35
0 0 0
0 0 0
82 82 82
59 59 59
49 49 49
27 27 27
48 48 48
61 61 61
32 32 32
54 54 54
11 11 11
8 8 8
63 63 63
41 41 41
34 34 34
16 16 16
43 43 43
13 13 13
18 18 18
32 32 32
35 35 35
30 30 30
46 46 46
15 15 15
42 42 42
20 20 20
23 23 23
12 12 12
20 20 20
40 40 40
59 59 59
73 73 73
96 96 96
43 43 43
37 37 37
17 17 17
0 0 0
27 27 27
0 0 0
45 45 45
0 0 0
62 62 62
54 54 54
44 44 44
21 21 21
44 44 44
62 62 62
39 39 39
29 29 29
22 22 22
34 34 34
25 25 25
19 19 19
0 0 0
11 11 11
12 12 12
17 17 17
40 40 40
37 37 37
35 35 35
56 56 56
39 39 39
40 40 40
67 67 67
0 0 0
91 91 91
69 69 69
0 0 0
123 123 123
87 87 87
86 86 86
84 84 84
72 72 72
88 88 88
97 97 97
79 79 79
87 87 87
70 70 70
86 86 86
0 0 0
83 83 83
58 58 58
105 105 105
47 47 47
71 71 71
0 0 0
55 55 55
52 52 52
66 66 66
54 54 54
36 36 36
42 42 42
27 27 27
29 29 29
37 37 37
39 39 39
54 54 54
0 0 0
13 13 13
33 33 33
23 23 23
19 19 19
4 4 4
29 29 29
34 34 34
27 27 27
33 33 33
0 0 0
25 25 25
23 23 23
23 23 23
58 58 58
38 38 38
57 57 57
28 28 28
0 0 0
9 9 9
24 24 24
20 20 20
11 11 11
4 4 4
11 11 11
7 7 7
11 11 11
32 32 32
26 26 26
19 19 19
0 0 0
49 49 49
40 40 40
64 64 64
86 86 86
111 111 111
67 67 67
100 100 100
68 68 68
74 74 74
59 59 59
74 74 74
79 79 79
76 76 76
88 88 88
68 68 68
92 92 92
113 113 113
91 91 91
78 78 78
53 53 53
50 50 50
37 37 37
41 41 41
72 72 72
53 53 53
89 89 89
119 119 119
65 65 65
65 65 65
96 96 96
79 79 79
78 78 78
71 71 71
71 71 71
87 87 87
114 114 114
85 85 85
72 72 72
50 50 50
86 86 86
81 81 81
75 75 75
69 69 69
64 64 64
58 58 58
37 37 37
4 4 4
34 34 34
47 47 47
26 26 26
47 47 47
70 70 70
76 76 76
39 39 39
80 80 80
64 64 64
72 72 72
101 101 101
109 109 109
65 65 65
69 69 69
68 68 68
106 106 106
102 102 102
44 44 44
62 62 62
61 61 61
67 67 67
64 64 64
0 0 0
46 46 46
46 46 46
63 63 63
42 42 42
54 54 54
37 37 37
37 37 37
68 68 68
44 44 44
31 31 31
36 36 36
19 19 19
11 11 11
0 0 0
4 4 4
18 18 18
22 22 22
15 15 15
34 34 34
59 59 59
40 40 40
60 60 60
80 80 80
29 29 29
89 89 89
77 77 77
76 76 76
31 31 31
58 58 58
35 35 35
66 66 66
122 122 122
51 51 51
107 107 107
97 97 97
73 73 73
64 64 64
110 110 110
82 82 82
51 51 51
131 131 131
107 107 107
93 93 93
0 0 0
97 97 97
97 97 97
119 119 119
70 70 70
100 100 100
88 88 88
98 98 98
64 64 64
88 88 88
64 64 64
62 62 62
80 80 80
49 49 49
83 83 83
59 59 59
0 0 0
19 19 19
57 57 57
48 48 48
32 32 32
59 59 59
71 71 71
71 71 71
64 64 64
92 92 92
49 49 49
54 54 54
39 39 39
23 23 23
80 80 80
36 36 36
25 25 25
19 19 19
0 0 0
20 20 20
42 42 42
37 37 37
38 38 38
38 38 38
48 48 48
49 49 49
31 31 31
23 23 23
76 76 76
86 86 86
44 44 44
61 61 61
68 68 68
82 82 82
80 80 80
71 71 71
69 69 69
66 66 66
97 97 97
104 104 104
79 79 79
66 66 66
83 83 83
69 69 69
84 84 84
109 109 109
77 77 77
49 49 49
39 39 39
61 61 61
25 25 25
34 34 34
45 45 45
56 56 56
51 51 51
69 69 69
69 69 69
59 59 59
97 97 97
73 73 73
56 56 56
70 70 70
38 38 38
43 43 43
9 9 9
21 21 21
18 18 18
21 21 21
29 29 29
25 25 25
41 41 41
41 41 41
22 22 22
0 0 0
12 12 12
69 69 69
0 0 0
63 63 63
53 53 53
65 65 65
88 88 88
0 0 0
71 71 71
101 101 101
111 111 111
50 50 50
99 99 99
51 51 51
80 80 80
41 41 41
83 83 83
95 95 95
71 71 71
65 65 65
49 49 49
71 71 71
86 86 86
56 56 56
38 38 38
55 55 55
26 26 26
15 15 15
30 30 30
0 0 0
0 0 0
2 2 2
33 33 33
6 6 6
30 30 30
15 15 15
0 0 0
27 27 27
27 27 27
39 39 39
40 40 40
24 24 24
22 22 22
9 9 9
28 28 28
3 3 3
0 0 0
72 72 72
72 72 72
56 56 56
66 66 66
34 34 34
44 44 44
67 67 67
77 77 77
79 79 79
96 96 96
56 56 56
41 41 41
102 102 102
68 68 68
76 76 76
0 0 0
41 41 41
43 43 43
60 60 60
75 75 75
46 46 46
68 68 68
0 0 0
84 84 84
48 48 48
86 86 86
60 60 60
53 53 53
48 48 48
0 0 0
0 0 0
37 37 37
32 32 32
15 15 15
36 36 36
12 12 12
13 13 13
13 13 13
9 9 9
19 19 19
7 7 7
41 41 41
31 31 31
33 33 33
36 36 36
12 12 12
28 28 28
0 0 0
4 4 4
1 1 1
17 17 17
38 38 38
25 25 25
24 24 24
39 39 39
42 42 42
0 0 0
77 77 77
63 63 63
44 44 44
44 44 44
78 78 78
33 33 33
48 48 48
25 25 25
20 20 20
5 5 5
1 1 1
8 8 8
8 8 8
10 10 10
0 0 0
23 23 23
2 2 2
3 3 3
10 10 10
0 0 0
5 5 5
0 0 0
10 10 10
16 16 16
19 19 19
19 19 19
40 40 40
0 0 0
14 14 14
0 0 0
76 76 76
1 1 1
59 59 59
67 67 67
59 59 59
47 47 47
98 98 98
50 50 50
72 72 72
62 62 62
87 87 87
0 0 0
15 15 15
83 83 83
80 80 80
44 44 44
91 91 91
40 40 40
62 62 62
36 36 36
36 36 36
58 58 58
0 0 0
0 0 0
54 54 54
34 34 34
57 57 57
72 72 72
40 40 40
33 33 33
0 0 0
15 15 15
19 19 19
1 1 1
7 7 7
9 9 9
17 17 17
36 36 36
43 43 43
0 0 0
18 18 18
67 67 67
23 23 23
32 32 32
32 32 32
32 32 32
16 16 16
30 30 30
0 0 0
52 52 52
49 49 49
35 35 35
58 58 58
36 36 36
30 30 30
34 34 34
0 0 0
20 20 20
23 23 23
12 12 12
16 16 16
24 24 24
27 27 27
68 68 68
44 44 44
0 0 0
71 71 71
81 81 81
79 79 79
43 43 43
41 41 41
74 74 74
86 86 86
60 60 60
62 62 62
0 0 0
45 45 45
31 31 31
32 32 32
47 47 47
38 38 38
30 30 30
0 0 0
19 19 19
7 7 7
7 7 7
31 31 31
37 37 37
8 8 8
72 72 72
53 53 53
49 49 49
73 73 73
19 19 19
12 12 12
50 50 50
47 47 47
44 44 44
48 48 48
67 67 67
44 44 44
42 42 42
78 78 78
55 55 55
58 58 58
54 54 54
46 46 46
22 22 22
49 49 49
35 35 35
5 5 5
17 17 17
14 14 14
26 26 26
25 25 25
36 36 36
37 37 37
64 64 64
60 60 60
57 57 57
102 102 102
106 106 106
37 37 37
92 92 92
85 85 85
84 84 84
125 125 125
71 71 71
106 106 106
63 63 63
75 75 75
52 52 52
97 97 97
0 0 0
51 51 51
60 60 60
58 58 58
32 32 32
19 19 19
4 4 4
0 0 0
8 8 8
8 8 8
4 4 4
12 12 12
17 17 17
34 34 34
45 45 45
26 26 26
43 43 43
18 18 18
27 27 27
1 1 1
7 7 7
7 7 7
5 5 5
26 26 26
27 27 27
39 39 39
7 7 7
36 36 36
80 80 80
30 30 30
3 3 3
12 12 12
37 37 37
23 23 23
20 20 20
21 21 21
31 31 31
35 35 35
28 28 28
24 24 24
76 76 76
51 51 51
71 71 71
79 79 79
62 62 62
109 109 109
65 65 65
81 81 81
79 79 79
75 75 75
90 90 90
46 46 46
0 0 0
54 54 54
91 91 91
55 55 55
66 66 66
29 29 29
33 33 33
25 25 25
19 19 19
40 40 40
36 36 36
67 67 67
63 63 63
105 105 105
130 130 130
92 92 92
65 65 65
52 52 52
0 0 0
61 61 61
88 88 88
30 30 30
47 47 47
31 31 31
19 19 19
40 40 40
24 24 24
37 37 37
25 25 25
4 4 4
32 32 32
39 39 39
41 41 41
36 36 36
49 49 49
54 54 54
65 65 65
86 86 86
76 76 76
77 77 77
69 69 69
102 102 102
118 118 118
85 85 85
119 119 119
82 82 82
48 48 48
87 87 87
100 100 100
97 97 97
84 84 84
122 122 122
86 86 86
72 72 72
69 69 69
0 0 0
73 73 73
23 23 23
63 63 63
4 4 4
35 35 35
16 16 16
18 18 18
31 31 31
41 41 41
59 59 59
63 63 63
21 21 21
43 43 43
26 26 26
9 9 9
28 28 28
17 17 17
19 19 19
19 19 19
10 10 10
42 42 42
66 66 66
53 53 53
40 40 40
72 72 72
90 90 90
87 87 87
94 94 94
93 93 93
49 49 49
131 131 131
67 67 67
11 11 11
50 50 50
102 102 102
76 76 76
91 91 91
79 79 79
85 85 85
51 51 51
71 71 71
106 106 106
69 69 69
82 82 82
67 67 67
75 75 75
95 95 95
69 69 69
108 108 108
0 0 0
107 107 107
53 53 53
9 9 9
83 83 83
43 43 43
76 76 76
0 0 0
90 90 90
41 41 41
41 41 41
58 58 58
0 0 0
32 32 32
0 0 0
35 35 35
37 37 37
25 25 25
21 21 21
26 26 26
17 17 17
49 49 49
23 23 23
0 0 0
15 15 15
33 33 33
33 33 33
78 78 78
54 54 54
60 60 60
47 47 47
42 42 42
0 0 0
79 79 79
74 74 74
69 69 69
84 84 84
102 102 102
66 66 66
63 63 63
46 46 46
65 65 65
49 49 49
102 102 102
95 95 95
0 0 0
93 93 93
77 77 77
71 71 71
59 59 59
49 49 49
87 87 87
35 35 35
28 28 28
49 49 49
48 48 48
27 27 27
16 16 16
20 20 20
31 31 31
30 30 30
22 22 22
25 25 25
38 38 38
31 31 31
29 29 29
19 19 19
16 16 16
28 28 28
42 42 42
0 0 0
39 39 39
15 15 15
0 0 0
0 0 0
24 24 24
44 44 44
26 26 26
32 32 32
0 0 0
12 12 12
52 52 52
43 43 43
44 44 44
66 66 66
75 75 75
0 0 0
70 70 70
45 45 45
0 0 0
0 0 0
3 3 3
10 10 10
1 1 1
24 24 24
32 32 32
15 15 15
15 15 15
8 8 8
0 0 0
27 27 27
31 31 31
18 18 18
19 19 19
25 25 25
32 32 32
40 40 40
6 6 6
29 29 29
5 5 5
19 19 19
23 23 23
39 39 39
64 64 64
49 49 49
83 83 83
51 51 51
51 51 51
71 71 71
112 112 112
87 87 87
101 101 101
88 88 88
71 71 71
0 0 0
67 67 67
65 65 65
70 70 70
40 40 40
35 35 35
54 54 54
37 37 37
38 38 38
35 35 35
0 0 0
54 54 54
0 0 0
32 32 32
23 23 23
0 0 0
28 28 28
0 0 0
13 13 13
12 12 12
28 28 28
38 38 38
43 43 43
0 0 0
0 0 0
79 79 79
69 69 69
84 84 84
89 89 89
121 121 121
91 91 91
109 109 109
51 51 51
109 109 109
51 51 51
0 0 0
44 44 44
58 58 58
69 69 69
37 37 37
19 19 19
5 5 5
3 3 3
20 20 20
29 29 29
11 11 11
44 44 44
0 0 0
81 81 81
84 84 84
103 103 103
70 70 70
47 47 47
0 0 0
79 79 79
67 67 67
64 64 64
58 58 58
73 73 73
62 62 62
37 37 37
35 35 35
54 54 54
64 64 64
34 34 34
27 27 27
41 41 41
56 56 56
35 35 35
37 37 37
7 7 7
21 21 21
10 10 10
15 15 15
39 39 39
32 32 32
34 34 34
41 41 41
65 65 65
45 45 45
43 43 43
31 31 31
36 36 36
60 60 60
25 25 25
36 36 36
37 37 37
23 23 23
55 55 55
61 61 61
0 0 0
51 51 51
38 38 38
45 45 45
26 26 26
0 0 0
16 16 16
6 6 6
31 31 31
19 19 19
34 34 34
60 60 60
96 96 96
95 95 95
75 75 75
81 81 81
107 107 107
84 84 84
57 57 57
90 90 90
0 0 0
84 84 84
121 121 121
102 102 102
101 101 101
101 101 101
101 101 101
86 86 86
87 87 87
88 88 88
71 71 71
0 0 0
57 57 57
40 40 40
37 37 37
52 52 52
29 29 29
28 28 28
4 4 4
8 8 8
5 5 5
18 18 18
18 18 18
25 25 25
0 0 0
3 3 3
60 60 60
18 18 18
54 54 54
34 34 34
38 38 38
19 19 19
40 40 40
25 25 25
15 15 15
24 24 24
9 9 9
31 31 31
20 20 20
28 28 28
27 27 27
52 52 52
40 40 40
40 40 40
42 42 42
57 57 57
0 0 0
26 26 26
15 15 15
45 45 45
28 28 28
36 36 36
58 58 58
33 33 33
28 28 28
18 18 18
35 35 35
48 48 48
36 36 36
42 42 42
35 35 35
20 20 20
21 21 21
130 130 130
101 101 101
37 37 37
89 89 89
65 65 65
63 63 63
16 16 16
13 13 13
17 17 17
77 77 77
84 84 84
48 48 48
67 67 67
66 66 66
60 60 60
67 67 67
51 51 51
33 33 33
23 23 23
16 16 16
38 38 38
51 51 51
28 28 28
61 61 61
14 14 14
25 25 25
14 14 14
16 16 16
12 12 12
36 36 36
42 42 42
43 43 43
66 66 66
45 45 45
35 35 35
0 0 0
101 101 101
96 96 96
124 124 124
87 87 87
123 123 123
71 71 71
96 96 96
45 45 45
113 113 113
111 111 111
74 74 74
42 42 42
66 66 66
49 49 49
71 71 71
40 40 40
53 53 53
93 93 93
63 63 63
68 68 68
63 63 63
70 70 70
39 39 39
37 37 37
55 55 55
42 42 42
8 8 8
47 47 47
11 11 11
7 7 7
8 8 8
13 13 13
9 9 9
24 24 24
29 29 29
33 33 33
47 47 47
40 40 40
34 34 34
43 43 43
69 69 69
50 50 50
50 50 50
56 56 56
79 79 79
56 56 56
66 66 66
66 66 66
35 35 35
81 81 81
43 43 43
0 0 0
29 29 29
77 77 77
65 65 65
71 71 71
86 86 86
71 71 71
71 71 71
100 100 100
51 51 51
71 71 71
65 65 65
41 41 41
103 103 103
79 79 79
75 75 75
71 71 71
0 0 0
36 36 36
41 41 41
45 45 45
67 67 67
39 39 39
78 78 78
67 67 67
39 39 39
72 72 72
48 48 48
28 28 28
24 24 24
0 0 0
23 23 23
9 9 9
9 9 9
14 14 14
22 22 22
27 27 27
39 39 39
24 24 24
36 36 36
27 27 27
57 57 57
40 40 40
44 44 44
73 73 73
74 74 74
53 53 53
42 42 42
43 43 43
31 31 31
59 59 59
0 0 0
0 0 0
81 81 81
49 49 49
68 68 68
71 71 71
71 71 71
0 0 0
0 0 0
50 50 50
72 72 72
84 84 84
67 67 67
67 67 67
95 95 95
97 97 97
93 93 93
0 0 0
54 54 54
47 47 47
55 55 55
75 75 75
65 65 65
75 75 75
27 27 27
43 43 43
38 38 38
16 16 16
48 48 48
21 21 21
18 18 18
2 2 2
1 1 1
13 13 13
8 8 8
13 13 13
12 12 12
13 13 13
16 16 16
20 20 20
5 5 5
10 10 10
8 8 8
7 7 7
31 31 31
16 16 16
29 29 29
26 26 26
0 0 0
11 11 11
22 22 22
23 23 23
8 8 8
32 32 32
40 40 40
13 13 13
26 26 26
20 20 20
17 17 17
17 17 17
41 41 41
5 5 5
20 20 20
26 26 26
0 0 0
16 16 16
0 0 0
49 49 49
18 18 18
35 35 35
65 65 65
28 28 28
39 39 39
43 43 43
48 48 48
0 0 0
59 59 59
51 51 51
65 65 65
74 74 74
62 62 62
49 49 49
72 72 72
68 68 68
0 0 0
50 50 50
51 51 51
0 0 0
102 102 102
71 71 71
100 100 100
0 0 0
51 51 51
56 56 56
43 43 43
80 80 80
40 40 40
32 32 32
0 0 0
0 0 0
0 0 0
92 92 92
0 0 0
31 31 31
7 7 7
27 27 27
20 20 20
22 22 22
4 4 4
0 0 0
23 23 23
51 51 51
4 4 4
56 56 56
6 6 6
64 64 64
58 58 58
63 63 63
80 80 80
65 65 65
75 75 75
18 18 18
63 63 63
0 0 0
51 51 51
35 35 35
35 35 35
14 14 14
58 58 58
44 44 44
45 45 45
42 42 42
66 66 66
63 63 63
79 79 79
0 0 0
0 0 0
101 101 101
105 105 105
49 49 49
0 0 0
0 0 0
0 0 0
45 45 45
70 70 70
0 0 0
99 99 99
58 58 58
68 68 68
0 0 0
64 64 64
63 63 63
44 44 44
47 47 47
0 0 0
34 34 34
37 37 37
50 50 50
0 0 0
49 49 49
13 13 13
56 56 56
30 30 30
49 49 49
84 84 84
68 68 68
125 125 125
48 48 48
95 95 95
116 116 116
65 65 65
102 102 102
69 69 69
117 117 117
72 72 72
66 66 66
61 61 61
41 41 41
29 29 29
2 2 2
36 36 36
43 43 43
94 94 94
67 67 67
63 63 63
53 53 53
48 48 48
61 61 61
64 64 64
0 0 0
36 36 36
85 85 85
87 87 87
71 71 71
86 86 86
86 86 86
117 117 117
81 81 81
0 0 0
123 123 123
0 0 0
72 72 72
73 73 73
75 75 75
82 82 82
85 85 85
83 83 83
62 62 62
91 91 91
65 65 65
32 32 32
40 40 40
56 56 56
43 43 43
60 60 60
0 0 0
30 30 30
20 20 20
36 36 36
0 0 0
38 38 38
27 27 27
36 36 36
36 36 36
47 47 47
40 40 40
0 0 0
27 27 27
41 41 41
30 30 30
33 33 33
29 29 29
28 28 28
38 38 38
39 39 39
18 18 18
7 7 7
25 25 25
13 13 13
39 39 39
21 21 21
32 32 32
83 83 83
0 0 0
63 63 63
22 22 22
26 26 26
77 77 77
103 103 103
73 73 73
54 54 54
70 70 70
68 68 68
54 54 54
61 61 61
37 37 37
13 13 13
12 12 12
18 18 18
41 41 41
49 49 49
0 0 0
26 26 26
109 109 109
94 94 94
50 50 50
85 85 85
104 104 104
97 97 97
38 38 38
58 58 58
0 0 0
15 15 15
7 7 7
5 5 5
24 24 24
12 12 12
11 11 11
14 14 14
8 8 8
38 38 38
30 30 30
33 33 33
33 33 33
25 25 25
2 2 2
56 56 56
40 40 40
58 58 58
52 52 52
59 59 59
88 88 88
62 62 62
46 46 46
57 57 57
72 72 72
67 67 67
70 70 70
100 100 100
101 101 101
101 101 101
88 88 88
113 113 113
50 50 50
49 49 49
49 49 49
48 48 48
82 82 82
88 88 88
105 105 105
93 93 93
64 64 64
52 52 52
69 69 69
53 53 53
105 105 105
54 54 54
68 68 68
58 58 58
51 51 51
0 0 0
43 43 43
47 47 47
20 20 20
35 35 35
26 26 26
51 51 51
19 19 19
0 0 0
11 11 11
11 11 11
1 1 1
4 4 4
15 15 15
17 17 17
1 1 1
20 20 20
34 34 34
36 36 36
33 33 33
53 53 53
37 37 37
85 85 85
59 59 59
39 39 39
53 53 53
88 88 88
55 55 55
60 60 60
84 84 84
38 38 38
61 61 61
42 42 42
94 94 94
58 58 58
62 62 62
46 46 46
85 85 85
95 95 95
87 87 87
88 88 88
48 48 48
82 82 82
80 80 80
108 108 108
58 58 58
36 36 36
60 60 60
59 59 59
46 46 46
0 0 0
40 40 40
38 38 38
71 71 71
0 0 0
38 38 38
26 26 26
0 0 0
17 17 17
38 38 38
39 39 39
17 17 17
21 21 21
19 19 19
39 39 39
13 13 13
10 10 10
10 10 10
11 11 11
0 0 0
4 4 4
15 15 15
25 25 25
19 19 19
44 44 44
0 0 0
30 30 30
32 32 32
26 26 26
40 40 40
13 13 13
58 58 58
43 43 43
64 64 64
0 0 0
123 123 123
64 64 64
0 0 0
65 65 65
70 70 70
81 81 81
88 88 88
72 72 72
50 50 50
81 81 81
67 67 67
54 54 54
0 0 0
61 61 61
74 74 74
66 66 66
33 33 33
36 36 36
59 59 59
38 38 38
79 79 79
89 89 89
69 69 69
84 84 84
66 66 66
82 82 82
69 69 69
62 62 62
0 0 0
0 0 0
67 67 67
37 37 37
17 17 17
12 12 12
19 19 19
5 5 5
23 23 23
0 0 0
13 13 13
23 23 23
16 16 16
0 0 0
0 0 0
55 55 55
19 19 19
42 42 42
36 36 36
55 55 55
0 0 0
19 19 19
6 6 6
14 14 14
15 15 15
14 14 14
23 23 23
24 24 24
36 36 36
0 0 0
15 15 15
15 15 15
16 16 16
27 27 27
31 31 31
12 12 12
0 0 0
32 32 32
0 0 0
56 56 56
44 44 44
47 47 47
76 76 76
42 42 42
37 37 37
46 46 46
60 60 60
55 55 55
53 53 53
62 62 62
50 50 50
29 29 29
56 56 56
77 77 77
45 45 45
0 0 0
0 0 0
50 50 50
0 0 0
51 51 51
67 67 67
74 74 74
0 0 0
31 31 31
53 53 53
71 71 71
72 72 72
47 47 47
94 94 94
61 61 61
63 63 63
62 62 62
39 39 39
26 26 26
31 31 31
25 25 25
5 5 5
6 6 6
6 6 6
31 31 31
21 21 21
21 21 21
20 20 20
2 2 2
23 23 23
27 27 27
14 14 14
2 2 2
40 40 40
44 44 44
69 69 69
64 64 64
49 49 49
33 33 33
63 63 63
46 46 46
57 57 57
87 87 87
46 46 46
0 0 0
38 38 38
0 0 0
41 41 41
73 73 73
114 114 114
42 42 42
96 96 96
47 47 47
0 0 0
0 0 0
71 71 71
0 0 0
87 87 87
72 72 72
96 96 96
111 111 111
83 83 83
37 37 37
71 71 71
0 0 0
16 16 16
37 37 37
61 61 61
37 37 37
35 35 35
46 46 46
40 40 40
56 56 56
83 83 83
72 72 72
60 60 60
2 2 2
88 88 88
51 51 51
86 86 86
113 113 113
0 0 0
100 100 100
69 69 69
96 96 96
87 87 87
0 0 0
51 51 51
85 85 85
0 0 0
0 0 0
44 44 44
8 8 8
20 20 20
27 27 27
56 56 56
82 82 82
84 84 84
94 94 94
79 79 79
103 103 103
108 108 108
69 69 69
101 101 101
87 87 87
121 121 121
86 86 86
112 112 112
100 100 100
70 70 70
70 70 70
69 69 69
48 48 48
77 77 77
100 100 100
75 75 75
77 77 77
79 79 79
103 103 103
68 68 68
50 50 50
35 35 35
48 48 48
56 56 56
58 58 58
53 53 53
47 47 47
65 65 65
53 53 53
63 63 63
76 76 76
56 56 56
56 56 56
50 50 50
0 0 0
74 74 74
53 53 53
12 12 12
8 8 8
13 13 13
0 0 0
28 28 28
74 74 74
33 33 33
61 61 61
47 47 47
84 84 84
86 86 86
59 59 59
38 38 38
92 92 92
47 47 47
54 54 54
57 57 57
56 56 56
53 53 53
75 75 75
60 60 60
36 36 36
73 73 73
8 8 8
1 1 1
23 23 23
28 28 28
29 29 29
36 36 36
34 34 34
25 25 25
21 21 21
0 0 0
64 64 64
56 56 56
90 90 90
68 68 68
48 48 48
86 86 86
0 0 0
110 110 110
97 97 97
44 44 44
68 68 68
49 49 49
40 40 40
25 25 25
18 18 18
4 4 4
38 38 38
31 31 31
26 26 26
34 34 34
15 15 15
0 0 0
33 33 33
23 23 23
6 6 6
20 20 20
40 40 40
19 19 19
25 25 25
33 33 33
50 50 50
54 54 54
84 84 84
87 87 87
77 77 77
111 111 111
40 40 40
91 91 91
73 73 73
0 0 0
67 67 67
72 72 72
62 62 62
88 88 88
79 79 79
85 85 85
48 48 48
101 101 101
113 113 113
51 51 51
0 0 0
92 92 92
51 51 51
50 50 50
64 64 64
107 107 107
72 72 72
59 59 59
29 29 29
68 68 68
65 65 65
39 39 39
51 51 51
45 45 45
59 59 59
53 53 53
23 23 23
31 31 31
23 23 23
0 0 0
18 18 18
7 7 7
9 9 9
0 0 0
0 0 0
1 1 1
8 8 8
9 9 9
9 9 9
9 9 9
0 0 0
19 19 19
3 3 3
0 0 0
1 1 1
20 20 20
20 20 20
55 55 55
83 83 83
40 40 40
87 87 87
63 63 63
45 45 45
76 76 76
68 68 68
66 66 66
86 86 86
109 109 109
119 119 119
85 85 85
47 47 47
87 87 87
72 72 72
74 74 74
71 71 71
96 96 96
67 67 67
77 77 77
61 61 61
74 74 74
44 44 44
80 80 80
32 32 32
72 72 72
36 36 36
51 51 51
0 0 0
61 61 61
36 36 36
47 47 47
49 49 49
0 0 0
46 46 46
0 0 0
43 43 43
30 30 30
37 37 37
29 29 29
0 0 0
3 3 3
6 6 6
5 5 5
0 0 0
19 19 19
0 0 0
38 38 38
29 29 29
35 35 35
67 67 67
26 26 26
47 47 47
34 34 34
23 23 23
21 21 21
16 16 16
28 28 28
26 26 26
0 0 0
24 24 24
36 36 36
19 19 19
38 38 38
39 39 39
64 64 64
81 81 81
82 82 82
100 100 100
102 102 102
68 68 68
70 70 70
69 69 69
49 49 49
67 67 67
86 86 86
59 59 59
44 44 44
0 0 0
47 47 47
18 18 18
71 71 71
71 71 71
40 40 40
83 83 83
107 107 107
76 76 76
50 50 50
88 88 88
42 42 42
86 86 86
54 54 54
50 50 50
23 23 23
61 61 61
31 31 31
14 14 14
34 34 34
38 38 38
44 44 44
37 37 37
31 31 31
0 0 0
12 12 12
0 0 0
0 0 0
0 0 0
1 1 1
0 0 0
14 14 14
6 6 6
8 8 8
2 2 2
35 35 35
30 30 30
34 34 34
24 24 24
48 48 48
40 40 40
38 38 38
20 20 20
5 5 5
41 41 41
40 40 40
58 58 58
45 45 45
31 31 31
67 67 67
74 74 74
70 70 70
59 59 59
59 59 59
54 54 54
37 37 37
37 37 37
46 46 46
0 0 0
93 93 93
48 48 48
87 87 87
28 28 28
71 71 71
75 75 75
63 63 63
46 46 46
112 112 112
49 49 49
71 71 71
89 89 89
59 59 59
95 95 95
82 82 82
63 63 63
60 60 60
80 80 80
0 0 0
55 55 55
39 39 39
60 60 60
41 41 41
88 88 88
44 44 44
0 0 0
59 59 59
57 57 57
74 74 74
0 0 0
51 51 51
44 44 44
32 32 32
22 22 22
9 9 9
17 17 17
31 31 31
24 24 24
55 55 55
36 36 36
29 29 29
28 28 28
22 22 22
0 0 0
40 40 40
50 50 50
46 46 46
29 29 29
49 49 49
69 69 69
77 77 77
68 68 68
0 0 0
39 39 39
76 76 76
40 40 40
24 24 24
39 39 39
68 68 68
75 75 75
61 61 61
84 84 84
50 50 50
88 88 88
71 71 71
109 109 109
85 85 85
102 102 102
79 79 79
0 0 0
37 37 37
100 100 100
71 71 71
63 63 63
94 94 94
98 98 98
46 46 46
0 0 0
101 101 101
72 72 72
86 86 86
50 50 50
101 101 101
72 72 72
88 88 88
70 70 70
48 48 48
85 85 85
86 86 86
98 98 98
49 49 49
75 75 75
52 52 52
61 61 61
20 20 20
0 0 0
0 0 0
0 0 0
18 18 18
69 69 69
68 68 68
42 42 42
44 44 44
86 86 86
83 83 83
68 68 68
0 0 0
114 114 114
160 160 160
87 87 87
87 87 87
71 71 71
87 87 87
110 110 110
84 84 84
94 94 94
68 68 68
79 79 79
105 105 105
80 80 80
47 47 47
70 70 70
43 43 43
69 69 69
44 44 44
59 59 59
76 76 76
0 0 0
42 42 42
42 42 42
42 42 42
68 68 68
92 92 92
97 97 97
67 67 67
58 58 58
52 52 52
61 61 61
40 40 40
31 31 31
25 25 25
30 30 30
7 7 7
5 5 5
23 23 23
30 30 30
26 26 26
21 21 21
18 18 18
0 0 0
0 0 0
5 5 5
0 0 0
17 17 17
50 50 50
6 6 6
55 55 55
69 69 69
50 50 50
0 0 0
50 50 50
59 59 59
104 104 104
95 95 95
94 94 94
107 107 107
46 46 46
81 81 81
62 62 62
0 0 0
76 76 76
61 61 61
56 56 56
60 60 60
64 64 64
100 100 100
106 106 106
0 0 0
51 51 51
88 88 88
51 51 51
70 70 70
113 113 113
106 106 106
61 61 61
59 59 59
71 71 71
100 100 100
45 45 45
86 86 86
79 79 79
40 40 40
69 69 69
62 62 62
49 49 49
67 67 67
22 22 22
28 28 28
21 21 21
32 32 32
31 31 31
0 0 0
40 40 40
0 0 0
60 60 60
10 10 10
35 35 35
34 34 34
32 32 32
33 33 33
68 68 68
40 40 40
0 0 0
87 87 87
105 105 105
41 41 41
0 0 0
71 71 71
63 63 63
110 110 110
118 118 118
86 86 86
0 0 0
50 50 50
51 51 51
50 50 50
72 72 72
32 32 32
71 71 71
71 71 71
72 72 72
71 71 71
47 47 47
91 91 91
78 78 78
62 62 62
33 33 33
67 67 67
37 37 37
57 57 57
69 69 69
48 48 48
41 41 41
52 52 52
15 15 15
23 23 23
19 19 19
6 6 6
13 13 13
7 7 7
0 0 0
23 23 23
11 11 11
4 4 4
15 15 15
2 2 2
2 2 2
0 0 0
0 0 0
57 57 57
30 30 30
23 23 23
22 22 22
69 69 69
69 69 69
38 38 38
42 42 42
26 26 26
78 78 78
70 70 70
88 88 88
85 85 85
104 104 104
65 65 65
43 43 43
92 92 92
73 73 73
122 122 122
84 84 84
50 50 50
50 50 50
56 56 56
100 100 100
85 85 85
51 51 51
112 112 112
47 47 47
84 84 84
80 80 80
64 64 64
82 82 82
68 68 68
70 70 70
0 0 0
83 83 83
51 51 51
72 72 72
46 46 46
58 58 58
0 0 0
14 14 14
0 0 0
20 20 20
3 3 3
7 7 7
12 12 12
13 13 13
2 2 2
17 17 17
18 18 18
18 18 18
19 19 19
27 27 27
26 26 26
10 10 10
0 0 0
21 21 21
42 42 42
14 14 14
13 13 13
19 19 19
10 10 10
29 29 29
21 21 21
26 26 26
35 35 35
53 53 53
31 31 31
52 52 52
69 69 69
0 0 0
47 47 47
69 69 69
100 100 100
64 64 64
59 59 59
43 43 43
53 53 53
71 71 71
47 47 47
50 50 50
50 50 50
86 86 86
66 66 66
37 37 37
65 65 65
49 49 49
59 59 59
67 67 67
50 50 50
0 0 0
72 72 72
0 0 0
70 70 70
55 55 55
62 62 62
33 33 33
37 37 37
52 52 52
60 60 60
80 80 80
63 63 63
62 62 62
31 31 31
0 0 0
27 27 27
38 38 38
4 4 4
2 2 2
13 13 13
10 10 10
32 32 32
66 66 66
32 32 32
60 60 60
31 31 31
44 44 44
0 0 0
43 43 43
52 52 52
14 14 14
23 23 23
48 48 48
0 0 0
33 33 33
16 16 16
24 24 24
29 29 29
9 9 9
29 29 29
31 31 31
30 30 30
0 0 0
21 21 21
31 31 31
67 67 67
53 53 53
72 72 72
62 62 62
86 86 86
88 88 88
72 72 72
69 69 69
0 0 0
72 72 72
102 102 102
71 71 71
50 50 50
88 88 88
83 83 83
68 68 68
0 0 0
0 0 0
72 72 72
72 72 72
71 71 71
123 123 123
85 85 85
66 66 66
92 92 92
81 81 81
70 70 70
88 88 88
50 50 50
47 47 47
82 82 82
77 77 77
57 57 57
0 0 0
0 0 0
56 56 56
29 29 29
26 26 26
18 18 18
4 4 4
2 2 2
5 5 5
1 1 1
6 6 6
17 17 17
24 24 24
31 31 31
0 0 0
0 0 0
46 46 46
0 0 0
29 29 29
42 42 42
43 43 43
85 85 85
83 83 83
34 34 34
19 19 19
0 0 0
0 0 0
97 97 97
76 76 76
66 66 66
42 42 42
0 0 0
63 63 63
98 98 98
87 87 87
65 65 65
90 90 90
67 67 67
104 104 104
100 100 100
72 72 72
102 102 102
101 101 101
68 68 68
113 113 113
93 93 93
90 90 90
102 102 102
51 51 51
0 0 0
100 100 100
50 50 50
85 85 85
64 64 64
68 68 68
50 50 50
62 62 62
63 63 63
96 96 96
102 102 102
70 70 70
47 47 47
57 57 57
60 60 60
28 28 28
12 12 12
0 0 0
18 18 18
30 30 30
21 21 21
6 6 6
36 36 36
21 21 21
57 57 57
60 60 60
40 40 40
38 38 38
90 90 90
0 0 0
83 83 83
63 63 63
73 73 73
69 69 69
84 84 84
72 72 72
51 51 51
87 87 87
51 51 51
88 88 88
50 50 50
94 94 94
114 114 114
62 62 62
40 40 40
41 41 41
54 54 54
92 92 92
42 42 42
62 62 62
50 50 50
78 78 78
48 48 48
0 0 0
34 34 34
63 63 63
57 57 57
45 45 45
43 43 43
12 12 12
5 5 5
13 13 13
11 11 11
2 2 2
8 8 8
11 11 11
21 21 21
12 12 12
21 21 21
20 20 20
0 0 0
37 37 37
10 10 10
62 62 62
45 45 45
7 7 7
17 17 17
0 0 0
20 20 20
23 23 23
48 48 48
50 50 50
47 47 47
37 37 37
37 37 37
71 71 71
38 38 38
36 36 36
45 45 45
59 59 59
61 61 61
57 57 57
76 76 76
38 38 38
99 99 99
46 46 46
70 70 70
87 87 87
5 5 5
100 100 100
72 72 72
101 101 101
101 101 101
53 53 53
46 46 46
65 65 65
119 119 119
0 0 0
47 47 47
63 63 63
81 81 81
96 96 96
49 49 49
69 69 69
103 103 103
60 60 60
0 0 0
46 46 46
17 17 17
10 10 10
17 17 17
3 3 3
5 5 5
15 15 15
2 2 2
0 0 0
9 9 9
4 4 4
20 20 20
17 17 17
25 25 25
26 26 26
14 14 14
29 29 29
38 38 38
26 26 26
28 28 28
37 37 37
107 107 107
66 66 66
68 68 68
125 125 125
105 105 105
80 80 80
81 81 81
102 102 102
105 105 105
91 91 91
78 78 78
83 83 83
97 97 97
69 69 69
71 71 71
112 112 112
97 97 97
82 82 82
43 43 43
69 69 69
60 60 60
73 73 73
85 85 85
61 61 61
64 64 64
66 66 66
53 53 53
34 34 34
61 61 61
43 43 43
49 49 49
16 16 16
0 0 0
52 52 52
19 19 19
1 1 1
0 0 0
7 7 7
13 13 13
16 16 16
7 7 7
16 16 16
9 9 9
9 9 9
24 24 24
40 40 40
71 71 71
43 43 43
41 41 41
36 36 36
0 0 0
25 25 25
54 54 54
39 39 39
55 55 55
44 44 44
66 66 66
81 81 81
83 83 83
46 46 46
85 85 85
51 51 51
123 123 123
51 51 51
49 49 49
51 51 51
50 50 50
102 102 102
51 51 51
51 51 51
98 98 98
72 72 72
68 68 68
48 48 48
83 83 83
0 0 0
51 51 51
50 50 50
0 0 0
73 73 73
0 0 0
48 48 48
28 28 28
54 54 54
37 37 37
0 0 0
0 0 0
5 5 5
14 14 14
8 8 8
16 16 16
21 21 21
8 8 8
2 2 2
5 5 5
22 22 22
6 6 6
20 20 20
37 37 37
4 4 4
3 3 3
35 35 35
59 59 59
26 26 26
54 54 54
66 66 66
74 74 74
38 38 38
0 0 0
0 0 0
0 0 0
0 0 0
35 35 35
58 58 58
53 53 53
51 51 51
26 26 26
54 54 54
76 76 76
30 30 30
60 60 60
0 0 0
45 45 45
71 71 71
61 61 61
86 86 86
72 72 72
0 0 0
49 49 49
50 50 50
0 0 0
89 89 89
34 34 34
35 35 35
67 67 67
70 70 70
55 55 55
66 66 66
64 64 64
78 78 78
79 79 79
0 0 0
44 44 44
0 0 0
0 0 0
80 80 80
35 35 35
0 0 0
0 0 0
25 25 25
0 0 0
46 46 46
30 30 30
0 0 0
45 45 45
0 0 0
21 21 21
3 3 3
0 0 0
17 17 17
0 0 0
25 25 25
12 12 12
36 36 36
51 51 51
23 23 23
4 4 4
65 65 65
39 39 39
28 28 28
33 33 33
12 12 12
32 32 32
32 32 32
45 45 45
23 23 23
0 0 0
61 61 61
50 50 50
32 32 32
66 66 66
66 66 66
82 82 82
0 0 0
49 49 49
49 49 49
49 49 49
45 45 45
47 47 47
58 58 58
50 50 50
34 34 34
38 38 38
70 70 70
44 44 44
50 50 50
50 50 50
0 0 0
79 79 79
86 86 86
38 38 38
33 33 33
49 49 49
43 43 43
48 48 48
88 88 88
54 54 54
56 56 56
50 50 50
38 38 38
62 62 62
40 40 40
47 47 47
56 56 56
25 25 25
33 33 33
25 25 25
35 35 35
5 5 5
46 46 46
58 58 58
53 53 53
28 28 28
29 29 29
38 38 38
0 0 0
17 17 17
14 14 14
9 9 9
14 14 14
0 0 0
29 29 29
37 37 37
32 32 32
26 26 26
7 7 7
19 19 19
8 8 8
4 4 4
0 0 0
37 37 37
10 10 10
32 32 32
55 55 55
57 57 57
39 39 39
48 48 48
70 70 70
63 63 63
50 50 50
98 98 98
85 85 85
50 50 50
87 87 87
86 86 86
84 84 84
67 67 67
47 47 47
94 94 94
82 82 82
0 0 0
51 51 51
34 34 34
0 0 0
69 69 69
0 0 0
38 38 38
12 12 12
16 16 16
31 31 31
27 27 27
17 17 17
22 22 22
18 18 18
12 12 12
12 12 12
31 31 31
30 30 30
18 18 18
31 31 31
0 0 0
31 31 31
45 45 45
53 53 53
71 71 71
0 0 0
63 63 63
32 32 32
60 60 60
66 66 66
84 84 84
45 45 45
68 68 68
101 101 101
71 71 71
101 101 101
71 71 71
101 101 101
101 101 101
50 50 50
72 72 72
50 50 50
48 48 48
98 98 98
105 105 105
60 60 60
0 0 0
100 100 100
88 88 88
72 72 72
51 51 51
69 69 69
58 58 58
58 58 58
51 51 51
80 80 80
44 44 44
0 0 0
83 83 83
107 107 107
61 61 61
84 84 84
52 52 52
50 50 50
78 78 78
77 77 77
40 40 40
65 65 65
41 41 41
29 29 29
39 39 39
22 22 22
20 20 20
4 4 4
41 41 41
50 50 50
59 59 59
19 19 19
17 17 17
26 26 26
31 31 31
23 23 23
39 39 39
90 90 90
76 76 76
73 73 73
62 62 62
59 59 59
43 43 43
36 36 36
47 47 47
13 13 13
2 2 2
59 59 59
63 63 63
48 48 48
50 50 50
71 71 71
109 109 109
100 100 100
67 67 67
101 101 101
89 89 89
77 77 77
82 82 82
64 64 64
80 80 80
51 51 51
50 50 50
70 70 70
72 72 72
0 0 0
46 46 46
85 85 85
92 92 92
37 37 37
43 43 43
40 40 40
60 60 60
0 0 0
21 21 21
20 20 20
20 20 20
12 12 12
13 13 13
8 8 8
18 18 18
20 20 20
26 26 26
19 19 19
17 17 17
27 27 27
4 4 4
0 0 0
40 40 40
30 30 30
54 54 54
79 79 79
61 61 61
47 47 47
68 68 68
25 25 25
28 28 28
101 101 101
43 43 43
56 56 56
62 62 62
62 62 62
93 93 93
42 42 42
69 69 69
47 47 47
72 72 72
112 112 112
96 96 96
48 48 48
65 65 65
113 113 113
63 63 63
85 85 85
70 70 70
57 57 57
83 83 83
41 41 41
57 57 57
52 52 52
31 31 31
62 62 62
35 35 35
37 37 37
56 56 56
29 29 29
20 20 20
19 19 19
21 21 21
15 15 15
5 5 5
6 6 6
8 8 8
13 13 13
17 17 17
3 3 3
3 3 3
9 9 9
9 9 9
23 23 23
21 21 21
17 17 17
42 42 42
23 23 23
0 0 0
53 53 53
65 65 65
0 0 0
51 51 51
82 82 82
36 36 36
0 0 0
37 37 37
60 60 60
76 76 76
0 0 0
110 110 110
71 71 71
0 0 0
88 88 88
0 0 0
50 50 50
71 71 71
111 111 111
101 101 101
82 82 82
70 70 70
70 70 70
93 93 93
82 82 82
81 81 81
0 0 0
48 48 48
63 63 63
37 37 37
35 35 35
34 34 34
37 37 37
0 0 0
22 22 22
17 17 17
13 13 13
0 0 0
34 34 34
9 9 9
0 0 0
36 36 36
4 4 4
22 22 22
11 11 11
0 0 0
27 27 27
17 17 17
13 13 13
19 19 19
10 10 10
33 33 33
16 16 16
36 36 36
41 41 41
44 44 44
0 0 0
0 0 0
68 68 68
58 58 58
0 0 0
0 0 0
68 68 68
36 36 36
0 0 0
0 0 0
62 62 62
42 42 42
46 46 46
0 0 0
59 59 59
114 114 114
82 82 82
66 66 66
0 0 0
87 87 87
88 88 88
72 72 72
113 113 113
71 71 71
71 71 71
68 68 68
77 77 77
41 41 41
50 50 50
36 36 36
63 63 63
0 0 0
85 85 85
49 49 49
71 71 71
88 88 88
49 49 49
68 68 68
61 61 61
66 66 66
72 72 72
61 61 61
31 31 31
37 37 37
40 40 40
49 49 49
65 65 65
50 50 50
24 24 24
19 19 19
4 4 4
6 6 6
10 10 10
11 11 11
0 0 0
0 0 0
9 9 9
0 0 0
36 36 36
36 36 36
28 28 28
52 52 52
25 25 25
29 29 29
32 32 32
0 0 0
18 18 18
39 39 39
33 33 33
36 36 36
42 42 42
44 44 44
42 42 42
46 46 46
0 0 0
0 0 0
65 65 65
5 5 5
24 24 24
46 46 46
10 10 10
37 37 37
62 62 62
64 64 64
115 115 115
0 0 0
88 88 88
101 101 101
86 86 86
63 63 63
69 69 69
41 41 41
54 54 54
27 27 27
64 64 64
57 57 57
24 24 24
66 66 66
46 46 46
0 0 0
48 48 48
0 0 0
10 10 10
12 12 12
39 39 39
24 24 24
24 24 24
31 31 31
47 47 47
31 31 31
0 0 0
5 5 5
26 26 26
47 47 47
57 57 57
55 55 55
38 38 38
52 52 52
34 34 34
0 0 0
21 21 21
27 27 27
16 16 16
0 0 0
13 13 13
33 33 33
0 0 0
30 30 30
18 18 18
22 22 22
16 16 16
0 0 0
4 4 4
0 0 0
16 16 16
58 58 58
64 64 64
70 70 70
64 64 64
46 46 46
68 68 68
94 94 94
82 82 82
45 45 45
86 86 86
79 79 79
107 107 107
71 71 71
51 51 51
69 69 69
64 64 64
41 41 41
46 46 46
62 62 62
53 53 53
44 44 44
47 47 47
50 50 50
11 11 11
20 20 20
19 19 19
40 40 40
22 22 22
40 40 40
0 0 0
58 58 58
57 57 57
63 63 63
31 31 31
6 6 6
23 23 23
0 0 0
17 17 17
33 33 33
50 50 50
40 40 40
21 21 21
36 36 36
69 69 69
32 32 32
52 52 52
0 0 0
83 83 83
27 27 27
70 70 70
46 46 46
0 0 0
84 84 84
70 70 70
69 69 69
96 96 96
69 69 69
122 122 122
51 51 51
87 87 87
84 84 84
47 47 47
0 0 0
70 70 70
49 49 49
101 101 101
71 71 71
105 105 105
110 110 110
70 70 70
66 66 66
68 68 68
81 81 81
64 64 64
66 66 66
67 67 67
110 110 110
94 94 94
0 0 0
49 49 49
102 102 102
51 51 51
42 42 42
76 76 76
66 66 66
46 46 46
0 0 0
51 51 51
22 22 22
4 4 4
28 28 28
33 33 33
42 42 42
30 30 30
33 33 33
0 0 0
25 25 25
16 16 16
14 14 14
16 16 16
5 5 5
14 14 14
10 10 10
15 15 15
25 25 25
3 3 3
0 0 0
29 29 29
22 22 22
38 38 38
35 35 35
37 37 37
65 65 65
73 73 73
49 49 49
47 47 47
72 72 72
71 71 71
0 0 0
0 0 0
64 64 64
62 62 62
0 0 0
40 40 40
46 46 46
84 84 84
76 76 76
48 48 48
45 45 45
78 78 78
69 69 69
61 61 61
32 32 32
16 16 16
24 24 24
34 34 34
26 26 26
25 25 25
23 23 23
35 35 35
23 23 23
24 24 24
21 21 21
8 8 8
8 8 8
7 7 7
31 31 31
24 24 24
5 5 5
10 10 10
49 49 49
2 2 2
55 55 55
1 1 1
35 35 35
28 28 28
0 0 0
24 24 24
0 0 0
0 0 0
27 27 27
38 38 38
28 28 28
0 0 0
57 57 57
74 74 74
76 76 76
82 82 82
119 119 119
88 88 88
88 88 88
71 71 71
88 88 88
71 71 71
97 97 97
47 47 47
96 96 96
66 66 66
47 47 47
98 98 98
60 60 60
38 38 38
61 61 61
78 78 78
31 31 31
0 0 0
69 69 69
49 49 49
45 45 45
52 52 52
51 51 51
42 42 42
72 72 72
32 32 32
15 15 15
0 0 0
9 9 9
0 0 0
25 25 25
28 28 28
19 19 19
21 21 21
0 0 0
8 8 8
0 0 0
10 10 10
5 5 5
7 7 7
5 5 5
26 26 26
12 12 12
9 9 9
17 17 17
8 8 8
0 0 0
0 0 0
11 11 11
0 0 0
13 13 13
41 41 41
51 51 51
62 62 62
69 69 69
48 48 48
50 50 50
0 0 0
101 101 101
0 0 0
90 90 90
0 0 0
38 38 38
54 54 54
0 0 0
87 87 87
69 69 69
51 51 51
0 0 0
86 86 86
60 60 60
34 34 34
125 125 125
0 0 0
0 0 0
56 56 56
33 33 33
28 28 28
32 32 32
35 35 35
46 46 46
47 47 47
31 31 31
8 8 8
0 0 0
46 46 46
45 45 45
50 50 50
0 0 0
23 23 23
30 30 30
19 19 19
19 19 19
12 12 12
16 16 16
51 51 51
34 34 34
42 42 42
31 31 31
0 0 0
33 33 33
23 23 23
12 12 12
44 44 44
0 0 0
7 7 7
38 38 38
45 45 45
42 42 42
39 39 39
51 51 51
27 27 27
0 0 0
0 0 0
29 29 29
29 29 29
66 66 66
88 88 88
65 65 65
49 49 49
68 68 68
69 69 69
99 99 99
49 49 49
86 86 86
49 49 49
52 52 52
40 40 40
39 39 39
47 47 47
81 81 81
64 64 64
55 55 55
36 36 36
36 36 36
30 30 30
46 46 46
46 46 46
36 36 36
35 35 35
40 40 40
0 0 0
0 0 0
18 18 18
0 0 0
0 0 0
32 32 32
8 8 8
18 18 18
6 6 6
0 0 0
6 6 6
6 6 6
9 9 9
2 2 2
38 38 38
0 0 0
41 41 41
0 0 0
0 0 0
1 1 1
25 25 25
3 3 3
11 11 11
0 0 0
2 2 2
15 15 15
30 30 30
8 8 8
22 22 22
18 18 18
0 0 0
1 1 1
8 8 8
5 5 5
15 15 15
40 40 40
34 34 34
0 0 0
58 58 58
80 80 80
65 65 65
0 0 0
82 82 82
75 75 75
71 71 71
112 112 112
49 49 49
46 46 46
36 36 36
0 0 0
31 31 31
48 48 48
42 42 42
23 23 23
29 29 29
41 41 41
37 37 37
0 0 0
16 16 16
30 30 30
37 37 37
36 36 36
35 35 35
14 14 14
19 19 19
44 44 44
20 20 20
0 0 0
16 16 16
39 39 39
27 27 27
16 16 16
0 0 0
12 12 12
6 6 6
15 15 15
6 6 6
15 15 15
2 2 2
12 12 12
0 0 0
0 0 0
14 14 14
22 22 22
4 4 4
42 42 42
24 24 24
91 91 91
0 0 0
88 88 88
50 50 50
50 50 50
97 97 97
48 48 48
45 45 45
53 53 53
86 86 86
65 65 65
79 79 79
0 0 0
43 43 43
51 51 51
81 81 81
65 65 65
0 0 0
107 107 107
72 72 72
97 97 97
82 82 82
70 70 70
51 51 51
59 59 59
0 0 0
44 44 44
17 17 17
32 32 32
26 26 26
44 44 44
46 46 46
43 43 43
26 26 26
36 36 36
27 27 27
32 32 32
24 24 24
50 50 50
130 130 130
52 52 52
67 67 67
113 113 113
70 70 70
45 45 45
94 94 94
80 80 80
67 67 67
80 80 80
42 42 42
0 0 0
44 44 44
31 31 31
16 16 16
50 50 50
47 47 47
39 39 39
81 81 81
63 63 63
71 71 71
87 87 87
114 114 114
134 134 134
87 87 87
72 72 72
110 110 110
47 47 47
88 88 88
88 88 88
0 0 0
100 100 100
50 50 50
51 51 51
0 0 0
68 68 68
102 102 102
57 57 57
40 40 40
41 41 41
98 98 98
48 48 48
124 124 124
50 50 50
86 86 86
49 49 49
61 61 61
39 39 39
26 26 26
14 14 14
41 41 41
23 23 23
33 33 33
0 0 0
5 5 5
16 16 16
21 21 21
22 22 22
47 47 47
26 26 26
26 26 26
0 0 0
22 22 22
55 55 55
32 32 32
6 6 6
44 44 44
21 21 21
25 25 25
44 44 44
17 17 17
36 36 36
59 59 59
64 64 64
52 52 52
0 0 0
38 38 38
67 67 67
74 74 74
87 87 87
98 98 98
75 75 75
109 109 109
68 68 68
100 100 100
70 70 70
48 48 48
103 103 103
43 43 43
45 45 45
37 37 37
86 86 86
60 60 60
60 60 60
47 47 47
55 55 55
45 45 45
59 59 59
46 46 46
0 0 0
58 58 58
54 54 54
48 48 48
57 57 57
55 55 55
34 34 34
12 12 12
7 7 7
2 2 2
9 9 9
12 12 12
1 1 1
13 13 13
17 17 17
2 2 2
21 21 21
14 14 14
32 32 32
25 25 25
21 21 21
39 39 39
20 20 20
32 32 32
5 5 5
3 3 3
30 30 30
62 62 62
54 54 54
55 55 55
63 63 63
79 79 79
43 43 43
81 81 81
84 84 84
85 85 85
69 69 69
86 86 86
51 51 51
72 72 72
113 113 113
88 88 88
86 86 86
0 0 0
0 0 0
70 70 70
49 49 49
0 0 0
0 0 0
140 140 140
101 101 101
87 87 87
0 0 0
78 78 78
68 68 68
0 0 0
37 37 37
43 43 43
18 18 18
35 35 35
46 46 46
12 12 12
15 15 15
9 9 9
10 10 10
18 18 18
4 4 4
10 10 10
23 23 23
17 17 17
1 1 1
3 3 3
7 7 7
14 14 14
14 14 14
27 27 27
17 17 17
19 19 19
37 37 37
18 18 18
14 14 14
21 21 21
20 20 20
19 19 19
12 12 12
0 0 0
60 60 60
67 67 67
0 0 0
66 66 66
84 84 84
61 61 61
56 56 56
0 0 0
52 52 52
18 18 18
47 47 47
5 5 5
29 29 29
39 39 39
100 100 100
94 94 94
74 74 74
0 0 0
0 0 0
68 68 68
71 71 71
49 49 49
88 88 88
51 51 51
0 0 0
47 47 47
58 58 58
57 57 57
56 56 56
47 47 47
25 25 25
0 0 0
14 14 14
19 19 19
10 10 10
9 9 9
1 1 1
0 0 0
0 0 0
8 8 8
14 14 14
0 0 0
0 0 0
12 12 12
21 21 21
25 25 25
41 41 41
22 22 22
45 45 45
0 0 0
26 26 26
38 38 38
0 0 0
15 15 15
28 28 28
27 27 27
31 31 31
21 21 21
41 41 41
32 32 32
60 60 60
35 35 35
57 57 57
35 35 35
48 48 48
0 0 0
105 105 105
43 43 43
41 41 41
0 0 0
66 66 66
9 9 9
71 71 71
0 0 0
72 72 72
48 48 48
66 66 66
57 57 57
47 47 47
62 62 62
0 0 0
29 29 29
29 29 29
52 52 52
26 26 26
35 35 35
23 23 23
46 46 46
39 39 39
58 58 58
33 33 33
16 16 16
15 15 15
0 0 0
5 5 5
19 19 19
17 17 17
10 10 10
35 35 35
0 0 0
0 0 0
14 14 14
24 24 24
0 0 0
9 9 9
28 28 28
19 19 19
7 7 7
11 11 11
4 4 4
6 6 6
6 6 6
4 4 4
12 12 12
13 13 13
13 13 13
23 23 23
11 11 11
8 8 8
7 7 7
0 0 0
8 8 8
7 7 7
28 28 28
32 32 32
0 0 0
46 46 46
23 23 23
50 50 50
0 0 0
87 87 87
0 0 0
69 69 69
95 95 95
74 74 74
52 52 52
67 67 67
79 79 79
67 67 67
39 39 39
44 44 44
0 0 0
23 23 23
17 17 17
28 28 28
24 24 24
15 15 15
0 0 0
4 4 4
22 22 22
26 26 26
13 13 13
11 11 11
11 11 11
3 3 3
13 13 13
0 0 0
31 31 31
18 18 18
16 16 16
19 19 19
11 11 11
14 14 14
26 26 26
23 23 23
27 27 27
0 0 0
12 12 12
12 12 12
15 15 15
11 11 11
41 41 41
58 58 58
61 61 61
48 48 48
63 63 63
96 96 96
51 51 51
132 132 132
0 0 0
66 66 66
59 59 59
77 77 77
99 99 99
47 47 47
0 0 0
105 105 105
107 107 107
77 77 77
0 0 0
0 0 0
106 106 106
66 66 66
66 66 66
96 96 96
85 85 85
85 85 85
61 61 61
97 97 97
74 74 74
46 46 46
37 37 37
18 18 18
9 9 9
16 16 16
16 16 16
20 20 20
17 17 17
14 14 14
22 22 22
22 22 22
41 41 41
35 35 35
66 66 66
48 48 48
71 71 71
86 86 86
113 113 113
23 23 23
0 0 0
67 67 67
0 0 0
0 0 0
71 71 71
44 44 44
59 59 59
56 56 56
25 25 25
12 12 12
12 12 12
26 26 26
26 26 26
47 47 47
79 79 79
64 64 64
90 90 90
88 88 88
102 102 102
72 72 72
50 50 50
70 70 70
70 70 70
0 0 0
113 113 113
96 96 96
68 68 68
88 88 88
88 88 88
45 45 45
50 50 50
88 88 88
69 69 69
82 82 82
51 51 51
67 67 67
72 72 72
134 134 134
0 0 0
0 0 0
87 87 87
70 70 70
49 49 49
70 70 70
63 63 63
90 90 90
41 41 41
71 71 71
42 42 42
32 32 32
1 1 1
10 10 10
11 11 11
17 17 17
20 20 20
39 39 39
50 50 50
52 52 52
35 35 35
22 22 22
33 33 33
0 0 0
53 53 53
44 44 44
49 49 49
51 51 51
40 40 40
40 40 40
78 78 78
94 94 94
95 95 95
47 47 47
0 0 0
70 70 70
50 50 50
70 70 70
70 70 70
71 71 71
51 51 51
111 111 111
0 0 0
0 0 0
87 87 87
83 83 83
46 46 46
68 68 68
50 50 50
0 0 0
53 53 53
71 71 71
72 72 72
68 68 68
89 89 89
98 98 98
83 83 83
123 123 123
71 71 71
86 86 86
49 49 49
69 69 69
63 63 63
75 75 75
41 41 41
22 22 22
10 10 10
1 1 1
3 3 3
12 12 12
11 11 11
30 30 30
14 14 14
13 13 13
32 32 32
28 28 28
0 0 0
7 7 7
13 13 13
9 9 9
52 52 52
35 35 35
20 20 20
27 27 27
16 16 16
26 26 26
39 39 39
47 47 47
30 30 30
50 50 50
62 62 62
54 54 54
44 44 44
83 83 83
69 69 69
49 49 49
57 57 57
98 98 98
93 93 93
51 51 51
65 65 65
28 28 28
38 38 38
78 78 78
55 55 55
62 62 62
94 94 94
101 101 101
88 88 88
48 48 48
71 71 71
68 68 68
75 75 75
0 0 0
82 82 82
51 51 51
0 0 0
29 29 29
39 39 39
0 0 0
12 12 12
28 28 28
22 22 22
36 36 36
45 45 45
40 40 40
35 35 35
28 28 28
35 35 35
36 36 36
31 31 31
26 26 26
29 29 29
20 20 20
31 31 31
25 25 25
27 27 27
24 24 24
19 19 19
30 30 30
52 52 52
50 50 50
53 53 53
78 78 78
57 57 57
0 0 0
25 25 25
36 36 36
45 45 45
20 20 20
22 22 22
0 0 0
10 10 10
20 20 20
26 26 26
11 11 11
29 29 29
0 0 0
11 11 11
12 12 12
30 30 30
44 44 44
41 41 41
20 20 20
99 99 99
69 69 69
72 72 72
46 46 46
49 49 49
50 50 50
88 88 88
0 0 0
70 70 70
62 62 62
54 54 54
41 41 41
0 0 0
28 28 28
0 0 0
33 33 33
0 0 0
1 1 1
0 0 0
15 15 15
0 0 0
9 9 9
12 12 12
0 0 0
23 23 23
18 18 18
17 17 17
20 20 20
28 28 28
23 23 23
27 27 27
29 29 29
42 42 42
49 49 49
36 36 36
61 61 61
65 65 65
61 61 61
58 58 58
53 53 53
38 38 38
0 0 0
44 44 44
0 0 0
35 35 35
0 0 0
49 49 49
30 30 30
60 60 60
79 79 79
113 113 113
71 71 71
50 50 50
70 70 70
71 71 71
70 70 70
95 95 95
0 0 0
43 43 43
88 88 88
36 36 36
65 65 65
0 0 0
63 63 63
0 0 0
44 44 44
0 0 0
31 31 31
47 47 47
8 8 8
0 0 0
19 19 19
1 1 1
2 2 2
0 0 0
9 9 9
0 0 0
20 20 20
8 8 8
14 14 14
2 2 2
0 0 0
38 38 38
27 27 27
29 29 29
40 40 40
44 44 44
0 0 0
19 19 19
6 6 6
5 5 5
7 7 7
31 31 31
14 14 14
31 31 31
15 15 15
26 26 26
49 49 49
0 0 0
19 19 19
14 14 14
11 11 11
0 0 0
0 0 0
0 0 0
0 0 0
65 65 65
45 45 45
79 79 79
86 86 86
46 46 46
80 80 80
117 117 117
85 85 85
0 0 0
0 0 0
96 96 96
66 66 66
35 35 35
0 0 0
17 17 17
23 23 23
30 30 30
0 0 0
54 54 54
38 38 38
22 22 22
13 13 13
6 6 6
0 0 0
12 12 12
20 20 20
33 33 33
11 11 11
13 13 13
0 0 0
28 28 28
26 26 26
30 30 30
20 20 20
34 34 34
0 0 0
5 5 5
20 20 20
26 26 26
31 31 31
42 42 42
26 26 26
47 47 47
117 117 117
83 83 83
71 71 71
33 33 33
0 0 0
77 77 77
40 40 40
61 61 61
104 104 104
85 85 85
80 80 80
74 74 74
65 65 65
40 40 40
35 35 35
51 51 51
0 0 0
73 73 73
0 0 0
95 95 95
68 68 68
96 96 96
0 0 0
0 0 0
0 0 0
89 89 89
44 44 44
92 92 92
59 59 59
0 0 0
30 30 30
30 30 30
0 0 0
12 12 12
28 28 28
18 18 18
28 28 28
24 24 24
35 35 35
21 21 21
0 0 0
0 0 0
46 46 46
46 46 46
52 52 52
37 37 37
22 22 22
59 59 59
48 48 48
4 4 4
63 63 63
24 24 24
15 15 15
2 2 2
2 2 2
10 10 10
16 16 16
13 13 13
40 40 40
73 73 73
54 54 54
46 46 46
45 45 45
80 80 80
48 48 48
0 0 0
81 81 81
113 113 113
51 51 51
68 68 68
71 71 71
119 119 119
87 87 87
68 68 68
68 68 68
65 65 65
44 44 44
0 0 0
60 60 60
64 64 64
3 3 3
0 0 0
85 85 85
72 72 72
0 0 0
51 51 51
50 50 50
50 50 50
113 113 113
99 99 99
0 0 0
88 88 88
102 102 102
114 114 114
71 71 71
81 81 81
61 61 61
40 40 40
39 39 39
31 31 31
15 15 15
27 27 27
14 14 14
30 30 30
3 3 3
8 8 8
46 46 46
17 17 17
48 48 48
22 22 22
20 20 20
44 44 44
51 51 51
55 55 55
52 52 52
65 65 65
36 36 36
72 72 72
45 45 45
81 81 81
67 67 67
45 45 45
83 83 83
106 106 106
83 83 83
72 72 72
51 51 51
108 108 108
31 31 31
76 76 76
60 60 60
72 72 72
41 41 41
56 56 56
28 28 28
0 0 0
0 0 0
73 73 73
39 39 39
56 56 56
38 38 38
0 0 0
54 54 54
34 34 34
66 66 66
95 95 95
49 49 49
124 124 124
99 99 99
65 65 65
50 50 50
66 66 66
52 52 52
3 3 3
3 3 3
8 8 8
2 2 2
7 7 7
10 10 10
12 12 12
8 8 8
10 10 10
22 22 22
27 27 27
27 27 27
22 22 22
0 0 0
35 35 35
71 71 71
31 31 31
23 23 23
32 32 32
17 17 17
33 33 33
46 46 46
30 30 30
14 14 14
22 22 22
34 34 34
36 36 36
0 0 0
50 50 50
13 13 13
34 34 34
21 21 21
28 28 28
35 35 35
21 21 21
13 13 13
12 12 12
36 36 36
61 61 61
46 46 46
44 44 44
94 94 94
0 0 0
88 88 88
114 114 114
51 51 51
0 0 0
0 0 0
72 72 72
98 98 98
88 88 88
81 81 81
91 91 91
61 61 61
72 72 72
79 79 79
59 59 59
79 79 79
70 70 70
71 71 71
92 92 92
8 8 8
82 82 82
57 57 57
42 42 42
70 70 70
61 61 61
62 62 62
67 67 67
64 64 64
46 46 46
46 46 46
35 35 35
24 24 24
12 12 12
23 23 23
63 63 63
58 58 58
5 5 5
15 15 15
17 17 17
13 13 13
23 23 23
28 28 28
0 0 0
26 26 26
0 0 0
24 24 24
26 26 26
12 12 12
8 8 8
7 7 7
1 1 1
19 19 19
23 23 23
39 39 39
28 28 28
0 0 0
13 13 13
8 8 8
16 16 16
24 24 24
0 0 0
60 60 60
53 53 53
54 54 54
71 71 71
46 46 46
82 82 82
71 71 71
101 101 101
49 49 49
0 0 0
32 32 32
56 56 56
38 38 38
29 29 29
26 26 26
22 22 22
7 7 7
11 11 11
0 0 0
10 10 10
14 14 14
28 28 28
22 22 22
21 21 21
0 0 0
6 6 6
6 6 6
6 6 6
4 4 4
0 0 0
18 18 18
36 36 36
11 11 11
19 19 19
0 0 0
27 27 27
41 41 41
61 61 61
36 36 36
65 65 65
0 0 0
48 48 48
86 86 86
71 71 71
70 70 70
22 22 22
0 0 0
71 71 71
0 0 0
0 0 0
71 71 71
50 50 50
0 0 0
50 50 50
0 0 0
69 69 69
48 48 48
77 77 77
0 0 0
64 64 64
0 0 0
81 81 81
57 57 57
0 0 0
0 0 0
7 7 7
14 14 14
0 0 0
0 0 0
32 32 32
0 0 0
46 46 46
42 42 42
0 0 0
22 22 22
61 61 61
12 12 12
0 0 0
11 11 11
5 5 5
39 39 39
75 75 75
36 36 36
0 0 0
0 0 0
0 0 0
15 15 15
16 16 16
32 32 32
18 18 18
0 0 0
33 33 33
7 7 7
14 14 14
19 19 19
23 23 23
31 31 31
32 32 32
31 31 31
80 80 80
68 68 68
81 81 81
65 65 65
47 47 47
63 63 63
35 35 35
43 43 43
44 44 44
49 49 49
49 49 49
101 101 101
86 86 86
0 0 0
61 61 61
60 60 60
0 0 0
44 44 44
25 25 25
0 0 0
16 16 16
17 17 17
31 31 31
14 14 14
0 0 0
46 46 46
25 25 25
41 41 41
23 23 23
50 50 50
8 8 8
23 23 23
27 27 27
25 25 25
6 6 6
0 0 0
12 12 12
30 30 30
42 42 42
66 66 66
36 36 36
69 69 69
58 58 58
57 57 57
28 28 28
27 27 27
49 49 49
24 24 24
22 22 22
22 22 22
23 23 23
17 17 17
25 25 25
22 22 22
57 57 57
43 43 43
0 0 0
0 0 0
32 32 32
26 26 26
31 31 31
62 62 62
51 51 51
69 69 69
50 50 50
51 51 51
0 0 0
71 71 71
34 34 34
51 51 51
49 49 49
28 28 28
59 59 59
0 0 0
48 48 48
42 42 42
35 35 35
66 66 66
0 0 0
85 85 85
59 59 59
71 71 71
0 0 0
0 0 0
50 50 50
67 67 67
37 37 37
47 47 47
51 51 51
0 0 0
30 30 30
22 22 22
0 0 0
11 11 11
13 13 13
13 13 13
10 10 10
19 19 19
37 37 37
42 42 42
43 43 43
0 0 0
0 0 0
0 0 0
24 24 24
4 4 4
35 35 35
4 4 4
38 38 38
8 8 8
23 23 23
18 18 18
4 4 4
35 35 35
8 8 8
42 42 42
45 45 45
57 57 57
82 82 82
47 47 47
65 65 65
66 66 66
78 78 78
83 83 83
95 95 95
56 56 56
43 43 43
47 47 47
42 42 42
65 65 65
60 60 60
41 41 41
59 59 59
29 29 29
69 69 69
47 47 47
49 49 49
0 0 0
50 50 50
71 71 71
46 46 46
85 85 85
56 56 56
27 27 27
54 54 54
24 24 24
0 0 0
30 30 30
18 18 18
26 26 26
10 10 10
4 4 4
0 0 0
5 5 5
23 23 23
37 37 37
31 31 31
64 64 64
49 49 49
0 0 0
60 60 60
0 0 0
26 26 26
54 54 54
44 44 44
24 24 24
40 40 40
26 26 26
20 20 20
35 35 35
32 32 32
34 34 34
43 43 43
38 38 38
9 9 9
15 15 15
28 28 28
38 38 38
0 0 0
33 33 33
78 78 78
44 44 44
87 87 87
89 89 89
0 0 0
53 53 53
88 88 88
82 82 82
68 68 68
60 60 60
96 96 96
101 101 101
71 71 71
69 69 69
104 104 104
78 78 78
43 43 43
20 20 20
30 30 30
0 0 0
22 22 22
13 13 13
14 14 14
0 0 0
8 8 8
16 16 16
0 0 0
11 11 11
28 28 28
33 33 33
0 0 0
26 26 26
22 22 22
37 37 37
23 23 23
30 30 30
0 0 0
7 7 7
29 29 29
46 46 46
29 29 29
57 57 57
0 0 0
70 70 70
51 51 51
41 41 41
0 0 0
28 28 28
47 47 47
36 36 36
16 16 16
27 27 27
43 43 43
63 63 63
63 63 63
63 63 63
39 39 39
0 0 0
80 80 80
0 0 0
68 68 68
71 71 71
50 50 50
51 51 51
87 87 87
50 50 50
88 88 88
70 70 70
0 0 0
49 49 49
47 47 47
96 96 96
47 47 47
103 103 103
48 48 48
49 49 49
52 52 52
37 37 37
77 77 77
38 38 38
81 81 81
40 40 40
49 49 49
95 95 95
87 87 87
67 67 67
37 37 37
32 32 32
0 0 0
15 15 15
0 0 0
4 4 4
37 37 37
23 23 23
27 27 27
33 33 33
49 49 49
0 0 0
45 45 45
40 40 40
0 0 0
49 49 49
53 53 53
61 61 61
24 24 24
22 22 22
19 19 19
35 35 35
17 17 17
15 15 15
18 18 18
14 14 14
17 17 17
10 10 10
21 21 21
0 0 0
15 15 15
0 0 0
25 25 25
23 23 23
45 45 45
0 0 0
0 0 0
36 36 36
25 25 25
75 75 75
85 85 85
0 0 0
0 0 0
48 48 48
63 63 63
55 55 55
31 31 31
43 43 43
46 46 46
59 59 59
28 28 28
69 69 69
45 45 45
62 62 62
64 64 64
0 0 0
0 0 0
15 15 15
0 0 0
9 9 9
0 0 0
34 34 34
15 15 15
8 8 8
19 19 19
45 45 45
30 30 30
0 0 0
22 22 22
0 0 0
19 19 19
46 46 46
27 27 27
40 40 40
50 50 50
16 16 16
0 0 0
25 25 25
35 35 35
27 27 27
0 0 0
37 37 37
44 44 44
49 49 49
102 102 102
51 51 51
70 70 70
51 51 51
87 87 87
71 71 71
51 51 51
50 50 50
0 0 0
39 39 39
71 71 71
51 51 51
99 99 99
61 61 61
70 70 70
19 19 19
26 26 26
59 59 59
0 0 0
0 0 0
39 39 39
55 55 55
0 0 0
54 54 54
0 0 0
35 35 35
2 2 2
0 0 0
27 27 27
32 32 32
44 44 44
58 58 58
56 56 56
0 0 0
34 34 34
23 23 23
15 15 15
12 12 12
0 0 0
18 18 18
40 40 40
30 30 30
23 23 23
7 7 7
0 0 0
9 9 9
35 35 35
0 0 0
0 0 0
0 0 0
51 51 51
51 51 51
51 51 51
44 44 44
0 0 0
64 64 64
70 70 70
49 49 49
80 80 80
0 0 0
0 0 0
45 45 45
55 55 55
62 62 62
51 51 51
0 0 0
80 80 80
0 0 0
38 38 38
0 0 0
50 50 50
0 0 0
45 45 45
78 78 78
0 0 0
72 72 72
0 0 0
0 0 0
82 82 82
63 63 63
37 37 37
68 68 68
71 71 71
53 53 53
32 32 32
0 0 0
5 5 5
31 31 31
50 50 50
36 36 36
30 30 30
27 27 27
36 36 36
32 32 32
0 0 0
30 30 30
22 22 22
0 0 0
22 22 22
5 5 5
2 2 2
0 0 0
14 14 14
14 14 14
1 1 1
1 1 1
8 8 8
8 8 8
40 40 40
22 22 22
63 63 63
60 60 60
0 0 0
0 0 0
72 72 72
0 0 0
71 71 71
50 50 50
0 0 0
63 63 63
61 61 61
0 0 0
27 27 27
32 32 32
85 85 85
80 80 80
51 51 51
50 50 50
0 0 0
111 111 111
87 87 87
87 87 87
71 71 71
0 0 0
86 86 86
0 0 0
0 0 0
50 50 50
0 0 0
0 0 0
0 0 0
0 0 0
36 36 36
17 17 17
17 17 17
43 43 43
31 31 31
35 35 35
26 26 26
29 29 29
8 8 8
13 13 13
11 11 11
23 23 23
18 18 18
41 41 41
40 40 40
46 46 46
29 29 29
51 51 51
32 32 32
28 28 28
13 13 13
9 9 9
5 5 5
14 14 14
0 0 0
2 2 2
13 13 13
2 2 2
1 1 1
12 12 12
20 20 20
0 0 0
0 0 0
60 60 60
0 0 0
50 50 50
0 0 0
86 86 86
64 64 64
43 43 43
63 63 63
60 60 60
33 33 33
49 49 49
52 52 52
16 16 16
0 0 0
26 26 26
0 0 0
0 0 0
2 2 2
1 1 1
4 4 4
12 12 12
1 1 1
18 18 18
20 20 20
15 15 15
15 15 15
0 0 0
3 3 3
4 4 4
9 9 9
10 10 10
22 22 22
43 43 43
38 38 38
0 0 0
0 0 0
38 38 38
77 77 77
44 44 44
68 68 68
0 0 0
26 26 26
59 59 59
19 19 19
55 55 55
79 79 79
50 50 50
41 41 41
54 54 54
68 68 68
42 42 42
64 64 64
0 0 0
47 47 47
0 0 0
74 74 74
50 50 50
50 50 50
84 84 84
0 0 0
82 82 82
68 68 68
56 56 56
85 85 85
0 0 0
69 69 69
0 0 0
93 93 93
75 75 75
29 29 29
0 0 0
13 13 13
23 23 23
16 16 16
12 12 12
9 9 9
14 14 14
27 27 27
0 0 0
0 0 0
0 0 0
6 6 6
11 11 11
23 23 23
23 23 23
0 0 0
19 19 19
27 27 27
35 35 35
1 1 1
31 31 31
33 33 33
52 52 52
48 48 48
35 35 35
37 37 37
65 65 65
43 43 43
62 62 62
64 64 64
38 38 38
66 66 66
54 54 54
0 0 0
61 61 61
65 65 65
86 86 86
51 51 51
87 87 87
50 50 50
69 69 69
0 0 0
50 50 50
49 49 49
46 46 46
51 51 51
71 71 71
71 71 71
72 72 72
125 125 125
101 101 101
0 0 0
87 87 87
88 88 88
50 50 50
71 71 71
70 70 70
68 68 68
70 70 70
46 46 46
0 0 0
69 69 69
66 66 66
41 41 41
56 56 56
35 35 35
34 34 34
47 47 47
94 94 94
71 71 71
87 87 87
0 0 0
28 28 28
0 0 0
24 24 24
0 0 0
7 7 7
0 0 0
22 22 22
40 40 40
20 20 20
36 36 36
0 0 0
18 18 18
32 32 32
0 0 0
35 35 35
18 18 18
32 32 32
38 38 38
62 62 62
44 44 44
0 0 0
0 0 0
79 79 79
0 0 0
69 69 69
0 0 0
0 0 0
44 44 44
30 30 30
0 0 0
58 58 58
51 51 51
50 50 50
51 51 51
50 50 50
81 81 81
46 46 46
83 83 83
0 0 0
71 71 71
86 86 86
88 88 88
0 0 0
50 50 50
0 0 0
78 78 78
69 69 69
94 94 94
68 68 68
0 0 0
86 86 86
0 0 0
98 98 98
0 0 0
82 82 82
95 95 95
40 40 40
41 41 41
49 49 49
30 30 30
0 0 0
0 0 0
12 12 12
3 3 3
0 0 0
8 8 8
6 6 6
0 0 0
34 34 34
0 0 0
49 49 49
52 52 52
32 32 32
44 44 44
25 25 25
22 22 22
30 30 30
37 37 37
31 31 31
29 29 29
35 35 35
67 67 67
78 78 78
33 33 33
51 51 51
0 0 0
50 50 50
71 71 71
49 49 49
49 49 49
50 50 50
50 50 50
50 50 50
97 97 97
72 72 72
50 50 50
50 50 50
50 50 50
21 21 21
34 34 34
49 49 49
0 0 0
35 35 35
27 27 27
0 0 0
28 28 28
19 19 19
6 6 6
12 12 12
12 12 12
0 0 0
26 26 26
26 26 26
33 33 33
0 0 0
24 24 24
0 0 0
41 41 41
45 45 45
53 53 53
48 48 48
47 47 47
50 50 50
33 33 33
83 83 83
48 48 48
83 83 83
58 58 58
69 69 69
18 18 18
0 0 0
74 74 74
56 56 56
22 22 22
80 80 80
41 41 41
50 50 50
0 0 0
0 0 0
60 60 60
44 44 44
39 39 39
70 70 70
51 51 51
48 48 48
45 45 45
58 58 58
0 0 0
25 25 25
35 35 35
0 0 0
39 39 39
19 19 19
30 30 30
24 24 24
48 48 48
71 71 71
59 59 59
53 53 53
73 73 73
54 54 54
54 54 54
57 57 57
66 66 66
58 58 58
45 45 45
30 30 30
45 45 45
26 26 26
8 8 8
13 13 13
17 17 17
51 51 51
36 36 36
56 56 56
0 0 0
67 67 67
44 44 44
48 48 48
46 46 46
74 74 74
8 8 8
32 32 32
0 0 0
26 26 26
18 18 18
0 0 0
43 43 43
5 5 5
28 28 28
38 38 38
36 36 36
70 70 70
63 63 63
80 80 80
80 80 80
50 50 50
88 88 88
113 113 113
83 83 83
76 76 76
37 37 37
49 49 49
44 44 44
53 53 53
67 67 67
0 0 0
0 0 0
47 47 47
64 64 64
70 70 70
128 128 128
68 68 68
0 0 0
69 69 69
50 50 50
110 110 110
50 50 50
69 69 69
45 45 45
75 75 75
35 35 35
0 0 0
0 0 0
3 3 3
16 16 16
12 12 12
13 13 13
42 42 42
23 23 23
0 0 0
0 0 0
44 44 44
44 44 44
26 26 26
34 34 34
53 53 53
53 53 53
34 34 34
70 70 70
67 67 67
0 0 0
17 17 17
21 21 21
18 18 18
13 13 13
23 23 23
31 31 31
30 30 30
52 52 52
0 0 0
34 34 34
37 37 37
36 36 36
33 33 33
21 21 21
50 50 50
44 44 44
0 0 0
16 16 16
16 16 16
18 18 18
45 45 45
14 14 14
0 0 0
45 45 45
97 97 97
43 43 43
106 106 106
0 0 0
49 49 49
0 0 0
47 47 47
43 43 43
0 0 0
6 6 6
8 8 8
5 5 5
3 3 3
5 5 5
7 7 7
13 13 13
9 9 9
12 12 12
7 7 7
11 11 11
9 9 9
9 9 9
20 20 20
12 12 12
0 0 0
40 40 40
18 18 18
45 45 45
0 0 0
0 0 0
38 38 38
61 61 61
79 79 79
45 45 45
44 44 44
68 68 68
0 0 0
75 75 75
50 50 50
41 41 41
94 94 94
62 62 62
96 96 96
47 47 47
49 49 49
69 69 69
100 100 100
0 0 0
99 99 99
67 67 67
0 0 0
0 0 0
43 43 43
41 41 41
87 87 87
62 62 62
70 70 70
51 51 51
42 42 42
32 32 32
0 0 0
0 0 0
33 33 33
23 23 23
42 42 42
0 0 0
41 41 41
27 27 27
13 13 13
18 18 18
14 14 14
7 7 7
14 14 14
7 7 7
9 9 9
1 1 1
16 16 16
2 2 2
11 11 11
9 9 9
22 22 22
22 22 22
63 63 63
21 21 21
25 25 25
43 43 43
26 26 26
17 17 17
65 65 65
40 40 40
0 0 0
40 40 40
71 71 71
65 65 65
55 55 55
50 50 50
46 46 46
75 75 75
69 69 69
38 38 38
82 82 82
60 60 60
46 46 46
67 67 67
48 48 48
99 99 99
111 111 111
69 69 69
84 84 84
65 65 65
87 87 87
67 67 67
0 0 0
79 79 79
94 94 94
50 50 50
76 76 76
0 0 0
0 0 0
88 88 88
71 71 71
87 87 87
69 69 69
51 51 51
0 0 0
90 90 90
42 42 42
82 82 82
30 30 30
31 31 31
64 64 64
0 0 0
69 69 69
82 82 82
71 71 71
0 0 0
43 43 43
39 39 39
16 16 16
0 0 0
4 4 4
18 18 18
7 7 7
8 8 8
0 0 0
33 33 33
8 8 8
27 27 27
0 0 0
3 3 3
16 16 16
23 23 23
35 35 35
35 35 35
50 50 50
42 42 42
24 24 24
71 71 71
39 39 39
50 50 50
44 44 44
76 76 76
50 50 50
47 47 47
72 72 72
51 51 51
83 83 83
48 48 48
71 71 71
46 46 46
94 94 94
77 77 77
46 46 46
0 0 0
78 78 78
79 79 79
0 0 0
0 0 0
69 69 69
48 48 48
0 0 0
50 50 50
0 0 0
0 0 0
0 0 0
71 71 71
69 69 69
84 84 84
60 60 60
40 40 40
58 58 58
52 52 52
26 26 26
22 22 22
33 33 33
24 24 24
23 23 23
6 6 6
16 16 16
1 1 1
0 0 0
16 16 16
14 14 14
17 17 17
36 36 36
0 0 0
0 0 0
41 41 41
48 48 48
0 0 0
35 35 35
32 32 32
40 40 40
0 0 0
46 46 46
0 0 0
0 0 0
39 39 39
0 0 0
40 40 40
58 58 58
39 39 39
46 46 46
70 70 70
55 55 55
72 72 72
100 100 100
48 48 48
70 70 70
86 86 86
50 50 50
48 48 48
45 45 45
68 68 68
59 59 59
31 31 31
49 49 49
0 0 0
26 26 26
29 29 29
21 21 21
20 20 20
12 12 12
1 1 1
5 5 5
14 14 14
11 11 11
27 27 27
36 36 36
33 33 33
63 63 63
59 59 59
43 43 43
64 64 64
36 36 36
80 80 80
69 69 69
69 69 69
72 72 72
84 84 84
70 70 70
70 70 70
38 38 38
46 46 46
97 97 97
50 50 50
0 0 0
69 69 69
0 0 0
88 88 88
39 39 39
65 65 65
94 94 94
43 43 43
0 0 0
0 0 0
86 86 86
0 0 0
62 62 62
57 57 57
0 0 0
90 90 90
38 38 38
41 41 41
47 47 47
0 0 0
20 20 20
15 15 15
6 6 6
9 9 9
0 0 0
46 46 46
45 45 45
61 61 61
0 0 0
49 49 49
28 28 28
50 50 50
26 26 26
41 41 41
33 33 33
34 34 34
37 37 37
17 17 17
45 45 45
14 14 14
18 18 18
6 6 6
33 33 33
34 34 34
12 12 12
7 7 7
57 57 57
0 0 0
63 63 63
94 94 94
62 62 62
63 63 63
68 68 68
97 97 97
51 51 51
101 101 101
49 49 49
81 81 81
50 50 50
43 43 43
48 48 48
43 43 43
51 51 51
47 47 47
0 0 0
0 0 0
47 47 47
61 61 61
42 42 42
37 37 37
84 84 84
41 41 41
62 62 62
81 81 81
46 46 46
50 50 50
112 112 112
67 67 67
81 81 81
126 126 126
80 80 80
94 94 94
45 45 45
65 65 65
0 0 0
68 68 68
46 46 46
64 64 64
37 37 37
17 17 17
14 14 14
13 13 13
0 0 0
31 31 31
28 28 28
0 0 0
6 6 6
0 0 0
2 2 2
19 19 19
14 14 14
1 1 1
0 0 0
0 0 0
0 0 0
14 14 14
29 29 29
44 44 44
25 25 25
0 0 0
14 14 14
16 16 16
6 6 6
7 7 7
6 6 6
24 24 24
9 9 9
29 29 29
29 29 29
27 27 27
27 27 27
30 30 30
53 53 53
42 42 42
69 69 69
51 51 51
60 60 60
32 32 32
32 32 32
0 0 0
14 14 14
5 5 5
37 37 37
54 54 54
75 75 75
92 92 92
70 70 70
69 69 69
51 51 51
48 48 48
67 67 67
73 73 73
52 52 52
0 0 0
22 22 22
36 36 36
26 26 26
11 11 11
8 8 8
6 6 6
0 0 0
24 24 24
9 9 9
10 10 10
12 12 12
10 10 10
0 0 0
5 5 5
2 2 2
0 0 0
31 31 31
0 0 0
25 25 25
24 24 24
0 0 0
42 42 42
44 44 44
72 72 72
68 68 68
57 57 57
79 79 79
63 63 63
65 65 65
29 29 29
0 0 0
70 70 70
67 67 67
0 0 0
70 70 70
114 114 114
71 71 71
101 101 101
71 71 71
50 50 50
49 49 49
67 67 67
64 64 64
86 86 86
0 0 0
0 0 0
58 58 58
54 54 54
38 38 38
41 41 41
63 63 63
39 39 39
0 0 0
38 38 38
24 24 24
21 21 21
24 24 24
0 0 0
42 42 42
25 25 25
18 18 18
0 0 0
15 15 15
19 19 19
16 16 16
5 5 5
4 4 4
15 15 15
13 13 13
28 28 28
16 16 16
36 36 36
12 12 12
27 27 27
13 13 13
47 47 47
45 45 45
38 38 38
32 32 32
46 46 46
31 31 31
27 27 27
18 18 18
23 23 23
41 41 41
50 50 50
48 48 48
45 45 45
31 31 31
78 78 78
43 43 43
0 0 0
59 59 59
42 42 42
64 64 64
62 62 62
0 0 0
6 6 6
0 0 0
59 59 59
49 49 49
70 70 70
67 67 67
86 86 86
50 50 50
0 0 0
110 110 110
106 106 106
93 93 93
45 45 45
0 0 0
59 59 59
65 65 65
48 48 48
0 0 0
42 42 42
63 63 63
0 0 0
69 69 69
32 32 32
79 79 79
43 43 43
0 0 0
44 44 44
11 11 11
29 29 29
6 6 6
0 0 0
1 1 1
17 17 17
17 17 17
10 10 10
41 41 41
0 0 0
0 0 0
42 42 42
26 26 26
7 7 7
5 5 5
4 4 4
2 2 2
10 10 10
2 2 2
0 0 0
12 12 12
16 16 16
27 27 27
23 23 23
0 0 0
38 38 38
39 39 39
47 47 47
0 0 0
84 84 84
0 0 0
0 0 0
51 51 51
51 51 51
110 110 110
49 49 49
82 82 82
46 46 46
69 69 69
64 64 64
62 62 62
65 65 65
0 0 0
42 42 42
37 37 37
42 42 42
46 46 46
65 65 65
0 0 0
0 0 0
71 71 71
43 43 43
82 82 82
45 45 45
0 0 0
0 0 0
34 34 34
0 0 0
23 23 23
0 0 0
21 21 21
36 36 36
45 45 45
31 31 31
0 0 0
0 0 0
30 30 30
16 16 16
19 19 19
10 10 10
12 12 12
23 23 23
0 0 0
0 0 0
35 35 35
35 35 35
38 38 38
49 49 49
41 41 41
0 0 0
22 22 22
38 38 38
34 34 34
52 52 52
73 73 73
62 62 62
45 45 45
0 0 0
88 88 88
7 7 7
50 50 50
87 87 87
50 50 50
49 49 49
87 87 87
71 71 71
51 51 51
50 50 50
30 30 30
16 16 16
14 14 14
4 4 4
13 13 13
0 0 0
0 0 0
15 15 15
0 0 0
25 25 25
5 5 5
2 2 2
0 0 0
23 23 23
32 32 32
38 38 38
41 41 41
41 41 41
28 28 28
38 38 38
42 42 42
80 80 80
44 44 44
61 61 61
91 91 91
45 45 45
56 56 56
32 32 32
0 0 0
34 34 34
40 40 40
5 5 5
34 34 34
15 15 15
0 0 0
18 18 18
21 21 21
25 25 25
24 24 24
0 0 0
50 50 50
69 69 69
68 68 68
0 0 0
59 59 59
50 50 50
52 52 52
0 0 0
87 87 87
49 49 49
103 103 103
0 0 0
0 0 0
26 26 26
27 27 27
28 28 28
0 0 0
23 23 23
21 21 21
0 0 0
30 30 30
19 19 19
13 13 13
0 0 0
15 15 15
3 3 3
0 0 0
0 0 0
0 0 0
60 60 60
59 59 59
0 0 0
61 61 61
59 59 59
0 0 0
40 40 40
24 24 24
22 22 22
23 23 23
0 0 0
14 14 14
33 33 33
30 30 30
9 9 9
0 0 0
7 7 7
34 34 34
30 30 30
0 0 0
50 50 50
83 83 83
86 86 86
0 0 0
50 50 50
0 0 0
50 50 50
46 46 46
68 68 68
63 63 63
92 92 92
113 113 113
61 61 61
63 63 63
40 40 40
66 66 66
41 41 41
0 0 0
48 48 48
0 0 0
47 47 47
0 0 0
0 0 0
45 45 45
69 69 69
48 48 48
60 60 60
0 0 0
33 33 33
0 0 0
0 0 0
19 19 19
4 4 4
16 16 16
0 0 0
0 0 0
14 14 14
17 17 17
0 0 0
10 10 10
6 6 6
11 11 11
14 14 14
19 19 19
20 20 20
15 15 15
14 14 14
25 25 25
5 5 5
16 16 16
3 3 3
11 11 11
13 13 13
2 2 2
16 16 16
10 10 10
16 16 16
0 0 0
5 5 5
9 9 9
26 26 26
12 12 12
3 3 3
4 4 4
0 0 0
33 33 33
0 0 0
39 39 39
41 41 41
71 71 71
0 0 0
70 70 70
74 74 74
68 68 68
44 44 44
71 71 71
48 48 48
110 110 110
50 50 50
0 0 0
71 71 71
64 64 64
65 65 65
0 0 0
60 60 60
38 38 38
51 51 51
0 0 0
60 60 60
50 50 50
44 44 44
0 0 0
22 22 22
16 16 16
0 0 0
20 20 20
0 0 0
31 31 31
30 30 30
17 17 17
18 18 18
0 0 0
11 11 11
13 13 13
14 14 14
20 20 20
26 26 26
26 26 26
43 43 43
71 71 71
53 53 53
60 60 60
40 40 40
86 86 86
0 0 0
40 40 40
75 75 75
51 51 51
82 82 82
105 105 105
67 67 67
64 64 64
0 0 0
87 87 87
112 112 112
71 71 71
71 71 71
71 71 71
51 51 51
0 0 0
88 88 88
100 100 100
0 0 0
80 80 80
46 46 46
41 41 41
42 42 42
40 40 40
46 46 46
59 59 59
62 62 62
57 57 57
74 74 74
61 61 61
84 84 84
0 0 0
34 34 34
0 0 0
31 31 31
20 20 20
9 9 9
10 10 10
5 5 5
16 16 16
26 26 26
0 0 0
5 5 5
10 10 10
17 17 17
13 13 13
9 9 9
0 0 0
12 12 12
38 38 38
9 9 9
26 26 26
15 15 15
0 0 0
40 40 40
40 40 40
38 38 38
57 57 57
39 39 39
59 59 59
64 64 64
73 73 73
44 44 44
47 47 47
58 58 58
55 55 55
49 49 49
78 78 78
70 70 70
69 69 69
47 47 47
0 0 0
0 0 0
58 58 58
0 0 0
29 29 29
45 45 45
16 16 16
29 29 29
16 16 16
6 6 6
30 30 30
0 0 0
0 0 0
0 0 0
67 67 67
65 65 65
42 42 42
0 0 0
0 0 0
0 0 0
0 0 0
34 34 34
37 37 37
26 26 26
0 0 0
0 0 0
26 26 26
6 6 6
12 12 12
0 0 0
4 4 4
0 0 0
8 8 8
12 12 12
7 7 7
0 0 0
8 8 8
32 32 32
21 21 21
6 6 6
37 37 37
2 2 2
18 18 18
13 13 13
3 3 3
0 0 0
0 0 0
6 6 6
18 18 18
17 17 17
10 10 10
33 33 33
36 36 36
60 60 60
79 79 79
79 79 79
97 97 97
0 0 0
0 0 0
48 48 48
50 50 50
0 0 0
50 50 50
70 70 70
86 86 86
69 69 69
50 50 50
68 68 68
49 49 49
0 0 0
51 51 51
88 88 88
65 65 65
50 50 50
50 50 50
0 0 0
69 69 69
70 70 70
47 47 47
77 77 77
0 0 0
43 43 43
47 47 47
92 92 92
0 0 0
38 38 38
32 32 32
45 45 45
22 22 22
11 11 11
23 23 23
0 0 0
42 42 42
0 0 0
54 54 54
35 35 35
7 7 7
0 0 0
4 4 4
11 11 11
25 25 25
31 31 31
31 31 31
18 18 18
0 0 0
24 24 24
0 0 0
61 61 61
30 30 30
0 0 0
61 61 61
0 0 0
62 62 62
35 35 35
39 39 39
69 69 69
50 50 50
0 0 0
108 108 108
51 51 51
49 49 49
0 0 0
0 0 0
50 50 50
0 0 0
50 50 50
10 10 10
7 7 7
16 16 16
20 20 20
14 14 14
22 22 22
21 21 21
20 20 20
0 0 0
0 0 0
39 39 39
33 33 33
0 0 0
41 41 41
0 0 0
28 28 28
48 48 48
25 25 25
0 0 0
0 0 0
27 27 27
0 0 0
36 36 36
22 22 22
34 34 34
34 34 34
9 9 9
25 25 25
5 5 5
0 0 0
0 0 0
13 13 13
0 0 0
20 20 20
26 26 26
25 25 25
33 33 33
42 42 42
32 32 32
26 26 26
3 3 3
24 24 24
37 37 37
0 0 0
0 0 0
37 37 37
45 45 45
56 56 56
75 75 75
0 0 0
0 0 0
96 96 96
43 43 43
44 44 44
50 50 50
14 14 14
8 8 8
0 0 0
29 29 29
49 49 49
24 24 24
60 60 60
29 29 29
0 0 0
37 37 37
67 67 67
62 62 62
0 0 0
58 58 58
0 0 0
38 38 38
24 24 24
15 15 15
2 2 2
31 31 31
19 19 19
12 12 12
13 13 13
17 17 17
10 10 10
24 24 24
16 16 16
0 0 0
12 12 12
14 14 14
17 17 17
23 23 23
41 41 41
32 32 32
54 54 54
69 69 69
22 22 22
45 45 45
12 12 12
9 9 9
0 0 0
9 9 9
30 30 30
27 27 27
32 32 32
43 43 43
40 40 40
45 45 45
53 53 53
50 50 50
82 82 82
46 46 46
35 35 35
77 77 77
68 68 68
50 50 50
87 87 87
0 0 0
55 55 55
81 81 81
30 30 30
42 42 42
0 0 0
15 15 15
23 23 23
38 38 38
22 22 22
23 23 23
41 41 41
33 33 33
47 47 47
33 33 33
45 45 45
0 0 0
32 32 32
47 47 47
34 34 34
26 26 26
0 0 0
47 47 47
42 42 42
50 50 50
61 61 61
61 61 61
71 71 71
59 59 59
71 71 71
32 32 32
76 76 76
30 30 30
29 29 29
20 20 20
8 8 8
14 14 14
11 11 11
0 0 0
20 20 20
11 11 11
43 43 43
63 63 63
34 34 34
0 0 0
43 43 43
83 83 83
48 48 48
53 53 53
0 0 0
97 97 97
75 75 75
89 89 89
101 101 101
70 70 70
107 107 107
91 91 91
69 69 69
50 50 50
62 62 62
61 61 61
32 32 32
57 57 57
49 49 49
29 29 29
33 33 33
24 24 24
0 0 0
29 29 29
42 42 42
51 51 51
41 41 41
47 47 47
30 30 30
31 31 31
63 63 63
55 55 55
43 43 43
43 43 43
56 56 56
29 29 29
11 11 11
9 9 9
26 26 26
41 41 41
26 26 26
38 38 38
38 38 38
45 45 45
29 29 29
47 47 47
0 0 0
57 57 57
83 83 83
0 0 0
81 81 81
50 50 50
49 49 49
49 49 49
66 66 66
66 66 66
67 67 67
49 49 49
33 33 33
36 36 36
57 57 57
47 47 47
50 50 50
114 114 114
86 86 86
66 66 66
0 0 0
0 0 0
58 58 58
40 40 40
0 0 0
63 63 63
47 47 47
60 60 60
28 28 28
47 47 47
51 51 51
50 50 50
31 31 31
53 53 53
35 35 35
31 31 31
31 31 31
0 0 0
0 0 0
25 25 25
39 39 39
0 0 0
0 0 0
36 36 36
48 48 48
44 44 44
84 84 84
81 81 81
0 0 0
49 49 49
63 63 63
73 73 73
13 13 13
64 64 64
1 1 1
28 28 28
8 8 8
0 0 0
12 12 12
25 25 25
11 11 11
11 11 11
19 19 19
27 27 27
21 21 21
39 39 39
49 49 49
49 49 49
79 79 79
103 103 103
69 69 69
102 102 102
0 0 0
65 65 65
63 63 63
46 46 46
60 60 60
0 0 0
12 12 12
16 16 16
18 18 18
13 13 13
15 15 15
0 0 0
11 11 11
5 5 5
9 9 9
26 26 26
34 34 34
39 39 39
50 50 50
51 51 51
0 0 0
0 0 0
51 51 51
0 0 0
40 40 40
0 0 0
15 15 15
18 18 18
18 18 18
12 12 12
14 14 14
39 39 39
0 0 0
1 1 1
7 7 7
12 12 12
11 11 11
20 20 20
0 0 0
17 17 17
0 0 0
27 27 27
0 0 0
26 26 26
9 9 9
0 0 0
18 18 18
20 20 20
36 36 36
8 8 8
78 78 78
96 96 96
65 65 65
77 77 77
55 55 55
0 0 0
0 0 0
45 45 45
63 63 63
44 44 44
48 48 48
0 0 0
0 0 0
0 0 0
66 66 66
50 50 50
69 69 69
70 70 70
66 66 66
0 0 0
69 69 69
48 48 48
46 46 46
47 47 47
66 66 66
57 57 57
65 65 65
50 50 50
44 44 44
74 74 74
28 28 28
0 0 0
41 41 41
32 32 32
0 0 0
0 0 0
24 24 24
0 0 0
36 36 36
50 50 50
33 33 33
0 0 0
30 30 30
0 0 0
0 0 0
61 61 61
40 40 40
0 0 0
33 33 33
29 29 29
7 7 7
10 10 10
0 0 0
0 0 0
20 20 20
11 11 11
21 21 21
20 20 20
0 0 0
40 40 40
42 42 42
68 68 68
41 41 41
0 0 0
0 0 0
0 0 0
47 47 47
39 39 39
49 49 49
79 79 79
0 0 0
71 71 71
50 50 50
70 70 70
51 51 51
5 5 5
9 9 9
11 11 11
1 1 1
7 7 7
7 7 7
8 8 8
6 6 6
4 4 4
7 7 7
0 0 0
0 0 0
43 43 43
35 35 35
50 50 50
58 58 58
57 57 57
59 59 59
0 0 0
0 0 0
35 35 35
0 0 0
51 51 51
36 36 36
13 13 13
0 0 0
0 0 0
16 16 16
0 0 0
0 0 0
13 13 13
44 44 44
0 0 0
63 63 63
0 0 0
30 30 30
58 58 58
31 31 31
28 28 28
19 19 19
36 36 36
0 0 0
22 22 22
33 33 33
36 36 36
49 49 49
61 61 61
37 37 37
46 46 46
0 0 0
0 0 0
62 62 62
61 61 61
39 39 39
21 21 21
13 13 13
22 22 22
0 0 0
0 0 0
0 0 0
42 42 42
57 57 57
40 40 40
61 61 61
47 47 47
50 50 50
49 49 49
30 30 30
7 7 7
1 1 1
8 8 8
20 20 20
33 33 33
17 17 17
29 29 29
18 18 18
12 12 12
20 20 20
7 7 7
0 0 0
0 0 0
8 8 8
0 0 0
42 42 42
41 41 41
54 54 54
0 0 0
49 49 49
37 37 37
51 51 51
10 10 10
29 29 29
4 4 4
0 0 0
3 3 3
11 11 11
40 40 40
25 25 25
37 37 37
24 24 24
23 23 23
0 0 0
11 11 11
24 24 24
0 0 0
36 36 36
34 34 34
65 65 65
53 53 53
63 63 63
48 48 48
88 88 88
70 70 70
45 45 45
41 41 41
32 32 32
29 29 29
0 0 0
38 38 38
0 0 0
0 0 0
40 40 40
41 41 41
25 25 25
0 0 0
62 62 62
70 70 70
40 40 40
55 55 55
0 0 0
35 35 35
47 47 47
62 62 62
30 30 30
0 0 0
57 57 57
0 0 0
0 0 0
31 31 31
22 22 22
53 53 53
22 22 22
20 20 20
16 16 16
37 37 37
12 12 12
46 46 46
27 27 27
6 6 6
9 9 9
18 18 18
0 0 0
32 32 32
55 55 55
63 63 63
69 69 69
69 69 69
72 72 72
0 0 0
49 49 49
86 86 86
51 51 51
116 116 116
45 45 45
84 84 84
46 46 46
49 49 49
47 47 47
56 56 56
62 62 62
74 74 74
32 32 32
29 29 29
57 57 57
31 31 31
0 0 0
70 70 70
90 90 90
0 0 0
42 42 42
64 64 64
46 46 46
78 78 78
77 77 77
58 58 58
75 75 75
34 34 34
23 23 23
29 29 29
13 13 13
12 12 12
0 0 0
4 4 4
0 0 0
12 12 12
11 11 11
40 40 40
32 32 32
0 0 0
36 36 36
37 37 37
25 25 25
47 47 47
35 35 35
40 40 40
37 37 37
90 90 90
0 0 0
46 46 46
70 70 70
87 87 87
71 71 71
48 48 48
50 50 50
70 70 70
0 0 0
86 86 86
88 88 88
51 51 51
51 51 51
50 50 50
86 86 86
50 50 50
116 116 116
91 91 91
75 75 75
41 41 41
72 72 72
39 39 39
45 45 45
62 62 62
49 49 49
62 62 62
75 75 75
81 81 81
67 67 67
54 54 54
55 55 55
0 0 0
25 25 25
23 23 23
28 28 28
45 45 45
51 51 51
0 0 0
67 67 67
73 73 73
47 47 47
42 42 42
0 0 0
87 87 87
0 0 0
97 97 97
97 97 97
96 96 96
0 0 0
66 66 66
81 81 81
62 62 62
43 43 43
71 71 71
0 0 0
31 31 31
33 33 33
13 13 13
0 0 0
8 8 8
6 6 6
24 24 24
57 57 57
0 0 0
44 44 44
82 82 82
71 71 71
0 0 0
0 0 0
50 50 50
0 0 0
0 0 0
67 67 67
49 49 49
0 0 0
49 49 49
53 53 53
0 0 0
0 0 0
67 67 67
32 32 32
42 42 42
79 79 79
43 43 43
83 83 83
11 11 11
50 50 50
70 70 70
69 69 69
0 0 0
64 64 64
42 42 42
70 70 70
28 28 28
22 22 22
18 18 18
0 0 0
32 32 32
12 12 12
9 9 9
9 9 9
9 9 9
11 11 11
16 16 16
9 9 9
0 0 0
0 0 0
10 10 10
24 24 24
29 29 29
15 15 15
14 14 14
0 0 0
39 39 39
34 34 34
42 42 42
66 66 66
51 51 51
49 49 49
53 53 53
33 33 33
38 38 38
66 66 66
39 39 39
66 66 66
90 90 90
66 66 66
69 69 69
50 50 50
51 51 51
71 71 71
88 88 88
50 50 50
0 0 0
51 51 51
0 0 0
70 70 70
81 81 81
0 0 0
65 65 65
0 0 0
0 0 0
37 37 37
0 0 0
50 50 50
72 72 72
0 0 0
44 44 44
87 87 87
60 60 60
0 0 0
30 30 30
0 0 0
46 46 46
27 27 27
0 0 0
28 28 28
12 12 12
0 0 0
0 0 0
0 0 0
12 12 12
0 0 0
22 22 22
48 48 48
15 15 15
0 0 0
44 44 44
44 44 44
6 6 6
12 12 12
7 7 7
0 0 0
0 0 0
20 20 20
40 40 40
0 0 0
35 35 35
36 36 36
0 0 0
38 38 38
0 0 0
52 52 52
54 54 54
0 0 0
36 36 36
39 39 39
0 0 0
0 0 0
47 47 47
35 35 35
0 0 0
0 0 0
9 9 9
5 5 5
15 15 15
15 15 15
23 23 23
20 20 20
5 5 5
8 8 8
21 21 21
11 11 11
29 29 29
37 37 37
36 36 36
36 36 36
65 65 65
0 0 0
0 0 0
0 0 0
55 55 55
42 42 42
78 78 78
0 0 0
34 34 34
65 65 65
53 53 53
44 44 44
0 0 0
58 58 58
59 59 59
12 12 12
43 43 43
39 39 39
30 30 30
0 0 0
0 0 0
21 21 21
33 33 33
46 46 46
34 34 34
39 39 39
26 26 26
0 0 0
0 0 0
35 35 35
0 0 0
78 78 78
71 71 71
50 50 50
67 67 67
49 49 49
49 49 49
40 40 40
28 28 28
46 46 46
25 25 25
11 11 11
25 25 25
0 0 0
34 34 34
0 0 0
31 31 31
0 0 0
5 5 5
0 0 0
0 0 0
0 0 0
21 21 21
10 10 10
22 22 22
18 18 18
18 18 18
28 28 28
23 23 23
38 38 38
29 29 29
8 8 8
57 57 57
0 0 0
34 34 34
0 0 0
0 0 0
80 80 80
0 0 0
0 0 0
84 84 84
0 0 0
60 60 60
78 78 78
0 0 0
56 56 56
41 41 41
46 46 46
67 67 67
43 43 43
0 0 0
40 40 40
16 16 16
17 17 17
25 25 25
12 12 12
6 6 6
12 12 12
9 9 9
9 9 9
23 23 23
29 29 29
45 45 45
37 37 37
44 44 44
50 50 50
71 71 71
72 72 72
79 79 79
59 59 59
49 49 49
32 32 32
29 29 29
0 0 0
34 34 34
45 45 45
31 31 31
0 0 0
57 57 57
40 40 40
52 52 52
59 59 59
72 72 72
56 56 56
45 45 45
78 78 78
37 37 37
31 31 31
49 49 49
13 13 13
17 17 17
14 14 14
0 0 0
31 31 31
46 46 46
28 28 28
17 17 17
0 0 0
35 35 35
41 41 41
56 56 56
15 15 15
37 37 37
0 0 0
59 59 59
41 41 41
0 0 0
86 86 86
43 43 43
0 0 0
42 42 42
0 0 0
71 71 71
100 100 100
84 84 84
50 50 50
69 69 69
45 45 45
98 98 98
68 68 68
95 95 95
107 107 107
57 57 57
41 41 41
77 77 77
0 0 0
32 32 32
33 33 33
49 49 49
44 44 44
33 33 33
30 30 30
28 28 28
0 0 0
40 40 40
27 27 27
40 40 40
38 38 38
53 53 53
50 50 50
39 39 39
31 31 31
13 13 13
7 7 7
14 14 14
0 0 0
25 25 25
19 19 19
19 19 19
35 35 35
2 2 2
0 0 0
20 20 20
11 11 11
17 17 17
0 0 0
36 36 36
29 29 29
0 0 0
43 43 43
77 77 77
43 43 43
75 75 75
47 47 47
66 66 66
68 68 68
69 69 69
71 71 71
50 50 50
0 0 0
72 72 72
50 50 50
72 72 72
72 72 72
100 100 100
0 0 0
70 70 70
0 0 0
100 100 100
68 68 68
0 0 0
43 43 43
80 80 80
0 0 0
71 71 71
58 58 58
73 73 73
0 0 0
88 88 88
38 38 38
59 59 59
0 0 0
0 0 0
98 98 98
60 60 60
0 0 0
38 38 38
13 13 13
0 0 0
0 0 0
38 38 38
36 36 36
0 0 0
31 31 31
0 0 0
0 0 0
74 74 74
0 0 0
0 0 0
66 66 66
83 83 83
0 0 0
45 45 45
43 43 43
0 0 0
0 0 0
35 35 35
3 3 3
9 9 9
13 13 13
1 1 1
12 12 12
0 0 0
17 17 17
16 16 16
0 0 0
38 38 38
70 70 70
37 37 37
68 68 68
0 0 0
49 49 49
50 50 50
0 0 0
69 69 69
83 83 83
0 0 0
88 88 88
0 0 0
0 0 0
0 0 0
52 52 52
54 54 54
0 0 0
75 75 75
43 43 43
0 0 0
51 51 51
50 50 50
70 70 70
0 0 0
68 68 68
67 67 67
57 57 57
40 40 40
45 45 45
37 37 37
23 23 23
0 0 0
43 43 43
38 38 38
0 0 0
42 42 42
43 43 43
41 41 41
49 49 49
58 58 58
51 51 51
39 39 39
32 32 32
33 33 33
12 12 12
7 7 7
18 18 18
11 11 11
0 0 0
24 24 24
0 0 0
32 32 32
29 29 29
34 34 34
0 0 0
0 0 0
36 36 36
48 48 48
0 0 0
0 0 0
67 67 67
64 64 64
0 0 0
0 0 0
53 53 53
84 84 84
50 50 50
50 50 50
50 50 50
71 71 71
70 70 70
47 47 47
47 47 47
45 45 45
87 87 87
38 38 38
0 0 0
0 0 0
15 15 15
38 38 38
0 0 0
0 0 0
0 0 0
50 50 50
86 86 86
41 41 41
50 50 50
0 0 0
46 46 46
39 39 39
70 70 70
0 0 0
63 63 63
0 0 0
0 0 0
45 45 45
0 0 0
49 49 49
49 49 49
45 45 45
37 37 37
0 0 0
0 0 0
30 30 30
0 0 0
10 10 10
11 11 11
0 0 0
0 0 0
32 32 32
0 0 0
0 0 0
7 7 7
0 0 0
22 22 22
34 34 34
32 32 32
32 32 32
51 51 51
41 41 41
42 42 42
41 41 41
28 28 28
0 0 0
41 41 41
28 28 28
17 17 17
24 24 24
35 35 35
9 9 9
26 26 26
26 26 26
9 9 9
22 22 22
2 2 2
5 5 5
12 12 12
30 30 30
0 0 0
51 51 51
49 49 49
38 38 38
36 36 36
31 31 31
44 44 44
54 54 54
0 0 0
39 39 39
0 0 0
0 0 0
74 74 74
40 40 40
48 48 48
0 0 0
46 46 46
64 64 64
62 62 62
62 62 62
0 0 0
59 59 59
78 78 78
40 40 40
26 26 26
0 0 0
24 24 24
0 0 0
23 23 23
12 12 12
13 13 13
39 39 39
19 19 19
43 43 43
45 45 45
80 80 80
0 0 0
50 50 50
88 88 88
71 71 71
71 71 71
47 47 47
104 104 104
62 62 62
56 56 56
0 0 0
0 0 0
52 52 52
31 31 31
49 49 49
30 30 30
0 0 0
0 0 0
0 0 0
20 20 20
32 32 32
4 4 4
15 15 15
22 22 22
30 30 30
19 19 19
31 31 31
32 32 32
0 0 0
12 12 12
16 16 16
6 6 6
15 15 15
0 0 0
32 32 32
45 45 45
28 28 28
45 45 45
35 35 35
35 35 35
74 74 74
47 47 47
75 75 75
12 12 12
0 0 0
71 71 71
51 51 51
69 69 69
71 71 71
71 71 71
66 66 66
71 71 71
70 70 70
49 49 49
0 0 0
0 0 0
56 56 56
2 2 2
33 33 33
45 45 45
62 62 62
0 0 0
67 67 67
68 68 68
97 97 97
48 48 48
50 50 50
0 0 0
69 69 69
0 0 0
40 40 40
36 36 36
56 56 56
60 60 60
41 41 41
19 19 19
24 24 24
16 16 16
2 2 2
3 3 3
10 10 10
19 19 19
0 0 0
7 7 7
11 11 11
0 0 0
21 21 21
6 6 6
1 1 1
4 4 4
3 3 3
0 0 0
20 20 20
42 42 42
37 37 37
60 60 60
55 55 55
90 90 90
26 26 26
23 23 23
56 56 56
47 47 47
66 66 66
36 36 36
46 46 46
48 48 48
0 0 0
0 0 0
72 72 72
88 88 88
71 71 71
51 51 51
50 50 50
0 0 0
100 100 100
50 50 50
68 68 68
69 69 69
70 70 70
86 86 86
44 44 44
44 44 44
62 62 62
0 0 0
40 40 40
0 0 0
32 32 32
51 51 51
37 37 37
81 81 81
60 60 60
89 89 89
34 34 34
0 0 0
41 41 41
11 11 11
43 43 43
21 21 21
34 34 34
0 0 0
10 10 10
26 26 26
3 3 3
9 9 9
12 12 12
0 0 0
0 0 0
17 17 17
0 0 0
0 0 0
4 4 4
4 4 4
2 2 2
6 6 6
7 7 7
11 11 11
38 38 38
29 29 29
26 26 26
33 33 33
49 49 49
49 49 49
75 75 75
56 56 56
66 66 66
75 75 75
46 46 46
51 51 51
83 83 83
0 0 0
70 70 70
0 0 0
50 50 50
72 72 72
111 111 111
71 71 71
0 0 0
72 72 72
51 51 51
72 72 72
51 51 51
72 72 72
51 51 51
69 69 69
87 87 87
67 67 67
38 38 38
44 44 44
53 53 53
37 37 37
56 56 56
68 68 68
62 62 62
34 34 34
44 44 44
20 20 20
36 36 36
45 45 45
22 22 22
0 0 0
57 57 57
27 27 27
0 0 0
41 41 41
61 61 61
82 82 82
45 45 45
0 0 0
49 49 49
72 72 72
50 50 50
71 71 71
0 0 0
61 61 61
0 0 0
50 50 50
0 0 0
32 32 32
0 0 0
2 2 2
23 23 23
38 38 38
32 32 32
39 39 39
0 0 0
0 0 0
36 36 36
35 35 35
0 0 0
46 46 46
51 51 51
47 47 47
46 46 46
46 46 46
0 0 0
48 48 48
118 118 118
50 50 50
0 0 0
71 71 71
0 0 0
50 50 50
84 84 84
50 50 50
87 87 87
0 0 0
51 51 51
0 0 0
87 87 87
70 70 70
48 48 48
65 65 65
0 0 0
42 42 42
42 42 42
36 36 36
38 38 38
40 40 40
40 40 40
0 0 0
0 0 0
39 39 39
66 66 66
33 33 33
0 0 0
81 81 81
43 43 43
33 33 33
0 0 0
28 28 28
10 10 10
18 18 18
0 0 0
10 10 10
14 14 14
20 20 20
12 12 12
0 0 0
0 0 0
11 11 11
0 0 0
32 32 32
41 41 41
41 41 41
21 21 21
21 21 21
42 42 42
0 0 0
0 0 0
53 53 53
0 0 0
20 20 20
0 0 0
42 42 42
0 0 0
59 59 59
49 49 49
49 49 49
68 68 68
50 50 50
0 0 0
57 57 57
41 41 41
0 0 0
0 0 0
6 6 6
0 0 0
0 0 0
47 47 47
44 44 44
78 78 78
65 65 65
49 49 49
0 0 0
88 88 88
69 69 69
68 68 68
51 51 51
0 0 0
65 65 65
0 0 0
50 50 50
71 71 71
84 84 84
0 0 0
0 0 0
49 49 49
0 0 0
46 46 46
51 51 51
0 0 0
39 39 39
39 39 39
0 0 0
55 55 55
36 36 36
0 0 0
42 42 42
30 30 30
0 0 0
11 11 11
0 0 0
0 0 0
14 14 14
27 27 27
25 25 25
7 7 7
0 0 0
0 0 0
17 17 17
27 27 27
21 21 21
20 20 20
0 0 0
8 8 8
41 41 41
46 46 46
33 33 33
0 0 0
28 28 28
0 0 0
26 26 26
0 0 0
0 0 0
0 0 0
11 11 11
0 0 0
17 17 17
63 63 63
8 8 8
34 34 34
49 49 49
76 76 76
57 57 57
43 43 43
46 46 46
65 65 65
47 47 47
48 48 48
69 69 69
0 0 0
0 0 0
65 65 65
45 45 45
60 60 60
42 42 42
31 31 31
52 52 52
45 45 45
31 31 31
0 0 0
34 34 34
22 22 22
36 36 36
58 58 58
34 34 34
49 49 49
46 46 46
44 44 44
44 44 44
86 86 86
0 0 0
0 0 0
71 71 71
87 87 87
0 0 0
46 46 46
55 55 55
0 0 0
0 0 0
0 0 0
0 0 0
41 41 41
41 41 41
0 0 0
39 39 39
57 57 57
27 27 27
0 0 0
20 20 20
7 7 7
15 15 15
13 13 13
17 17 17
17 17 17
24 24 24
33 33 33
30 30 30
0 0 0
0 0 0
1 1 1
11 11 11
0 0 0
11 11 11
24 24 24
9 9 9
34 34 34
21 21 21
62 62 62
0 0 0
27 27 27
37 37 37
0 0 0
24 24 24
13 13 13
20 20 20
60 60 60
52 52 52
42 42 42
66 66 66
0 0 0
87 87 87
61 61 61
0 0 0
72 72 72
48 48 48
51 51 51
51 51 51
0 0 0
101 101 101
72 72 72
51 51 51
70 70 70
0 0 0
51 51 51
72 72 72
100 100 100
70 70 70
44 44 44
43 43 43
87 87 87
102 102 102
71 71 71
49 49 49
46 46 46
40 40 40
56 56 56
31 31 31
23 23 23
25 25 25
0 0 0
9 9 9
34 34 34
20 20 20
18 18 18
17 17 17
5 5 5
7 7 7
18 18 18
26 26 26
39 39 39
0 0 0
29 29 29
46 46 46
36 36 36
50 50 50
37 37 37
80 80 80
0 0 0
74 74 74
39 39 39
54 54 54
39 39 39
66 66 66
37 37 37
90 90 90
67 67 67
72 72 72
62 62 62
65 65 65
70 70 70
50 50 50
72 72 72
88 88 88
0 0 0
72 72 72
50 50 50
71 71 71
85 85 85
46 46 46
44 44 44
63 63 63
84 84 84
0 0 0
49 49 49
83 83 83
46 46 46
50 50 50
51 51 51
48 48 48
49 49 49
57 57 57
49 49 49
0 0 0
67 67 67
47 47 47
76 76 76
32 32 32
39 39 39
31 31 31
0 0 0
15 15 15
0 0 0
0 0 0
9 9 9
3 3 3
13 13 13
0 0 0
16 16 16
8 8 8
0 0 0
0 0 0
13 13 13
2 2 2
0 0 0
8 8 8
0 0 0
0 0 0
40 40 40
45 45 45
0 0 0
66 66 66
38 38 38
26 26 26
0 0 0
26 26 26
47 47 47
44 44 44
59 59 59
14 14 14
56 56 56
34 34 34
58 58 58
83 83 83
0 0 0
0 0 0
72 72 72
72 72 72
72 72 72
87 87 87
0 0 0
0 0 0
109 109 109
68 68 68
48 48 48
47 47 47
43 43 43
0 0 0
66 66 66
70 70 70
78 78 78
47 47 47
0 0 0
0 0 0
78 78 78
42 42 42
73 73 73
41 41 41
53 53 53
36 36 36
28 28 28
13 13 13
29 29 29
32 32 32
32 32 32
48 48 48
30 30 30
0 0 0
90 90 90
52 52 52
42 42 42
88 88 88
31 31 31
0 0 0
0 0 0
0 0 0
42 42 42
49 49 49
29 29 29
44 44 44
0 0 0
17 17 17
22 22 22
14 14 14
16 16 16
4 4 4
15 15 15
43 43 43
34 34 34
40 40 40
57 57 57
0 0 0
63 63 63
69 69 69
0 0 0
47 47 47
70 70 70
98 98 98
49 49 49
50 50 50
0 0 0
72 72 72
101 101 101
51 51 51
0 0 0
86 86 86
98 98 98
50 50 50
70 70 70
68 68 68
47 47 47
39 39 39
72 72 72
72 72 72
51 51 51
46 46 46
32 32 32
55 55 55
84 84 84
46 46 46
38 38 38
37 37 37
19 19 19
32 32 32
29 29 29
23 23 23
24 24 24
14 14 14
0 0 0
2 2 2
0 0 0
0 0 0
12 12 12
10 10 10
0 0 0
0 0 0
7 7 7
0 0 0
3 3 3
8 8 8
17 17 17
23 23 23
0 0 0
59 59 59
30 30 30
37 37 37
49 49 49
32 32 32
0 0 0
0 0 0
0 0 0
13 13 13
0 0 0
0 0 0
36 36 36
49 49 49
0 0 0
90 90 90
69 69 69
86 86 86
51 51 51
49 49 49
69 69 69
67 67 67
0 0 0
51 51 51
0 0 0
0 0 0
50 50 50
99 99 99
70 70 70
51 51 51
49 49 49
0 0 0
49 49 49
53 53 53
68 68 68
0 0 0
54 54 54
0 0 0
0 0 0
0 0 0
38 38 38
63 63 63
43 43 43
77 77 77
0 0 0
0 0 0
64 64 64
0 0 0
0 0 0
65 65 65
45 45 45
0 0 0
0 0 0
0 0 0
50 50 50
34 34 34
50 50 50
0 0 0
14 14 14
15 15 15
24 24 24
1 1 1
3 3 3
13 13 13
0 0 0
0 0 0
1 1 1
0 0 0
13 13 13
0 0 0
14 14 14
5 5 5
13 13 13
3 3 3
67 67 67
34 34 34
0 0 0
0 0 0
15 15 15
0 0 0
9 9 9
14 14 14
20 20 20
0 0 0
0 0 0
12 12 12
20 20 20
13 13 13
0 0 0
0 0 0
0 0 0
21 21 21
59 59 59
43 43 43
0 0 0
48 48 48
82 82 82
46 46 46
0 0 0
43 43 43
45 45 45
27 27 27
29 29 29
58 58 58
0 0 0
54 54 54
25 25 25
46 46 46
54 54 54
58 58 58
0 0 0
0 0 0
86 86 86
0 0 0
72 72 72
70 70 70
0 0 0
0 0 0
80 80 80
63 63 63
49 49 49
0 0 0
0 0 0
55 55 55
48 48 48
43 43 43
0 0 0
49 49 49
75 75 75
90 90 90
46 46 46
43 43 43
26 26 26
34 34 34
33 33 33
37 37 37
25 25 25
25 25 25
53 53 53
27 27 27
23 23 23
36 36 36
36 36 36
53 53 53
0 0 0
31 31 31
20 20 20
25 25 25
0 0 0
18 18 18
0 0 0
0 0 0
2 2 2
4 4 4
3 3 3
16 16 16
15 15 15
28 28 28
32 32 32
16 16 16
2 2 2
0 0 0
12 12 12
0 0 0
45 45 45
30 30 30
46 46 46
70 70 70
102 102 102
72 72 72
71 71 71
71 71 71
72 72 72
88 88 88
48 48 48
70 70 70
0 0 0
68 68 68
51 51 51
48 48 48
0 0 0
84 84 84
72 72 72
50 50 50
88 88 88
43 43 43
66 66 66
49 49 49
98 98 98
51 51 51
62 62 62
70 70 70
68 68 68
0 0 0
0 0 0
88 88 88
25 25 25
0 0 0
62 62 62
37 37 37
57 57 57
42 42 42
25 25 25
10 10 10
19 19 19
14 14 14
22 22 22
34 34 34
36 36 36
32 32 32
29 29 29
36 36 36
22 22 22
36 36 36
0 0 0
52 52 52
34 34 34
51 51 51
0 0 0
55 55 55
58 58 58
41 41 41
0 0 0
59 59 59
0 0 0
58 58 58
0 0 0
0 0 0
79 79 79
74 74 74
63 63 63
0 0 0
71 71 71
68 68 68
90 90 90
48 48 48
71 71 71
0 0 0
47 47 47
70 70 70
70 70 70
94 94 94
12 12 12
0 0 0
71 71 71
0 0 0
68 68 68
56 56 56
37 37 37
51 51 51
37 37 37
23 23 23
31 31 31
40 40 40
37 37 37
11 11 11
40 40 40
38 38 38
21 21 21
0 0 0
9 9 9
17 17 17
21 21 21
0 0 0
22 22 22
14 14 14
10 10 10
0 0 0
18 18 18
0 0 0
22 22 22
29 29 29
19 19 19
17 17 17
16 16 16
9 9 9
32 32 32
36 36 36
69 69 69
53 53 53
41 41 41
34 34 34
47 47 47
47 47 47
43 43 43
37 37 37
0 0 0
52 52 52
64 64 64
56 56 56
46 46 46
47 47 47
71 71 71
0 0 0
86 86 86
3 3 3
50 50 50
0 0 0
0 0 0
0 0 0
69 69 69
0 0 0
80 80 80
50 50 50
96 96 96
0 0 0
87 87 87
50 50 50
108 108 108
0 0 0
49 49 49
96 96 96
64 64 64
70 70 70
0 0 0
71 71 71
49 49 49
0 0 0
57 57 57
20 20 20
34 34 34
35 35 35
15 15 15
19 19 19
0 0 0
27 27 27
5 5 5
35 35 35
6 6 6
26 26 26
0 0 0
36 36 36
53 53 53
0 0 0
34 34 34
0 0 0
0 0 0
35 35 35
54 54 54
0 0 0
0 0 0
30 30 30
0 0 0
0 0 0
7 7 7
6 6 6
15 15 15
8 8 8
14 14 14
36 36 36
0 0 0
0 0 0
67 67 67
45 45 45
64 64 64
44 44 44
49 49 49
47 47 47
67 67 67
0 0 0
47 47 47
94 94 94
72 72 72
0 0 0
51 51 51
87 87 87
0 0 0
0 0 0
72 72 72
88 88 88
50 50 50
0 0 0
65 65 65
0 0 0
77 77 77
50 50 50
0 0 0
73 73 73
60 60 60
0 0 0
82 82 82
47 47 47
57 57 57
0 0 0
46 46 46
41 41 41
61 61 61
43 43 43
17 17 17
41 41 41
0 0 0
62 62 62
37 37 37
0 0 0
13 13 13
19 19 19
0 0 0
21 21 21
0 0 0
0 0 0
0 0 0
27 27 27
39 39 39
24 24 24
0 0 0
41 41 41
23 23 23
11 11 11
11 11 11
8 8 8
4 4 4
9 9 9
0 0 0
0 0 0
33 33 33
0 0 0
59 59 59
49 49 49
69 69 69
48 48 48
0 0 0
49 49 49
71 71 71
0 0 0
0 0 0
86 86 86
0 0 0
51 51 51
71 71 71
68 68 68
65 65 65
52 52 52
0 0 0
40 40 40
0 0 0
40 40 40
54 54 54
36 36 36
0 0 0
63 63 63
61 61 61
65 65 65
87 87 87
0 0 0
0 0 0
49 49 49
39 39 39
0 0 0
30 30 30
51 51 51
28 28 28
0 0 0
0 0 0
0 0 0
51 51 51
0 0 0
45 45 45
35 35 35
29 29 29
0 0 0
28 28 28
27 27 27
46 46 46
23 23 23
39 39 39
0 0 0
11 11 11
21 21 21
0 0 0
17 17 17
26 26 26
0 0 0
0 0 0
5 5 5
63 63 63
79 79 79
0 0 0
23 23 23
39 39 39
50 50 50
22 22 22
47 47 47
0 0 0
42 42 42
3 3 3
0 0 0
0 0 0
5 5 5
10 10 10
38 38 38
31 31 31
61 61 61
0 0 0
45 45 45
40 40 40
0 0 0
0 0 0
59 59 59
54 54 54
0 0 0
0 0 0
27 27 27
42 42 42
38 38 38
78 78 78
40 40 40
44 44 44
90 90 90
0 0 0
70 70 70
40 40 40
0 0 0
0 0 0
0 0 0
47 47 47
40 40 40
0 0 0
56 56 56
46 46 46
31 31 31
56 56 56
58 58 58
42 42 42
33 33 33
30 30 30
0 0 0
42 42 42
42 42 42
46 46 46
88 88 88
43 43 43
61 61 61
0 0 0
82 82 82
66 66 66
66 66 66
29 29 29
33 33 33
0 0 0
0 0 0
80 80 80
75 75 75
49 49 49
57 57 57
32 32 32
41 41 41
27 27 27
35 35 35
20 20 20
20 20 20
24 24 24
28 28 28
12 12 12
29 29 29
0 0 0
24 24 24
33 33 33
26 26 26
27 27 27
59 59 59
33 33 33
0 0 0
12 12 12
2 2 2
25 25 25
30 30 30
38 38 38
57 57 57
0 0 0
51 51 51
87 87 87
0 0 0
114 114 114
50 50 50
55 55 55
38 38 38
56 56 56
53 53 53
48 48 48
52 52 52
18 18 18
0 0 0
69 69 69
0 0 0
64 64 64
86 86 86
51 51 51
72 72 72
0 0 0
102 102 102
0 0 0
71 71 71
67 67 67
0 0 0
0 0 0
49 49 49
50 50 50
49 49 49
38 38 38
65 65 65
42 42 42
0 0 0
36 36 36
23 23 23
6 6 6
8 8 8
16 16 16
32 32 32
24 24 24
44 44 44
1 1 1
44 44 44
27 27 27
48 48 48
49 49 49
52 52 52
28 28 28
48 48 48
37 37 37
57 57 57
33 33 33
41 41 41
35 35 35
35 35 35
0 0 0
52 52 52
33 33 33
28 28 28
54 54 54
44 44 44
48 48 48
38 38 38
50 50 50
0 0 0
44 44 44
50 50 50
59 59 59
41 41 41
0 0 0
50 50 50
34 34 34
30 30 30
0 0 0
46 46 46
50 50 50
0 0 0
49 49 49
0 0 0
58 58 58
65 65 65
37 37 37
35 35 35
0 0 0
0 0 0
31 31 31
35 35 35
28 28 28
0 0 0
46 46 46
0 0 0
14 14 14
14 14 14
41 41 41
0 0 0
17 17 17
27 27 27
11 11 11
3 3 3
1 1 1
14 14 14
11 11 11
13 13 13
9 9 9
15 15 15
24 24 24
27 27 27
24 24 24
16 16 16
19 19 19
21 21 21
11 11 11
18 18 18
13 13 13
0 0 0
26 26 26
47 47 47
0 0 0
56 56 56
63 63 63
0 0 0
66 66 66
100 100 100
0 0 0
50 50 50
70 70 70
72 72 72
51 51 51
0 0 0
102 102 102
50 50 50
50 50 50
97 97 97
64 64 64
41 41 41
60 60 60
0 0 0
65 65 65
28 28 28
49 49 49
65 65 65
0 0 0
0 0 0
28 28 28
48 48 48
48 48 48
45 45 45
50 50 50
72 72 72
45 45 45
50 50 50
35 35 35
50 50 50
41 41 41
15 15 15
0 0 0
9 9 9
6 6 6
8 8 8
0 0 0
7 7 7
13 13 13
1 1 1
20 20 20
28 28 28
32 32 32
0 0 0
15 15 15
31 31 31
14 14 14
23 23 23
0 0 0
0 0 0
34 34 34
0 0 0
12 12 12
0 0 0
8 8 8
9 9 9
20 20 20
14 14 14
16 16 16
18 18 18
15 15 15
29 29 29
0 0 0
0 0 0
0 0 0
40 40 40
93 93 93
85 85 85
0 0 0
0 0 0
51 51 51
50 50 50
0 0 0
50 50 50
0 0 0
71 71 71
0 0 0
0 0 0
0 0 0
86 86 86
84 84 84
0 0 0
44 44 44
46 46 46
85 85 85
0 0 0
0 0 0
0 0 0
80 80 80
0 0 0
86 86 86
50 50 50
49 49 49
102 102 102
86 86 86
69 69 69
68 68 68
50 50 50
0 0 0
0 0 0
60 60 60
37 37 37
0 0 0
0 0 0
28 28 28
6 6 6
0 0 0
0 0 0
0 0 0
26 26 26
32 32 32
25 25 25
21 21 21
0 0 0
21 21 21
11 11 11
13 13 13
14 14 14
23 23 23
44 44 44
21 21 21
45 45 45
30 30 30
0 0 0
45 45 45
61 61 61
47 47 47
70 70 70
46 46 46
72 72 72
88 88 88
51 51 51
123 123 123
51 51 51
43 43 43
0 0 0
78 78 78
41 41 41
70 70 70
48 48 48
0 0 0
24 24 24
0 0 0
48 48 48
0 0 0
63 63 63
93 93 93
67 67 67
45 45 45
47 47 47
0 0 0
55 55 55
0 0 0
25 25 25
20 20 20
38 38 38
0 0 0
24 24 24
0 0 0
46 46 46
0 0 0
64 64 64
50 50 50
50 50 50
87 87 87
67 67 67
16 16 16
45 45 45
55 55 55
0 0 0
0 0 0
45 45 45
26 26 26
0 0 0
23 23 23
34 34 34
36 36 36
42 42 42
26 26 26
22 22 22
0 0 0
22 22 22
42 42 42
78 78 78
51 51 51
48 48 48
0 0 0
41 41 41
32 32 32
32 32 32
20 20 20
0 0 0
9 9 9
27 27 27
20 20 20
31 31 31
0 0 0
61 61 61
43 43 43
0 0 0
47 47 47
0 0 0
66 66 66
44 44 44
52 52 52
38 38 38
57 57 57
41 41 41
0 0 0
49 49 49
49 49 49
0 0 0
50 50 50
51 51 51
47 47 47
0 0 0
70 70 70
49 49 49
69 69 69
44 44 44
0 0 0
0 0 0
0 0 0
59 59 59
39 39 39
44 44 44
0 0 0
39 39 39
87 87 87
51 51 51
23 23 23
25 25 25
21 21 21
0 0 0
38 38 38
37 37 37
52 52 52
69 69 69
40 40 40
40 40 40
0 0 0
34 34 34
42 42 42
31 31 31
0 0 0
49 49 49
0 0 0
41 41 41
30 30 30
0 0 0
42 42 42
25 25 25
20 20 20
0 0 0
12 12 12
0 0 0
11 11 11
0 0 0
7 7 7
2 2 2
5 5 5
23 23 23
0 0 0
20 20 20
30 30 30
0 0 0
20 20 20
18 18 18
14 14 14
22 22 22
0 0 0
0 0 0
34 34 34
38 38 38
0 0 0
0 0 0
0 0 0
0 0 0
69 69 69
50 50 50
0 0 0
0 0 0
65 65 65
68 68 68
0 0 0
67 67 67
0 0 0
46 46 46
0 0 0
64 64 64
49 49 49
40 40 40
0 0 0
51 51 51
48 48 48
66 66 66
61 61 61
51 51 51
72 72 72
0 0 0
51 51 51
100 100 100
50 50 50
49 49 49
30 30 30
31 31 31
33 33 33
13 13 13
37 37 37
7 7 7
0 0 0
8 8 8
16 16 16
24 24 24
18 18 18
19 19 19
11 11 11
6 6 6
21 21 21
0 0 0
11 11 11
4 4 4
7 7 7
5 5 5
17 17 17
16 16 16
5 5 5
5 5 5
2 2 2
11 11 11
10 10 10
2 2 2
16 16 16
22 22 22
0 0 0
0 0 0
33 33 33
21 21 21
26 26 26
7 7 7
23 23 23
7 7 7
10 10 10
21 21 21
14 14 14
23 23 23
36 36 36
27 27 27
37 37 37
57 57 57
77 77 77
47 47 47
0 0 0
51 51 51
0 0 0
0 0 0
58 58 58
59 59 59
67 67 67
38 38 38
47 47 47
37 37 37
0 0 0
0 0 0
0 0 0
30 30 30
0 0 0
44 44 44
37 37 37
39 39 39
37 37 37
31 31 31
8 8 8
5 5 5
5 5 5
0 0 0
8 8 8
24 24 24
12 12 12
19 19 19
20 20 20
2 2 2
11 11 11
0 0 0
18 18 18
7 7 7
4 4 4
4 4 4
23 23 23
35 35 35
30 30 30
34 34 34
38 38 38
77 77 77
60 60 60
46 46 46
64 64 64
64 64 64
0 0 0
49 49 49
0 0 0
85 85 85
100 100 100
49 49 49
50 50 50
0 0 0
0 0 0
50 50 50
92 92 92
64 64 64
75 75 75
80 80 80
36 36 36
45 45 45
43 43 43
42 42 42
0 0 0
16 16 16
15 15 15
17 17 17
23 23 23
25 25 25
44 44 44
38 38 38
58 58 58
42 42 42
40 40 40
0 0 0
41 41 41
66 66 66
71 71 71
111 111 111
76 76 76
0 0 0
56 56 56
0 0 0
44 44 44
32 32 32
29 29 29
32 32 32
36 36 36
2 2 2
0 0 0
6 6 6
21 21 21
20 20 20
0 0 0
0 0 0
39 39 39
0 0 0
9 9 9
0 0 0
43 43 43
38 38 38
0 0 0
17 17 17
0 0 0
35 35 35
46 46 46
70 70 70
56 56 56
48 48 48
46 46 46
44 44 44
0 0 0
57 57 57
49 49 49
0 0 0
69 69 69
88 88 88
88 88 88
72 72 72
0 0 0
72 72 72
70 70 70
48 48 48
50 50 50
51 51 51
7 7 7
51 51 51
71 71 71
71 71 71
72 72 72
0 0 0
87 87 87
51 51 51
0 0 0
70 70 70
48 48 48
0 0 0
86 86 86
49 49 49
0 0 0
0 0 0
0 0 0
68 68 68
51 51 51
0 0 0
28 28 28
42 42 42
0 0 0
34 34 34
26 26 26
0 0 0
37 37 37
0 0 0
8 8 8
0 0 0
1 1 1
14 14 14
18 18 18
0 0 0
0 0 0
0 0 0
41 41 41
14 14 14
0 0 0
23 23 23
60 60 60
40 40 40
59 59 59
0 0 0
0 0 0
45 45 45
64 64 64
42 42 42
0 0 0
83 83 83
64 64 64
49 49 49
49 49 49
0 0 0
72 72 72
72 72 72
49 49 49
0 0 0
48 48 48
0 0 0
45 45 45
41 41 41
0 0 0
0 0 0
31 31 31
35 35 35
41 41 41
67 67 67
63 63 63
58 58 58
65 65 65
82 82 82
64 64 64
40 40 40
0 0 0
41 41 41
36 36 36
29 29 29
35 35 35
0 0 0
42 42 42
54 54 54
0 0 0
102 102 102
51 51 51
0 0 0
48 48 48
0 0 0
43 43 43
60 60 60
41 41 41
40 40 40
61 61 61
42 42 42
38 38 38
46 46 46
0 0 0
38 38 38
40 40 40
0 0 0
26 26 26
0 0 0
27 27 27
0 0 0
82 82 82
70 70 70
50 50 50
0 0 0
49 49 49
38 38 38
50 50 50
35 35 35
16 16 16
0 0 0
5 5 5
0 0 0
27 27 27
26 26 26
0 0 0
40 40 40
60 60 60
0 0 0
0 0 0
20 20 20
0 0 0
0 0 0
0 0 0
9 9 9
28 28 28
41 41 41
47 47 47
40 40 40
0 0 0
68 68 68
51 51 51
102 102 102
50 50 50
71 71 71
86 86 86
65 65 65
48 48 48
65 65 65
0 0 0
74 74 74
59 59 59
0 0 0
0 0 0
48 48 48
76 76 76
83 83 83
43 43 43
57 57 57
54 54 54
42 42 42
78 78 78
39 39 39
0 0 0
0 0 0
24 24 24
37 37 37
9 9 9
31 31 31
17 17 17
0 0 0
0 0 0
4 4 4
5 5 5
0 0 0
10 10 10
0 0 0
16 16 16
0 0 0
5 5 5
0 0 0
20 20 20
3 3 3
15 15 15
10 10 10
0 0 0
6 6 6
28 28 28
0 0 0
31 31 31
0 0 0
12 12 12
11 11 11
14 14 14
28 28 28
11 11 11
0 0 0
4 4 4
0 0 0
29 29 29
48 48 48
35 35 35
30 30 30
46 46 46
62 62 62
0 0 0
0 0 0
87 87 87
49 49 49
71 71 71
51 51 51
0 0 0
0 0 0
44 44 44
0 0 0
70 70 70
78 78 78
81 81 81
51 51 51
68 68 68
0 0 0
49 49 49
0 0 0
47 47 47
84 84 84
71 71 71
85 85 85
47 47 47
50 50 50
44 44 44
0 0 0
80 80 80
55 55 55
24 24 24
29 29 29
13 13 13
2 2 2
2 2 2
8 8 8
5 5 5
14 14 14
10 10 10
10 10 10
13 13 13
7 7 7
17 17 17
0 0 0
0 0 0
7 7 7
0 0 0
38 38 38
55 55 55
42 42 42
26 26 26
0 0 0
22 22 22
37 37 37
28 28 28
0 0 0
20 20 20
18 18 18
0 0 0
0 0 0
20 20 20
0 0 0
17 17 17
16 16 16
9 9 9
18 18 18
0 0 0
0 0 0
6 6 6
0 0 0
10 10 10
43 43 43
55 55 55
59 59 59
75 75 75
48 48 48
51 51 51
48 48 48
0 0 0
50 50 50
102 102 102
0 0 0
0 0 0
48 48 48
44 44 44
60 60 60
69 69 69
67 67 67
0 0 0
63 63 63
0 0 0
42 42 42
14 14 14
32 32 32
0 0 0
25 25 25
14 14 14
0 0 0
41 41 41
63 63 63
23 23 23
0 0 0
45 45 45
57 57 57
0 0 0
23 23 23
0 0 0
0 0 0
1 1 1
0 0 0
0 0 0
15 15 15
0 0 0
20 20 20
16 16 16
34 34 34
0 0 0
34 34 34
0 0 0
37 37 37
58 58 58
43 43 43
44 44 44
0 0 0
64 64 64
106 106 106
50 50 50
70 70 70
71 71 71
87 87 87
72 72 72
50 50 50
72 72 72
72 72 72
50 50 50
51 51 51
82 82 82
0 0 0
57 57 57
0 0 0
0 0 0
47 47 47
0 0 0
27 27 27
0 0 0
38 38 38
0 0 0
0 0 0
45 45 45
69 69 69
101 101 101
0 0 0
102 102 102
47 47 47
0 0 0
65 65 65
0 0 0
49 49 49
68 68 68
72 72 72
72 72 72
0 0 0
50 50 50
51 51 51
50 50 50
49 49 49
88 88 88
69 69 69
51 51 51
0 0 0
17 17 17
44 44 44
61 61 61
0 0 0
14 14 14
19 19 19
22 22 22
39 39 39
46 46 46
0 0 0
8 8 8
35 35 35
30 30 30
63 63 63
39 39 39
39 39 39
57 57 57
99 99 99
47 47 47
62 62 62
48 48 48
67 67 67
0 0 0
63 63 63
44 44 44
61 61 61
0 0 0
50 50 50
0 0 0
105 105 105
85 85 85
134 134 134
0 0 0
50 50 50
69 69 69
47 47 47
49 49 49
68 68 68
44 44 44
65 65 65
0 0 0
0 0 0
44 44 44
63 63 63
45 45 45
46 46 46
45 45 45
40 40 40
47 47 47
56 56 56
0 0 0
0 0 0
0 0 0
29 29 29
26 26 26
24 24 24
0 0 0
16 16 16
21 21 21
19 19 19
5 5 5
7 7 7
0 0 0
10 10 10
0 0 0
0 0 0
17 17 17
8 8 8
0 0 0
23 23 23
12 12 12
47 47 47
0 0 0
0 0 0
41 41 41
0 0 0
0 0 0
0 0 0
54 54 54
0 0 0
0 0 0
0 0 0
0 0 0
0 0 0
48 48 48
49 49 49
0 0 0
49 49 49
48 48 48
87 87 87
49 49 49
0 0 0
0 0 0
50 50 50
0 0 0
0 0 0
45 45 45
0 0 0
0 0 0
51 51 51
72 72 72
68 68 68
84 84 84
0 0 0
0 0 0
62 62 62
0 0 0
62 62 62
42 42 42
39 39 39
0 0 0
0 0 0
0 0 0
45 45 45
43 43 43
49 49 49
72 72 72
50 50 50
45 45 45
43 43 43
52 52 52
40 40 40
64 64 64
18 18 18
0 0 0
0 0 0
47 47 47
0 0 0
34 34 34
24 24 24
0 0 0
0 0 0
16 16 16
4 4 4
0 0 0
7 7 7
4 4 4
12 12 12
51 51 51
0 0 0
65 65 65
39 39 39
59 59 59
0 0 0
0 0 0
37 37 37
23 23 23
4 4 4
1 1 1
19 19 19
9 9 9
36 36 36
40 40 40
0 0 0
8 8 8
25 25 25
4 4 4
4 4 4
0 0 0
10 10 10
6 6 6
9 9 9
0 0 0
18 18 18
33 33 33
42 42 42
0 0 0
68 68 68
46 46 46
101 101 101
0 0 0
0 0 0
46 46 46
50 50 50
100 100 100
49 49 49
79 79 79
0 0 0
56 56 56
49 49 49
0 0 0
86 86 86
71 71 71
0 0 0
0 0 0
0 0 0
49 49 49
0 0 0
0 0 0
38 38 38
64 64 64
0 0 0
58 58 58
19 19 19
0 0 0
53 53 53
59 59 59
37 37 37
0 0 0
42 42 42
0 0 0
0 0 0
0 0 0
0 0 0
4 4 4
7 7 7
36 36 36
32 32 32
37 37 37
15 15 15
9 9 9
2 2 2
0 0 0
0 0 0
0 0 0
21 21 21
38 38 38
0 0 0
49 49 49
36 36 36
18 18 18
7 7 7
2 2 2
9 9 9
13 13 13
19 19 19
17 17 17
22 22 22
26 26 26
28 28 28
0 0 0
55 55 55
58 58 58
59 59 59
0 0 0
48 48 48
101 101 101
88 88 88
0 0 0
88 88 88
51 51 51
71 71 71
0 0 0
40 40 40
50 50 50
60 60 60
0 0 0
0 0 0
49 49 49
40 40 40
56 56 56
30 30 30
70 70 70
28 28 28
60 60 60
33 33 33
40 40 40
0 0 0
20 20 20
0 0 0
9 9 9
6 6 6
13 13 13
13 13 13
17 17 17
12 12 12
3 3 3
0 0 0
0 0 0
0 0 0
12 12 12
7 7 7
0 0 0
12 12 12
0 0 0
17 17 17
23 23 23
26 26 26
0 0 0
33 33 33
46 46 46
52 52 52
0 0 0
29 29 29
39 39 39
0 0 0
23 23 23
29 29 29
36 36 36
19 19 19
12 12 12
0 0 0
0 0 0
3 3 3
30 30 30
37 37 37
0 0 0
0 0 0
27 27 27
43 43 43
59 59 59
0 0 0
0 0 0
0 0 0
71 71 71
71 71 71
50 50 50
71 71 71
49 49 49
87 87 87
88 88 88
72 72 72
51 51 51
45 45 45
47 47 47
46 46 46
43 43 43
69 69 69
58 58 58
67 67 67
55 55 55
0 0 0
39 39 39
36 36 36
56 56 56
59 59 59
82 82 82
71 71 71
48 48 48
51 51 51
50 50 50
69 69 69
83 83 83
39 39 39
0 0 0
32 32 32
28 28 28
0 0 0
0 0 0
3 3 3
0 0 0
24 24 24
18 18 18
39 39 39
36 36 36
26 26 26
27 27 27
24 24 24
34 34 34
57 57 57
54 54 54
0 0 0
83 83 83
50 50 50
64 64 64
47 47 47
84 84 84
49 49 49
0 0 0
67 67 67
48 48 48
66 66 66
49 49 49
48 48 48
0 0 0
72 72 72
50 50 50
51 51 51
50 50 50
68 68 68
37 37 37
0 0 0
42 42 42
51 51 51
39 39 39
45 45 45
94 94 94
0 0 0
0 0 0
51 51 51
88 88 88
51 51 51
69 69 69
0 0 0
72 72 72
50 50 50
51 51 51
68 68 68
48 48 48
48 48 48
101 101 101
50 50 50
0 0 0
0 0 0
88 88 88
0 0 0
0 0 0
88 88 88
50 50 50
50 50 50
49 49 49
47 47 47
44 44 44
35 35 35
0 0 0
0 0 0
7 7 7
4 4 4
35 35 35
35 35 35
0 0 0
45 45 45
44 44 44
47 47 47
0 0 0
51 51 51
30 30 30
46 46 46
76 76 76
92 92 92
92 92 92
90 90 90
0 0 0
44 44 44
65 65 65
44 44 44
96 96 96
0 0 0
46 46 46
48 48 48
87 87 87
51 51 51
50 50 50
0 0 0
88 88 88
88 88 88
101 101 101
86 86 86
0 0 0
77 77 77
43 43 43
0 0 0
0 0 0
0 0 0
61 61 61
40 40 40
0 0 0
49 49 49
34 34 34
35 35 35
49 49 49
0 0 0
45 45 45
24 24 24
26 26 26
42 42 42
23 23 23
19 19 19
35 35 35
12 12 12
0 0 0
4 4 4
12 12 12
16 16 16
10 10 10
10 10 10
0 0 0
0 0 0
9 9 9
10 10 10
30 30 30
0 0 0
35 35 35
34 34 34
0 0 0
0 0 0
0 0 0
32 32 32
63 63 63
38 38 38
47 47 47
47 47 47
0 0 0
0 0 0
40 40 40
55 55 55
67 67 67
37 37 37
42 42 42
26 26 26
0 0 0
42 42 42
69 69 69
43 43 43
51 51 51
38 38 38
0 0 0
45 45 45
37 37 37
70 70 70
0 0 0
0 0 0
0 0 0
84 84 84
67 67 67
43 43 43
62 62 62
50 50 50
62 62 62
61 61 61
49 49 49
0 0 0
70 70 70
0 0 0
75 75 75
66 66 66
46 46 46
0 0 0
72 72 72
0 0 0
59 59 59
26 26 26
12 12 12
18 18 18
13 13 13
0 0 0
0 0 0
26 26 26
10 10 10
7 7 7
0 0 0
0 0 0
10 10 10
1 1 1
0 0 0
19 19 19
18 18 18
0 0 0
50 50 50
50 50 50
70 70 70
0 0 0
0 0 0
23 23 23
12 12 12
9 9 9
6 6 6
0 0 0
36 36 36
0 0 0
34 34 34
10 10 10
8 8 8
11 11 11
5 5 5
0 0 0
4 4 4
3 3 3
19 19 19
14 14 14
0 0 0
27 27 27
0 0 0
29 29 29
25 25 25
40 40 40
35 35 35
0 0 0
0 0 0
52 52 52
0 0 0
45 45 45
68 68 68
51 51 51
71 71 71
0 0 0
44 44 44
44 44 44
0 0 0
69 69 69
50 50 50
51 51 51
72 72 72
0 0 0
49 49 49
0 0 0
69 69 69
0 0 0
50 50 50
0 0 0
50 50 50
71 71 71
37 37 37
48 48 48
96 96 96
50 50 50
51 51 51
51 51 51
84 84 84
65 65 65
62 62 62
0 0 0
0 0 0
42 42 42
17 17 17
2 2 2
0 0 0
19 19 19
37 37 37
0 0 0
1 1 1
5 5 5
7 7 7
5 5 5
16 16 16
3 3 3
20 20 20
0 0 0
0 0 0
0 0 0
0 0 0
13 13 13
0 0 0
0 0 0
14 14 14
0 0 0
29 29 29
48 48 48
45 45 45
0 0 0
0 0 0
42 42 42
79 79 79
98 98 98
51 51 51
0 0 0
51 51 51
87 87 87
51 51 51
0 0 0
0 0 0
72 72 72
0 0 0
51 51 51
80 80 80
94 94 94
43 43 43
50 50 50
0 0 0
49 49 49
51 51 51
40 40 40
51 51 51
76 76 76
51 51 51
0 0 0
60 60 60
50 50 50
0 0 0
51 51 51
46 46 46
51 51 51
62 62 62
0 0 0
44 44 44
62 62 62
3 3 3
38 38 38
44 44 44
28 28 28
29 29 29
30 30 30
18 18 18
0 0 0
5 5 5
0 0 0
20 20 20
0 0 0
13 13 13
18 18 18
38 38 38
64 64 64
76 76 76
0 0 0
46 46 46
0 0 0
28 28 28
18 18 18
19 19 19
17 17 17
12 12 12
16 16 16
0 0 0
33 33 33
22 22 22
44 44 44
27 27 27
53 53 53
5 5 5
53 53 53
21 21 21
0 0 0
0 0 0
70 70 70
0 0 0
47 47 47
76 76 76
62 62 62
0 0 0
66 66 66
70 70 70
72 72 72
0 0 0
42 42 42
49 49 49
0 0 0
0 0 0
0 0 0
38 38 38
0 0 0
0 0 0
63 63 63
0 0 0
0 0 0
71 71 71
100 100 100
0 0 0
44 44 44
66 66 66
68 68 68
0 0 0
0 0 0
107 107 107
79 79 79
42 42 42
30 30 30
17 17 17
11 11 11
12 12 12
3 3 3
1 1 1
6 6 6
16 16 16
30 30 30
32 32 32
27 27 27
25 25 25
28 28 28
58 58 58
0 0 0
58 58 58
41 41 41
47 47 47
41 41 41
43 43 43
54 54 54
54 54 54
38 38 38
0 0 0
37 37 37
41 41 41
0 0 0
0 0 0
46 46 46
0 0 0
0 0 0
50 50 50
51 51 51
50 50 50
50 50 50
49 49 49
77 77 77
48 48 48
80 80 80
0 0 0
44 44 44
61 61 61
0 0 0
70 70 70
0 0 0
71 71 71
72 72 72
71 71 71
51 51 51
47 47 47
0 0 0
79 79 79
84 84 84
67 67 67
0 0 0
47 47 47
61 61 61
37 37 37
37 37 37
57 57 57
45 45 45
0 0 0
0 0 0
67 67 67
0 0 0
48 48 48
30 30 30
37 37 37
31 31 31
31 31 31
0 0 0
6 6 6
9 9 9
3 3 3
26 26 26
0 0 0
32 32 32
0 0 0
0 0 0
38 38 38
39 39 39
36 36 36
54 54 54
41 41 41
55 55 55
0 0 0
80 80 80
0 0 0
63 63 63
55 55 55
68 68 68
0 0 0
43 43 43
56 56 56
97 97 97
0 0 0
65 65 65
66 66 66
49 49 49
113 113 113
51 51 51
71 71 71
49 49 49
0 0 0
50 50 50
0 0 0
0 0 0
67 67 67
48 48 48
42 42 42
97 97 97
66 66 66
49 49 49
49 49 49
0 0 0
50 50 50
0 0 0
80 80 80
0 0 0
60 60 60
0 0 0
21 21 21
13 13 13
0 0 0
16 16 16
24 24 24
0 0 0
16 16 16
16 16 16
19 19 19
4 4 4
1 1 1
4 4 4
0 0 0
0 0 0
13 13 13
5 5 5
11 11 11
15 15 15
8 8 8
0 0 0
0 0 0
29 29 29
44 44 44
58 58 58
40 40 40
26 26 26
42 42 42
28 28 28
42 42 42
27 27 27
33 33 33
0 0 0
21 21 21
0 0 0
13 13 13
28 28 28
13 13 13
45 45 45
33 33 33
0 0 0
0 0 0
0 0 0
0 0 0
39 39 39
33 33 33
49 49 49
43 43 43
49 49 49
40 40 40
46 46 46
88 88 88
0 0 0
0 0 0
69 69 69
0 0 0
51 51 51
0 0 0
84 84 84
0 0 0
59 59 59
29 29 29
36 36 36
29 29 29
0 0 0
62 62 62
61 61 61
65 65 65
0 0 0
0 0 0
0 0 0
0 0 0
43 43 43
0 0 0
0 0 0
0 0 0
38 38 38
37 37 37
0 0 0
40 40 40
25 25 25
0 0 0
0 0 0
0 0 0
54 54 54
53 53 53
8 8 8
14 14 14
2 2 2
26 26 26
33 33 33
32 32 32
28 28 28
29 29 29
2 2 2
8 8 8
0 0 0
1 1 1
11 11 11
10 10 10
19 19 19
0 0 0
42 42 42
21 21 21
40 40 40
0 0 0
0 0 0
25 25 25
0 0 0
27 27 27
16 16 16
0 0 0
40 40 40
28 28 28
0 0 0
0 0 0
76 76 76
0 0 0
71 71 71
50 50 50
64 64 64
42 42 42
60 60 60
44 44 44
49 49 49
41 41 41
0 0 0
69 69 69
0 0 0
85 85 85
71 71 71
0 0 0
51 51 51
0 0 0
37 37 37
37 37 37
51 51 51
61 61 61
0 0 0
32 32 32
0 0 0
0 0 0
0 0 0
0 0 0
0 0 0
49 49 49
48 48 48
32 32 32
0 0 0
1 1 1
30 30 30
16 16 16
8 8 8
14 14 14
9 9 9
11 11 11
8 8 8
13 13 13
0 0 0
12 12 12
7 7 7
3 3 3
8 8 8
23 23 23
36 36 36
37 37 37
0 0 0
51 51 51
35 35 35
0 0 0
52 52 52
0 0 0
0 0 0
48 48 48
0 0 0
83 83 83
20 20 20
87 87 87
86 86 86
50 50 50
0 0 0
0 0 0
49 49 49
87 87 87
72 72 72
0 0 0
85 85 85
50 50 50
86 86 86
69 69 69
50 50 50
101 101 101
51 51 51
0 0 0
51 51 51
49 49 49
67 67 67
44 44 44
49 49 49
0 0 0
63 63 63
88 88 88
43 43 43
47 47 47
47 47 47
71 71 71
0 0 0
0 0 0
0 0 0
49 49 49
49 49 49
70 70 70
71 71 71
71 71 71
122 122 122
0 0 0
29 29 29
16 16 16
0 0 0
10 10 10
0 0 0
31 31 31
23 23 23
0 0 0
0 0 0
1 1 1
0 0 0
0 0 0
0 0 0
53 53 53
33 33 33
46 46 46
35 35 35
0 0 0
22 22 22
27 27 27
34 34 34
8 8 8
7 7 7
22 22 22
0 0 0
14 14 14
9 9 9
12 12 12
15 15 15
15 15 15
0 0 0
9 9 9
6 6 6
25 25 25
12 12 12
21 21 21
31 31 31
0 0 0
27 27 27
62 62 62
65 65 65
71 71 71
71 71 71
82 82 82
43 43 43
73 73 73
0 0 0
37 37 37
40 40 40
45 45 45
53 53 53
69 69 69
0 0 0
51 51 51
0 0 0
30 30 30
13 13 13
51 51 51
0 0 0
35 35 35
49 49 49
43 43 43
0 0 0
0 0 0
49 49 49
0 0 0
28 28 28
0 0 0
0 0 0
12 12 12
0 0 0
8 8 8
12 12 12
12 12 12
0 0 0
39 39 39
17 17 17
39 39 39
51 51 51
25 25 25
21 21 21
25 25 25
0 0 0
0 0 0
37 37 37
47 47 47
0 0 0
0 0 0
42 42 42
0 0 0
0 0 0
40 40 40
72 72 72
76 76 76
0 0 0
70 70 70
0 0 0
95 95 95
14 14 14
64 64 64
38 38 38
0 0 0
47 47 47
0 0 0
38 38 38
0 0 0
62 62 62
49 49 49
0 0 0
0 0 0
0 0 0
100 100 100
48 48 48
88 88 88
72 72 72
0 0 0
47 47 47
71 71 71
41 41 41
63 63 63
0 0 0
0 0 0
34 34 34
0 0 0
55 55 55
0 0 0
34 34 34
0 0 0
17 17 17
0 0 0
0 0 0
6 6 6
7 7 7
21 21 21
19 19 19
7 7 7
14 14 14
5 5 5
34 34 34
31 31 31
30 30 30
38 38 38
31 31 31
56 56 56
36 36 36
39 39 39
47 47 47
50 50 50
0 0 0
59 59 59
63 63 63
44 44 44
45 45 45
0 0 0
84 84 84
83 83 83
87 87 87
50 50 50
0 0 0
72 72 72
0 0 0
50 50 50
72 72 72
0 0 0
87 87 87
88 88 88
0 0 0
70 70 70
71 71 71
0 0 0
0 0 0
0 0 0
84 84 84
70 70 70
72 72 72
0 0 0
0 0 0
0 0 0
51 51 51
0 0 0
51 51 51
51 51 51
71 71 71
50 50 50
0 0 0
0 0 0
39 39 39
37 37 37
0 0 0
39 39 39
15 15 15
8 8 8
21 21 21
0 0 0
31 31 31
40 40 40
31 31 31
0 0 0
37 37 37
0 0 0
37 37 37
36 36 36
0 0 0
0 0 0
0 0 0
0 0 0
0 0 0
2 2 2
35 35 35
43 43 43
58 58 58
0 0 0
27 27 27
47 47 47
0 0 0
34 34 34
31 31 31
0 0 0
26 26 26
47 47 47
0 0 0
36 36 36
28 28 28
0 0 0
69 69 69
64 64 64
54 54 54
35 35 35
35 35 35
0 0 0
20 20 20
0 0 0
23 23 23
17 17 17
0 0 0
44 44 44
44 44 44
0 0 0
50 50 50
50 50 50
0 0 0
51 51 51
51 51 51
100 100 100
50 50 50
0 0 0
0 0 0
0 0 0
70 70 70
0 0 0
50 50 50
0 0 0
51 51 51
72 72 72
0 0 0
68 68 68
1 1 1
50 50 50
64 64 64
67 67 67
45 45 45
42 42 42
0 0 0
55 55 55
0 0 0
0 0 0
66 66 66
36 36 36
4 4 4
11 11 11
1 1 1
42 42 42
47 47 47
0 0 0
0 0 0
0 0 0
19 19 19
0 0 0
26 26 26
0 0 0
0 0 0
25 25 25
26 26 26
0 0 0
0 0 0
19 19 19
0 0 0
19 19 19
35 35 35
47 47 47
35 35 35
0 0 0
0 0 0
35 35 35
0 0 0
29 29 29
31 31 31
61 61 61
70 70 70
49 49 49
72 72 72
0 0 0
50 50 50
48 48 48
70 70 70
83 83 83
0 0 0
0 0 0
42 42 42
39 39 39
86 86 86
0 0 0
0 0 0
71 71 71
50 50 50
42 42 42
0 0 0
0 0 0
0 0 0
45 45 45
33 33 33
39 39 39
76 76 76
40 40 40
82 82 82
64 64 64
63 63 63
42 42 42
0 0 0
45 45 45
0 0 0
7 7 7
7 7 7
11 11 11
8 8 8
0 0 0
8 8 8
8 8 8
12 12 12
0 0 0
9 9 9
0 0 0
3 3 3
5 5 5
5 5 5
0 0 0
26 26 26
26 26 26
0 0 0
24 24 24
0 0 0
47 47 47
69 69 69
67 67 67
0 0 0
71 71 71
49 49 49
46 46 46
70 70 70
50 50 50
0 0 0
50 50 50
88 88 88
0 0 0
46 46 46
100 100 100
51 51 51
0 0 0
0 0 0
0 0 0
0 0 0
0 0 0
50 50 50
71 71 71
0 0 0
48 48 48
45 45 45
42 42 42
61 61 61
86 86 86
44 44 44
0 0 0
47 47 47
47 47 47
48 48 48
0 0 0
95 95 95
50 50 50
49 49 49
49 49 49
70 70 70
49 49 49
42 42 42
0 0 0
68 68 68
50 50 50
51 51 51
88 88 88
101 101 101
112 112 112
48 48 48
64 64 64
40 40 40
41 41 41
28 28 28
0 0 0
10 10 10
22 22 22
43 43 43
34 34 34
55 55 55
27 27 27
0 0 0
19 19 19
34 34 34
29 29 29
26 26 26
25 25 25
32 32 32
8 8 8
2 2 2
32 32 32
45 45 45
29 29 29
0 0 0
0 0 0
24 24 24
14 14 14
31 31 31
18 18 18
18 18 18
13 13 13
0 0 0
0 0 0
0 0 0
0 0 0
21 21 21
76 76 76
0 0 0
46 46 46
0 0 0
51 51 51
50 50 50
99 99 99
65 65 65
59 59 59
41 41 41
37 37 37
69 69 69
0 0 0
39 39 39
31 31 31
0 0 0
30 30 30
19 19 19
0 0 0
19 19 19
23 23 23
0 0 0
0 0 0
10 10 10
47 47 47
47 47 47
0 0 0
0 0 0
0 0 0
0 0 0
54 54 54
0 0 0
0 0 0
28 28 28
0 0 0
0 0 0
6 6 6
14 14 14
14 14 14
9 9 9
20 20 20
0 0 0
0 0 0
0 0 0
19 19 19
0 0 0
0 0 0
27 27 27
40 40 40
62 62 62
93 93 93
0 0 0
46 46 46
61 61 61
36 36 36
29 29 29
28 28 28
38 38 38
47 47 47
28 28 28
19 19 19
32 32 32
2 2 2
4 4 4
3 3 3
14 14 14
6 6 6
26 26 26
0 0 0
36 36 36
31 31 31
0 0 0
0 0 0
81 81 81
0 0 0
47 47 47
87 87 87
85 85 85
69 69 69
31 31 31
45 45 45
63 63 63
61 61 61
33 33 33
22 22 22
0 0 0
31 31 31
33 33 33
0 0 0
10 10 10
10 10 10
22 22 22
0 0 0
2 2 2
0 0 0
9 9 9
0 0 0
15 15 15
0 0 0
1 1 1
5 5 5
0 0 0
1 1 1
0 0 0
0 0 0
14 14 14
0 0 0
0 0 0
48 48 48
0 0 0
35 35 35
54 54 54
0 0 0
0 0 0
43 43 43
35 35 35
62 62 62
0 0 0
94 94 94
48 48 48
70 70 70
0 0 0
50 50 50
0 0 0
51 51 51
49 49 49
0 0 0
100 100 100
0 0 0
49 49 49
0 0 0
0 0 0
85 85 85
0 0 0
51 51 51
84 84 84
50 50 50
70 70 70
0 0 0
48 48 48
0 0 0
49 49 49
68 68 68
87 87 87
71 71 71
23 23 23
70 70 70
70 70 70
63 63 63
0 0 0
34 34 34
0 0 0
0 0 0
31 31 31
35 35 35
37 37 37
0 0 0
0 0 0
71 71 71
0 0 0
0 0 0
50 50 50
50 50 50
50 50 50
72 72 72
0 0 0
12 12 12
0 0 0
39 39 39
36 36 36
0 0 0
0 0 0
20 20 20
16 16 16
17 17 17
1 1 1
0 0 0
0 0 0
39 39 39
0 0 0
0 0 0
51 51 51
0 0 0
34 34 34
46 46 46
65 65 65
66 66 66
42 42 42
72 72 72
0 0 0
38 38 38
0 0 0
23 23 23
27 27 27
17 17 17
0 0 0
26 26 26
22 22 22
28 28 28
0 0 0
36 36 36
68 68 68
39 39 39
49 49 49
0 0 0
49 49 49
0 0 0
49 49 49
46 46 46
46 46 46
0 0 0
0 0 0
47 47 47
0 0 0
0 0 0
0 0 0
43 43 43
0 0 0
35 35 35
0 0 0
0 0 0
72 72 72
50 50 50
84 84 84
0 0 0
0 0 0
42 42 42
0 0 0
0 0 0
67 67 67
26 26 26
0 0 0
19 19 19
11 11 11
14 14 14
16 16 16
20 20 20
18 18 18
16 16 16
0 0 0
14 14 14
3 3 3
2 2 2
0 0 0
5 5 5
13 13 13
0 0 0
3 3 3
13 13 13
14 14 14
20 20 20
0 0 0
35 35 35
0 0 0
33 33 33
46 46 46
0 0 0
0 0 0
0 0 0
0 0 0
51 51 51
51 51 51
50 50 50
0 0 0
49 49 49
68 68 68
51 51 51
46 46 46
78 78 78
68 68 68
0 0 0
0 0 0
81 81 81
69 69 69
49 49 49
87 87 87
0 0 0
51 51 51
112 112 112
0 0 0
0 0 0
48 48 48
0 0 0
0 0 0
0 0 0
0 0 0
81 81 81
32 32 32
0 0 0
34 34 34
0 0 0
26 26 26
0 0 0
5 5 5
2 2 2
11 11 11
3 3 3
17 17 17
13 13 13
15 15 15
0 0 0
7 7 7
8 8 8
0 0 0
5 5 5
0 0 0
0 0 0
13 13 13
12 12 12
22 22 22
22 22 22
0 0 0
27 27 27
45 45 45
47 47 47
0 0 0
63 63 63
75 75 75
67 67 67
67 67 67
45 45 45
63 63 63
64 64 64
49 49 49
71 71 71
114 114 114
72 72 72
50 50 50
50 50 50
0 0 0
48 48 48
86 86 86
87 87 87
124 124 124
51 51 51
0 0 0
72 72 72
0 0 0
0 0 0
89 89 89
60 60 60
45 45 45
74 74 74
0 0 0
80 80 80
69 69 69
0 0 0
0 0 0
72 72 72
72 72 72
50 50 50
0 0 0
0 0 0
0 0 0
0 0 0
48 48 48
50 50 50
49 49 49
48 48 48
50 50 50
88 88 88
51 51 51
0 0 0
50 50 50
68 68 68
43 43 43
31 31 31
54 54 54
0 0 0
10 10 10
0 0 0
50 50 50
46 46 46
0 0 0
20 20 20
18 18 18
11 11 11
6 6 6
16 16 16
29 29 29
27 27 27
20 20 20
0 0 0
28 28 28
34 34 34
22 22 22
41 41 41
21 21 21
21 21 21
0 0 0
50 50 50
18 18 18
24 24 24
0 0 0
15 15 15
10 10 10
9 9 9
13 13 13
23 23 23
42 42 42
75 75 75
42 42 42
83 83 83
70 70 70
0 0 0
0 0 0
0 0 0
86 86 86
45 45 45
67 67 67
46 46 46
87 87 87
0 0 0
41 41 41
0 0 0
0 0 0
28 28 28
3 3 3
69 69 69
47 47 47
70 70 70
50 50 50
35 35 35
62 62 62
0 0 0
0 0 0
65 65 65
0 0 0
20 20 20
49 49 49
27 27 27
42 42 42
28 28 28
32 32 32
35 35 35
48 48 48
22 22 22
33 33 33
23 23 23
26 26 26
35 35 35
24 24 24
23 23 23
0 0 0
16 16 16
1 1 1
8 8 8
41 41 41
26 26 26
30 30 30
61 61 61
45 45 45
69 69 69
33 33 33
32 32 32
57 57 57
44 44 44
29 29 29
0 0 0
32 32 32
39 39 39
10 10 10
6 6 6
0 0 0
0 0 0
10 10 10
0 0 0
12 12 12
6 6 6
0 0 0
29 29 29
26 26 26
38 38 38
58 58 58
0 0 0
50 50 50
0 0 0
106 106 106
58 58 58
0 0 0
36 36 36
0 0 0
0 0 0
38 38 38
63 63 63
0 0 0
35 35 35
49 49 49
49 49 49
53 53 53
44 44 44
52 52 52
0 0 0
47 47 47
40 40 40
44 44 44
33 33 33
30 30 30
0 0 0
25 25 25
0 0 0
16 16 16
5 5 5
8 8 8
7 7 7
26 26 26
39 39 39
36 36 36
41 41 41
22 22 22
15 15 15
0 0 0
10 10 10
9 9 9
11 11 11
19 19 19
10 10 10
0 0 0
40 40 40
38 38 38
46 46 46
49 49 49
68 68 68
0 0 0
49 49 49
50 50 50
0 0 0
50 50 50
71 71 71
0 0 0
0 0 0
88 88 88
51 51 51
51 51 51
70 70 70
0 0 0
72 72 72
0 0 0
0 0 0
0 0 0
80 80 80
0 0 0
0 0 0
64 64 64
0 0 0
41 41 41
53 53 53
56 56 56
77 77 77
0 0 0
7 7 7
0 0 0
30 30 30
0 0 0
40 40 40
46 46 46
50 50 50
50 50 50
72 72 72
50 50 50
71 71 71
49 49 49
0 0 0
49 49 49
0 0 0
50 50 50
72 72 72
71 71 71
50 50 50
46 46 46
46 46 46
52 52 52
24 24 24
0 0 0
24 24 24
0 0 0
9 9 9
0 0 0
5 5 5
18 18 18
25 25 25
0 0 0
18 18 18
0 0 0
45 45 45
31 31 31
0 0 0
60 60 60
0 0 0
77 77 77
41 41 41
65 65 65
0 0 0
0 0 0
0 0 0
0 0 0
48 48 48
48 48 48
42 42 42
0 0 0
45 45 45
60 60 60
70 70 70
101 101 101
0 0 0
0 0 0
0 0 0
0 0 0
0 0 0
50 50 50
0 0 0
0 0 0
64 64 64
58 58 58
8 8 8
35 35 35
43 43 43
36 36 36
78 78 78
0 0 0
0 0 0
42 42 42
0 0 0
0 0 0
40 40 40
44 44 44
0 0 0
0 0 0
50 50 50
51 51 51
4 4 4
7 7 7
13 13 13
0 0 0
0 0 0
14 14 14
0 0 0
3 3 3
11 11 11
11 11 11
0 0 0
2 2 2
2 2 2
23 23 23
24 24 24
13 13 13
23 23 23
2 2 2
19 19 19
28 28 28
49 49 49
21 21 21
37 37 37
0 0 0
72 72 72
51 51 51
72 72 72
0 0 0
88 88 88
50 50 50
50 50 50
0 0 0
49 49 49
0 0 0
71 71 71
50 50 50
100 100 100
71 71 71
85 85 85
0 0 0
51 51 51
35 35 35
39 39 39
41 41 41
42 42 42
47 47 47
50 50 50
72 72 72
101 101 101
70 70 70
50 50 50
46 46 46
43 43 43
79 79 79
34 34 34
0 0 0
26 26 26
39 39 39
20 20 20
6 6 6
6 6 6
13 13 13
16 16 16
9 9 9
0 0 0
27 27 27
28 28 28
40 40 40
25 25 25
23 23 23
0 0 0
0 0 0
5 5 5
2 2 2
1 1 1
5 5 5
5 5 5
7 7 7
0 0 0
15 15 15
13 13 13
0 0 0
0 0 0
43 43 43
49 49 49
0 0 0
75 75 75
60 60 60
0 0 0
49 49 49
52 52 52
83 83 83
67 67 67
49 49 49
71 71 71
0 0 0
51 51 51
50 50 50
0 0 0
87 87 87
48 48 48
0 0 0
0 0 0
50 50 50
87 87 87
70 70 70
71 71 71
0 0 0
0 0 0
51 51 51
72 72 72
50 50 50
49 49 49
48 48 48
0 0 0
51 51 51
0 0 0
71 71 71
71 71 71
51 51 51
0 0 0
0 0 0
0 0 0
51 51 51
72 72 72
50 50 50
51 51 51
51 51 51
88 88 88
50 50 50
0 0 0
0 0 0
0 0 0
0 0 0
22 22 22
49 49 49
21 21 21
0 0 0
7 7 7
16 16 16
30 30 30
28 28 28
0 0 0
18 18 18
0 0 0
14 14 14
0 0 0
0 0 0
1 1 1
24 24 24
0 0 0
0 0 0
0 0 0
27 27 27
3 3 3
0 0 0
4 4 4
22 22 22
21 21 21
0 0 0
6 6 6
19 19 19
5 5 5
0 0 0
18 18 18
29 29 29
11 11 11
28 28 28
0 0 0
0 0 0
46 46 46
0 0 0
45 45 45
0 0 0
0 0 0
0 0 0
71 71 71
0 0 0
72 72 72
0 0 0
85 85 85
0 0 0
0 0 0
67 67 67
83 83 83
82 82 82
49 49 49
0 0 0
46 46 46
45 45 45
0 0 0
0 0 0
109 109 109
66 66 66
64 64 64
0 0 0
0 0 0
65 65 65
0 0 0
57 57 57
38 38 38
0 0 0
33 33 33
47 47 47
0 0 0
30 30 30
56 56 56
0 0 0
39 39 39
0 0 0
39 39 39
45 45 45
18 18 18
10 10 10
11 11 11
12 12 12
32 32 32
0 0 0
0 0 0
50 50 50
38 38 38
68 68 68
75 75 75
47 47 47
42 42 42
60 60 60
54 54 54
56 56 56
0 0 0
0 0 0
0 0 0
57 57 57
43 43 43
0 0 0
73 73 73
54 54 54
0 0 0
36 36 36
0 0 0
25 25 25
10 10 10
42 42 42
43 43 43
63 63 63
0 0 0
0 0 0
71 71 71
50 50 50
49 49 49
62 62 62
37 37 37
33 33 33
29 29 29
35 35 35
63 63 63
54 54 54
49 49 49
0 0 0
0 0 0
51 51 51
0 0 0
72 72 72
51 51 51
70 70 70
47 47 47
65 65 65
45 45 45
58 58 58
0 0 0
58 58 58
0 0 0
0 0 0
0 0 0
21 21 21
1 1 1
0 0 0
15 15 15
0 0 0
0 0 0
38 38 38
31 31 31
26 26 26
0 0 0
37 37 37
27 27 27
24 24 24
14 14 14
17 17 17
0 0 0
0 0 0
27 27 27
0 0 0
76 76 76
0 0 0
68 68 68
0 0 0
63 63 63
48 48 48
65 65 65
50 50 50
72 72 72
50 50 50
0 0 0
0 0 0
0 0 0
49 49 49
0 0 0
44 44 44
45 45 45
45 45 45
47 47 47
70 70 70
50 50 50
71 71 71
0 0 0
24 24 24
51 51 51
0 0 0
44 44 44
84 84 84
0 0 0
49 49 49
51 51 51
49 49 49
50 50 50
69 69 69
0 0 0
51 51 51
0 0 0
0 0 0
49 49 49
78 78 78
76 76 76
84 84 84
0 0 0
0 0 0
50 50 50
51 51 51
0 0 0
66 66 66
46 46 46
0 0 0
0 0 0
37 37 37
39 39 39
58 58 58
45 45 45
37 37 37
0 0 0
53 53 53
16 16 16
0 0 0
25 25 25
0 0 0
6 6 6
31 31 31
9 9 9
28 28 28
46 46 46
11 11 11
74 74 74
0 0 0
48 48 48
43 43 43
44 44 44
74 74 74
0 0 0
51 51 51
50 50 50
0 0 0
72 72 72
51 51 51
0 0 0
51 51 51
72 72 72
0 0 0
0 0 0
72 72 72
50 50 50
0 0 0
0 0 0
0 0 0
62 62 62
0 0 0
66 66 66
60 60 60
65 65 65
0 0 0
53 53 53
30 30 30
65 65 65
49 49 49
35 35 35
60 60 60
41 41 41
57 57 57
7 7 7
59 59 59
38 38 38
64 64 64
11 11 11
24 24 24
0 0 0
17 17 17
0 0 0
18 18 18
33 33 33
0 0 0
0 0 0
48 48 48
0 0 0
22 22 22
13 13 13
0 0 0
17 17 17
5 5 5
9 9 9
21 21 21
26 26 26
24 24 24
54 54 54
42 42 42
0 0 0
47 47 47
0 0 0
0 0 0
49 49 49
51 51 51
50 50 50
50 50 50
49 49 49
0 0 0
51 51 51
51 51 51
35 35 35
69 69 69
44 44 44
38 38 38
0 0 0
59 59 59
47 47 47
34 34 34
0 0 0
84 84 84
0 0 0
0 0 0
0 0 0
49 49 49
0 0 0
71 71 71
49 49 49
47 47 47
0 0 0
59 59 59
55 55 55
0 0 0
0 0 0
17 17 17
0 0 0
25 25 25
30 30 30
62 62 62
43 43 43
0 0 0
30 30 30
48 48 48
47 47 47
57 57 57
48 48 48
33 33 33
25 25 25
10 10 10
7 7 7
2 2 2
1 1 1
5 5 5
2 2 2
1 1 1
0 0 0
8 8 8
7 7 7
0 0 0
23 23 23
20 20 20
18 18 18
34 34 34
65 65 65
45 45 45
85 85 85
49 49 49
46 46 46
71 71 71
48 48 48
50 50 50
0 0 0
51 51 51
0 0 0
0 0 0
72 72 72
72 72 72
51 51 51
101 101 101
72 72 72
50 50 50
50 50 50
72 72 72
72 72 72
0 0 0
0 0 0
98 98 98
49 49 49
48 48 48
45 45 45
70 70 70
50 50 50
0 0 0
0 0 0
51 51 51
71 71 71
48 48 48
0 0 0
82 82 82
0 0 0
81 81 81
0 0 0
69 69 69
70 70 70
51 51 51
71 71 71
50 50 50
0 0 0
57 57 57
66 66 66
52 52 52
0 0 0
34 34 34
12 12 12
6 6 6
0 0 0
9 9 9
0 0 0
4 4 4
23 23 23
0 0 0
42 42 42
0 0 0
1 1 1
0 0 0
0 0 0
17 17 17
30 30 30
23 23 23
20 20 20
0 0 0
50 50 50
49 49 49
39 39 39
3 3 3
0 0 0
39 39 39
0 0 0
0 0 0
39 39 39
0 0 0
46 46 46
73 73 73
70 70 70
74 74 74
47 47 47
0 0 0
70 70 70
0 0 0
51 51 51
0 0 0
79 79 79
67 67 67
47 47 47
68 68 68
68 68 68
70 70 70
50 50 50
86 86 86
71 71 71
85 85 85
0 0 0
65 65 65
0 0 0
0 0 0
45 45 45
43 43 43
0 0 0
0 0 0
47 47 47
67 67 67
65 65 65
63 63 63
19 19 19
68 68 68
79 79 79
0 0 0
64 64 64
0 0 0
0 0 0
0 0 0
60 60 60
42 42 42
0 0 0
0 0 0
60 60 60
41 41 41
38 38 38
31 31 31
0 0 0
2 2 2
0 0 0
0 0 0
0 0 0
22 22 22
46 46 46
51 51 51
47 47 47
0 0 0
0 0 0
0 0 0
47 47 47
46 46 46
0 0 0
50 50 50
45 45 45
0 0 0
49 49 49
47 47 47
46 46 46
0 0 0
0 0 0
0 0 0
0 0 0
0 0 0
43 43 43
107 107 107
0 0 0
0 0 0
72 72 72
48 48 48
88 88 88
49 49 49
0 0 0
47 47 47
63 63 63
0 0 0
0 0 0
64 64 64
45 45 45
54 54 54
0 0 0
0 0 0
0 0 0
49 49 49
0 0 0
51 51 51
71 71 71
0 0 0
0 0 0
72 72 72
50 50 50
65 65 65
0 0 0
36 36 36
0 0 0
49 49 49
18 18 18
0 0 0
20 20 20
7 7 7
0 0 0
10 10 10
25 25 25
41 41 41
47 47 47
0 0 0
0 0 0
34 34 34
28 28 28
41 41 41
31 31 31
0 0 0
13 13 13
12 12 12
16 16 16
10 10 10
5 5 5
12 12 12
0 0 0
5 5 5
0 0 0
26 26 26
24 24 24
20 20 20
53 53 53
63 63 63
0 0 0
51 51 51
0 0 0
50 50 50
50 50 50
47 47 47
46 46 46
0 0 0
0 0 0
65 65 65
65 65 65
68 68 68
49 49 49
50 50 50
50 50 50
0 0 0
51 51 51
0 0 0
0 0 0
54 54 54
35 35 35
0 0 0
24 24 24
0 0 0
56 56 56
36 36 36
18 18 18
53 53 53
32 32 32
40 40 40
42 42 42
38 38 38
42 42 42
46 46 46
70 70 70
50 50 50
0 0 0
70 70 70
68 68 68
82 82 82
35 35 35
0 0 0
0 0 0
27 27 27
34 34 34
0 0 0
36 36 36
64 64 64
40 40 40
62 62 62
0 0 0
46 46 46
44 44 44
70 70 70
47 47 47
41 41 41
20 20 20
0 0 0
0 0 0
8 8 8
2 2 2
10 10 10
21 21 21
14 14 14
0 0 0
29 29 29
38 38 38
57 57 57
0 0 0
45 45 45
0 0 0
88 88 88
81 81 81
0 0 0
72 72 72
49 49 49
63 63 63
0 0 0
49 49 49
71 71 71
51 51 51
50 50 50
0 0 0
0 0 0
50 50 50
0 0 0
96 96 96
46 46 46
0 0 0
0 0 0
44 44 44
62 62 62
0 0 0
0 0 0
0 0 0
0 0 0
71 71 71
0 0 0
0 0 0
51 51 51
24 24 24
55 55 55
33 33 33
0 0 0
0 0 0
40 40 40
65 65 65
0 0 0
28 28 28
35 35 35
14 14 14
10 10 10
0 0 0
12 12 12
3 3 3
11 11 11
15 15 15
28 28 28
48 48 48
0 0 0
0 0 0
58 58 58
46 46 46
46 46 46
66 66 66
51 51 51
51 51 51
51 51 51
0 0 0
0 0 0
0 0 0
0 0 0
34 34 34
36 36 36
45 45 45
31 31 31
47 47 47
23 23 23
43 43 43
30 30 30
0 0 0
35 35 35
42 42 42
66 66 66
47 47 47
50 50 50
72 72 72
0 0 0
50 50 50
0 0 0
41 41 41
61 61 61
37 37 37
34 34 34
11 11 11
22 22 22
0 0 0
0 0 0
45 45 45
0 0 0
34 34 34
0 0 0
38 38 38
44 44 44
43 43 43
44 44 44
57 57 57
32 32 32
36 36 36
0 0 0
0 0 0
4 4 4
3 3 3
0 0 0
0 0 0
19 19 19
16 16 16
0 0 0
0 0 0
8 8 8
17 17 17
0 0 0
23 23 23
29 29 29
0 0 0
39 39 39
42 42 42
0 0 0
0 0 0
79 79 79
0 0 0
69 69 69
0 0 0
50 50 50
51 51 51
50 50 50
0 0 0
0 0 0
71 71 71
71 71 71
50 50 50
51 51 51
87 87 87
72 72 72
50 50 50
51 51 51
0 0 0
69 69 69
0 0 0
85 85 85
69 69 69
0 0 0
100 100 100
50 50 50
100 100 100
112 112 112
0 0 0
87 87 87
50 50 50
0 0 0
85 85 85
50 50 50
0 0 0
47 47 47
47 47 47
50 50 50
48 48 48
0 0 0
0 0 0
65 65 65
59 59 59
70 70 70
53 53 53
35 35 35
42 42 42
24 24 24
6 6 6
0 0 0
0 0 0
11 11 11
23 23 23
27 27 27
0 0 0
36 36 36
0 0 0
57 57 57
33 33 33
0 0 0
53 53 53
31 31 31
44 44 44
50 50 50
0 0 0
0 0 0
52 52 52
58 58 58
43 43 43
44 44 44
48 48 48
0 0 0
65 65 65
49 49 49
0 0 0
50 50 50
86 86 86
0 0 0
51 51 51
51 51 51
71 71 71
88 88 88
0 0 0
49 49 49
51 51 51
49 49 49
47 47 47
76 76 76
77 77 77
47 47 47
0 0 0
44 44 44
60 60 60
44 44 44
72 72 72
35 35 35
30 30 30
39 39 39
43 43 43
52 52 52
60 60 60
0 0 0
59 59 59
42 42 42
100 100 100
0 0 0
65 65 65
65 65 65
68 68 68
128 128 128
49 49 49
0 0 0
0 0 0
49 49 49
0 0 0
0 0 0
0 0 0
0 0 0
43 43 43
28 28 28
0 0 0
23 23 23
28 28 28
14 14 14
3 3 3
13 13 13
12 12 12
20 20 20
23 23 23
38 38 38
0 0 0
40 40 40
0 0 0
47 47 47
71 71 71
0 0 0
37 37 37
62 62 62
47 47 47
0 0 0
0 0 0
86 86 86
70 70 70
51 51 51
71 71 71
71 71 71
49 49 49
0 0 0
49 49 49
68 68 68
50 50 50
50 50 50
0 0 0
0 0 0
46 46 46
0 0 0
46 46 46
44 44 44
90 90 90
0 0 0
0 0 0
60 60 60
65 65 65
49 49 49
48 48 48
82 82 82
50 50 50
70 70 70
0 0 0
69 69 69
50 50 50
50 50 50
72 72 72
0 0 0
0 0 0
59 59 59
0 0 0
78 78 78
0 0 0
50 50 50
28 28 28
7 7 7
6 6 6
0 0 0
8 8 8
0 0 0
0 0 0
28 28 28
24 24 24
34 34 34
0 0 0
0 0 0
49 49 49
19 19 19
0 0 0
11 11 11
2 2 2
0 0 0
9 9 9
3 3 3
0 0 0
10 10 10
0 0 0
0 0 0
0 0 0
13 13 13
3 3 3
0 0 0
1 1 1
0 0 0
10 10 10
0 0 0
45 45 45
82 82 82
47 47 47
88 88 88
51 51 51
47 47 47
0 0 0
0 0 0
0 0 0
0 0 0
48 48 48
49 49 49
65 65 65
0 0 0
70 70 70
59 59 59
39 39 39
0 0 0
15 15 15
0 0 0
9 9 9
13 13 13
0 0 0
12 12 12
2 2 2
0 0 0
14 14 14
16 16 16
11 11 11
26 26 26
0 0 0
42 42 42
41 41 41
91 91 91
0 0 0
0 0 0
0 0 0
86 86 86
78 78 78
45 45 45
0 0 0
0 0 0
37 37 37
52 52 52
0 0 0
30 30 30
38 38 38
53 53 53
0 0 0
44 44 44
39 39 39
44 44 44
0 0 0
34 34 34
0 0 0
66 66 66
0 0 0
37 37 37
54 54 54
58 58 58
0 0 0
0 0 0
0 0 0
0 0 0
23 23 23
0 0 0
2 2 2
6 6 6
0 0 0
0 0 0
0 0 0
0 0 0
0 0 0
50 50 50
49 49 49
68 68 68
0 0 0
0 0 0
0 0 0
101 101 101
0 0 0
50 50 50
50 50 50
0 0 0
51 51 51
0 0 0
0 0 0
49 49 49
0 0 0
0 0 0
0 0 0
70 70 70
71 71 71
0 0 0
50 50 50
46 46 46
0 0 0
85 85 85
48 48 48
50 50 50
17 17 17
0 0 0
41 41 41
18 18 18
0 0 0
43 43 43
13 13 13
29 29 29
0 0 0
12 12 12
7 7 7
4 4 4
0 0 0
3 3 3
0 0 0
0 0 0
27 27 27
36 36 36
39 39 39
38 38 38
39 39 39
50 50 50
0 0 0
0 0 0
0 0 0
0 0 0
0 0 0
47 47 47
63 63 63
39 39 39
0 0 0
35 35 35
41 41 41
0 0 0
35 35 35
50 50 50
0 0 0
40 40 40
37 37 37
38 38 38
38 38 38
41 41 41
44 44 44
62 62 62
66 66 66
47 47 47
51 51 51
0 0 0
43 43 43
65 65 65
46 46 46
0 0 0
0 0 0
23 23 23
42 42 42
63 63 63
38 38 38
36 36 36
0 0 0
0 0 0
49 49 49
0 0 0
19 19 19
1 1 1
0 0 0
37 37 37
0 0 0
9 9 9
0 0 0
6 6 6
4 4 4
0 0 0
18 18 18
0 0 0
4 4 4
16 16 16
9 9 9
27 27 27
0 0 0
14 14 14
37 37 37
32 32 32
44 44 44
42 42 42
60 60 60
38 38 38
60 60 60
44 44 44
43 43 43
42 42 42
79 79 79
83 83 83
0 0 0
72 72 72
51 51 51
0 0 0
51 51 51
51 51 51
71 71 71
88 88 88
49 49 49
0 0 0
70 70 70
69 69 69
67 67 67
0 0 0
49 49 49
0 0 0
49 49 49
72 72 72
0 0 0
51 51 51
0 0 0
51 51 51
0 0 0
71 71 71
72 72 72
50 50 50
70 70 70
48 48 48
50 50 50
0 0 0
51 51 51
71 71 71
66 66 66
0 0 0
44 44 44
39 39 39
0 0 0
22 22 22
22 22 22
38 38 38
37 37 37
0 0 0
2 2 2
6 6 6
0 0 0
1 1 1
0 0 0
21 21 21
23 23 23
0 0 0
16 16 16
15 15 15
13 13 13
0 0 0
21 21 21
0 0 0
34 34 34
44 44 44
35 35 35
0 0 0
42 42 42
42 42 42
41 41 41
44 44 44
36 36 36
62 62 62
33 33 33
32 32 32
55 55 55
0 0 0
0 0 0
66 66 66
72 72 72
41 41 41
46 46 46
0 0 0
43 43 43
82 82 82
63 63 63
0 0 0
0 0 0
0 0 0
51 51 51
0 0 0
70 70 70
85 85 85
87 87 87
51 51 51
0 0 0
68 68 68
49 49 49
0 0 0
45 45 45
69 69 69
59 59 59
37 37 37
58 58 58
30 30 30
0 0 0
0 0 0
56 56 56
38 38 38
50 50 50
0 0 0
0 0 0
30 30 30
80 80 80
41 41 41
43 43 43
46 46 46
0 0 0
73 73 73
63 63 63
63 63 63
51 51 51
55 55 55
0 0 0
48 48 48
40 40 40
11 11 11
6 6 6
2 2 2
14 14 14
7 7 7
0 0 0
16 16 16
0 0 0
28 28 28
31 31 31
36 36 36
48 48 48
36 36 36
55 55 55
69 69 69
45 45 45
36 36 36
64 64 64
0 0 0
48 48 48
70 70 70
87 87 87
71 71 71
0 0 0
50 50 50
49 49 49
70 70 70
0 0 0
50 50 50
72 72 72
51 51 51
70 70 70
51 51 51
47 47 47
0 0 0
46 46 46
46 46 46
0 0 0
46 46 46
46 46 46
47 47 47
0 0 0
44 44 44
40 40 40
60 60 60
0 0 0
60 60 60
41 41 41
80 80 80
66 66 66
0 0 0
49 49 49
61 61 61
46 46 46
34 34 34
43 43 43
7 7 7
0 0 0
4 4 4
0 0 0
0 0 0
0 0 0
13 13 13
13 13 13
12 12 12
0 0 0
8 8 8
0 0 0
24 24 24
10 10 10
11 11 11
0 0 0
0 0 0
15 15 15
3 3 3
0 0 0
9 9 9
8 8 8
6 6 6
5 5 5
2 2 2
0 0 0
0 0 0
0 0 0
3 3 3
0 0 0
7 7 7
0 0 0
0 0 0
0 0 0
62 62 62
46 46 46
0 0 0
0 0 0
88 88 88
88 88 88
72 72 72
0 0 0
0 0 0
0 0 0
0 0 0
95 95 95
0 0 0
39 39 39
52 52 52
18 18 18
0 0 0
16 16 16
0 0 0
0 0 0
1 1 1
6 6 6
0 0 0
18 18 18
3 3 3
0 0 0
0 0 0
27 27 27
61 61 61
68 68 68
56 56 56
39 39 39
83 83 83
0 0 0
51 51 51
10 10 10
54 54 54
0 0 0
47 47 47
0 0 0
0 0 0
76 76 76
90 90 90
46 46 46
76 76 76
0 0 0
35 35 35
47 47 47
30 30 30
0 0 0
27 27 27
0 0 0
31 31 31
39 39 39
33 33 33
57 57 57
38 38 38
0 0 0
73 73 73
0 0 0
41 41 41
41 41 41
0 0 0
37 37 37
0 0 0
0 0 0
0 0 0
17 17 17
15 15 15
0 0 0
0 0 0
0 0 0
0 0 0
0 0 0
0 0 0
0 0 0
49 49 49
0 0 0
88 88 88
0 0 0
50 50 50
0 0 0
50 50 50
49 49 49
47 47 47
0 0 0
77 77 77
61 61 61
0 0 0
0 0 0
0 0 0
0 0 0
57 57 57
39 39 39
0 0 0
35 35 35
31 31 31
30 30 30
65 65 65
0 0 0
0 0 0
30 30 30
18 18 18
7 7 7
34 34 34
0 0 0
0 0 0
14 14 14
21 21 21
0 0 0
18 18 18
23 23 23
27 27 27
25 25 25
50 50 50
33 33 33
46 46 46
60 60 60
0 0 0
86 86 86
0 0 0
68 68 68
66 66 66
47 47 47
0 0 0
45 45 45
0 0 0
0 0 0
58 58 58
39 39 39
57 57 57
72 72 72
0 0 0
55 55 55
0 0 0
59 59 59
0 0 0
55 55 55
67 67 67
43 43 43
75 75 75
80 80 80
51 51 51
0 0 0
68 68 68
68 68 68
86 86 86
54 54 54
68 68 68
0 0 0
0 0 0
20 20 20
53 53 53
37 37 37
41 41 41
0 0 0
0 0 0
10 10 10
20 20 20
0 0 0
0 0 0
0 0 0
14 14 14
0 0 0
1 1 1
16 16 16
14 14 14
0 0 0
0 0 0
0 0 0
13 13 13
20 20 20
28 28 28
9 9 9
7 7 7
36 36 36
50 50 50
49 49 49
18 18 18
0 0 0
25 25 25
53 53 53
47 47 47
41 41 41
56 56 56
60 60 60
0 0 0
47 47 47
68 68 68
0 0 0
50 50 50
50 50 50
50 50 50
94 94 94
0 0 0
48 48 48
0 0 0
0 0 0
0 0 0
72 72 72
0 0 0
49 49 49
0 0 0
46 46 46
49 49 49
86 86 86
50 50 50
0 0 0
71 71 71
71 71 71
70 70 70
0 0 0
0 0 0
47 47 47
0 0 0
0 0 0
0 0 0
68 68 68
48 48 48
70 70 70
51 51 51
72 72 72
71 71 71
49 49 49
0 0 0
53 53 53
0 0 0
22 22 22
25 25 25
6 6 6
5 5 5
0 0 0
0 0 0
0 0 0
0 0 0
0 0 0
0 0 0
19 19 19
0 0 0
19 19 19
7 7 7
7 7 7
0 0 0
0 0 0
22 22 22
34 34 34
0 0 0
46 46 46
37 37 37
53 53 53
30 30 30
34 34 34
0 0 0
0 0 0
0 0 0
33 33 33
33 33 33
50 50 50
31 31 31
38 38 38
0 0 0
0 0 0
0 0 0
0 0 0
0 0 0
37 37 37
36 36 36
0 0 0
55 55 55
61 61 61
66 66 66
58 58 58
44 44 44
60 60 60
39 39 39
28 28 28
43 43 43
74 74 74
0 0 0
0 0 0
58 58 58
0 0 0
47 47 47
87 87 87
51 51 51
67 67 67
65 65 65
0 0 0
49 49 49
0 0 0
31 31 31
28 28 28
30 30 30
47 47 47
59 59 59
0 0 0
30 30 30
43 43 43
48 48 48
41 41 41
32 32 32
64 64 64
0 0 0
0 0 0
44 44 44
0 0 0
0 0 0
0 0 0
30 30 30
40 40 40
34 34 34
26 26 26
20 20 20
15 15 15
0 0 0
14 14 14
3 3 3
5 5 5
0 0 0
0 0 0
9 9 9
0 0 0
24 24 24
15 15 15
21 21 21
0 0 0
0 0 0
0 0 0
42 42 42
94 94 94
48 48 48
50 50 50
70 70 70
49 49 49
48 48 48
50 50 50
50 50 50
0 0 0
0 0 0
50 50 50
51 51 51
71 71 71
69 69 69
51 51 51
85 85 85
67 67 67
47 47 47
80 80 80
0 0 0
65 65 65
0 0 0
41 41 41
44 44 44
0 0 0
69 69 69
0 0 0
69 69 69
0 0 0
0 0 0
64 64 64
44 44 44
0 0 0
36 36 36
14 14 14
22 22 22
33 33 33
14 14 14
29 29 29
35 35 35
22 22 22
21 21 21
0 0 0
19 19 19
0 0 0
19 19 19
12 12 12
19 19 19
23 23 23
23 23 23
10 10 10
18 18 18
44 44 44
20 20 20
0 0 0
15 15 15
0 0 0
14 14 14
10 10 10
0 0 0
9 9 9
4 4 4
3 3 3
0 0 0
6 6 6
21 21 21
41 41 41
30 30 30
37 37 37
40 40 40
0 0 0
45 45 45
79 79 79
63 63 63
0 0 0
0 0 0
83 83 83
0 0 0
72 72 72
71 71 71
69 69 69
50 50 50
72 72 72
50 50 50
48 48 48
45 45 45
0 0 0
0 0 0
13 13 13
34 34 34
29 29 29
36 36 36
0 0 0
37 37 37
0 0 0
60 60 60
32 32 32
47 47 47
50 50 50
41 41 41
0 0 0
84 84 84
86 86 86
49 49 49
0 0 0
0 0 0
0 0 0
50 50 50
50 50 50
50 50 50
0 0 0
49 49 49
68 68 68
66 66 66
46 46 46
0 0 0
0 0 0
54 54 54
0 0 0
32 32 32
0 0 0
0 0 0
62 62 62
0 0 0
28 28 28
30 30 30
38 38 38
0 0 0
0 0 0
41 41 41
45 45 45
52 52 52
41 41 41
53 53 53
23 23 23
32 32 32
6 6 6
29 29 29
27 27 27
9 9 9
0 0 0
5 5 5
0 0 0
31 31 31
0 0 0
65 65 65
27 27 27
69 69 69
34 34 34
45 45 45
0 0 0
0 0 0
83 83 83
70 70 70
48 48 48
0 0 0
67 67 67
0 0 0
0 0 0
0 0 0
86 86 86
61 61 61
0 0 0
36 36 36
61 61 61
68 68 68
0 0 0
0 0 0
45 45 45
27 27 27
16 16 16
8 8 8
0 0 0
6 6 6
24 24 24
0 0 0
36 36 36
33 33 33
0 0 0
41 41 41
0 0 0
26 26 26
33 33 33
46 46 46
41 41 41
46 46 46
82 82 82
44 44 44
45 45 45
48 48 48
0 0 0
0 0 0
69 69 69
0 0 0
42 42 42
0 0 0
37 37 37
0 0 0
0 0 0
74 74 74
0 0 0
0 0 0
46 46 46
63 63 63
0 0 0
0 0 0
0 0 0
0 0 0
46 46 46
74 74 74
0 0 0
68 68 68
0 0 0
0 0 0
0 0 0
0 0 0
52 52 52
57 57 57
0 0 0
0 0 0
0 0 0
0 0 0
16 16 16
6 6 6
0 0 0
0 0 0
29 29 29
23 23 23
30 30 30
14 14 14
0 0 0
29 29 29
0 0 0
19 19 19
8 8 8
8 8 8
0 0 0
11 11 11
9 9 9
17 17 17
0 0 0
13 13 13
14 14 14
0 0 0
14 14 14
0 0 0
35 35 35
28 28 28
6 6 6
4 4 4
9 9 9
0 0 0
37 37 37
0 0 0
48 48 48
51 51 51
39 39 39
0 0 0
46 46 46
0 0 0
0 0 0
81 81 81
0 0 0
0 0 0
47 47 47
44 44 44
45 45 45
65 65 65
0 0 0
87 87 87
51 51 51
49 49 49
0 0 0
0 0 0
51 51 51
47 47 47
48 48 48
47 47 47
0 0 0
47 47 47
79 79 79
80 80 80
79 79 79
75 75 75
41 41 41
73 73 73
45 45 45
0 0 0
48 48 48
49 49 49
0 0 0
0 0 0
0 0 0
70 70 70
48 48 48
71 71 71
35 35 35
42 42 42
34 34 34
21 21 21
0 0 0
7 7 7
1 1 1
18 18 18
17 17 17
17 17 17
0 0 0
0 0 0
34 34 34
0 0 0
19 19 19
0 0 0
0 0 0
11 11 11
7 7 7
4 4 4
0 0 0
0 0 0
32 32 32
63 63 63
0 0 0
0 0 0
35 35 35
51 51 51
35 35 35
40 40 40
0 0 0
0 0 0
47 47 47
67 67 67
64 64 64
44 44 44
0 0 0
34 34 34
33 33 33
39 39 39
0 0 0
0 0 0
25 25 25
24 24 24
44 44 44
39 39 39
20 20 20
17 17 17
24 24 24
33 33 33
0 0 0
34 34 34
64 64 64
0 0 0
29 29 29
27 27 27
0 0 0
0 0 0
0 0 0
0 0 0
51 51 51
48 48 48
68 68 68
48 48 48
37 37 37
42 42 42
29 29 29
0 0 0
27 27 27
0 0 0
6 6 6
41 41 41
40 40 40
53 53 53
0 0 0
40 40 40
78 78 78
65 65 65
70 70 70
0 0 0
71 71 71
0 0 0
0 0 0
49 49 49
33 33 33
40 40 40
23 23 23
0 0 0
0 0 0
18 18 18
20 20 20
18 18 18
0 0 0
13 13 13
13 13 13
21 21 21
0 0 0
23 23 23
5 5 5
0 0 0
33 33 33
0 0 0
47 47 47
42 42 42
0 0 0
68 68 68
49 49 49
0 0 0
85 85 85
0 0 0
0 0 0
50 50 50
0 0 0
0 0 0
88 88 88
0 0 0
71 71 71
72 72 72
0 0 0
49 49 49
72 72 72
69 69 69
0 0 0
48 48 48
95 95 95
69 69 69
51 51 51
0 0 0
0 0 0
0 0 0
50 50 50
86 86 86
0 0 0
42 42 42
45 45 45
30 30 30
25 25 25
0 0 0
23 23 23
28 28 28
42 42 42
0 0 0
0 0 0
39 39 39
38 38 38
0 0 0
41 41 41
54 54 54
48 48 48
53 53 53
21 21 21
0 0 0
23 23 23
21 21 21
24 24 24
0 0 0
39 39 39
58 58 58
51 51 51
41 41 41
44 44 44
24 24 24
21 21 21
0 0 0
0 0 0
0 0 0
30 30 30
20 20 20
0 0 0
35 35 35
16 16 16
0 0 0
40 40 40
47 47 47
63 63 63
0 0 0
63 63 63
45 45 45
83 83 83
47 47 47
71 71 71
50 50 50
48 48 48
50 50 50
0 0 0
75 75 75
36 36 36
64 64 64
25 25 25
0 0 0
0 0 0
0 0 0
66 66 66
0 0 0
38 38 38
0 0 0
63 63 63
69 69 69
51 51 51
0 0 0
51 51 51
0 0 0
50 50 50
0 0 0
49 49 49
0 0 0
0 0 0
63 63 63
44 44 44
42 42 42
0 0 0
0 0 0
0 0 0
0 0 0
0 0 0
50 50 50
50 50 50
0 0 0
45 45 45
66 66 66
0 0 0
30 30 30
0 0 0
18 18 18
15 15 15
21 21 21
0 0 0
0 0 0
23 23 23
51 51 51
46 46 46
48 48 48
0 0 0
38 38 38
49 49 49
35 35 35
8 8 8
0 0 0
0 0 0
9 9 9
10 10 10
0 0 0
1 1 1
33 33 33
27 27 27
51 51 51
0 0 0
31 31 31
25 25 25
0 0 0
71 71 71
46 46 46
0 0 0
0 0 0
0 0 0
41 41 41
0 0 0
41 41 41
0 0 0
63 63 63
47 47 47
0 0 0
0 0 0
88 88 88
0 0 0
54 54 54
85 85 85
49 49 49
0 0 0
87 87 87
51 51 51
0 0 0
0 0 0
51 51 51
